P3
256 256
255
255 255 255 255 255 255 255 255 255 255 255 255 255 255 255 255 255 255 255 255 255 255 255 255 255 255 255 255 255 255 255 255 255 255 255 255 255 255 255 255 255 255 255 255 255 255 255 255 255 255 255 255 255 255 255 255 255 255 255 255 255 255 255 255 255 255 255 255 255 255 255 255 255 255 255 255 255 255 255 255 255 255 255 255 255 255 255 255 255 255 255 255 255 255 255 255 255 255 255 255 255 255 255 255 255 255 255 255 255 255 255 255 255 255 255 255 255 255 255 255 255 255 255 255 255 255 255 255 255 255 255 255 255 255 255 255 255 255 255 255 255 255 255 255 255 255 255 255 255 255 255 255 255 255 255 255 255 255 255 255 255 255 255 255 255 255 255 255 255 255 255 255 255 255 255 255 255 255 255 255 255 255 255 255 255 255 255 255 255 255 255 255 255 255 255 255 255 255 255 255 255 255 255 255 255 255 255 255 255 255 255 255 255 255 255 255 255 255 255 255 255 255 255 255 255 255 255 255 255 255 255 255 255 255 255 255 255 255 255 255 255 255 255 255 255 255 255 255 255 255 255 255 255 255 255 255 255 255 255 255 255 255 255 255 255 255 255 255 255 255 255 255 255 255 255 255 255 255 255 255 255 255 255 255 255 255 255 255 255 255 255 255 255 255 255 255 255 255 255 255 255 255 255 255 255 255 255 255 255 255 255 255 255 255 255 255 255 255 254 254 254 254 254 254 255 255 255 255 255 255 255 255 255 255 255 255 255 255 255 255 255 255 254 254 254 254 254 254 254 254 254 252 252 252 249 249 249 245 245 245 240 240 240 236 236 236 233 233 233 230 230 230 228 228 228 226 226 226 225 225 225 225 225 225 225 225 225 226 226 226 227 227 227 229 229 229 232 232 232 236 236 236 239 239 239 243 243 243 248 248 248 252 252 252 253 253 253 254 254 254 255 255 255 255 255 255 254 254 254 254 254 254 254 254 254 254 254 254 254 254 254 254 254 254 254 254 254 254 254 254 254 254 254 254 254 254 254 254 254 254 254 254 255 255 255 255 255 255 255 255 255 255 255 255 254 254 254 254 254 254 255 255 255 255 255 255 255 255 255 255 255 255 255 255 255 255 255 255 255 255 255 255 255 255 255 255 255 255 255 255 255 255 255 255 255 255 255 255 255 255 255 255 255 255 255 255 255 255 255 255 255 255 255 255 255 255 255 255 255 255 255 255 255 255 255 255 255 255 255 255 255 255 255 255 255 255 255 255 255 255 255 255 255 255 255 255 255 255 255 255 255 255 255 255 255 255 255 255 255 255 255 255 255 255 255 255 255 255 255 255 255 255 255 255 255 255 255 255 255 255 255 255 255 255 255 255 255 255 255 255 255 255 255 255 255 255 255 255 255 255 255 255 255 255 255 255 255 255 255 255 255 255 255 255 255 255 255 255 255 255 255 255 255 255 255 255 255 255 255 255 255 255 255 255 255 255 255 255 255 255 255 255 255 255 255 255 255 255 255 255 255 255 255 255 255 255 255 255 255 255 255 255 255 255 255 255 255 255 255 255 255 255 255 255 255 255 255 255 255 255 255 255 255 255 255 255 255 255 255 255 255 255 255 255 255 255 255 255 255 255 255 255 255 255 255 255 255 255 255 255 255 255 255 255 255 255 255 255 255 255 255 255 255 255 255 255 255 255 255 255 255 255 255 255 255 255 255 255 255 255 255 255 255 255 255 255 255 255 
255 255 255 255 255 255 255 255 255 255 255 255 255 255 255 255 255 255 255 255 255 255 255 255 255 255 255 255 255 255 255 255 255 255 255 255 255 255 255 255 255 255 255 255 255 255 255 255 255 255 255 255 255 255 255 255 255 255 255 255 255 255 255 255 255 255 255 255 255 255 255 255 255 255 255 255 255 255 255 255 255 255 255 255 255 255 255 255 255 255 255 255 255 255 255 255 255 255 255 255 255 255 255 255 255 255 255 255 255 255 255 255 255 255 255 255 255 255 255 255 255 255 255 255 255 255 255 255 255 255 255 255 255 255 255 255 255 255 255 255 255 255 255 255 255 255 255 255 255 255 255 255 255 255 255 255 255 255 255 255 255 255 255 255 255 255 255 255 255 255 255 255 255 255 255 255 255 255 255 255 255 255 255 255 255 255 255 255 255 255 255 255 255 255 255 255 255 255 255 255 255 255 255 255 255 255 255 255 255 255 255 255 255 255 255 255 255 255 255 255 255 255 255 255 255 255 255 255 255 255 255 255 255 255 255 255 255 255 255 255 255 255 255 255 255 255 255 255 255 255 255 255 255 255 255 255 255 255 255 255 255 255 255 255 255 255 255 255 255 255 255 255 255 255 255 255 255 255 255 255 255 255 255 255 255 255 255 255 255 255 255 255 255 255 255 255 255 255 255 255 255 255 255 255 255 255 255 255 255 255 255 255 255 255 255 254 254 254 254 254 254 254 254 254 255 255 255 254 254 254 251 251 251 247 247 247 241 241 241 234 234 234 224 224 224 216 216 216 209 209 209 199 199 199 187 187 187 177 177 177 169 169 169 162 162 162 156 156 156 151 151 151 148 148 148 145 145 145 144 144 144 143 143 143 144 144 144 145 145 145 148 148 148 151 151 151 155 155 155 161 161 161 168 168 168 176 176 176 187 187 187 197 197 197 207 207 207 216 216 216 224 224 224 232 232 232 240 240 240 247 247 247 250 250 250 253 253 253 254 254 254 254 254 254 254 254 254 254 254 254 254 254 254 254 254 254 254 254 254 255 255 255 255 255 255 255 255 255 255 255 255 255 255 255 255 255 255 255 255 255 255 255 255 255 255 255 255 255 255 255 255 255 255 255 255 255 255 255 255 255 255 255 255 255 255 255 255 255 255 255 255 255 255 255 255 255 255 255 255 255 255 255 255 255 255 255 255 255 255 255 255 255 255 255 255 255 255 255 255 255 255 255 255 255 255 255 255 255 255 255 255 255 255 255 255 255 255 255 255 255 255 255 255 255 255 255 255 255 255 255 255 255 255 255 255 255 255 255 255 255 255 255 255 255 255 255 255 255 255 255 255 255 255 255 255 255 255 255 255 255 255 255 255 255 255 255 255 255 255 255 255 255 255 255 255 255 255 255 255 255 255 255 255 255 255 255 255 255 255 255 255 255 255 255 255 255 255 255 255 255 255 255 255 255 255 255 255 255 255 255 255 255 255 255 255 255 255 255 255 255 255 255 255 255 255 255 255 255 255 255 255 255 255 255 255 255 255 255 255 255 255 255 255 255 255 255 255 255 255 255 255 255 255 255 255 255 255 255 255 255 255 255 255 255 255 255 255 255 255 255 255 255 255 255 255 255 255 255 255 255 255 255 255 255 255 255 255 255 255 255 255 255 255 255 255 255 255 255 255 255 255 255 255 255 255 255 255 255 255 255 255 255 255 255 255 255 255 255 255 255 255 255 255 255 255 255 255 255 
255 255 255 255 255 255 255 255 255 255 255 255 255 255 255 255 255 255 255 255 255 255 255 255 255 255 255 255 255 255 255 255 255 255 255 255 255 255 255 255 255 255 255 255 255 255 255 255 255 255 255 255 255 255 255 255 255 255 255 255 255 255 255 255 255 255 255 255 255 255 255 255 255 255 255 255 255 255 255 255 255 255 255 255 255 255 255 255 255 255 255 255 255 255 255 255 255 255 255 255 255 255 255 255 255 255 255 255 255 255 255 255 255 255 255 255 255 255 255 255 255 255 255 255 255 255 255 255 255 255 255 255 255 255 255 255 255 255 255 255 255 255 255 255 255 255 255 255 255 255 255 255 255 255 255 255 255 255 255 255 255 255 255 255 255 255 255 255 255 255 255 255 255 255 255 255 255 255 255 255 255 255 255 255 255 255 255 255 255 255 255 255 255 255 255 255 255 255 255 255 255 255 255 255 255 255 255 255 255 255 255 255 255 255 255 255 255 255 255 255 255 255 255 255 255 255 255 255 255 255 255 255 255 255 255 255 255 255 255 255 255 255 255 255 255 255 255 255 255 255 255 255 255 255 255 255 255 255 255 255 255 255 255 255 255 255 255 255 255 255 255 255 255 255 255 255 255 255 255 255 255 255 255 255 255 255 255 255 254 254 254 254 254 254 254 254 254 254 254 254 254 254 254 254 254 254 254 254 254 254 254 254 254 254 254 254 254 254 254 254 254 254 254 254 255 255 255 252 252 252 247 247 247 239 239 239 228 228 228 213 213 213 195 195 195 178 178 178 163 163 163 145 145 145 125 125 125 109 109 109 98 98 98 88 88 88 79 79 79 72 72 72 68 68 68 64 64 64 62 62 62 61 61 61 62 62 62 64 64 64 68 68 68 73 73 73 79 79 79 86 86 86 96 96 96 109 109 109 125 125 125 142 142 142 160 160 160 178 178 178 193 193 193 210 210 210 227 227 227 239 239 239 247 247 247 252 252 252 254 254 254 255 255 255 255 255 255 255 255 255 254 254 254 254 254 254 255 255 255 255 255 255 255 255 255 255 255 255 255 255 255 255 255 255 255 255 255 255 255 255 255 255 255 255 255 255 255 255 255 255 255 255 255 255 255 255 255 255 255 255 255 255 255 255 255 255 255 255 255 255 255 255 255 255 255 255 255 255 255 255 255 255 255 255 255 255 255 255 255 255 255 255 255 255 255 255 255 255 255 255 255 255 255 255 255 255 255 255 255 255 255 255 255 255 255 255 255 255 255 255 255 255 255 255 255 255 255 255 255 255 255 255 255 255 255 255 255 255 255 255 255 255 255 255 255 255 255 255 255 255 255 255 255 255 255 255 255 255 255 255 255 255 255 255 255 255 255 255 255 255 255 255 255 255 255 255 255 255 255 255 255 255 255 255 255 255 255 255 255 255 255 255 255 255 255 255 255 255 255 255 255 255 255 255 255 255 255 255 255 255 255 255 255 255 255 255 255 255 255 255 255 255 255 255 255 255 255 255 255 255 255 255 255 255 255 255 255 255 255 255 255 255 255 255 255 255 255 255 255 255 255 255 255 255 255 255 255 255 255 255 255 255 255 255 255 255 255 255 255 255 255 255 255 255 255 255 255 255 255 255 255 255 255 255 255 255 255 255 255 255 255 255 255 255 255 255 255 255 255 255 255 255 255 255 255 255 255 255 255 255 255 255 255 255 255 255 255 255 255 255 255 255 255 255 255 255 255 255 
255 255 255 255 255 255 255 255 255 255 255 255 255 255 255 255 255 255 255 255 255 255 255 255 255 255 255 255 255 255 255 255 255 255 255 255 255 255 255 255 255 255 255 255 255 255 255 255 255 255 255 255 255 255 255 255 255 255 255 255 255 255 255 255 255 255 255 255 255 255 255 255 255 255 255 255 255 255 255 255 255 255 255 255 255 255 255 255 255 255 255 255 255 255 255 255 255 255 255 255 255 255 255 255 255 255 255 255 255 255 255 255 255 255 255 255 255 255 255 255 255 255 255 255 255 255 255 255 255 255 255 255 255 255 255 255 255 255 255 255 255 255 255 255 255 255 255 255 255 255 255 255 255 255 255 255 255 255 255 255 255 255 255 255 255 255 255 255 255 255 255 255 255 255 255 255 255 255 255 255 255 255 255 255 255 255 255 255 255 255 255 255 255 255 255 255 255 255 255 255 255 255 255 255 255 255 255 255 255 255 255 255 255 255 255 255 255 255 255 255 255 255 255 255 255 255 255 255 255 255 255 255 255 255 255 255 255 255 255 255 255 255 255 255 255 255 255 255 255 255 255 255 255 255 255 255 255 255 255 255 255 255 255 255 255 255 255 255 255 255 255 255 255 255 255 255 255 255 255 255 255 255 255 255 255 255 255 255 255 255 255 254 254 254 254 254 254 254 254 254 254 254 254 254 254 254 254 254 254 250 250 250 245 245 245 235 235 235 222 222 222 208 208 208 192 192 192 176 176 176 159 159 159 149 149 149 144 144 144 142 142 142 140 140 140 142 142 142 146 146 146 147 147 147 146 146 146 146 146 146 146 146 146 147 147 147 148 148 148 149 149 149 151 151 151 153 153 153 154 154 154 155 155 155 155 155 155 155 155 155 154 154 154 154 154 154 153 153 153 152 152 152 152 152 152 152 152 152 153 153 153 155 155 155 156 156 156 155 155 155 151 151 151 151 151 151 154 154 154 159 159 159 165 165 165 176 176 176 192 192 192 208 208 208 224 224 224 237 237 237 246 246 246 252 252 252 253 253 253 255 255 255 255 255 255 255 255 255 255 255 255 255 255 255 255 255 255 255 255 255 255 255 255 255 255 255 255 255 255 255 255 255 255 255 255 255 255 255 255 255 255 255 255 255 255 255 255 255 255 255 255 255 255 255 255 255 255 255 255 255 255 255 255 255 255 255 255 255 255 255 255 255 255 255 255 255 255 255 255 255 255 255 255 255 255 255 255 255 255 255 255 255 255 255 255 255 255 255 255 255 255 255 255 255 255 255 255 255 255 255 255 255 255 255 255 255 255 255 255 255 255 255 255 255 255 255 255 255 255 255 255 255 255 255 255 255 255 255 255 255 255 255 255 255 255 255 255 255 255 255 255 255 255 255 255 255 255 255 255 255 255 255 255 255 255 255 255 255 255 255 255 255 255 255 255 255 255 255 255 255 255 255 255 255 255 255 255 255 255 255 255 255 255 255 255 255 255 255 255 255 255 255 255 255 255 255 255 255 255 255 255 255 255 255 255 255 255 255 255 255 255 255 255 255 255 255 255 255 255 255 255 255 255 255 255 255 255 255 255 255 255 255 255 255 255 255 255 255 255 255 255 255 255 255 255 255 255 255 255 255 255 255 255 255 255 255 255 255 255 255 255 255 255 255 255 255 255 255 255 255 255 255 255 255 255 255 255 255 255 255 255 255 255 255 255 255 255 255 255 255 255 255 255 255 255 255 255 255 
255 255 255 255 255 255 255 255 255 255 255 255 255 255 255 255 255 255 255 255 255 255 255 255 255 255 255 255 255 255 255 255 255 255 255 255 255 255 255 255 255 255 255 255 255 255 255 255 255 255 255 255 255 255 255 255 255 255 255 255 255 255 255 255 255 255 255 255 255 255 255 255 255 255 255 255 255 255 255 255 255 255 255 255 255 255 255 255 255 255 255 255 255 255 255 255 255 255 255 255 255 255 255 255 255 255 255 255 255 255 255 255 255 255 255 255 255 255 255 255 255 255 255 255 255 255 255 255 255 255 255 255 255 255 255 255 255 255 255 255 255 255 255 255 255 255 255 255 255 255 255 255 255 255 255 255 255 255 255 255 255 255 255 255 255 255 255 255 255 255 255 255 255 255 255 255 255 255 255 255 255 255 255 255 255 255 255 255 255 255 255 255 255 255 255 255 255 255 255 255 255 255 255 255 255 255 255 255 255 255 255 255 255 255 255 255 255 255 255 255 255 255 255 255 255 255 255 255 255 255 255 255 255 255 255 255 255 255 255 255 255 255 255 255 255 255 255 255 255 255 255 255 255 255 255 255 255 255 255 255 255 255 255 255 255 255 255 255 255 255 255 255 255 255 255 255 255 255 255 255 255 255 255 255 255 255 255 255 255 255 255 255 255 255 255 255 255 255 255 255 255 255 255 254 254 254 253 253 253 247 247 247 236 236 236 217 217 217 191 191 191 161 161 161 129 129 129 99 99 99 70 70 70 59 59 59 60 60 60 70 70 70 85 85 85 105 105 105 129 129 129 150 150 150 167 167 167 183 183 183 196 196 196 208 208 208 219 219 219 228 228 228 236 236 236 242 242 242 247 247 247 250 250 250 250 250 250 247 247 247 242 242 242 236 236 236 228 228 228 219 219 219 208 208 208 196 196 196 183 183 183 168 168 168 151 151 151 132 132 132 109 109 109 91 91 91 81 81 81 77 77 77 82 82 82 99 99 99 129 129 129 161 161 161 193 193 193 219 219 219 237 237 237 249 249 249 252 252 252 254 254 254 254 254 254 254 254 254 255 255 255 255 255 255 255 255 255 255 255 255 255 255 255 255 255 255 255 255 255 255 255 255 255 255 255 255 255 255 255 255 255 255 255 255 255 255 255 255 255 255 255 255 255 255 255 255 255 255 255 255 255 255 255 255 255 255 255 255 255 255 255 255 255 255 255 255 255 255 255 255 255 255 255 255 255 255 255 255 255 255 255 255 255 255 255 255 255 255 255 255 255 255 255 255 255 255 255 255 255 255 255 255 255 255 255 255 255 255 255 255 255 255 255 255 255 255 255 255 255 255 255 255 255 255 255 255 255 255 255 255 255 255 255 255 255 255 255 255 255 255 255 255 255 255 255 255 255 255 255 255 255 255 255 255 255 255 255 255 255 255 255 255 255 255 255 255 255 255 255 255 255 255 255 255 255 255 255 255 255 255 255 255 255 255 255 255 255 255 255 255 255 255 255 255 255 255 255 255 255 255 255 255 255 255 255 255 255 255 255 255 255 255 255 255 255 255 255 255 255 255 255 255 255 255 255 255 255 255 255 255 255 255 255 255 255 255 255 255 255 255 255 255 255 255 255 255 255 255 255 255 255 255 255 255 255 255 255 255 255 255 255 255 255 255 255 255 255 255 255 255 255 255 255 255 255 255 255 255 255 255 255 255 255 255 255 255 255 255 255 255 255 255 255 255 255 255 255 255 
255 255 255 255 255 255 255 255 255 255 255 255 255 255 255 255 255 255 255 255 255 255 255 255 255 255 255 255 255 255 255 255 255 255 255 255 255 255 255 255 255 255 255 255 255 255 255 255 255 255 255 255 255 255 255 255 255 255 255 255 255 255 255 255 255 255 255 255 255 255 255 255 255 255 255 255 255 255 255 255 255 255 255 255 255 255 255 255 255 255 255 255 255 255 255 255 255 255 255 255 255 255 255 255 255 255 255 255 255 255 255 255 255 255 255 255 255 255 255 255 255 255 255 255 255 255 255 255 255 255 255 255 255 255 255 255 255 255 255 255 255 255 255 255 255 255 255 255 255 255 255 255 255 255 255 255 255 255 255 255 255 255 255 255 255 255 255 255 255 255 255 255 255 255 255 255 255 255 255 255 255 255 255 255 255 255 255 255 255 255 255 255 255 255 255 255 255 255 255 255 255 255 255 255 255 255 255 255 255 255 255 255 255 255 255 255 255 255 255 255 255 255 255 255 255 255 255 255 255 255 255 255 255 255 255 255 255 255 255 255 255 255 255 255 255 255 255 255 255 255 255 255 255 255 255 255 255 255 255 255 255 255 255 255 255 255 255 255 255 255 255 255 255 255 255 255 255 255 255 255 255 255 255 255 255 255 255 255 255 255 255 254 254 254 252 252 252 243 243 243 229 229 229 210 210 210 189 189 189 167 167 167 146 146 146 134 134 134 128 128 128 127 127 127 130 130 130 132 132 132 132 132 132 138 138 138 148 148 148 157 157 157 165 165 165 175 175 175 188 188 188 198 198 198 208 208 208 215 215 215 222 222 222 228 228 228 234 234 234 239 239 239 243 243 243 246 246 246 249 249 249 250 250 250 250 250 250 249 249 249 246 246 246 243 243 243 239 239 239 234 234 234 228 228 228 222 222 222 215 215 215 208 208 208 199 199 199 189 189 189 177 177 177 168 168 168 163 163 163 157 157 157 150 150 150 147 147 147 148 148 148 148 148 148 147 147 147 149 149 149 157 157 157 169 169 169 189 189 189 209 209 209 228 228 228 242 242 242 249 249 249 254 254 254 254 254 254 255 255 255 255 255 255 255 255 255 255 255 255 255 255 255 255 255 255 255 255 255 255 255 255 255 255 255 255 255 255 255 255 255 255 255 255 255 255 255 255 255 255 255 255 255 255 255 255 255 255 255 255 255 255 255 255 255 255 255 255 255 255 255 255 255 255 255 255 255 255 255 255 255 255 255 255 255 255 255 255 255 255 255 255 255 255 255 255 255 255 255 255 255 255 255 255 255 255 255 255 255 255 255 255 255 255 255 255 255 255 255 255 255 255 255 255 255 255 255 255 255 255 255 255 255 255 255 255 255 255 255 255 255 255 255 255 255 255 255 255 255 255 255 255 255 255 255 255 255 255 255 255 255 255 255 255 255 255 255 255 255 255 255 255 255 255 255 255 255 255 255 255 255 255 255 255 255 255 255 255 255 255 255 255 255 255 255 255 255 255 255 255 255 255 255 255 255 255 255 255 255 255 255 255 255 255 255 255 255 255 255 255 255 255 255 255 255 255 255 255 255 255 255 255 255 255 255 255 255 255 255 255 255 255 255 255 255 255 255 255 255 255 255 255 255 255 255 255 255 255 255 255 255 255 255 255 255 255 255 255 255 255 255 255 255 255 255 255 255 255 255 255 255 255 255 255 255 255 255 255 255 255 255 255 255 255 255 255 255 255 255 
255 255 255 255 255 255 255 255 255 255 255 255 255 255 255 255 255 255 255 255 255 255 255 255 255 255 255 255 255 255 255 255 255 255 255 255 255 255 255 255 255 255 255 255 255 255 255 255 255 255 255 255 255 255 255 255 255 255 255 255 255 255 255 255 255 255 255 255 255 255 255 255 255 255 255 255 255 255 255 255 255 255 255 255 255 255 255 255 255 255 255 255 255 255 255 255 255 255 255 255 255 255 255 255 255 255 255 255 255 255 255 255 255 255 255 255 255 255 255 255 255 255 255 255 255 255 255 255 255 255 255 255 255 255 255 255 255 255 255 255 255 255 255 255 255 255 255 255 255 255 255 255 255 255 255 255 255 255 255 255 255 255 255 255 255 255 255 255 255 255 255 255 255 255 255 255 255 255 255 255 255 255 255 255 255 255 255 255 255 255 255 255 255 255 255 255 255 255 255 255 255 255 255 255 255 255 255 255 255 255 255 255 255 255 255 255 255 255 255 255 255 255 255 255 255 255 255 255 255 255 255 255 255 255 255 255 255 255 255 255 255 255 255 255 255 255 255 255 255 255 255 255 255 255 255 255 255 255 255 255 255 255 255 255 255 255 255 255 255 255 255 255 255 255 255 255 255 255 255 255 255 255 255 255 255 255 255 255 255 255 255 253 253 253 249 249 249 230 230 230 203 203 203 166 166 166 123 123 123 87 87 87 55 55 55 51 51 51 64 64 64 93 93 93 133 133 133 167 167 167 196 196 196 220 220 220 239 239 239 247 247 247 247 247 247 247 247 247 248 248 248 248 248 248 248 248 248 248 248 248 248 248 248 249 249 249 249 249 249 249 249 249 249 249 249 249 249 249 249 249 249 249 249 249 249 249 249 249 249 249 249 249 249 249 249 249 249 249 249 249 249 249 249 249 249 248 248 248 248 248 248 248 248 248 248 248 248 248 248 248 247 247 247 247 247 247 247 247 247 239 239 239 221 221 221 197 197 197 167 167 167 135 135 135 101 101 101 79 79 79 75 75 75 88 88 88 125 125 125 163 163 163 201 201 201 230 230 230 244 244 244 252 252 252 253 253 253 254 254 254 255 255 255 255 255 255 255 255 255 255 255 255 255 255 255 255 255 255 255 255 255 255 255 255 255 255 255 255 255 255 255 255 255 255 255 255 255 255 255 255 255 255 255 255 255 255 255 255 255 255 255 255 255 255 255 255 255 255 255 255 255 255 255 255 255 255 255 255 255 255 255 255 255 255 255 255 255 255 255 255 255 255 255 255 255 255 255 255 255 255 255 255 255 255 255 255 255 255 255 255 255 255 255 255 255 255 255 255 255 255 255 255 255 255 255 255 255 255 255 255 255 255 255 255 255 255 255 255 255 255 255 255 255 255 255 255 255 255 255 255 255 255 255 255 255 255 255 255 255 255 255 255 255 255 255 255 255 255 255 255 255 255 255 255 255 255 255 255 255 255 255 255 255 255 255 255 255 255 255 255 255 255 255 255 255 255 255 255 255 255 255 255 255 255 255 255 255 255 255 255 255 255 255 255 255 255 255 255 255 255 255 255 255 255 255 255 255 255 255 255 255 255 255 255 255 255 255 255 255 255 255 255 255 255 255 255 255 255 255 255 255 255 255 255 255 255 255 255 255 255 255 255 255 255 255 255 255 255 255 255 255 255 255 255 255 255 255 255 255 255 255 255 255 255 255 255 255 255 255 255 255 255 255 255 255 255 255 255 
255 255 255 255 255 255 255 255 255 255 255 255 255 255 255 255 255 255 255 255 255 255 255 255 255 255 255 255 255 255 255 255 255 255 255 255 255 255 255 255 255 255 255 255 255 255 255 255 255 255 255 255 255 255 255 255 255 255 255 255 255 255 255 255 255 255 255 255 255 255 255 255 255 255 255 255 255 255 255 255 255 255 255 255 255 255 255 255 255 255 255 255 255 255 255 255 255 255 255 255 255 255 255 255 255 255 255 255 255 255 255 255 255 255 255 255 255 255 255 255 255 255 255 255 255 255 255 255 255 255 255 255 255 255 255 255 255 255 255 255 255 255 255 255 255 255 255 255 255 255 255 255 255 255 255 255 255 255 255 255 255 255 255 255 255 255 255 255 255 255 255 255 255 255 255 255 255 255 255 255 255 255 255 255 255 255 255 255 255 255 255 255 255 255 255 255 255 255 255 255 255 255 255 255 255 255 255 255 255 255 255 255 255 255 255 255 255 255 255 255 255 255 255 255 255 255 255 255 255 255 255 255 255 255 255 255 255 255 255 255 255 255 255 255 255 255 255 255 255 255 255 255 255 255 255 255 255 255 255 255 255 255 255 255 255 255 255 255 255 255 255 255 255 255 255 255 255 255 255 253 253 253 249 249 249 236 236 236 218 218 218 195 195 195 169 169 169 146 146 146 125 125 125 115 115 115 114 114 114 116 116 116 121 121 121 133 133 133 148 148 148 167 167 167 188 188 188 206 206 206 221 221 221 234 234 234 243 243 243 248 248 248 248 248 248 248 248 248 248 248 248 248 248 248 248 248 248 248 248 248 248 248 248 248 248 248 248 248 248 248 248 248 248 248 248 248 248 248 248 248 248 248 248 248 248 248 248 248 248 248 248 248 248 248 248 248 248 248 248 248 248 248 248 248 248 248 248 248 248 248 248 248 248 248 248 248 248 248 248 248 248 248 248 248 248 248 248 248 248 243 243 243 234 234 234 222 222 222 206 206 206 189 189 189 171 171 171 156 156 156 145 145 145 138 138 138 136 136 136 137 137 137 140 140 140 150 150 150 170 170 170 191 191 191 216 216 216 235 235 235 246 246 246 253 253 253 254 254 254 255 255 255 255 255 255 255 255 255 255 255 255 255 255 255 255 255 255 255 255 255 255 255 255 255 255 255 255 255 255 255 255 255 255 255 255 255 255 255 255 255 255 255 255 255 255 255 255 255 255 255 255 255 255 255 255 255 255 255 255 255 255 255 255 255 255 255 255 255 255 255 255 255 255 255 255 255 255 255 255 255 255 255 255 255 255 255 255 255 255 255 255 255 255 255 255 255 255 255 255 255 255 255 255 255 255 255 255 255 255 255 255 255 255 255 255 255 255 255 255 255 255 255 255 255 255 255 255 255 255 255 255 255 255 255 255 255 255 255 255 255 255 255 255 255 255 255 255 255 255 255 255 255 255 255 255 255 255 255 255 255 255 255 255 255 255 255 255 255 255 255 255 255 255 255 255 255 255 255 255 255 255 255 255 255 255 255 255 255 255 255 255 255 255 255 255 255 255 255 255 255 255 255 255 255 255 255 255 255 255 255 255 255 255 255 255 255 255 255 255 255 255 255 255 255 255 255 255 255 255 255 255 255 255 255 255 255 255 255 255 255 255 255 255 255 255 255 255 255 255 255 255 255 255 255 255 255 255 255 255 255 255 255 255 255 255 255 255 255 255 255 255 255 255 255 255 255 255 255 
255 255 255 255 255 255 255 255 255 255 255 255 255 255 255 255 255 255 255 255 255 255 255 255 255 255 255 255 255 255 255 255 255 255 255 255 255 255 255 255 255 255 255 255 255 255 255 255 255 255 255 255 255 255 255 255 255 255 255 255 255 255 255 255 255 255 255 255 255 255 255 255 255 255 255 255 255 255 255 255 255 255 255 255 255 255 255 255 255 255 255 255 255 255 255 255 255 255 255 255 255 255 255 255 255 255 255 255 255 255 255 255 255 255 255 255 255 255 255 255 255 255 255 255 255 255 255 255 255 255 255 255 255 255 255 255 255 255 255 255 255 255 255 255 255 255 255 255 255 255 255 255 255 255 255 255 255 255 255 255 255 255 255 255 255 255 255 255 255 255 255 255 255 255 255 255 255 255 255 255 255 255 255 255 255 255 255 255 255 255 255 255 255 255 255 255 255 255 255 255 255 255 255 255 255 255 255 255 255 255 255 255 255 255 255 255 255 255 255 255 255 255 255 255 255 255 255 255 255 255 255 255 255 255 255 255 255 255 255 255 255 255 255 255 255 255 254 254 254 254 254 254 254 254 254 254 254 254 254 254 254 254 254 254 255 255 255 255 255 255 254 254 254 254 254 254 255 255 255 250 250 250 243 243 243 217 217 217 181 181 181 137 137 137 87 87 87 59 59 59 46 46 46 65 65 65 105 105 105 148 148 148 191 191 191 219 219 219 236 236 236 244 244 244 244 244 244 245 245 245 245 245 245 246 246 246 246 246 246 246 246 246 246 246 246 246 246 246 246 246 246 246 246 246 246 246 246 246 246 246 246 246 246 246 246 246 246 246 246 246 246 246 246 246 246 246 246 246 246 246 246 246 246 246 246 246 246 246 246 246 246 246 246 246 246 246 246 246 246 246 246 246 246 246 246 246 246 246 246 246 246 246 246 246 246 246 246 246 246 246 246 246 246 246 246 246 246 246 246 246 246 246 246 246 246 245 245 245 245 245 245 244 244 244 244 244 244 236 236 236 219 219 219 192 192 192 150 150 150 111 111 111 78 78 78 69 69 69 94 94 94 129 129 129 178 178 178 216 216 216 237 237 237 252 252 252 254 254 254 255 255 255 255 255 255 255 255 255 255 255 255 255 255 255 254 254 254 254 254 254 255 255 255 255 255 255 255 255 255 255 255 255 254 254 254 254 254 254 255 255 255 255 255 255 255 255 255 255 255 255 255 255 255 255 255 255 255 255 255 255 255 255 255 255 255 255 255 255 255 255 255 255 255 255 255 255 255 255 255 255 255 255 255 255 255 255 255 255 255 255 255 255 255 255 255 255 255 255 255 255 255 255 255 255 255 255 255 255 255 255 255 255 255 255 255 255 255 255 255 255 255 255 255 255 255 255 255 255 255 255 255 255 255 255 255 255 255 255 255 255 255 255 255 255 255 255 255 255 255 255 255 255 255 255 255 255 255 255 255 255 255 255 255 255 255 255 255 255 255 255 255 255 255 255 255 255 255 255 255 255 255 255 255 255 255 255 255 255 255 255 255 255 255 255 255 255 255 255 255 255 255 255 255 255 255 255 255 255 255 255 255 255 255 255 255 255 255 255 255 255 255 255 255 255 255 255 255 255 255 255 255 255 255 255 255 255 255 255 255 255 255 255 255 255 255 255 255 255 255 255 255 255 255 255 255 255 255 255 255 255 255 255 255 255 255 255 255 255 255 255 255 255 255 255 255 255 255 255 
255 255 255 255 255 255 255 255 255 255 255 255 255 255 255 255 255 255 255 255 255 255 255 255 255 255 255 255 255 255 255 255 255 255 255 255 255 255 255 255 255 255 255 255 255 255 255 255 255 255 255 255 255 255 255 255 255 255 255 255 255 255 255 255 255 255 255 255 255 255 255 255 255 255 255 255 255 255 255 255 255 255 255 255 255 255 255 255 255 255 255 255 255 255 255 255 255 255 255 255 255 255 255 255 255 255 255 255 255 255 255 255 255 255 255 255 255 255 255 255 255 255 255 255 255 255 255 255 255 255 255 255 255 255 255 255 255 255 255 255 255 255 255 255 255 255 255 255 255 255 255 255 255 255 255 255 255 255 255 255 255 255 255 255 255 255 255 255 255 255 255 255 255 255 255 255 255 255 255 255 255 255 255 255 255 255 255 255 255 255 255 255 255 255 255 255 255 255 255 255 255 255 255 255 255 255 255 255 255 255 255 255 255 255 255 255 255 255 255 255 255 255 255 255 255 255 255 255 255 255 255 255 255 255 255 255 255 255 255 255 255 255 255 254 254 254 254 254 254 254 254 254 254 254 254 254 254 254 254 254 254 255 255 255 255 255 255 254 254 254 252 252 252 240 240 240 223 223 223 197 197 197 165 165 165 137 137 137 112 112 112 101 101 101 100 100 100 108 108 108 123 123 123 144 144 144 170 170 170 193 193 193 216 216 216 231 231 231 240 240 240 244 244 244 244 244 244 244 244 244 244 244 244 244 244 244 244 244 244 244 244 244 244 244 244 244 244 244 244 244 244 244 244 244 244 244 244 244 244 244 244 244 244 244 244 244 244 244 244 244 244 244 244 244 244 244 244 244 244 244 244 244 244 244 244 244 244 244 244 244 244 244 244 244 244 244 244 244 244 244 244 244 244 244 244 244 244 244 244 244 244 244 244 244 244 244 244 244 244 244 244 244 244 244 244 244 244 244 244 244 244 244 244 244 244 244 244 244 244 244 244 244 244 244 244 244 244 240 240 240 231 231 231 216 216 216 194 194 194 172 172 172 151 151 151 135 135 135 127 127 127 123 123 123 127 127 127 140 140 140 167 167 167 195 195 195 222 222 222 242 242 242 250 250 250 255 255 255 255 255 255 255 255 255 254 254 254 254 254 254 255 255 255 255 255 255 255 255 255 254 254 254 254 254 254 254 254 254 255 255 255 255 255 255 255 255 255 255 255 255 255 255 255 255 255 255 255 255 255 255 255 255 255 255 255 255 255 255 255 255 255 255 255 255 255 255 255 255 255 255 255 255 255 255 255 255 255 255 255 255 255 255 255 255 255 255 255 255 255 255 255 255 255 255 255 255 255 255 255 255 255 255 255 255 255 255 255 255 255 255 255 255 255 255 255 255 255 255 255 255 255 255 255 255 255 255 255 255 255 255 255 255 255 255 255 255 255 255 255 255 255 255 255 255 255 255 255 255 255 255 255 255 255 255 255 255 255 255 255 255 255 255 255 255 255 255 255 255 255 255 255 255 255 255 255 255 255 255 255 255 255 255 255 255 255 255 255 255 255 255 255 255 255 255 255 255 255 255 255 255 255 255 255 255 255 255 255 255 255 255 255 255 255 255 255 255 255 255 255 255 255 255 255 255 255 255 255 255 255 255 255 255 255 255 255 255 255 255 255 255 255 255 255 255 255 255 255 255 255 255 255 255 255 255 255 255 255 255 255 255 255 255 255 255 255 255 255 255 
255 255 255 255 255 255 255 255 255 255 255 255 255 255 255 255 255 255 255 255 255 255 255 255 255 255 255 255 255 255 255 255 255 255 255 255 255 255 255 255 255 255 255 255 255 255 255 255 255 255 255 255 255 255 255 255 255 255 255 255 255 255 255 255 255 255 255 255 255 255 255 255 255 255 255 255 255 255 255 255 255 255 255 255 255 255 255 255 255 255 255 255 255 255 255 255 255 255 255 255 255 255 255 255 255 255 255 255 255 255 255 255 255 255 255 255 255 255 255 255 255 255 255 255 255 255 255 255 255 255 255 255 255 255 255 255 255 255 255 255 255 255 255 255 255 255 255 255 255 255 255 255 255 255 255 255 255 255 255 255 255 255 255 255 255 255 255 255 255 255 255 255 255 255 255 255 255 255 255 255 255 255 255 255 255 255 255 255 255 255 255 255 255 255 255 255 255 255 255 255 255 255 255 255 255 255 255 255 255 255 255 255 255 255 255 255 255 255 255 255 255 255 255 255 255 255 255 255 255 255 255 255 255 255 255 255 255 255 255 255 254 254 254 254 254 254 254 254 254 254 254 254 255 255 255 255 255 255 255 255 255 255 255 255 255 255 255 253 253 253 250 250 250 226 226 226 190 190 190 142 142 142 85 85 85 55 55 55 41 41 41 66 66 66 116 116 116 162 162 162 206 206 206 228 228 228 236 236 236 240 240 240 240 240 240 241 241 241 242 242 242 242 242 242 242 242 242 242 242 242 242 242 242 242 242 242 242 242 242 242 242 242 242 242 242 242 242 242 242 242 242 242 242 242 242 242 242 242 242 242 242 242 242 242 242 242 242 242 242 242 242 242 242 242 242 242 242 242 242 242 242 242 242 242 242 242 242 242 242 242 242 242 242 242 242 242 242 242 242 242 242 242 242 242 242 242 242 242 242 242 242 242 242 242 242 242 242 242 242 242 242 242 242 242 242 242 242 242 242 242 242 242 242 242 242 242 242 242 242 242 242 242 242 242 242 242 242 242 242 242 241 241 241 240 240 240 239 239 239 236 236 236 228 228 228 206 206 206 162 162 162 119 119 119 77 77 77 62 62 62 95 95 95 135 135 135 189 189 189 228 228 228 245 245 245 255 255 255 254 254 254 254 254 254 255 255 255 255 255 255 254 254 254 254 254 254 254 254 254 254 254 254 254 254 254 254 254 254 255 255 255 255 255 255 255 255 255 255 255 255 255 255 255 255 255 255 255 255 255 255 255 255 255 255 255 255 255 255 255 255 255 255 255 255 255 255 255 255 255 255 255 255 255 255 255 255 255 255 255 255 255 255 255 255 255 255 255 255 255 255 255 255 255 255 255 255 255 255 255 255 255 255 255 255 255 255 255 255 255 255 255 255 255 255 255 255 255 255 255 255 255 255 255 255 255 255 255 255 255 255 255 255 255 255 255 255 255 255 255 255 255 255 255 255 255 255 255 255 255 255 255 255 255 255 255 255 255 255 255 255 255 255 255 255 255 255 255 255 255 255 255 255 255 255 255 255 255 255 255 255 255 255 255 255 255 255 255 255 255 255 255 255 255 255 255 255 255 255 255 255 255 255 255 255 255 255 255 255 255 255 255 255 255 255 255 255 255 255 255 255 255 255 255 255 255 255 255 255 255 255 255 255 255 255 255 255 255 255 255 255 255 255 255 255 255 255 255 255 255 255 255 255 255 255 255 255 255 255 255 255 255 255 255 255 255 255 255 255 
255 255 255 255 255 255 255 255 255 255 255 255 255 255 255 255 255 255 255 255 255 255 255 255 255 255 255 255 255 255 255 255 255 255 255 255 255 255 255 255 255 255 255 255 255 255 255 255 255 255 255 255 255 255 255 255 255 255 255 255 255 255 255 255 255 255 255 255 255 255 255 255 255 255 255 255 255 255 255 255 255 255 255 255 255 255 255 255 255 255 255 255 255 255 255 255 255 255 255 255 255 255 255 255 255 255 255 255 255 255 255 255 255 255 255 255 255 255 255 255 255 255 255 255 255 255 255 255 255 255 255 255 255 255 255 255 255 255 255 255 255 255 255 255 255 255 255 255 255 255 255 255 255 255 255 255 255 255 255 255 255 255 255 255 255 255 255 255 255 255 255 255 255 255 255 255 255 255 255 255 255 255 255 255 255 255 255 255 255 255 255 255 255 255 255 255 255 255 255 255 255 255 255 255 255 255 255 255 255 255 255 255 255 255 255 255 255 255 255 255 255 255 255 255 255 255 255 255 255 255 255 255 255 255 255 255 255 255 255 255 254 254 254 254 254 254 254 254 254 254 254 254 255 255 255 255 255 255 255 255 255 249 249 249 239 239 239 215 215 215 183 183 183 149 149 149 113 113 113 94 94 94 85 85 85 94 94 94 114 114 114 141 141 141 172 172 172 199 199 199 222 222 222 234 234 234 238 238 238 239 239 239 239 239 239 239 239 239 240 240 240 240 240 240 240 240 240 240 240 240 240 240 240 240 240 240 240 240 240 240 240 240 240 240 240 240 240 240 240 240 240 240 240 240 240 240 240 240 240 240 240 240 240 240 240 240 240 240 240 240 240 240 240 240 240 240 240 240 240 240 240 240 240 240 240 240 240 240 240 240 240 240 240 240 240 240 240 240 240 240 240 240 240 240 240 240 240 240 240 240 240 240 240 240 240 240 240 240 240 240 240 240 240 240 240 240 240 240 240 240 240 240 240 240 240 240 240 240 240 240 240 240 240 240 240 240 240 240 240 240 239 239 239 239 239 239 239 239 239 238 238 238 234 234 234 222 222 222 199 199 199 174 174 174 146 146 146 125 125 125 115 115 115 114 114 114 128 128 128 150 150 150 185 185 185 216 216 216 237 237 237 251 251 251 254 254 254 255 255 255 254 254 254 254 254 254 254 254 254 254 254 254 254 254 254 254 254 254 255 255 255 255 255 255 255 255 255 255 255 255 255 255 255 255 255 255 255 255 255 255 255 255 255 255 255 255 255 255 255 255 255 255 255 255 255 255 255 255 255 255 255 255 255 255 255 255 255 255 255 255 255 255 255 255 255 255 255 255 255 255 255 255 255 255 255 255 255 255 255 255 255 255 255 255 255 255 255 255 255 255 255 255 255 255 255 255 255 255 255 255 255 255 255 255 255 255 255 255 255 255 255 255 255 255 255 255 255 255 255 255 255 255 255 255 255 255 255 255 255 255 255 255 255 255 255 255 255 255 255 255 255 255 255 255 255 255 255 255 255 255 255 255 255 255 255 255 255 255 255 255 255 255 255 255 255 255 255 255 255 255 255 255 255 255 255 255 255 255 255 255 255 255 255 255 255 255 255 255 255 255 255 255 255 255 255 255 255 255 255 255 255 255 255 255 255 255 255 255 255 255 255 255 255 255 255 255 255 255 255 255 255 255 255 255 255 255 255 255 255 255 255 255 255 255 255 255 255 255 255 255 255 255 255 255 255 255 255 255 
255 255 255 255 255 255 255 255 255 255 255 255 255 255 255 255 255 255 255 255 255 255 255 255 255 255 255 255 255 255 255 255 255 255 255 255 255 255 255 255 255 255 255 255 255 255 255 255 255 255 255 255 255 255 255 255 255 255 255 255 255 255 255 255 255 255 255 255 255 255 255 255 255 255 255 255 255 255 255 255 255 255 255 255 255 255 255 255 255 255 255 255 255 255 255 255 255 255 255 255 255 255 255 255 255 255 255 255 255 255 255 255 255 255 255 255 255 255 255 255 255 255 255 255 255 255 255 255 255 255 255 255 255 255 255 255 255 255 255 255 255 255 255 255 255 255 255 255 255 255 255 255 255 255 255 255 255 255 255 255 255 255 255 255 255 255 255 255 255 255 255 255 255 255 255 255 255 255 255 255 255 255 255 255 255 255 255 255 255 255 255 255 255 255 255 255 255 255 255 255 255 255 255 255 255 255 255 255 255 255 255 255 255 255 255 255 255 255 255 255 255 255 255 255 255 255 255 255 255 255 255 255 255 255 255 255 255 255 255 255 254 254 254 254 254 254 255 255 255 255 255 255 254 254 254 254 254 254 255 255 255 242 242 242 222 222 222 175 175 175 114 114 114 69 69 69 34 34 34 48 48 48 88 88 88 137 137 137 192 192 192 219 219 219 230 230 230 235 235 235 236 236 236 237 237 237 237 237 237 237 237 237 237 237 237 237 237 237 238 238 238 238 238 238 237 237 237 237 237 237 237 237 237 237 237 237 237 237 237 237 237 237 237 237 237 237 237 237 237 237 237 237 237 237 237 237 237 237 237 237 237 237 237 237 237 237 237 237 237 237 237 237 237 237 237 237 237 237 237 237 237 237 237 237 237 237 237 237 237 237 237 237 237 237 237 237 237 237 237 237 237 237 237 237 237 237 237 237 237 237 237 237 237 237 237 237 237 237 237 237 237 237 237 237 237 237 237 237 237 237 237 237 237 237 237 237 237 237 237 237 237 237 237 237 238 238 238 238 238 238 237 237 237 237 237 237 237 237 237 237 237 237 237 237 237 236 236 236 235 235 235 230 230 230 220 220 220 193 193 193 139 139 139 95 95 95 66 66 66 68 68 68 124 124 124 175 175 175 219 219 219 249 249 249 252 252 252 255 255 255 254 254 254 254 254 254 254 254 254 254 254 254 254 254 254 254 254 254 255 255 255 255 255 255 255 255 255 255 255 255 255 255 255 255 255 255 255 255 255 255 255 255 255 255 255 255 255 255 255 255 255 255 255 255 255 255 255 255 255 255 255 255 255 255 255 255 255 255 255 255 255 255 255 255 255 255 255 255 255 255 255 255 255 255 255 255 255 255 255 255 255 255 255 255 255 255 255 255 255 255 255 255 255 255 255 255 255 255 255 255 255 255 255 255 255 255 255 255 255 255 255 255 255 255 255 255 255 255 255 255 255 255 255 255 255 255 255 255 255 255 255 255 255 255 255 255 255 255 255 255 255 255 255 255 255 255 255 255 255 255 255 255 255 255 255 255 255 255 255 255 255 255 255 255 255 255 255 255 255 255 255 255 255 255 255 255 255 255 255 255 255 255 255 255 255 255 255 255 255 255 255 255 255 255 255 255 255 255 255 255 255 255 255 255 255 255 255 255 255 255 255 255 255 255 255 255 255 255 255 255 255 255 255 255 255 255 255 255 255 255 255 255 255 255 255 255 255 255 255 255 255 255 255 255 255 255 255 255 
255 255 255 255 255 255 255 255 255 255 255 255 255 255 255 255 255 255 255 255 255 255 255 255 255 255 255 255 255 255 255 255 255 255 255 255 255 255 255 255 255 255 255 255 255 255 255 255 255 255 255 255 255 255 255 255 255 255 255 255 255 255 255 255 255 255 255 255 255 255 255 255 255 255 255 255 255 255 255 255 255 255 255 255 255 255 255 255 255 255 255 255 255 255 255 255 255 255 255 255 255 255 255 255 255 255 255 255 255 255 255 255 255 255 255 255 255 255 255 255 255 255 255 255 255 255 255 255 255 255 255 255 255 255 255 255 255 255 255 255 255 255 255 255 255 255 255 255 255 255 255 255 255 255 255 255 255 255 255 255 255 255 255 255 255 255 255 255 255 255 255 255 255 255 255 255 255 255 255 255 255 255 255 255 255 255 255 255 255 255 255 255 255 255 255 255 255 255 255 255 255 255 255 255 255 255 255 255 255 255 255 255 255 255 255 255 255 255 255 255 255 255 255 255 255 255 255 255 255 255 255 255 255 255 255 255 255 255 255 255 255 255 255 255 255 255 255 255 255 254 254 254 252 252 252 237 237 237 216 216 216 182 182 182 140 140 140 105 105 105 74 74 74 73 73 73 88 88 88 116 116 116 152 152 152 184 184 184 213 213 213 228 228 228 233 233 233 235 235 235 235 235 235 235 235 235 235 235 235 235 235 235 235 235 235 235 235 235 236 236 236 235 235 235 235 235 235 235 235 235 235 235 235 235 235 235 235 235 235 235 235 235 235 235 235 235 235 235 235 235 235 235 235 235 235 235 235 235 235 235 235 235 235 235 235 235 235 235 235 235 235 235 235 235 235 235 235 235 235 235 235 235 235 235 235 235 235 235 235 235 235 235 235 235 235 235 235 235 235 235 235 235 235 235 235 235 235 235 235 235 235 235 235 235 235 235 235 235 235 235 235 235 235 235 235 235 235 235 235 235 235 235 235 235 235 235 235 235 235 235 235 235 235 235 235 235 235 236 236 236 235 235 235 235 235 235 235 235 235 235 235 235 235 235 235 235 235 235 235 235 235 233 233 233 228 228 228 213 213 213 184 184 184 154 154 154 125 125 125 106 106 106 104 104 104 114 114 114 148 148 148 182 182 182 216 216 216 242 242 242 249 249 249 254 254 254 254 254 254 254 254 254 254 254 254 254 254 254 255 255 255 255 255 255 255 255 255 255 255 255 255 255 255 255 255 255 255 255 255 255 255 255 255 255 255 255 255 255 255 255 255 255 255 255 255 255 255 255 255 255 255 255 255 255 255 255 255 255 255 255 255 255 255 255 255 255 255 255 255 255 255 255 255 255 255 255 255 255 255 255 255 255 255 255 255 255 255 255 255 255 255 255 255 255 255 255 255 255 255 255 255 255 255 255 255 255 255 255 255 255 255 255 255 255 255 255 255 255 255 255 255 255 255 255 255 255 255 255 255 255 255 255 255 255 255 255 255 255 255 255 255 255 255 255 255 255 255 255 255 255 255 255 255 255 255 255 255 255 255 255 255 255 255 255 255 255 255 255 255 255 255 255 255 255 255 255 255 255 255 255 255 255 255 255 255 255 255 255 255 255 255 255 255 255 255 255 255 255 255 255 255 255 255 255 255 255 255 255 255 255 255 255 255 255 255 255 255 255 255 255 255 255 255 255 255 255 255 255 255 255 255 255 255 255 255 255 255 255 255 255 255 255 255 255 255 255 255 255 
255 255 255 255 255 255 255 255 255 255 255 255 255 255 255 255 255 255 255 255 255 255 255 255 255 255 255 255 255 255 255 255 255 255 255 255 255 255 255 255 255 255 255 255 255 255 255 255 255 255 255 255 255 255 255 255 255 255 255 255 255 255 255 255 255 255 255 255 255 255 255 255 255 255 255 255 255 255 255 255 255 255 255 255 255 255 255 255 255 255 255 255 255 255 255 255 255 255 255 255 255 255 255 255 255 255 255 255 255 255 255 255 255 255 255 255 255 255 255 255 255 255 255 255 255 255 255 255 255 255 255 255 255 255 255 255 255 255 255 255 255 255 255 255 255 255 255 255 255 255 255 255 255 255 255 255 255 255 255 255 255 255 255 255 255 255 255 255 255 255 255 255 255 255 255 255 255 255 255 255 255 255 255 255 255 255 255 255 255 255 255 255 255 255 255 255 255 255 255 255 255 255 255 255 255 255 255 255 255 255 255 255 255 255 255 255 255 255 255 255 255 255 255 255 255 255 255 255 255 255 255 255 255 255 255 255 255 255 255 255 255 255 255 255 255 255 255 255 255 253 253 253 250 250 250 220 220 220 176 176 176 119 119 119 55 55 55 34 34 34 36 36 36 80 80 80 147 147 147 190 190 190 219 219 219 230 230 230 232 232 232 233 233 233 233 233 233 233 233 233 233 233 233 233 233 233 233 233 233 233 233 233 233 233 233 233 233 233 233 233 233 233 233 233 233 233 233 233 233 233 233 233 233 233 233 233 233 233 233 233 233 233 233 233 233 233 233 233 233 233 233 233 233 233 233 233 233 233 233 233 233 233 233 233 233 233 233 233 233 233 233 233 233 233 233 233 233 233 233 233 233 233 233 233 233 233 233 233 233 233 233 233 233 233 233 233 233 233 233 233 233 233 233 233 233 233 233 233 233 233 233 233 233 233 233 233 233 233 233 233 233 233 233 233 233 233 233 233 233 233 233 233 233 233 233 233 233 233 233 233 233 233 233 233 233 233 233 233 233 233 233 233 233 233 233 233 233 233 233 233 233 233 233 233 233 233 233 233 233 233 233 233 233 233 233 233 233 232 232 232 230 230 230 218 218 218 190 190 190 149 149 149 86 86 86 53 53 53 74 74 74 112 112 112 179 179 179 228 228 228 244 244 244 254 254 254 255 255 255 255 255 255 254 254 254 254 254 254 255 255 255 255 255 255 255 255 255 255 255 255 255 255 255 255 255 255 255 255 255 255 255 255 255 255 255 255 255 255 255 255 255 255 255 255 255 255 255 255 255 255 255 255 255 255 255 255 255 255 255 255 255 255 255 255 255 255 255 255 255 255 255 255 255 255 255 255 255 255 255 255 255 255 255 255 255 255 255 255 255 255 255 255 255 255 255 255 255 255 255 255 255 255 255 255 255 255 255 255 255 255 255 255 255 255 255 255 255 255 255 255 255 255 255 255 255 255 255 255 255 255 255 255 255 255 255 255 255 255 255 255 255 255 255 255 255 255 255 255 255 255 255 255 255 255 255 255 255 255 255 255 255 255 255 255 255 255 255 255 255 255 255 255 255 255 255 255 255 255 255 255 255 255 255 255 255 255 255 255 255 255 255 255 255 255 255 255 255 255 255 255 255 255 255 255 255 255 255 255 255 255 255 255 255 255 255 255 255 255 255 255 255 255 255 255 255 255 255 255 255 255 255 255 255 255 255 255 255 255 255 255 255 255 255 255 255 255 255 255 
255 255 255 255 255 255 255 255 255 255 255 255 255 255 255 255 255 255 255 255 255 255 255 255 255 255 255 255 255 255 255 255 255 255 255 255 255 255 255 255 255 255 255 255 255 255 255 255 255 255 255 255 255 255 255 255 255 255 255 255 255 255 255 255 255 255 255 255 255 255 255 255 255 255 255 255 255 255 255 255 255 255 255 255 255 255 255 255 255 255 255 255 255 255 255 255 255 255 255 255 255 255 255 255 255 255 255 255 255 255 255 255 255 255 255 255 255 255 255 255 255 255 255 255 255 255 255 255 255 255 255 255 255 255 255 255 255 255 255 255 255 255 255 255 255 255 255 255 255 255 255 255 255 255 255 255 255 255 255 255 255 255 255 255 255 255 255 255 255 255 255 255 255 255 255 255 255 255 255 255 255 255 255 255 255 255 255 255 255 255 255 255 255 255 255 255 255 255 255 255 255 255 255 255 255 255 255 255 255 255 255 255 255 255 255 255 255 255 255 255 255 255 255 255 255 255 255 255 255 255 255 255 255 255 255 255 255 255 255 255 255 255 255 252 252 252 249 249 249 225 225 225 192 192 192 150 150 150 103 103 103 75 75 75 56 56 56 71 71 71 105 105 105 143 143 143 185 185 185 210 210 210 225 225 225 231 231 231 231 231 231 231 231 231 231 231 231 231 231 231 231 231 231 231 231 231 231 231 231 231 231 231 231 231 231 231 231 231 231 231 231 231 231 231 231 231 231 231 231 231 231 231 231 231 231 231 231 231 231 231 231 231 231 231 231 231 231 231 231 231 231 231 231 231 231 231 231 231 231 231 231 231 231 231 231 231 231 231 231 231 231 231 231 231 231 231 231 231 231 231 231 231 231 231 231 231 231 231 231 231 231 231 231 231 231 231 231 231 231 231 231 231 231 231 231 231 231 231 231 231 231 231 231 231 231 231 231 231 231 231 231 231 231 231 231 231 231 231 231 231 231 231 231 231 231 231 231 231 231 231 231 231 231 231 231 231 231 231 231 231 231 231 231 231 231 231 231 231 231 231 231 231 231 231 231 231 231 231 231 231 231 231 231 231 231 231 231 230 230 230 230 230 230 224 224 224 209 209 209 186 186 186 146 146 146 113 113 113 93 93 93 89 89 89 117 117 117 150 150 150 193 193 193 227 227 227 244 244 244 254 254 254 254 254 254 254 254 254 255 255 255 255 255 255 255 255 255 255 255 255 255 255 255 255 255 255 255 255 255 255 255 255 255 255 255 255 255 255 255 255 255 255 255 255 255 255 255 255 255 255 255 255 255 255 255 255 255 255 255 255 255 255 255 255 255 255 255 255 255 255 255 255 255 255 255 255 255 255 255 255 255 255 255 255 255 255 255 255 255 255 255 255 255 255 255 255 255 255 255 255 255 255 255 255 255 255 255 255 255 255 255 255 255 255 255 255 255 255 255 255 255 255 255 255 255 255 255 255 255 255 255 255 255 255 255 255 255 255 255 255 255 255 255 255 255 255 255 255 255 255 255 255 255 255 255 255 255 255 255 255 255 255 255 255 255 255 255 255 255 255 255 255 255 255 255 255 255 255 255 255 255 255 255 255 255 255 255 255 255 255 255 255 255 255 255 255 255 255 255 255 255 255 255 255 255 255 255 255 255 255 255 255 255 255 255 255 255 255 255 255 255 255 255 255 255 255 255 255 255 255 255 255 255 255 255 255 255 255 255 255 255 255 255 255 255 255 255 255 
255 255 255 255 255 255 255 255 255 255 255 255 255 255 255 255 255 255 255 255 255 255 255 255 255 255 255 255 255 255 255 255 255 255 255 255 255 255 255 255 255 255 255 255 255 255 255 255 255 255 255 255 255 255 255 255 255 255 255 255 255 255 255 255 255 255 255 255 255 255 255 255 255 255 255 255 255 255 255 255 255 255 255 255 255 255 255 255 255 255 255 255 255 255 255 255 255 255 255 255 255 255 255 255 255 255 255 255 255 255 255 255 255 255 255 255 255 255 255 255 255 255 255 255 255 255 255 255 255 255 255 255 255 255 255 255 255 255 255 255 255 255 255 255 255 255 255 255 255 255 255 255 255 255 255 255 255 255 255 255 255 255 255 255 255 255 255 255 255 255 255 255 255 255 255 255 255 255 255 255 255 255 255 255 255 255 255 255 255 255 255 255 255 255 255 255 255 255 255 255 255 255 255 255 255 255 255 255 255 255 255 255 255 255 255 255 254 254 254 254 254 254 254 254 254 254 254 254 254 254 254 254 254 254 254 254 254 254 254 254 254 254 254 249 249 249 243 243 243 196 196 196 131 131 131 77 77 77 29 29 29 32 32 32 62 62 62 115 115 115 180 180 180 210 210 210 221 221 221 226 226 226 228 228 228 228 228 228 228 228 228 228 228 228 228 228 228 228 228 228 228 228 228 228 228 228 228 228 228 228 228 228 228 228 228 228 228 228 228 228 228 228 228 228 228 228 228 228 228 228 228 228 228 228 228 228 228 228 228 228 228 228 228 228 228 228 228 228 228 228 228 228 228 228 228 228 228 228 228 228 228 228 228 228 228 228 228 228 228 228 228 228 228 228 228 228 228 228 228 228 228 228 228 228 228 228 228 228 228 228 228 228 228 228 228 228 228 228 228 228 228 228 228 228 228 228 228 228 228 228 228 228 228 228 228 228 228 228 228 228 228 228 228 228 228 228 228 228 228 228 228 228 228 228 228 228 228 228 228 228 228 228 228 228 228 228 228 228 228 228 228 228 228 228 228 228 228 228 228 228 228 228 228 228 228 228 228 228 228 228 228 228 228 228 228 228 228 228 228 228 227 227 227 227 227 227 226 226 226 221 221 221 210 210 210 180 180 180 117 117 117 70 70 70 55 55 55 69 69 69 140 140 140 199 199 199 232 232 232 254 254 254 254 254 254 254 254 254 255 255 255 255 255 255 255 255 255 255 255 255 255 255 255 255 255 255 254 254 254 254 254 254 255 255 255 255 255 255 255 255 255 255 255 255 255 255 255 255 255 255 255 255 255 255 255 255 255 255 255 255 255 255 255 255 255 255 255 255 255 255 255 255 255 255 255 255 255 255 255 255 255 255 255 255 255 255 255 255 255 255 255 255 255 255 255 255 255 255 255 255 255 255 255 255 255 255 255 255 255 255 255 255 255 255 255 255 255 255 255 255 255 255 255 255 255 255 255 255 255 255 255 255 255 255 255 255 255 255 255 255 255 255 255 255 255 255 255 255 255 255 255 255 255 255 255 255 255 255 255 255 255 255 255 255 255 255 255 255 255 255 255 255 255 255 255 255 255 255 255 255 255 255 255 255 255 255 255 255 255 255 255 255 255 255 255 255 255 255 255 255 255 255 255 255 255 255 255 255 255 255 255 255 255 255 255 255 255 255 255 255 255 255 255 255 255 255 255 255 255 255 255 255 255 255 255 255 255 255 255 255 255 255 255 255 255 255 255 255 
255 255 255 255 255 255 255 255 255 255 255 255 255 255 255 255 255 255 255 255 255 255 255 255 255 255 255 255 255 255 255 255 255 255 255 255 255 255 255 255 255 255 255 255 255 255 255 255 255 255 255 255 255 255 255 255 255 255 255 255 255 255 255 255 255 255 255 255 255 255 255 255 255 255 255 255 255 255 255 255 255 255 255 255 255 255 255 255 255 255 255 255 255 255 255 255 255 255 255 255 255 255 255 255 255 255 255 255 255 255 255 255 255 255 255 255 255 255 255 255 255 255 255 255 255 255 255 255 255 255 255 255 255 255 255 255 255 255 255 255 255 255 255 255 255 255 255 255 255 255 255 255 255 255 255 255 255 255 255 255 255 255 255 255 255 255 255 255 255 255 255 255 255 255 255 255 255 255 255 255 255 255 255 255 255 255 255 255 255 255 255 255 255 255 255 255 255 255 255 255 255 255 255 255 255 255 255 255 255 255 255 255 255 255 255 255 254 254 254 254 254 254 254 254 254 254 254 254 254 254 254 254 254 254 254 254 254 249 249 249 241 241 241 213 213 213 174 174 174 126 126 126 74 74 74 55 55 55 51 51 51 80 80 80 124 124 124 164 164 164 202 202 202 218 218 218 223 223 223 225 225 225 225 225 225 225 225 225 226 226 226 226 226 226 226 226 226 226 226 226 226 226 226 226 226 226 226 226 226 226 226 226 226 226 226 226 226 226 226 226 226 226 226 226 226 226 226 226 226 226 226 226 226 226 226 226 226 226 226 226 226 226 226 226 226 226 226 226 226 226 226 226 226 226 226 226 226 226 226 226 226 226 226 226 226 226 226 226 226 226 226 226 226 226 226 226 226 226 226 226 226 226 226 226 226 226 226 226 226 226 226 226 226 226 226 226 226 226 226 226 226 226 226 226 226 226 226 226 226 226 226 226 226 226 226 226 226 226 226 226 226 226 226 226 226 226 226 226 226 226 226 226 226 226 226 226 226 226 226 226 226 226 226 226 226 226 226 226 226 226 226 226 226 226 226 226 226 226 226 226 226 226 226 226 226 226 226 226 226 226 226 226 226 226 226 226 226 226 226 226 225 225 225 225 225 225 225 225 225 223 223 223 218 218 218 202 202 202 165 165 165 128 128 128 91 91 91 74 74 74 94 94 94 124 124 124 173 173 173 213 213 213 236 236 236 252 252 252 254 254 254 255 255 255 255 255 255 255 255 255 255 255 255 255 255 255 254 254 254 254 254 254 255 255 255 255 255 255 255 255 255 255 255 255 255 255 255 255 255 255 255 255 255 255 255 255 255 255 255 255 255 255 255 255 255 255 255 255 255 255 255 255 255 255 255 255 255 255 255 255 255 255 255 255 255 255 255 255 255 255 255 255 255 255 255 255 255 255 255 255 255 255 255 255 255 255 255 255 255 255 255 255 255 255 255 255 255 255 255 255 255 255 255 255 255 255 255 255 255 255 255 255 255 255 255 255 255 255 255 255 255 255 255 255 255 255 255 255 255 255 255 255 255 255 255 255 255 255 255 255 255 255 255 255 255 255 255 255 255 255 255 255 255 255 255 255 255 255 255 255 255 255 255 255 255 255 255 255 255 255 255 255 255 255 255 255 255 255 255 255 255 255 255 255 255 255 255 255 255 255 255 255 255 255 255 255 255 255 255 255 255 255 255 255 255 255 255 255 255 255 255 255 255 255 255 255 255 255 255 255 255 255 255 255 255 255 255 255 
255 255 255 255 255 255 255 255 255 255 255 255 255 255 255 255 255 255 255 255 255 255 255 255 255 255 255 255 255 255 255 255 255 255 255 255 255 255 255 255 255 255 255 255 255 255 255 255 255 255 255 255 255 255 255 255 255 255 255 255 255 255 255 255 255 255 255 255 255 255 255 255 255 255 255 255 255 255 255 255 255 255 255 255 255 255 255 255 255 255 255 255 255 255 255 255 255 255 255 255 255 255 255 255 255 255 255 255 255 255 255 255 255 255 255 255 255 255 255 255 255 255 255 255 255 255 255 255 255 255 255 255 255 255 255 255 255 255 255 255 255 255 255 255 255 255 255 255 255 255 255 255 255 255 255 255 255 255 255 255 255 255 255 255 255 255 255 255 255 255 255 255 255 255 255 255 255 255 255 255 255 255 255 255 255 255 255 255 255 255 255 255 255 255 255 255 255 255 255 255 255 255 255 255 255 255 255 255 255 255 255 255 255 255 255 255 254 254 254 254 254 254 255 255 255 255 255 255 255 255 255 255 255 255 255 255 255 244 244 244 228 228 228 174 174 174 101 101 101 54 54 54 18 18 18 35 35 35 80 80 80 133 133 133 190 190 190 214 214 214 220 220 220 223 223 223 223 223 223 223 223 223 222 222 222 223 223 223 223 223 223 223 223 223 223 223 223 223 223 223 223 223 223 223 223 223 223 223 223 223 223 223 223 223 223 223 223 223 223 223 223 223 223 223 223 223 223 223 223 223 223 223 223 223 223 223 223 223 223 223 223 223 223 223 223 223 223 223 223 223 223 223 223 223 223 223 223 223 223 223 223 223 223 223 223 223 223 223 223 223 223 223 223 223 223 223 223 223 223 223 223 223 223 223 223 223 223 223 223 223 223 223 223 223 223 223 223 223 223 223 223 223 223 223 223 223 223 223 223 223 223 223 223 223 223 223 223 223 223 223 223 223 223 223 223 223 223 223 223 223 223 223 223 223 223 223 223 223 223 223 223 223 223 223 223 223 223 223 223 223 223 223 223 223 223 223 223 223 223 223 223 223 223 223 223 223 223 223 223 223 223 223 223 223 223 223 223 223 223 223 223 223 223 223 223 223 223 223 223 223 223 223 223 223 223 220 220 220 214 214 214 190 190 190 134 134 134 84 84 84 49 49 49 46 46 46 110 110 110 169 169 169 217 217 217 250 250 250 252 252 252 254 254 254 255 255 255 255 255 255 255 255 255 255 255 255 254 254 254 254 254 254 255 255 255 255 255 255 255 255 255 255 255 255 255 255 255 255 255 255 255 255 255 255 255 255 255 255 255 255 255 255 255 255 255 255 255 255 255 255 255 255 255 255 255 255 255 255 255 255 255 255 255 255 255 255 255 255 255 255 255 255 255 255 255 255 255 255 255 255 255 255 255 255 255 255 255 255 255 255 255 255 255 255 255 255 255 255 255 255 255 255 255 255 255 255 255 255 255 255 255 255 255 255 255 255 255 255 255 255 255 255 255 255 255 255 255 255 255 255 255 255 255 255 255 255 255 255 255 255 255 255 255 255 255 255 255 255 255 255 255 255 255 255 255 255 255 255 255 255 255 255 255 255 255 255 255 255 255 255 255 255 255 255 255 255 255 255 255 255 255 255 255 255 255 255 255 255 255 255 255 255 255 255 255 255 255 255 255 255 255 255 255 255 255 255 255 255 255 255 255 255 255 255 255 255 255 255 255 255 255 255 255 255 255 255 255 255 
255 255 255 255 255 255 255 255 255 255 255 255 255 255 255 255 255 255 255 255 255 255 255 255 255 255 255 255 255 255 255 255 255 255 255 255 255 255 255 255 255 255 255 255 255 255 255 255 255 255 255 255 255 255 255 255 255 255 255 255 255 255 255 255 255 255 255 255 255 255 255 255 255 255 255 255 255 255 255 255 255 255 255 255 255 255 255 255 255 255 255 255 255 255 255 255 255 255 255 255 255 255 255 255 255 255 255 255 255 255 255 255 255 255 255 255 255 255 255 255 255 255 255 255 255 255 255 255 255 255 255 255 255 255 255 255 255 255 255 255 255 255 255 255 255 255 255 255 255 255 255 255 255 255 255 255 255 255 255 255 255 255 255 255 255 255 255 255 255 255 255 255 255 255 255 255 255 255 255 255 255 255 255 255 255 255 255 255 255 255 255 255 255 255 255 255 255 255 255 255 255 255 255 255 255 255 255 255 255 255 255 255 255 255 255 255 254 254 254 254 254 254 255 255 255 255 255 255 255 255 255 248 248 248 238 238 238 204 204 204 158 158 158 108 108 108 56 56 56 42 42 42 47 47 47 83 83 83 135 135 135 173 173 173 205 205 205 217 217 217 219 219 219 220 220 220 220 220 220 220 220 220 220 220 220 220 220 220 220 220 220 220 220 220 220 220 220 220 220 220 220 220 220 220 220 220 220 220 220 220 220 220 220 220 220 220 220 220 220 220 220 220 220 220 220 220 220 220 220 220 220 220 220 220 220 220 220 220 220 220 220 220 220 220 220 220 220 220 220 220 220 220 220 220 220 220 220 220 220 220 220 220 220 220 220 220 220 220 220 220 220 220 220 220 220 220 220 220 220 220 220 220 220 220 220 220 220 220 220 220 220 220 220 220 220 220 220 220 220 220 220 220 220 220 220 220 220 220 220 220 220 220 220 220 220 220 220 220 220 220 220 220 220 220 220 220 220 220 220 220 220 220 220 220 220 220 220 220 220 220 220 220 220 220 220 220 220 220 220 220 220 220 220 220 220 220 220 220 220 220 220 220 220 220 220 220 220 220 220 220 220 220 220 220 220 220 220 220 220 220 220 220 220 220 220 220 220 220 220 220 220 220 220 220 220 219 219 219 217 217 217 205 205 205 173 173 173 136 136 136 89 89 89 62 62 62 76 76 76 102 102 102 155 155 155 201 201 201 230 230 230 251 251 251 253 253 253 255 255 255 255 255 255 255 255 255 254 254 254 254 254 254 255 255 255 255 255 255 255 255 255 255 255 255 255 255 255 255 255 255 255 255 255 255 255 255 255 255 255 255 255 255 255 255 255 255 255 255 255 255 255 255 255 255 255 255 255 255 255 255 255 255 255 255 255 255 255 255 255 255 255 255 255 255 255 255 255 255 255 255 255 255 255 255 255 255 255 255 255 255 255 255 255 255 255 255 255 255 255 255 255 255 255 255 255 255 255 255 255 255 255 255 255 255 255 255 255 255 255 255 255 255 255 255 255 255 255 255 255 255 255 255 255 255 255 255 255 255 255 255 255 255 255 255 255 255 255 255 255 255 255 255 255 255 255 255 255 255 255 255 255 255 255 255 255 255 255 255 255 255 255 255 255 255 255 255 255 255 255 255 255 255 255 255 255 255 255 255 255 255 255 255 255 255 255 255 255 255 255 255 255 255 255 255 255 255 255 255 255 255 255 255 255 255 255 255 255 255 255 255 255 255 255 255 255 255 255 255 
255 255 255 255 255 255 255 255 255 255 255 255 255 255 255 255 255 255 255 255 255 255 255 255 255 255 255 255 255 255 255 255 255 255 255 255 255 255 255 255 255 255 255 255 255 255 255 255 255 255 255 255 255 255 255 255 255 255 255 255 255 255 255 255 255 255 255 255 255 255 255 255 255 255 255 255 255 255 255 255 255 255 255 255 255 255 255 255 255 255 255 255 255 255 255 255 255 255 255 255 255 255 255 255 255 255 255 255 255 255 255 255 255 255 255 255 255 255 255 255 255 255 255 255 255 255 255 255 255 255 255 255 255 255 255 255 255 255 255 255 255 255 255 255 255 255 255 255 255 255 255 255 255 255 255 255 255 255 255 255 255 255 255 255 255 255 255 255 255 255 255 255 255 255 255 255 255 255 255 255 255 255 255 255 255 255 255 255 255 255 255 255 255 255 255 255 255 255 255 255 255 255 255 255 255 255 255 255 255 255 255 255 255 255 255 255 254 254 254 254 254 254 255 255 255 255 255 255 254 254 254 240 240 240 221 221 221 161 161 161 83 83 83 40 40 40 13 13 13 36 36 36 83 83 83 136 136 136 191 191 191 213 213 213 216 216 216 217 217 217 217 217 217 217 217 217 217 217 217 217 217 217 217 217 217 217 217 217 217 217 217 217 217 217 217 217 217 217 217 217 217 217 217 217 217 217 217 217 217 217 217 217 217 217 217 217 217 217 217 217 217 217 217 217 217 217 217 217 217 217 217 217 217 217 217 217 217 217 217 217 217 217 217 217 217 217 217 217 217 217 217 217 217 217 217 217 217 217 217 217 217 217 217 217 217 217 217 217 217 217 217 217 217 217 217 217 217 217 217 217 217 217 217 217 217 217 217 217 217 217 217 217 217 217 217 217 217 217 217 217 217 217 217 217 217 217 217 217 217 217 217 217 217 217 217 217 217 217 217 217 217 217 217 217 217 217 217 217 217 217 217 217 217 217 217 217 217 217 217 217 217 217 217 217 217 217 217 217 217 217 217 217 217 217 217 217 217 217 217 217 217 217 217 217 217 217 217 217 217 217 217 217 217 217 217 217 217 217 217 217 217 217 217 217 217 217 217 217 217 217 217 217 217 217 217 217 217 217 217 217 217 216 216 216 213 213 213 192 192 192 136 136 136 85 85 85 43 43 43 33 33 33 91 91 91 148 148 148 207 207 207 248 248 248 252 252 252 254 254 254 255 255 255 255 255 255 254 254 254 254 254 254 255 255 255 255 255 255 255 255 255 255 255 255 255 255 255 255 255 255 255 255 255 255 255 255 255 255 255 255 255 255 255 255 255 255 255 255 255 255 255 255 255 255 255 255 255 255 255 255 255 255 255 255 255 255 255 255 255 255 255 255 255 255 255 255 255 255 255 255 255 255 255 255 255 255 255 255 255 255 255 255 255 255 255 255 255 255 255 255 255 255 255 255 255 255 255 255 255 255 255 255 255 255 255 255 255 255 255 255 255 255 255 255 255 255 255 255 255 255 255 255 255 255 255 255 255 255 255 255 255 255 255 255 255 255 255 255 255 255 255 255 255 255 255 255 255 255 255 255 255 255 255 255 255 255 255 255 255 255 255 255 255 255 255 255 255 255 255 255 255 255 255 255 255 255 255 255 255 255 255 255 255 255 255 255 255 255 255 255 255 255 255 255 255 255 255 255 255 255 255 255 255 255 255 255 255 255 255 255 255 255 255 255 255 255 255 255 
255 255 255 255 255 255 255 255 255 255 255 255 255 255 255 255 255 255 255 255 255 255 255 255 255 255 255 255 255 255 255 255 255 255 255 255 255 255 255 255 255 255 255 255 255 255 255 255 255 255 255 255 255 255 255 255 255 255 255 255 255 255 255 255 255 255 255 255 255 255 255 255 255 255 255 255 255 255 255 255 255 255 255 255 255 255 255 255 255 255 255 255 255 255 255 255 255 255 255 255 255 255 255 255 255 255 255 255 255 255 255 255 255 255 255 255 255 255 255 255 255 255 255 255 255 255 255 255 255 255 255 255 255 255 255 255 255 255 255 255 255 255 255 255 255 255 255 255 255 255 255 255 255 255 255 255 255 255 255 255 255 255 255 255 255 255 255 255 255 255 255 255 255 255 255 255 255 255 255 255 255 255 255 255 255 255 255 255 255 255 255 255 255 255 255 255 255 255 255 255 255 255 255 255 255 255 255 255 255 255 255 255 255 255 255 255 254 254 254 254 254 254 254 254 254 247 247 247 237 237 237 199 199 199 151 151 151 98 98 98 45 45 45 33 33 33 39 39 39 78 78 78 133 133 133 172 172 172 203 203 203 214 214 214 214 214 214 214 214 214 215 215 215 215 215 215 214 214 214 214 214 214 215 215 215 215 215 215 215 215 215 215 215 215 215 215 215 215 215 215 215 215 215 215 215 215 215 215 215 215 215 215 215 215 215 215 215 215 215 215 215 215 215 215 215 215 215 215 215 215 215 215 215 215 215 215 215 215 215 215 215 215 215 215 215 215 215 215 215 215 215 215 215 215 215 215 215 215 215 215 215 215 215 215 215 215 215 215 215 215 215 215 215 215 215 215 215 215 215 215 215 215 215 215 215 215 215 215 215 215 215 215 215 215 215 215 215 215 215 215 215 215 215 215 215 215 215 215 215 215 215 215 215 215 215 215 215 215 215 215 215 215 215 215 215 215 215 215 215 215 215 215 215 215 215 215 215 215 215 215 215 215 215 215 215 215 215 215 215 215 215 215 215 215 215 215 215 215 215 215 215 215 215 215 215 215 215 215 215 215 215 215 215 215 215 215 215 215 215 215 215 215 215 215 215 215 215 215 215 215 215 215 215 215 215 215 215 215 215 215 215 215 215 215 214 214 214 203 203 203 172 172 172 133 133 133 81 81 81 49 49 49 62 62 62 89 89 89 147 147 147 197 197 197 229 229 229 252 252 252 254 254 254 255 255 255 254 254 254 254 254 254 255 255 255 255 255 255 255 255 255 255 255 255 255 255 255 255 255 255 255 255 255 255 255 255 255 255 255 255 255 255 255 255 255 255 255 255 255 255 255 255 255 255 255 255 255 255 255 255 255 255 255 255 255 255 255 255 255 255 255 255 255 255 255 255 255 255 255 255 255 255 255 255 255 255 255 255 255 255 255 255 255 255 255 255 255 255 255 255 255 255 255 255 255 255 255 255 255 255 255 255 255 255 255 255 255 255 255 255 255 255 255 255 255 255 255 255 255 255 255 255 255 255 255 255 255 255 255 255 255 255 255 255 255 255 255 255 255 255 255 255 255 255 255 255 255 255 255 255 255 255 255 255 255 255 255 255 255 255 255 255 255 255 255 255 255 255 255 255 255 255 255 255 255 255 255 255 255 255 255 255 255 255 255 255 255 255 255 255 255 255 255 255 255 255 255 255 255 255 255 255 255 255 255 255 255 255 255 255 255 255 255 255 255 255 255 255 
255 255 255 255 255 255 255 255 255 255 255 255 255 255 255 255 255 255 255 255 255 255 255 255 255 255 255 255 255 255 255 255 255 255 255 255 255 255 255 255 255 255 255 255 255 255 255 255 255 255 255 255 255 255 255 255 255 255 255 255 255 255 255 255 255 255 255 255 255 255 255 255 255 255 255 255 255 255 255 255 255 255 255 255 255 255 255 255 255 255 255 255 255 255 255 255 255 255 255 255 255 255 255 255 255 255 255 255 255 255 255 255 255 255 255 255 255 255 255 255 255 255 255 255 255 255 255 255 255 255 255 255 255 255 255 255 255 255 255 255 255 255 255 255 255 255 255 255 255 255 255 255 255 255 255 255 255 255 255 255 255 255 255 255 255 255 255 255 255 255 255 255 255 255 255 255 255 255 255 255 255 255 255 255 255 255 255 255 255 255 255 255 255 255 255 255 255 255 255 255 255 255 255 255 255 255 255 255 255 255 255 255 255 255 255 255 254 254 254 254 254 254 254 254 254 239 239 239 218 218 218 156 156 156 76 76 76 34 34 34 10 10 10 30 30 30 71 71 71 125 125 125 185 185 185 207 207 207 211 211 211 212 212 212 211 211 211 212 212 212 212 212 212 212 212 212 211 211 211 212 212 212 212 212 212 212 212 212 212 212 212 212 212 212 212 212 212 212 212 212 212 212 212 212 212 212 212 212 212 212 212 212 212 212 212 212 212 212 212 212 212 212 212 212 212 212 212 212 212 212 212 212 212 212 212 212 212 212 212 212 212 212 212 212 212 212 212 212 212 212 212 212 212 212 212 212 212 212 212 212 212 212 212 212 212 212 212 212 212 212 212 212 212 212 212 212 212 212 212 212 212 212 212 212 212 212 212 212 212 212 212 212 212 212 212 212 212 212 212 212 212 212 212 212 212 212 212 212 212 212 212 212 212 212 212 212 212 212 212 212 212 212 212 212 212 212 212 212 212 212 212 212 212 212 212 212 212 212 212 212 212 212 212 212 212 212 212 212 212 212 212 212 212 212 212 212 212 212 212 212 212 212 212 212 212 212 212 212 212 212 212 212 212 212 212 212 212 212 212 212 212 212 212 212 212 212 212 212 212 212 212 212 212 212 212 212 212 212 212 212 212 212 212 212 212 212 212 211 211 211 206 206 206 184 184 184 125 125 125 73 73 73 36 36 36 28 28 28 84 84 84 141 141 141 204 204 204 249 249 249 253 253 253 255 255 255 254 254 254 254 254 254 255 255 255 255 255 255 255 255 255 255 255 255 255 255 255 255 255 255 255 255 255 255 255 255 255 255 255 255 255 255 255 255 255 255 255 255 255 255 255 255 255 255 255 255 255 255 255 255 255 255 255 255 255 255 255 255 255 255 255 255 255 255 255 255 255 255 255 255 255 255 255 255 255 255 255 255 255 255 255 255 255 255 255 255 255 255 255 255 255 255 255 255 255 255 255 255 255 255 255 255 255 255 255 255 255 255 255 255 255 255 255 255 255 255 255 255 255 255 255 255 255 255 255 255 255 255 255 255 255 255 255 255 255 255 255 255 255 255 255 255 255 255 255 255 255 255 255 255 255 255 255 255 255 255 255 255 255 255 255 255 255 255 255 255 255 255 255 255 255 255 255 255 255 255 255 255 255 255 255 255 255 255 255 255 255 255 255 255 255 255 255 255 255 255 255 255 255 255 255 255 255 255 255 255 255 255 255 255 255 255 255 255 255 255 255 255 
255 255 255 255 255 255 255 255 255 255 255 255 255 255 255 255 255 255 255 255 255 255 255 255 255 255 255 255 255 255 255 255 255 255 255 255 255 255 255 255 255 255 255 255 255 255 255 255 255 255 255 255 255 255 255 255 255 255 255 255 255 255 255 255 255 255 255 255 255 255 255 255 255 255 255 255 255 255 255 255 255 255 255 255 255 255 255 255 255 255 255 255 255 255 255 255 255 255 255 255 255 255 255 255 255 255 255 255 255 255 255 255 255 255 255 255 255 255 255 255 255 255 255 255 255 255 255 255 255 255 255 255 255 255 255 255 255 255 255 255 255 255 255 255 255 255 255 255 255 255 255 255 255 255 255 255 255 255 255 255 255 255 255 255 255 255 255 255 255 255 255 255 255 255 255 255 255 255 255 255 255 255 255 255 255 255 255 255 255 255 255 255 255 255 255 255 255 255 255 255 255 255 255 255 255 255 255 255 255 255 255 255 255 254 254 254 254 254 254 248 248 248 239 239 239 200 200 200 150 150 150 96 96 96 41 41 41 25 25 25 26 26 26 64 64 64 119 119 119 161 161 161 196 196 196 208 208 208 209 209 209 209 209 209 209 209 209 209 209 209 209 209 209 209 209 209 209 209 209 209 209 209 209 209 209 209 209 209 209 209 209 209 209 209 209 209 209 209 209 209 209 209 209 209 209 209 209 209 209 209 209 209 209 209 209 209 209 209 209 209 209 209 209 209 209 209 209 209 209 209 209 209 209 209 209 209 209 209 209 209 209 209 209 209 209 209 209 209 209 209 209 209 209 209 209 209 209 209 209 209 209 209 209 209 209 209 209 209 209 209 209 209 209 209 209 209 209 209 209 209 209 209 209 209 209 209 209 209 209 209 209 209 209 209 209 209 209 209 209 209 209 209 209 209 209 209 209 209 209 209 209 209 209 209 209 209 209 209 209 209 209 209 209 209 209 209 209 209 209 209 209 209 209 209 209 209 209 209 209 209 209 209 209 209 209 209 209 209 209 209 209 209 209 209 209 209 209 209 209 209 209 209 209 209 209 209 209 209 209 209 209 209 209 209 209 209 209 209 209 209 209 209 209 209 209 209 209 209 209 209 209 209 209 209 209 209 209 209 209 209 209 209 209 209 209 209 209 209 209 209 208 208 208 196 196 196 161 161 161 120 120 120 66 66 66 35 35 35 53 53 53 85 85 85 147 147 147 200 200 200 230 230 230 252 252 252 254 254 254 254 254 254 255 255 255 255 255 255 255 255 255 255 255 255 255 255 255 255 255 255 255 255 255 255 255 255 255 255 255 255 255 255 255 255 255 255 255 255 255 255 255 255 255 255 255 255 255 255 255 255 255 255 255 255 255 255 255 255 255 255 255 255 255 255 255 255 255 255 255 255 255 255 255 255 255 255 255 255 255 255 255 255 255 255 255 255 255 255 255 255 255 255 255 255 255 255 255 255 255 255 255 255 255 255 255 255 255 255 255 255 255 255 255 255 255 255 255 255 255 255 255 255 255 255 255 255 255 255 255 255 255 255 255 255 255 255 255 255 255 255 255 255 255 255 255 255 255 255 255 255 255 255 255 255 255 255 255 255 255 255 255 255 255 255 255 255 255 255 255 255 255 255 255 255 255 255 255 255 255 255 255 255 255 255 255 255 255 255 255 255 255 255 255 255 255 255 255 255 255 255 255 255 255 255 255 255 255 255 255 255 255 255 255 255 255 255 255 255 
255 255 255 255 255 255 255 255 255 255 255 255 255 255 255 255 255 255 255 255 255 255 255 255 255 255 255 255 255 255 255 255 255 255 255 255 255 255 255 255 255 255 255 255 255 255 255 255 255 255 255 255 255 255 255 255 255 255 255 255 255 255 255 255 255 255 255 255 255 255 255 255 255 255 255 255 255 255 255 255 255 255 255 255 255 255 255 255 255 255 255 255 255 255 255 255 255 255 255 255 255 255 255 255 255 255 255 255 255 255 255 255 255 255 255 255 255 255 255 255 255 255 255 255 255 255 255 255 255 255 255 255 255 255 255 255 255 255 255 255 255 255 255 255 255 255 255 255 255 255 255 255 255 255 255 255 255 255 255 255 255 255 255 255 255 255 255 255 255 255 255 255 255 255 255 255 255 255 255 255 255 255 255 255 255 255 255 255 255 255 255 255 254 254 254 254 254 254 254 254 254 254 254 254 255 255 255 255 255 255 254 254 254 254 254 254 254 254 254 241 241 241 222 222 222 159 159 159 77 77 77 35 35 35 10 10 10 20 20 20 46 46 46 101 101 101 169 169 169 196 196 196 204 204 204 206 206 206 206 206 206 206 206 206 206 206 206 206 206 206 206 206 206 206 206 206 206 206 206 206 206 206 206 206 206 206 206 206 206 206 206 206 206 206 206 206 206 206 206 206 206 206 206 206 206 206 206 206 206 206 206 206 206 206 206 206 206 206 206 206 206 206 206 206 206 206 206 206 206 206 206 206 206 206 206 206 206 206 206 206 206 206 206 206 206 206 206 206 206 206 206 206 206 206 206 206 206 206 206 206 206 206 206 206 206 206 206 206 206 206 206 206 206 206 206 206 206 206 206 206 206 206 206 206 206 206 206 206 206 206 206 206 206 206 206 206 206 206 206 206 206 206 206 206 206 206 206 206 206 206 206 206 206 206 206 206 206 206 206 206 206 206 206 206 206 206 206 206 206 206 206 206 206 206 206 206 206 206 206 206 206 206 206 206 206 206 206 206 206 206 206 206 206 206 206 206 206 206 206 206 206 206 206 206 206 206 206 206 206 206 206 206 206 206 206 206 206 206 206 206 206 206 206 206 206 206 206 206 206 206 206 206 206 206 206 206 206 206 206 206 206 206 206 206 206 206 206 206 206 206 206 206 206 204 204 204 196 196 196 169 169 169 101 101 101 48 48 48 26 26 26 28 28 28 87 87 87 147 147 147 206 206 206 249 249 249 253 253 253 255 255 255 254 254 254 254 254 254 255 255 255 255 255 255 255 255 255 255 255 255 255 255 255 255 255 255 255 255 255 255 255 255 255 255 255 255 255 255 255 255 255 255 255 255 255 255 255 255 255 255 255 255 255 255 255 255 255 255 255 255 255 255 255 255 255 255 255 255 255 255 255 255 255 255 255 255 255 255 255 255 255 255 255 255 255 255 255 255 255 255 255 255 255 255 255 255 255 255 255 255 255 255 255 255 255 255 255 255 255 255 255 255 255 255 255 255 255 255 255 255 255 255 255 255 255 255 255 255 255 255 255 255 255 255 255 255 255 255 255 255 255 255 255 255 255 255 255 255 255 255 255 255 255 255 255 255 255 255 255 255 255 255 255 255 255 255 255 255 255 255 255 255 255 255 255 255 255 255 255 255 255 255 255 255 255 255 255 255 255 255 255 255 255 255 255 255 255 255 255 255 255 255 255 255 255 255 255 255 255 255 255 255 255 255 255 255 255 255 
255 255 255 255 255 255 255 255 255 255 255 255 255 255 255 255 255 255 255 255 255 255 255 255 255 255 255 255 255 255 255 255 255 255 255 255 255 255 255 255 255 255 255 255 255 255 255 255 255 255 255 255 255 255 255 255 255 255 255 255 255 255 255 255 255 255 255 255 255 255 255 255 255 255 255 255 255 255 255 255 255 255 255 255 255 255 255 255 255 255 255 255 255 255 255 255 255 255 255 255 255 255 255 255 255 255 255 255 255 255 255 255 255 255 255 255 255 255 255 255 255 255 255 255 255 255 255 255 255 255 255 255 255 255 255 255 255 255 255 255 255 255 255 255 255 255 255 255 255 255 255 255 255 255 255 255 255 255 255 255 255 255 255 255 255 255 255 255 255 255 255 255 255 255 255 255 255 255 255 255 255 255 255 255 255 255 255 255 255 255 255 255 254 254 254 254 254 254 254 254 254 254 254 254 255 255 255 255 255 255 254 254 254 251 251 251 246 246 246 209 209 209 160 160 160 103 103 103 43 43 43 19 19 19 11 11 11 44 44 44 95 95 95 141 141 141 184 184 184 200 200 200 202 202 202 203 203 203 203 203 203 203 203 203 203 203 203 203 203 203 203 203 203 203 203 203 203 203 203 203 203 203 203 203 203 203 203 203 203 203 203 203 203 203 203 203 203 203 203 203 203 203 203 203 203 203 203 203 203 203 203 203 203 203 203 203 203 203 203 203 203 203 203 203 203 203 203 203 203 203 203 203 203 203 203 203 203 203 203 203 203 203 203 203 203 203 203 203 203 203 203 203 203 203 203 203 203 203 203 203 203 203 203 203 203 203 203 203 203 203 203 203 203 203 203 203 203 203 203 203 203 203 203 203 203 203 203 203 203 203 203 203 203 203 203 203 203 203 203 203 203 203 203 203 203 203 203 203 203 203 203 203 203 203 203 203 203 203 203 203 203 203 203 203 203 203 203 203 203 203 203 203 203 203 203 203 203 203 203 203 203 203 203 203 203 203 203 203 203 203 203 203 203 203 203 203 203 203 203 203 203 203 203 203 203 203 203 203 203 203 203 203 203 203 203 203 203 203 203 203 203 203 203 203 203 203 203 203 203 203 203 203 203 203 203 203 203 203 203 203 203 203 203 203 203 203 203 203 203 203 203 203 203 202 202 202 200 200 200 184 184 184 141 141 141 95 95 95 46 46 46 20 20 20 50 50 50 91 91 91 157 157 157 211 211 211 236 236 236 254 254 254 254 254 254 254 254 254 254 254 254 255 255 255 255 255 255 255 255 255 255 255 255 255 255 255 255 255 255 255 255 255 255 255 255 255 255 255 255 255 255 255 255 255 255 255 255 255 255 255 255 255 255 255 255 255 255 255 255 255 255 255 255 255 255 255 255 255 255 255 255 255 255 255 255 255 255 255 255 255 255 255 255 255 255 255 255 255 255 255 255 255 255 255 255 255 255 255 255 255 255 255 255 255 255 255 255 255 255 255 255 255 255 255 255 255 255 255 255 255 255 255 255 255 255 255 255 255 255 255 255 255 255 255 255 255 255 255 255 255 255 255 255 255 255 255 255 255 255 255 255 255 255 255 255 255 255 255 255 255 255 255 255 255 255 255 255 255 255 255 255 255 255 255 255 255 255 255 255 255 255 255 255 255 255 255 255 255 255 255 255 255 255 255 255 255 255 255 255 255 255 255 255 255 255 255 255 255 255 255 255 255 255 255 255 255 255 255 
255 255 255 255 255 255 255 255 255 255 255 255 255 255 255 255 255 255 255 255 255 255 255 255 255 255 255 255 255 255 255 255 255 255 255 255 255 255 255 255 255 255 255 255 255 255 255 255 255 255 255 255 255 255 255 255 255 255 255 255 255 255 255 255 255 255 255 255 255 255 255 255 255 255 255 255 255 255 255 255 255 255 255 255 255 255 255 255 255 255 255 255 255 255 255 255 255 255 255 255 255 255 255 255 255 255 255 255 255 255 255 255 255 255 255 255 255 255 255 255 255 255 255 255 255 255 255 255 255 255 255 255 255 255 255 255 255 255 255 255 255 255 255 255 255 255 255 255 255 255 255 255 255 255 255 255 255 255 255 255 255 255 255 255 255 255 255 255 255 255 255 255 255 255 255 255 255 255 255 255 255 255 255 255 255 255 255 255 255 255 255 255 254 254 254 254 254 254 254 254 254 254 254 254 255 255 255 255 255 255 254 254 254 247 247 247 237 237 237 175 175 175 93 93 93 45 45 45 12 12 12 8 8 8 16 16 16 71 71 71 147 147 147 181 181 181 195 195 195 200 200 200 200 200 200 200 200 200 200 200 200 200 200 200 200 200 200 200 200 200 200 200 200 200 200 200 200 200 200 200 200 200 200 200 200 200 200 200 200 200 200 200 200 200 200 200 200 200 200 200 200 200 200 200 200 200 200 200 200 200 200 200 200 200 200 200 200 200 200 200 200 200 200 200 200 200 200 200 200 200 200 200 200 200 200 200 200 200 200 200 200 200 200 200 200 200 200 200 200 200 200 200 200 200 200 200 200 200 200 200 200 200 200 200 200 200 200 200 200 200 200 200 200 200 200 200 200 200 200 200 200 200 200 200 200 200 200 200 200 200 200 200 200 200 200 200 200 200 200 200 200 200 200 200 200 200 200 200 200 200 200 200 200 200 200 200 200 200 200 200 200 200 200 200 200 200 200 200 200 200 200 200 200 200 200 200 200 200 200 200 200 200 200 200 200 200 200 200 200 200 200 200 200 200 200 200 200 200 200 200 200 200 200 200 200 200 200 200 200 200 200 200 200 200 200 200 200 200 200 200 200 200 200 200 200 200 200 200 200 200 200 200 200 200 200 200 200 200 200 200 200 200 200 200 200 200 200 200 200 200 200 200 200 200 200 200 200 200 200 195 195 195 181 181 181 147 147 147 71 71 71 18 18 18 15 15 15 35 35 35 106 106 106 170 170 170 218 218 218 253 253 253 254 254 254 254 254 254 254 254 254 254 254 254 254 254 254 254 254 254 254 254 254 254 254 254 255 255 255 255 255 255 255 255 255 255 255 255 255 255 255 255 255 255 255 255 255 255 255 255 255 255 255 255 255 255 255 255 255 255 255 255 255 255 255 255 255 255 255 255 255 255 255 255 255 255 255 255 255 255 255 255 255 255 255 255 255 255 255 255 255 255 255 255 255 255 255 255 255 255 255 255 255 255 255 255 255 255 255 255 255 255 255 255 255 255 255 255 255 255 255 255 255 255 255 255 255 255 255 255 255 255 255 255 255 255 255 255 255 255 255 255 255 255 255 255 255 255 255 255 255 255 255 255 255 255 255 255 255 255 255 255 255 255 255 255 255 255 255 255 255 255 255 255 255 255 255 255 255 255 255 255 255 255 255 255 255 255 255 255 255 255 255 255 255 255 255 255 255 255 255 255 255 255 255 255 255 255 255 255 255 255 255 255 255 255 255 255 
255 255 255 255 255 255 255 255 255 255 255 255 255 255 255 255 255 255 255 255 255 255 255 255 255 255 255 255 255 255 255 255 255 255 255 255 255 255 255 255 255 255 255 255 255 255 255 255 255 255 255 255 255 255 255 255 255 255 255 255 255 255 255 255 255 255 255 255 255 255 255 255 255 255 255 255 255 255 255 255 255 255 255 255 255 255 255 255 255 255 255 255 255 255 255 255 255 255 255 255 255 255 255 255 255 255 255 255 255 255 255 255 255 255 255 255 255 255 255 255 255 255 255 255 255 255 255 255 255 255 255 255 255 255 255 255 255 255 255 255 255 255 255 255 255 255 255 255 255 255 255 255 255 255 255 255 255 255 255 255 255 255 255 255 255 255 255 255 255 255 255 255 255 255 255 255 255 255 255 255 255 255 255 255 255 255 255 255 255 255 255 255 254 254 254 254 254 254 254 254 254 254 254 254 255 255 255 253 253 253 251 251 251 221 221 221 181 181 181 122 122 122 54 54 54 22 22 22 5 5 5 23 23 23 56 56 56 107 107 107 166 166 166 189 189 189 195 195 195 197 197 197 197 197 197 197 197 197 197 197 197 197 197 197 197 197 197 197 197 197 197 197 197 197 197 197 197 197 197 197 197 197 197 197 197 197 197 197 197 197 197 197 197 197 197 197 197 197 197 197 197 197 197 197 197 197 197 197 197 197 197 197 197 197 197 197 197 197 197 197 197 197 197 197 197 197 197 197 197 197 197 197 197 197 197 197 197 197 197 197 197 197 197 197 197 197 197 197 197 197 197 197 197 197 197 197 197 197 197 197 197 197 197 197 197 197 197 197 197 197 197 197 197 197 197 197 197 197 197 197 197 197 197 197 197 197 197 197 197 197 197 197 197 197 197 197 197 197 197 197 197 197 197 197 197 197 197 197 197 197 197 197 197 197 197 197 197 197 197 197 197 197 197 197 197 197 197 197 197 197 197 197 197 197 197 197 197 197 197 197 197 197 197 197 197 197 197 197 197 197 197 197 197 197 197 197 197 197 197 197 197 197 197 197 197 197 197 197 197 197 197 197 197 197 197 197 197 197 197 197 197 197 197 197 197 197 197 197 197 197 197 197 197 197 197 197 197 197 197 197 197 197 197 197 197 197 197 197 197 197 197 197 197 197 197 197 197 197 197 195 195 195 189 189 189 166 166 166 107 107 107 57 57 57 26 26 26 17 17 17 61 61 61 111 111 111 178 178 178 229 229 229 244 244 244 254 254 254 254 254 254 254 254 254 254 254 254 254 254 254 254 254 254 254 254 254 255 255 255 255 255 255 255 255 255 255 255 255 255 255 255 255 255 255 255 255 255 255 255 255 255 255 255 255 255 255 255 255 255 255 255 255 255 255 255 255 255 255 255 255 255 255 255 255 255 255 255 255 255 255 255 255 255 255 255 255 255 255 255 255 255 255 255 255 255 255 255 255 255 255 255 255 255 255 255 255 255 255 255 255 255 255 255 255 255 255 255 255 255 255 255 255 255 255 255 255 255 255 255 255 255 255 255 255 255 255 255 255 255 255 255 255 255 255 255 255 255 255 255 255 255 255 255 255 255 255 255 255 255 255 255 255 255 255 255 255 255 255 255 255 255 255 255 255 255 255 255 255 255 255 255 255 255 255 255 255 255 255 255 255 255 255 255 255 255 255 255 255 255 255 255 255 255 255 255 255 255 255 255 255 255 255 255 255 255 255 255 255 
255 255 255 255 255 255 255 255 255 255 255 255 255 255 255 255 255 255 255 255 255 255 255 255 255 255 255 255 255 255 255 255 255 255 255 255 255 255 255 255 255 255 255 255 255 255 255 255 255 255 255 255 255 255 255 255 255 255 255 255 255 255 255 255 255 255 255 255 255 255 255 255 255 255 255 255 255 255 255 255 255 255 255 255 255 255 255 255 255 255 255 255 255 255 255 255 255 255 255 255 255 255 255 255 255 255 255 255 255 255 255 255 255 255 255 255 255 255 255 255 255 255 255 255 255 255 255 255 255 255 255 255 255 255 255 255 255 255 255 255 255 255 255 255 255 255 255 255 255 255 255 255 255 255 255 255 255 255 255 255 255 255 255 255 255 255 255 255 255 255 255 255 255 255 255 255 255 255 255 255 255 255 255 255 255 255 255 255 255 255 255 255 254 254 254 254 254 254 255 255 255 255 255 255 254 254 254 251 251 251 247 247 247 193 193 193 120 120 120 66 66 66 18 18 18 3 3 3 1 1 1 41 41 41 100 100 100 144 144 144 181 181 181 193 193 193 194 194 194 194 194 194 194 194 194 194 194 194 194 194 194 194 194 194 194 194 194 194 194 194 194 194 194 194 194 194 194 194 194 194 194 194 194 194 194 194 194 194 194 194 194 194 194 194 194 194 194 194 194 194 194 194 194 194 194 194 194 194 194 194 194 194 194 194 194 194 194 194 194 194 194 194 194 194 194 194 194 194 194 194 194 194 194 194 194 194 194 194 194 194 194 194 194 194 194 194 194 194 194 194 194 194 194 194 194 194 194 194 194 194 194 194 194 194 194 194 194 194 194 194 194 194 194 194 194 194 194 194 194 194 194 194 194 194 194 194 194 194 194 194 194 194 194 194 194 194 194 194 194 194 194 194 194 194 194 194 194 194 194 194 194 194 194 194 194 194 194 194 194 194 194 194 194 194 194 194 194 194 194 194 194 194 194 194 194 194 194 194 194 194 194 194 194 194 194 194 194 194 194 194 194 194 194 194 194 194 194 194 194 194 194 194 194 194 194 194 194 194 194 194 194 194 194 194 194 194 194 194 194 194 194 194 194 194 194 194 194 194 194 194 194 194 194 194 194 194 194 194 194 194 194 194 194 194 194 194 194 194 194 194 194 194 194 194 194 194 194 194 194 194 194 194 193 193 193 181 181 181 144 144 144 100 100 100 42 42 42 4 4 4 17 17 17 51 51 51 134 134 134 203 203 203 233 233 233 255 255 255 254 254 254 254 254 254 254 254 254 254 254 254 254 254 254 254 254 254 255 255 255 255 255 255 255 255 255 255 255 255 255 255 255 255 255 255 255 255 255 255 255 255 255 255 255 255 255 255 255 255 255 255 255 255 255 255 255 255 255 255 255 255 255 255 255 255 255 255 255 255 255 255 255 255 255 255 255 255 255 255 255 255 255 255 255 255 255 255 255 255 255 255 255 255 255 255 255 255 255 255 255 255 255 255 255 255 255 255 255 255 255 255 255 255 255 255 255 255 255 255 255 255 255 255 255 255 255 255 255 255 255 255 255 255 255 255 255 255 255 255 255 255 255 255 255 255 255 255 255 255 255 255 255 255 255 255 255 255 255 255 255 255 255 255 255 255 255 255 255 255 255 255 255 255 255 255 255 255 255 255 255 255 255 255 255 255 255 255 255 255 255 255 255 255 255 255 255 255 255 255 255 255 255 255 255 255 255 255 255 255 
255 255 255 255 255 255 255 255 255 255 255 255 255 255 255 255 255 255 255 255 255 255 255 255 255 255 255 255 255 255 255 255 255 255 255 255 255 255 255 255 255 255 255 255 255 255 255 255 255 255 255 255 255 255 255 255 255 255 255 255 255 255 255 255 255 255 255 255 255 255 255 255 255 255 255 255 255 255 255 255 255 255 255 255 255 255 255 255 255 255 255 255 255 255 255 255 255 255 255 255 255 255 255 255 255 255 255 255 255 255 255 255 255 255 255 255 255 255 255 255 255 255 255 255 255 255 255 255 255 255 255 255 255 255 255 255 255 255 255 255 255 255 255 255 255 255 255 255 255 255 255 255 255 255 255 255 255 255 255 255 255 255 255 255 255 255 255 255 255 255 255 255 255 255 255 255 255 255 255 255 255 255 255 255 255 255 255 255 255 255 255 255 255 255 255 254 254 254 255 255 255 254 254 254 254 254 254 235 235 235 208 208 208 148 148 148 74 74 74 35 35 35 8 8 8 8 8 8 19 19 19 67 67 67 131 131 131 165 165 165 185 185 185 191 191 191 191 191 191 191 191 191 190 190 190 191 191 191 191 191 191 191 191 191 191 191 191 191 191 191 191 191 191 191 191 191 191 191 191 191 191 191 191 191 191 190 190 190 189 189 189 189 189 189 188 188 188 187 187 187 186 186 186 186 186 186 185 185 185 185 185 185 185 185 185 186 186 186 186 186 186 187 187 187 188 188 188 189 189 189 190 190 190 191 191 191 191 191 191 191 191 191 191 191 191 191 191 191 191 191 191 191 191 191 191 191 191 191 191 191 191 191 191 191 191 191 191 191 191 191 191 191 191 191 191 191 191 191 191 191 191 191 191 191 191 191 191 191 191 191 191 191 191 191 191 191 191 191 191 191 191 191 191 191 191 191 191 191 191 191 191 191 191 191 191 191 191 191 191 191 191 191 191 191 191 191 191 191 191 191 191 191 191 191 191 191 191 191 191 191 191 191 191 191 191 191 191 191 191 191 191 191 191 191 191 191 191 191 191 191 191 191 191 191 191 191 191 191 191 191 191 191 191 191 191 191 191 191 191 191 191 191 191 191 191 191 191 191 191 191 191 191 191 191 191 191 191 191 191 191 191 191 191 191 191 191 191 191 191 191 191 191 191 190 190 190 191 191 191 191 191 191 191 191 191 185 185 185 165 165 165 132 132 132 67 67 67 20 20 20 15 15 15 28 28 28 86 86 86 144 144 144 202 202 202 245 245 245 250 250 250 254 254 254 254 254 254 254 254 254 254 254 254 254 254 254 255 255 255 255 255 255 255 255 255 255 255 255 255 255 255 255 255 255 255 255 255 255 255 255 255 255 255 255 255 255 255 255 255 255 255 255 255 255 255 255 255 255 255 255 255 255 255 255 255 255 255 255 255 255 255 255 255 255 255 255 255 255 255 255 255 255 255 255 255 255 255 255 255 255 255 255 255 255 255 255 255 255 255 255 255 255 255 255 255 255 255 255 255 255 255 255 255 255 255 255 255 255 255 255 255 255 255 255 255 255 255 255 255 255 255 255 255 255 255 255 255 255 255 255 255 255 255 255 255 255 255 255 255 255 255 255 255 255 255 255 255 255 255 255 255 255 255 255 255 255 255 255 255 255 255 255 255 255 255 255 255 255 255 255 255 255 255 255 255 255 255 255 255 255 255 255 255 255 255 255 255 255 255 255 255 255 255 255 255 255 255 255 
255 255 255 255 255 255 255 255 255 255 255 255 255 255 255 255 255 255 255 255 255 255 255 255 255 255 255 255 255 255 255 255 255 255 255 255 255 255 255 255 255 255 255 255 255 255 255 255 255 255 255 255 255 255 255 255 255 255 255 255 255 255 255 255 255 255 255 255 255 255 255 255 255 255 255 255 255 255 255 255 255 255 255 255 255 255 255 255 255 255 255 255 255 255 255 255 255 255 255 255 255 255 255 255 255 255 255 255 255 255 255 255 255 255 255 255 255 255 255 255 255 255 255 255 255 255 255 255 255 255 255 255 255 255 255 255 255 255 255 255 255 255 255 255 255 255 255 255 255 255 255 255 255 255 255 255 255 255 255 255 255 255 255 255 255 255 255 255 255 255 255 255 255 255 255 255 255 255 255 255 255 255 255 255 255 255 255 255 255 255 255 255 255 255 255 255 255 255 254 254 254 254 254 254 254 254 254 216 216 216 165 165 165 100 100 100 30 30 30 7 7 7 2 2 2 16 16 16 39 39 39 93 93 93 161 161 161 183 183 183 186 186 186 187 187 187 187 187 187 187 187 187 187 187 187 187 187 187 187 187 187 187 187 187 187 187 187 187 187 187 187 187 187 187 187 187 187 187 187 187 187 187 187 187 187 186 186 186 184 184 184 182 182 182 181 181 181 179 179 179 178 178 178 176 176 176 176 176 176 175 175 175 176 176 176 177 177 177 178 178 178 179 179 179 182 182 182 184 184 184 186 186 186 187 187 187 187 187 187 187 187 187 187 187 187 187 187 187 187 187 187 187 187 187 187 187 187 187 187 187 187 187 187 187 187 187 187 187 187 187 187 187 187 187 187 187 187 187 187 187 187 187 187 187 187 187 187 187 187 187 187 187 187 187 187 187 187 187 187 187 187 187 187 187 187 187 187 187 187 187 187 187 187 187 187 187 187 187 187 187 187 187 187 187 187 187 187 187 187 187 187 187 187 187 187 187 187 187 187 187 187 187 187 187 187 187 187 187 187 187 187 187 187 187 187 187 187 187 187 187 187 187 187 187 187 187 187 187 187 187 187 187 187 187 187 187 187 187 187 187 187 187 187 187 187 187 187 187 187 187 187 187 187 187 187 187 187 187 187 187 187 187 187 187 187 187 187 187 187 187 187 187 187 187 187 187 187 187 187 187 187 187 187 187 187 187 187 187 184 184 184 162 162 162 94 94 94 39 39 39 17 17 17 9 9 9 37 37 37 82 82 82 167 167 167 233 233 233 246 246 246 255 255 255 254 254 254 254 254 254 254 254 254 254 254 254 255 255 255 255 255 255 255 255 255 255 255 255 255 255 255 255 255 255 255 255 255 255 255 255 255 255 255 255 255 255 255 255 255 255 255 255 255 255 255 255 255 255 255 255 255 255 255 255 255 255 255 255 255 255 255 255 255 255 255 255 255 255 255 255 255 255 255 255 255 255 255 255 255 255 255 255 255 255 255 255 255 255 255 255 255 255 255 255 255 255 255 255 255 255 255 255 255 255 255 255 255 255 255 255 255 255 255 255 255 255 255 255 255 255 255 255 255 255 255 255 255 255 255 255 255 255 255 255 255 255 255 255 255 255 255 255 255 255 255 255 255 255 255 255 255 255 255 255 255 255 255 255 255 255 255 255 255 255 255 255 255 255 255 255 255 255 255 255 255 255 255 255 255 255 255 255 255 255 255 255 255 255 255 255 255 255 255 255 255 255 255 255 
255 255 255 255 255 255 255 255 255 255 255 255 255 255 255 255 255 255 255 255 255 255 255 255 255 255 255 255 255 255 255 255 255 255 255 255 255 255 255 255 255 255 255 255 255 255 255 255 255 255 255 255 255 255 255 255 255 255 255 255 255 255 255 255 255 255 255 255 255 255 255 255 255 255 255 255 255 255 255 255 255 255 255 255 255 255 255 255 255 255 255 255 255 255 255 255 255 255 255 255 255 255 255 255 255 255 255 255 255 255 255 255 255 255 255 255 255 255 255 255 255 255 255 255 255 255 255 255 255 255 255 255 255 255 255 255 255 255 255 255 255 255 255 255 255 255 255 255 255 255 255 255 255 255 255 255 255 255 255 255 255 255 255 255 255 255 255 255 255 255 255 255 255 255 255 255 255 255 255 255 255 255 255 255 255 255 255 255 255 255 255 255 255 255 255 255 255 255 255 255 255 247 247 247 236 236 236 181 181 181 111 111 111 59 59 59 15 15 15 2 2 2 1 1 1 32 32 32 75 75 75 122 122 122 169 169 169 184 184 184 184 184 184 184 184 184 184 184 184 184 184 184 184 184 184 184 184 184 184 184 184 184 184 184 184 184 184 184 184 184 183 183 183 181 181 181 178 178 178 174 174 174 169 169 169 163 163 163 156 156 156 151 151 151 146 146 146 143 143 143 140 140 140 139 139 139 138 138 138 138 138 138 138 138 138 140 140 140 141 141 141 144 144 144 149 149 149 154 154 154 160 160 160 166 166 166 172 172 172 176 176 176 180 180 180 182 182 182 183 183 183 184 184 184 184 184 184 184 184 184 184 184 184 184 184 184 184 184 184 184 184 184 184 184 184 184 184 184 184 184 184 184 184 184 184 184 184 184 184 184 184 184 184 184 184 184 184 184 184 184 184 184 184 184 184 184 184 184 184 184 184 184 184 184 184 184 184 184 184 184 184 184 184 184 184 184 184 184 184 184 184 184 184 184 184 184 184 184 184 184 184 184 184 184 184 184 184 184 184 184 184 184 184 184 184 184 184 184 184 184 184 184 184 184 184 184 184 184 184 184 184 184 184 184 184 184 184 184 184 184 184 184 184 184 184 184 184 184 184 184 184 184 184 184 184 184 184 184 184 184 184 184 184 184 184 184 184 184 184 184 184 184 184 184 184 184 184 184 184 184 184 184 184 184 184 184 184 184 184 184 184 169 169 169 122 122 122 76 76 76 32 32 32 5 5 5 18 18 18 48 48 48 121 121 121 185 185 185 224 224 224 254 254 254 254 254 254 254 254 254 254 254 254 255 255 255 255 255 255 255 255 255 255 255 255 255 255 255 255 255 255 255 255 255 255 255 255 255 255 255 255 255 255 255 255 255 255 255 255 255 255 255 255 255 255 255 255 255 255 255 255 255 255 255 255 255 255 255 255 255 255 255 255 255 255 255 255 255 255 255 255 255 255 255 255 255 255 255 255 255 255 255 255 255 255 255 255 255 255 255 255 255 255 255 255 255 255 255 255 255 255 255 255 255 255 255 255 255 255 255 255 255 255 255 255 255 255 255 255 255 255 255 255 255 255 255 255 255 255 255 255 255 255 255 255 255 255 255 255 255 255 255 255 255 255 255 255 255 255 255 255 255 255 255 255 255 255 255 255 255 255 255 255 255 255 255 255 255 255 255 255 255 255 255 255 255 255 255 255 255 255 255 255 255 255 255 255 255 255 255 255 255 255 255 255 255 255 255 
255 255 255 255 255 255 255 255 255 255 255 255 255 255 255 255 255 255 255 255 255 255 255 255 255 255 255 255 255 255 255 255 255 255 255 255 255 255 255 255 255 255 255 255 255 255 255 255 255 255 255 255 255 255 255 255 255 255 255 255 255 255 255 255 255 255 255 255 255 255 255 255 255 255 255 255 255 255 255 255 255 255 255 255 255 255 255 255 255 255 255 255 255 255 255 255 255 255 255 255 255 255 255 255 255 255 255 255 255 255 255 255 255 255 255 255 255 255 255 255 255 255 255 255 255 255 255 255 255 255 255 255 255 255 255 255 255 255 255 255 255 255 255 255 255 255 255 255 255 255 255 255 255 255 255 255 255 255 255 255 255 255 255 255 255 255 255 255 255 255 255 255 255 255 255 255 255 255 255 255 255 255 255 255 255 255 255 255 255 255 255 255 255 255 255 255 255 255 255 255 255 238 238 238 216 216 216 144 144 144 54 54 54 19 19 19 4 4 4 1 1 1 2 2 2 48 48 48 114 114 114 150 150 150 174 174 174 181 181 181 181 181 181 181 181 181 181 181 181 181 181 181 181 181 181 180 180 180 180 180 180 181 181 181 181 181 181 180 180 180 179 179 179 175 175 175 169 169 169 160 160 160 149 149 149 137 137 137 126 126 126 116 116 116 108 108 108 103 103 103 100 100 100 98 98 98 97 97 97 97 97 97 97 97 97 99 99 99 101 101 101 106 106 106 112 112 112 121 121 121 132 132 132 143 143 143 155 155 155 164 164 164 172 172 172 177 177 177 179 179 179 181 181 181 181 181 181 181 181 181 181 181 181 181 181 181 181 181 181 181 181 181 181 181 181 181 181 181 181 181 181 181 181 181 181 181 181 181 181 181 181 181 181 181 181 181 181 181 181 181 181 181 181 181 181 181 181 181 181 181 181 181 181 181 181 181 181 181 181 181 181 181 181 181 181 181 181 181 181 181 181 181 181 181 181 181 181 181 181 181 181 181 181 181 181 181 181 181 181 181 181 181 181 181 181 181 181 181 181 181 181 181 181 181 181 181 181 181 181 181 181 181 181 181 181 181 181 181 181 181 181 181 181 181 181 181 181 181 181 181 181 181 181 181 181 181 181 181 181 181 181 181 181 181 181 181 181 181 181 181 181 181 181 181 181 181 181 181 181 181 181 181 181 181 181 181 181 181 181 181 181 174 174 174 151 151 151 115 115 115 49 49 49 2 2 2 3 3 3 19 19 19 73 73 73 131 131 131 201 201 201 252 252 252 253 253 253 254 254 254 255 255 255 255 255 255 255 255 255 255 255 255 255 255 255 255 255 255 255 255 255 255 255 255 255 255 255 255 255 255 255 255 255 255 255 255 255 255 255 255 255 255 255 255 255 255 255 255 255 255 255 255 255 255 255 255 255 255 255 255 255 255 255 255 255 255 255 255 255 255 255 255 255 255 255 255 255 255 255 255 255 255 255 255 255 255 255 255 255 255 255 255 255 255 255 255 255 255 255 255 255 255 255 255 255 255 255 255 255 255 255 255 255 255 255 255 255 255 255 255 255 255 255 255 255 255 255 255 255 255 255 255 255 255 255 255 255 255 255 255 255 255 255 255 255 255 255 255 255 255 255 255 255 255 255 255 255 255 255 255 255 255 255 255 255 255 255 255 255 255 255 255 255 255 255 255 255 255 255 255 255 255 255 255 255 255 255 255 255 255 255 255 255 255 255 255 255 255 
255 255 255 255 255 255 255 255 255 255 255 255 255 255 255 255 255 255 255 255 255 255 255 255 255 255 255 255 255 255 255 255 255 255 255 255 255 255 255 255 255 255 255 255 255 255 255 255 255 255 255 255 255 255 255 255 255 255 255 255 255 255 255 255 255 255 255 255 255 255 255 255 255 255 255 255 255 255 255 255 255 255 255 255 255 255 255 255 255 255 255 255 255 255 255 255 255 255 255 255 255 255 255 255 255 255 255 255 255 255 255 255 255 255 255 255 255 255 255 255 255 255 255 255 255 255 255 255 255 255 255 255 255 255 255 255 255 255 255 255 255 255 255 255 255 255 255 255 255 255 255 255 255 255 255 255 255 255 255 255 255 255 255 255 255 255 255 255 255 255 255 255 255 255 255 255 255 255 255 255 255 255 255 255 255 255 255 255 255 255 255 255 255 255 255 253 253 253 251 251 251 214 214 214 164 164 164 100 100 100 31 31 31 8 8 8 2 2 2 7 7 7 17 17 17 68 68 68 134 134 134 163 163 163 174 174 174 178 178 178 178 178 178 178 178 178 178 178 178 178 178 178 177 177 177 177 177 177 177 177 177 175 175 175 172 172 172 165 165 165 156 156 156 145 145 145 133 133 133 122 122 122 113 113 113 105 105 105 100 100 100 97 97 97 95 95 95 95 95 95 95 95 95 96 96 96 96 96 96 96 96 96 96 96 96 95 95 95 95 95 95 95 95 95 95 95 95 98 98 98 102 102 102 109 109 109 118 118 118 128 128 128 140 140 140 151 151 151 161 161 161 168 168 168 173 173 173 176 176 176 177 177 177 178 178 178 178 178 178 178 178 178 178 178 178 178 178 178 178 178 178 178 178 178 178 178 178 178 178 178 178 178 178 178 178 178 178 178 178 178 178 178 178 178 178 178 178 178 178 178 178 178 178 178 178 178 178 178 178 178 178 178 178 178 178 178 178 178 178 178 178 178 178 178 178 178 178 178 178 178 178 178 178 178 178 178 178 178 178 178 178 178 178 178 178 178 178 178 178 178 178 178 178 178 178 178 178 178 178 178 178 178 178 178 178 178 178 178 178 178 178 178 178 178 178 178 178 178 178 178 178 178 178 178 178 178 178 178 178 178 178 178 178 178 178 178 178 178 178 178 178 178 178 178 178 178 178 178 178 178 178 178 178 178 178 178 178 178 178 178 178 174 174 174 163 163 163 135 135 135 68 68 68 17 17 17 8 8 8 10 10 10 41 41 41 86 86 86 166 166 166 228 228 228 243 243 243 254 254 254 254 254 254 255 255 255 255 255 255 255 255 255 255 255 255 255 255 255 255 255 255 255 255 255 255 255 255 255 255 255 255 255 255 255 255 255 255 255 255 255 255 255 255 255 255 255 255 255 255 255 255 255 255 255 255 255 255 255 255 255 255 255 255 255 255 255 255 255 255 255 255 255 255 255 255 255 255 255 255 255 255 255 255 255 255 255 255 255 255 255 255 255 255 255 255 255 255 255 255 255 255 255 255 255 255 255 255 255 255 255 255 255 255 255 255 255 255 255 255 255 255 255 255 255 255 255 255 255 255 255 255 255 255 255 255 255 255 255 255 255 255 255 255 255 255 255 255 255 255 255 255 255 255 255 255 255 255 255 255 255 255 255 255 255 255 255 255 255 255 255 255 255 255 255 255 255 255 255 255 255 255 255 255 255 255 255 255 255 255 255 255 255 255 255 255 255 255 255 
255 255 255 255 255 255 255 255 255 255 255 255 255 255 255 255 255 255 255 255 255 255 255 255 255 255 255 255 255 255 255 255 255 255 255 255 255 255 255 255 255 255 255 255 255 255 255 255 255 255 255 255 255 255 255 255 255 255 255 255 255 255 255 255 255 255 255 255 255 255 255 255 255 255 255 255 255 255 255 255 255 255 255 255 255 255 255 255 255 255 255 255 255 255 255 255 255 255 255 255 255 255 255 255 255 255 255 255 255 255 255 255 255 255 255 255 255 255 255 255 255 255 255 255 255 255 255 255 255 255 255 255 255 255 255 255 255 255 255 255 255 255 255 255 255 255 255 255 255 255 255 255 255 255 255 255 255 255 255 255 255 255 255 255 255 255 255 255 255 255 255 255 255 255 255 255 255 255 255 255 255 255 255 255 255 255 255 255 255 255 255 255 255 255 255 252 252 252 247 247 247 187 187 187 107 107 107 55 55 55 13 13 13 1 1 1 0 0 0 15 15 15 35 35 35 87 87 87 152 152 152 173 173 173 174 174 174 174 174 174 174 174 174 174 174 174 174 174 174 174 174 174 174 174 174 174 174 174 173 173 173 168 168 168 162 162 162 148 148 148 130 130 130 112 112 112 93 93 93 82 82 82 74 74 74 73 73 73 75 75 75 80 80 80 86 86 86 92 92 92 96 96 96 99 99 99 102 102 102 102 102 102 101 101 101 98 98 98 93 93 93 88 88 88 82 82 82 77 77 77 72 72 72 73 73 73 78 78 78 88 88 88 104 104 104 122 122 122 141 141 141 155 155 155 165 165 165 171 171 171 173 173 173 174 174 174 174 174 174 174 174 174 174 174 174 174 174 174 174 174 174 174 174 174 174 174 174 174 174 174 174 174 174 174 174 174 174 174 174 174 174 174 174 174 174 174 174 174 174 174 174 174 174 174 174 174 174 174 174 174 174 174 174 174 174 174 174 174 174 174 174 174 174 174 174 174 174 174 174 174 174 174 174 174 174 174 174 174 174 174 174 174 174 174 174 174 174 174 174 174 174 174 174 174 174 174 174 174 174 174 174 174 174 174 174 174 174 174 174 174 174 174 174 174 174 174 174 174 174 174 174 174 174 174 174 174 174 174 174 174 174 174 174 174 174 174 174 174 174 174 174 174 174 174 174 174 174 174 174 174 174 174 174 174 174 174 174 174 174 174 174 174 174 174 173 173 173 152 152 152 87 87 87 35 35 35 15 15 15 3 3 3 12 12 12 43 43 43 129 129 129 200 200 200 231 231 231 254 254 254 254 254 254 254 254 254 255 255 255 255 255 255 255 255 255 255 255 255 255 255 255 255 255 255 255 255 255 255 255 255 255 255 255 255 255 255 255 255 255 255 255 255 255 255 255 255 255 255 255 255 255 255 255 255 255 255 255 255 255 255 255 255 255 255 255 255 255 255 255 255 255 255 255 255 255 255 255 255 255 255 255 255 255 255 255 255 255 255 255 255 255 255 255 255 255 255 255 255 255 255 255 255 255 255 255 255 255 255 255 255 255 255 255 255 255 255 255 255 255 255 255 255 255 255 255 255 255 255 255 255 255 255 255 255 255 255 255 255 255 255 255 255 255 255 255 255 255 255 255 255 255 255 255 255 255 255 255 255 255 255 255 255 255 255 255 255 255 255 255 255 255 255 255 255 255 255 255 255 255 255 255 255 255 255 255 255 255 255 255 255 255 255 255 255 255 255 255 255 
255 255 255 255 255 255 255 255 255 255 255 255 255 255 255 255 255 255 255 255 255 255 255 255 255 255 255 255 255 255 255 255 255 255 255 255 255 255 255 255 255 255 255 255 255 255 255 255 255 255 255 255 255 255 255 255 255 255 255 255 255 255 255 255 255 255 255 255 255 255 255 255 255 255 255 255 255 255 255 255 255 255 255 255 255 255 255 255 255 255 255 255 255 255 255 255 255 255 255 255 255 255 255 255 255 255 255 255 255 255 255 255 255 255 255 255 255 255 255 255 255 255 255 255 255 255 255 255 255 255 255 255 255 255 255 255 255 255 255 255 255 255 255 255 255 255 255 255 255 255 255 255 255 255 255 255 255 255 255 255 255 255 255 255 255 255 255 255 255 255 255 255 255 255 255 255 255 255 255 255 255 255 255 255 255 255 255 255 255 255 255 255 255 255 255 238 238 238 216 216 216 150 150 150 68 68 68 29 29 29 6 6 6 0 0 0 0 0 0 26 26 26 63 63 63 108 108 108 156 156 156 171 171 171 171 171 171 171 171 171 171 171 171 171 171 171 171 171 171 170 170 170 169 169 169 164 164 164 156 156 156 144 144 144 130 130 130 115 115 115 100 100 100 91 91 91 85 85 85 85 85 85 87 87 87 92 92 92 98 98 98 104 104 104 110 110 110 114 114 114 118 118 118 120 120 120 121 121 121 122 122 122 121 121 121 119 119 119 116 116 116 111 111 111 107 107 107 101 101 101 94 94 94 89 89 89 85 85 85 85 85 85 88 88 88 96 96 96 108 108 108 122 122 122 139 139 139 151 151 151 161 161 161 167 167 167 169 169 169 171 171 171 171 171 171 171 171 171 171 171 171 171 171 171 171 171 171 171 171 171 171 171 171 171 171 171 171 171 171 171 171 171 171 171 171 171 171 171 171 171 171 171 171 171 171 171 171 171 171 171 171 171 171 171 171 171 171 171 171 171 171 171 171 171 171 171 171 171 171 171 171 171 171 171 171 171 171 171 171 171 171 171 171 171 171 171 171 171 171 171 171 171 171 171 171 171 171 171 171 171 171 171 171 171 171 171 171 171 171 171 171 171 171 171 171 171 171 171 171 171 171 171 171 171 171 171 171 171 171 171 171 171 171 171 171 171 171 171 171 171 171 171 171 171 171 171 171 171 171 171 171 171 171 171 171 171 171 171 171 171 171 171 171 171 171 171 171 156 156 156 108 108 108 63 63 63 26 26 26 1 1 1 5 5 5 24 24 24 86 86 86 147 147 147 206 206 206 250 250 250 253 253 253 255 255 255 255 255 255 255 255 255 255 255 255 255 255 255 255 255 255 255 255 255 255 255 255 255 255 255 255 255 255 255 255 255 255 255 255 255 255 255 255 255 255 255 255 255 255 255 255 255 255 255 255 255 255 255 255 255 255 255 255 255 255 255 255 255 255 255 255 255 255 255 255 255 255 255 255 255 255 255 255 255 255 255 255 255 255 255 255 255 255 255 255 255 255 255 255 255 255 255 255 255 255 255 255 255 255 255 255 255 255 255 255 255 255 255 255 255 255 255 255 255 255 255 255 255 255 255 255 255 255 255 255 255 255 255 255 255 255 255 255 255 255 255 255 255 255 255 255 255 255 255 255 255 255 255 255 255 255 255 255 255 255 255 255 255 255 255 255 255 255 255 255 255 255 255 255 255 255 255 255 255 255 255 255 255 255 255 255 255 255 255 255 255 255 255 
255 255 255 255 255 255 255 255 255 255 255 255 255 255 255 255 255 255 255 255 255 255 255 255 255 255 255 255 255 255 255 255 255 255 255 255 255 255 255 255 255 255 255 255 255 255 255 255 255 255 255 255 255 255 255 255 255 255 255 255 255 255 255 255 255 255 255 255 255 255 255 255 255 255 255 255 255 255 255 255 255 255 255 255 255 255 255 255 255 255 255 255 255 255 255 255 255 255 255 255 255 255 255 255 255 255 255 255 255 255 255 255 255 255 255 255 255 255 255 255 255 255 255 255 255 255 255 255 255 255 255 255 255 255 255 255 255 255 255 255 255 255 255 255 255 255 255 255 255 255 255 255 255 255 255 255 255 255 255 255 255 255 255 255 255 255 255 255 255 255 255 255 255 255 255 255 255 255 255 255 255 255 255 255 255 255 255 255 255 255 255 255 255 255 255 223 223 223 181 181 181 111 111 111 32 32 32 7 7 7 2 2 2 0 0 0 0 0 0 39 39 39 92 92 92 129 129 129 159 159 159 167 167 167 167 167 167 167 167 167 167 167 167 167 167 167 167 167 167 166 166 166 164 164 164 153 153 153 138 138 138 118 118 118 95 95 95 80 80 80 70 70 70 72 72 72 82 82 82 94 94 94 108 108 108 119 119 119 129 129 129 135 135 135 139 139 139 141 141 141 142 142 142 143 143 143 143 143 143 143 143 143 143 143 143 142 142 142 142 142 142 140 140 140 137 137 137 132 132 132 124 124 124 113 113 113 100 100 100 87 87 87 75 75 75 71 71 71 73 73 73 87 87 87 109 109 109 130 130 130 148 148 148 159 159 159 164 164 164 167 167 167 167 167 167 167 167 167 167 167 167 167 167 167 167 167 167 167 167 167 167 167 167 167 167 167 167 167 167 167 167 167 167 167 167 167 167 167 167 167 167 167 167 167 167 167 167 167 167 167 167 167 167 167 167 167 167 167 167 167 167 167 167 167 167 167 167 167 167 167 167 167 167 167 167 167 167 167 167 167 167 167 167 167 167 167 167 167 167 167 167 167 167 167 167 167 167 167 167 167 167 167 167 167 167 167 167 167 167 167 167 167 167 167 167 167 167 167 167 167 167 167 167 167 167 167 167 167 167 167 167 167 167 167 167 167 167 167 167 167 167 167 167 167 167 167 167 167 167 167 167 167 167 167 167 167 167 167 167 167 167 167 167 167 167 167 167 159 159 159 129 129 129 92 92 92 39 39 39 0 0 0 1 1 1 10 10 10 44 44 44 91 91 91 179 179 179 245 245 245 251 251 251 255 255 255 255 255 255 255 255 255 255 255 255 255 255 255 255 255 255 255 255 255 255 255 255 255 255 255 255 255 255 255 255 255 255 255 255 255 255 255 255 255 255 255 255 255 255 255 255 255 255 255 255 255 255 255 255 255 255 255 255 255 255 255 255 255 255 255 255 255 255 255 255 255 255 255 255 255 255 255 255 255 255 255 255 255 255 255 255 255 255 255 255 255 255 255 255 255 255 255 255 255 255 255 255 255 255 255 255 255 255 255 255 255 255 255 255 255 255 255 255 255 255 255 255 255 255 255 255 255 255 255 255 255 255 255 255 255 255 255 255 255 255 255 255 255 255 255 255 255 255 255 255 255 255 255 255 255 255 255 255 255 255 255 255 255 255 255 255 255 255 255 255 255 255 255 255 255 255 255 255 255 255 255 255 255 255 255 255 255 255 255 255 255 255 255 
255 255 255 255 255 255 255 255 255 255 255 255 255 255 255 255 255 255 255 255 255 255 255 255 255 255 255 255 255 255 255 255 255 255 255 255 255 255 255 255 255 255 255 255 255 255 255 255 255 255 255 255 255 255 255 255 255 255 255 255 255 255 255 255 255 255 255 255 255 255 255 255 255 255 255 255 255 255 255 255 255 255 255 255 255 255 255 255 255 255 255 255 255 255 255 255 255 255 255 255 255 255 255 255 255 255 255 255 255 255 255 255 255 255 255 255 255 255 255 255 255 255 255 255 255 255 255 255 255 255 255 255 255 255 255 255 255 255 255 255 255 255 255 255 255 255 255 255 255 255 255 255 255 255 255 255 255 255 255 255 255 255 255 255 255 255 255 255 255 255 255 255 255 255 255 255 255 255 255 255 255 255 255 255 255 255 255 255 255 252 252 252 249 249 249 199 199 199 133 133 133 74 74 74 18 18 18 2 2 2 0 0 0 2 2 2 4 4 4 49 49 49 111 111 111 142 142 142 159 159 159 164 164 164 164 164 164 164 164 164 164 164 164 163 163 163 161 161 161 154 154 154 144 144 144 128 128 128 109 109 109 94 94 94 83 83 83 80 80 80 83 83 83 91 91 91 102 102 102 111 111 111 119 119 119 123 123 123 124 124 124 124 124 124 122 122 122 120 120 120 117 117 117 116 116 116 115 115 115 115 115 115 115 115 115 116 116 116 118 118 118 120 120 120 123 123 123 124 124 124 124 124 124 120 120 120 114 114 114 105 105 105 95 95 95 86 86 86 79 79 79 80 80 80 89 89 89 102 102 102 121 121 121 137 137 137 150 150 150 159 159 159 162 162 162 164 164 164 164 164 164 164 164 164 164 164 164 164 164 164 164 164 164 164 164 164 164 164 164 164 164 164 164 164 164 164 164 164 164 164 164 164 164 164 164 164 164 164 164 164 164 164 164 164 164 164 164 164 164 164 164 164 164 164 164 164 164 164 164 164 164 164 164 164 164 164 164 164 164 164 164 164 164 164 164 164 164 164 164 164 164 164 164 164 164 164 164 164 164 164 164 164 164 164 164 164 164 164 164 164 164 164 164 164 164 164 164 164 164 164 164 164 164 164 164 164 164 164 164 164 164 164 164 164 164 164 164 164 164 164 164 164 164 164 164 164 164 164 164 164 164 164 164 164 164 164 164 164 164 164 164 164 164 164 164 164 164 159 159 159 142 142 142 111 111 111 49 49 49 4 4 4 2 2 2 5 5 5 23 23 23 59 59 59 145 145 145 214 214 214 238 238 238 255 255 255 255 255 255 255 255 255 255 255 255 255 255 255 255 255 255 255 255 255 255 255 255 255 255 255 255 255 255 255 255 255 255 255 255 255 255 255 255 255 255 255 255 255 255 255 255 255 255 255 255 255 255 255 255 255 255 255 255 255 255 255 255 255 255 255 255 255 255 255 255 255 255 255 255 255 255 255 255 255 255 255 255 255 255 255 255 255 255 255 255 255 255 255 255 255 255 255 255 255 255 255 255 255 255 255 255 255 255 255 255 255 255 255 255 255 255 255 255 255 255 255 255 255 255 255 255 255 255 255 255 255 255 255 255 255 255 255 255 255 255 255 255 255 255 255 255 255 255 255 255 255 255 255 255 255 255 255 255 255 255 255 255 255 255 255 255 255 255 255 255 255 255 255 255 255 255 255 255 255 255 255 255 255 255 255 255 255 255 255 255 255 255 255 
255 255 255 255 255 255 255 255 255 255 255 255 255 255 255 255 255 255 255 255 255 255 255 255 255 255 255 255 255 255 255 255 255 255 255 255 255 255 255 255 255 255 255 255 255 255 255 255 255 255 255 255 255 255 255 255 255 255 255 255 255 255 255 255 255 255 255 255 255 255 255 255 255 255 255 255 255 255 255 255 255 255 255 255 255 255 255 255 255 255 255 255 255 255 255 255 255 255 255 255 255 255 255 255 255 255 255 255 255 255 255 255 255 255 255 255 255 255 255 255 255 255 255 255 255 255 255 255 255 255 255 255 255 255 255 255 255 255 255 255 255 255 255 255 255 255 255 255 255 255 255 255 255 255 255 255 255 255 255 255 255 255 255 255 255 255 255 255 255 255 255 255 255 255 255 255 255 255 255 255 255 255 255 255 255 255 255 255 255 249 249 249 242 242 242 173 173 173 83 83 83 38 38 38 8 8 8 0 0 0 0 0 0 4 4 4 9 9 9 59 59 59 128 128 128 153 153 153 159 159 159 161 161 161 161 161 161 161 161 161 161 161 161 158 158 158 155 155 155 141 141 141 123 123 123 101 101 101 78 78 78 71 71 71 74 74 74 86 86 86 102 102 102 115 115 115 126 126 126 129 129 129 128 128 128 122 122 122 114 114 114 106 106 106 97 97 97 90 90 90 84 84 84 81 81 81 78 78 78 78 78 78 79 79 79 82 82 82 87 87 87 93 93 93 101 101 101 110 110 110 118 118 118 124 124 124 128 128 128 127 127 127 121 121 121 109 109 109 92 92 92 79 79 79 69 69 69 74 74 74 91 91 91 112 112 112 135 135 135 150 150 150 156 156 156 160 160 160 161 161 161 161 161 161 161 161 161 161 161 161 161 161 161 161 161 161 161 161 161 161 161 161 161 161 161 161 161 161 161 161 161 161 161 161 161 161 161 161 161 161 161 161 161 161 161 161 161 161 161 161 161 161 161 161 161 161 161 161 161 161 161 161 161 161 161 161 161 161 161 161 161 161 161 161 161 161 161 161 161 161 161 161 161 161 161 161 161 161 161 161 161 161 161 161 161 161 161 161 161 161 161 161 161 161 161 161 161 161 161 161 161 161 161 161 161 161 161 161 161 161 161 161 161 161 161 161 161 161 161 161 161 161 161 161 161 161 161 161 161 161 161 161 161 161 161 161 161 161 161 161 161 161 161 161 161 161 161 159 159 159 153 153 153 128 128 128 59 59 59 9 9 9 4 4 4 1 1 1 6 6 6 30 30 30 109 109 109 179 179 179 223 223 223 255 255 255 255 255 255 255 255 255 255 255 255 255 255 255 255 255 255 255 255 255 255 255 255 255 255 255 255 255 255 255 255 255 255 255 255 255 255 255 255 255 255 255 255 255 255 255 255 255 255 255 255 255 255 255 255 255 255 255 255 255 255 255 255 255 255 255 255 255 255 255 255 255 255 255 255 255 255 255 255 255 255 255 255 255 255 255 255 255 255 255 255 255 255 255 255 255 255 255 255 255 255 255 255 255 255 255 255 255 255 255 255 255 255 255 255 255 255 255 255 255 255 255 255 255 255 255 255 255 255 255 255 255 255 255 255 255 255 255 255 255 255 255 255 255 255 255 255 255 255 255 255 255 255 255 255 255 255 255 255 255 255 255 255 255 255 255 255 255 255 255 255 255 255 255 255 255 255 255 255 255 255 255 255 255 255 255 255 255 255 255 255 255 255 255 
255 255 255 255 255 255 255 255 255 255 255 255 255 255 255 255 255 255 255 255 255 255 255 255 255 255 255 255 255 255 255 255 255 255 255 255 255 255 255 255 255 255 255 255 255 255 255 255 255 255 255 255 255 255 255 255 255 255 255 255 255 255 255 255 255 255 255 255 255 255 255 255 255 255 255 255 255 255 255 255 255 255 255 255 255 255 255 255 255 255 255 255 255 255 255 255 255 255 255 255 255 255 255 255 255 255 255 255 255 255 255 255 255 255 255 255 255 255 255 255 255 255 255 255 255 255 255 255 255 255 255 255 255 255 255 255 255 255 255 255 255 255 255 255 255 255 255 255 255 255 255 255 255 255 255 255 255 255 255 255 255 255 255 255 255 255 255 255 255 255 255 255 255 255 255 255 255 255 255 255 255 255 255 255 255 255 255 255 255 236 236 236 212 212 212 141 141 141 54 54 54 20 20 20 4 4 4 0 0 0 0 0 0 9 9 9 22 22 22 71 71 71 134 134 134 154 154 154 157 157 157 158 158 158 157 157 157 156 156 156 155 155 155 147 147 147 136 136 136 118 118 118 97 97 97 84 84 84 75 75 75 79 79 79 89 89 89 99 99 99 109 109 109 112 112 112 111 111 111 106 106 106 98 98 98 88 88 88 79 79 79 73 73 73 70 70 70 70 70 70 71 71 71 73 73 73 74 74 74 75 75 75 76 76 76 76 76 76 76 76 76 77 77 77 79 79 79 82 82 82 86 86 86 93 93 93 102 102 102 108 108 108 112 112 112 110 110 110 103 103 103 93 93 93 81 81 81 76 76 76 79 79 79 91 91 91 110 110 110 127 127 127 143 143 143 152 152 152 155 155 155 157 157 157 158 158 158 158 158 158 158 158 158 158 158 158 158 158 158 158 158 158 158 158 158 158 158 158 158 158 158 158 158 158 158 158 158 158 158 158 158 158 158 158 158 158 158 158 158 158 158 158 158 158 158 158 158 158 157 157 157 157 157 157 157 157 157 157 157 157 156 156 156 156 156 156 156 156 156 156 156 156 156 156 156 156 156 156 156 156 156 156 156 156 157 157 157 157 157 157 157 157 157 158 158 158 158 158 158 158 158 158 158 158 158 158 158 158 158 158 158 158 158 158 158 158 158 158 158 158 158 158 158 158 158 158 158 158 158 158 158 158 158 158 158 158 158 158 158 158 158 157 157 157 157 157 157 157 157 157 154 154 154 134 134 134 71 71 71 22 22 22 9 9 9 0 0 0 2 2 2 18 18 18 74 74 74 133 133 133 199 199 199 249 249 249 253 253 253 255 255 255 255 255 255 255 255 255 255 255 255 255 255 255 255 255 255 255 255 255 255 255 255 255 255 255 255 255 255 255 255 255 255 255 255 255 255 255 255 255 255 255 255 255 255 255 255 255 255 255 255 255 255 255 255 255 255 255 255 255 255 255 255 255 255 255 255 255 255 255 255 255 255 255 255 255 255 255 255 255 255 255 255 255 255 255 255 255 255 255 255 255 255 255 255 255 255 255 255 255 255 255 255 255 255 255 255 255 255 255 255 255 255 255 255 255 255 255 255 255 255 255 255 255 255 255 255 255 255 255 255 255 255 255 255 255 255 255 255 255 255 255 255 255 255 255 255 255 255 255 255 255 255 255 255 255 255 255 255 255 255 255 255 255 255 255 255 255 255 255 255 255 255 255 255 255 255 255 255 255 255 255 255 255 255 255 255 255 
255 255 255 255 255 255 255 255 255 255 255 255 255 255 255 255 255 255 255 255 255 255 255 255 255 255 255 255 255 255 255 255 255 255 255 255 255 255 255 255 255 255 255 255 255 255 255 255 255 255 255 255 255 255 255 255 255 255 255 255 255 255 255 255 255 255 255 255 255 255 255 255 255 255 255 255 255 255 255 255 255 255 255 255 255 255 255 255 255 255 255 255 255 255 255 255 255 255 255 255 255 255 255 255 255 255 255 255 255 255 255 255 255 255 255 255 255 255 255 255 255 255 255 255 255 255 255 255 255 255 255 255 255 255 255 255 255 255 255 255 255 255 255 255 255 255 255 255 255 255 255 255 255 255 255 255 255 255 255 255 255 255 255 255 255 255 255 255 255 255 255 255 255 255 255 255 255 255 255 255 254 254 254 254 254 254 255 255 255 222 222 222 177 177 177 107 107 107 28 28 28 5 5 5 1 1 1 0 0 0 0 0 0 15 15 15 36 36 36 82 82 82 138 138 138 154 154 154 154 154 154 154 154 154 154 154 154 151 151 151 148 148 148 134 134 134 115 115 115 94 94 94 72 72 72 70 70 70 78 78 78 92 92 92 108 108 108 113 113 113 112 112 112 103 103 103 90 90 90 76 76 76 61 61 61 49 49 49 39 39 39 38 38 38 43 43 43 51 51 51 61 61 61 69 69 69 76 76 76 79 79 79 79 79 79 76 76 76 70 70 70 63 63 63 55 55 55 51 51 51 49 49 49 56 56 56 69 69 69 83 83 83 98 98 98 108 108 108 114 114 114 110 110 110 97 97 97 84 84 84 69 69 69 70 70 70 83 83 83 103 103 103 128 128 128 143 143 143 149 149 149 153 153 153 153 153 153 154 154 154 154 154 154 155 155 155 155 155 155 154 154 154 154 154 154 154 154 154 154 154 154 155 155 155 155 155 155 155 155 155 155 155 155 155 155 155 155 155 155 154 154 154 154 154 154 153 153 153 153 153 153 153 153 153 152 152 152 152 152 152 151 151 151 151 151 151 150 150 150 150 150 150 150 150 150 150 150 150 150 150 150 150 150 150 151 151 151 152 152 152 153 153 153 154 154 154 154 154 154 154 154 154 154 154 154 155 155 155 155 155 155 155 155 155 155 155 155 155 155 155 155 155 155 155 155 155 155 155 155 155 155 155 155 155 155 155 155 155 154 154 154 154 154 154 154 154 154 154 154 154 154 154 154 138 138 138 82 82 82 36 36 36 15 15 15 0 0 0 0 0 0 8 8 8 38 38 38 84 84 84 174 174 174 243 243 243 250 250 250 255 255 255 255 255 255 255 255 255 255 255 255 255 255 255 255 255 255 255 255 255 255 255 255 255 255 255 255 255 255 255 255 255 255 255 255 255 255 255 255 255 255 255 255 255 255 255 255 255 255 255 255 255 255 255 255 255 255 255 255 255 255 255 255 255 255 255 255 255 255 255 255 255 255 255 255 255 255 255 255 255 255 255 255 255 255 255 255 255 255 255 255 255 255 255 255 255 255 255 255 255 255 255 255 255 255 255 255 255 255 255 255 255 255 255 255 255 255 255 255 255 255 255 255 255 255 255 255 255 255 255 255 255 255 255 255 255 255 255 255 255 255 255 255 255 255 255 255 255 255 255 255 255 255 255 255 255 255 255 255 255 255 255 255 255 255 255 255 255 255 255 255 255 255 255 255 255 255 255 255 255 255 255 255 255 255 255 255 255 
255 255 255 255 255 255 255 255 255 255 255 255 255 255 255 255 255 255 255 255 255 255 255 255 255 255 255 255 255 255 255 255 255 255 255 255 255 255 255 255 255 255 255 255 255 255 255 255 255 255 255 255 255 255 255 255 255 255 255 255 255 255 255 255 255 255 255 255 255 255 255 255 255 255 255 255 255 255 255 255 255 255 255 255 255 255 255 255 255 255 255 255 255 255 255 255 255 255 255 255 255 255 255 255 255 255 255 255 255 255 255 255 255 255 255 255 255 255 255 255 255 255 255 255 255 255 255 255 255 255 255 255 255 255 255 255 255 255 255 255 255 255 255 255 255 255 255 255 255 255 255 255 255 255 255 255 255 255 255 255 255 255 255 255 255 255 255 255 255 255 255 255 255 255 255 255 255 254 254 254 254 254 254 253 253 253 252 252 252 200 200 200 133 133 133 73 73 73 17 17 17 1 1 1 0 0 0 0 0 0 0 0 0 22 22 22 52 52 52 93 93 93 138 138 138 151 151 151 151 151 151 150 150 150 149 149 149 141 141 141 132 132 132 113 113 113 92 92 92 79 79 79 71 71 71 76 76 76 88 88 88 96 96 96 101 101 101 97 97 97 87 87 87 75 75 75 61 61 61 56 56 56 55 55 55 59 59 59 66 66 66 76 76 76 87 87 87 99 99 99 110 110 110 118 118 118 126 126 126 129 129 129 129 129 129 125 125 125 118 118 118 109 109 109 100 100 100 90 90 90 81 81 81 75 75 75 71 71 71 71 71 71 74 74 74 82 82 82 93 93 93 98 98 98 98 98 98 91 91 91 79 79 79 73 73 73 73 73 73 84 84 84 106 106 106 123 123 123 138 138 138 146 146 146 148 148 148 150 150 150 150 150 150 151 151 151 151 151 151 151 151 151 151 151 151 151 151 151 151 151 151 151 151 151 151 151 151 151 151 151 150 150 150 150 150 150 148 148 148 146 146 146 143 143 143 140 140 140 137 137 137 134 134 134 131 131 131 129 129 129 127 127 127 126 126 126 125 125 125 125 125 125 125 125 125 125 125 125 126 126 126 127 127 127 129 129 129 132 132 132 135 135 135 138 138 138 141 141 141 144 144 144 146 146 146 149 149 149 150 150 150 151 151 151 151 151 151 151 151 151 151 151 151 151 151 151 151 151 151 151 151 151 151 151 151 151 151 151 151 151 151 151 151 151 151 151 151 151 151 151 151 151 151 138 138 138 92 92 92 52 52 52 22 22 22 0 0 0 0 0 0 4 4 4 21 21 21 55 55 55 142 142 142 214 214 214 237 237 237 255 255 255 255 255 255 255 255 255 255 255 255 255 255 255 255 255 255 255 255 255 255 255 255 255 255 255 255 255 255 255 255 255 255 255 255 255 255 255 255 255 255 255 255 255 255 255 255 255 255 255 255 255 255 255 255 255 255 255 255 255 255 255 255 255 255 255 255 255 255 255 255 255 255 255 255 255 255 255 255 255 255 255 255 255 255 255 255 255 255 255 255 255 255 255 255 255 255 255 255 255 255 255 255 255 255 255 255 255 255 255 255 255 255 255 255 255 255 255 255 255 255 255 255 255 255 255 255 255 255 255 255 255 255 255 255 255 255 255 255 255 255 255 255 255 255 255 255 255 255 255 255 255 255 255 255 255 255 255 255 255 255 255 255 255 255 255 255 255 255 255 255 255 255 255 255 255 255 255 255 255 255 255 255 255 255 255 255 255 
255 255 255 255 255 255 255 255 255 255 255 255 255 255 255 255 255 255 255 255 255 255 255 255 255 255 255 255 255 255 255 255 255 255 255 255 255 255 255 255 255 255 255 255 255 255 255 255 255 255 255 255 255 255 255 255 255 255 255 255 255 255 255 255 255 255 255 255 255 255 255 255 255 255 255 255 255 255 255 255 255 255 255 255 255 255 255 255 255 255 255 255 255 255 255 255 255 255 255 255 255 255 255 255 255 255 255 255 255 255 255 255 255 255 255 255 255 255 255 255 255 255 255 255 255 255 255 255 255 255 255 255 255 255 255 255 255 255 255 255 255 255 255 255 255 255 255 255 255 255 255 255 255 255 255 255 255 255 255 255 255 255 255 255 255 255 255 255 254 254 254 254 254 254 254 254 254 254 254 254 254 254 254 251 251 251 248 248 248 177 177 177 86 86 86 39 39 39 8 8 8 0 0 0 0 0 0 0 0 0 0 0 0 28 28 28 68 68 68 103 103 103 138 138 138 147 147 147 147 147 147 145 145 145 143 143 143 131 131 131 113 113 113 91 91 91 68 68 68 66 66 66 75 75 75 86 86 86 100 100 100 98 98 98 90 90 90 75 75 75 56 56 56 42 42 42 31 31 31 38 38 38 55 55 55 79 79 79 107 107 107 128 128 128 145 145 145 159 159 159 169 169 169 177 177 177 184 184 184 188 188 188 188 188 188 184 184 184 176 176 176 167 167 167 156 156 156 142 142 142 125 125 125 104 104 104 78 78 78 60 60 60 48 48 48 51 51 51 67 67 67 81 81 81 95 95 95 98 98 98 91 91 91 80 80 80 65 65 65 66 66 66 82 82 82 102 102 102 125 125 125 139 139 139 143 143 143 146 146 146 146 146 146 147 147 147 147 147 147 148 148 148 148 148 148 148 148 148 148 148 148 148 148 148 148 148 148 147 147 147 146 146 146 145 145 145 142 142 142 138 138 138 132 132 132 125 125 125 118 118 118 112 112 112 107 107 107 102 102 102 99 99 99 97 97 97 97 97 97 97 97 97 96 96 96 96 96 96 98 98 98 100 100 100 104 104 104 108 108 108 114 114 114 120 120 120 127 127 127 133 133 133 138 138 138 142 142 142 145 145 145 147 147 147 147 147 147 148 148 148 148 148 148 148 148 148 148 148 148 148 148 148 148 148 148 148 148 148 148 148 148 148 148 148 148 148 148 147 147 147 147 147 147 137 137 137 103 103 103 67 67 67 28 28 28 0 0 0 0 0 0 1 1 1 6 6 6 30 30 30 110 110 110 180 180 180 222 222 222 254 254 254 255 255 255 255 255 255 254 254 254 254 254 254 255 255 255 255 255 255 255 255 255 255 255 255 255 255 255 255 255 255 255 255 255 255 255 255 255 255 255 255 255 255 255 255 255 255 255 255 255 255 255 255 255 255 255 255 255 255 255 255 255 255 255 255 255 255 255 255 255 255 255 255 255 255 255 255 255 255 255 255 255 255 255 255 255 255 255 255 255 255 255 255 255 255 255 255 255 255 255 255 255 255 255 255 255 255 255 255 255 255 255 255 255 255 255 255 255 255 255 255 255 255 255 255 255 255 255 255 255 255 255 255 255 255 255 255 255 255 255 255 255 255 255 255 255 255 255 255 255 255 255 255 255 255 255 255 255 255 255 255 255 255 255 255 255 255 255 255 255 255 255 255 255 255 255 255 255 255 255 255 255 255 255 255 255 255 
255 255 255 255 255 255 255 255 255 255 255 255 255 255 255 255 255 255 255 255 255 255 255 255 255 255 255 255 255 255 255 255 255 255 255 255 255 255 255 255 255 255 255 255 255 255 255 255 255 255 255 255 255 255 255 255 255 255 255 255 255 255 255 255 255 255 255 255 255 255 255 255 255 255 255 255 255 255 255 255 255 255 255 255 255 255 255 255 255 255 255 255 255 255 255 255 255 255 255 255 255 255 255 255 255 255 255 255 255 255 255 255 255 255 255 255 255 255 255 255 255 255 255 255 255 255 255 255 255 255 255 255 255 255 255 255 255 255 255 255 255 255 255 255 255 255 255 255 255 255 255 255 255 255 255 255 255 255 255 255 255 255 255 255 255 255 255 255 254 254 254 254 254 254 254 254 254 254 254 254 254 254 254 241 241 241 224 224 224 150 150 150 58 58 58 22 22 22 5 5 5 0 0 0 0 0 0 0 0 0 0 0 0 33 33 33 78 78 78 110 110 110 136 136 136 144 144 144 143 143 143 138 138 138 132 132 132 114 114 114 91 91 91 76 76 76 64 64 64 68 68 68 80 80 80 85 85 85 87 87 87 79 79 79 64 64 64 52 52 52 42 42 42 46 46 46 57 57 57 76 76 76 99 99 99 125 125 125 153 153 153 174 174 174 191 191 191 202 202 202 209 209 209 214 214 214 218 218 218 220 220 220 220 220 220 218 218 218 214 214 214 207 207 207 200 200 200 187 187 187 170 170 170 148 148 148 122 122 122 99 99 99 79 79 79 67 67 67 60 60 60 63 63 63 75 75 75 83 83 83 87 87 87 82 82 82 70 70 70 66 66 66 70 70 70 83 83 83 106 106 106 123 123 123 135 135 135 141 141 141 142 142 142 143 143 143 144 144 144 144 144 144 144 144 144 144 144 144 143 143 143 142 142 142 140 140 140 136 136 136 130 130 130 123 123 123 115 115 115 108 108 108 102 102 102 97 97 97 93 93 93 90 90 90 88 88 88 87 87 87 88 88 88 88 88 88 89 89 89 89 89 89 89 89 89 88 88 88 88 88 88 88 88 88 88 88 88 89 89 89 91 91 91 94 94 94 98 98 98 103 103 103 110 110 110 117 117 117 125 125 125 132 132 132 137 137 137 141 141 141 143 143 143 144 144 144 144 144 144 144 144 144 144 144 144 144 144 144 144 144 144 144 144 144 144 144 144 144 144 144 144 144 144 136 136 136 109 109 109 77 77 77 33 33 33 0 0 0 0 0 0 0 0 0 2 2 2 19 19 19 79 79 79 139 139 139 203 203 203 252 252 252 254 254 254 255 255 255 255 255 255 254 254 254 255 255 255 255 255 255 255 255 255 255 255 255 255 255 255 255 255 255 255 255 255 255 255 255 255 255 255 255 255 255 255 255 255 255 255 255 255 255 255 255 255 255 255 255 255 255 255 255 255 255 255 255 255 255 255 255 255 255 255 255 255 255 255 255 255 255 255 255 255 255 255 255 255 255 255 255 255 255 255 255 255 255 255 255 255 255 255 255 255 255 255 255 255 255 255 255 255 255 255 255 255 255 255 255 255 255 255 255 255 255 255 255 255 255 255 255 255 255 255 255 255 255 255 255 255 255 255 255 255 255 255 255 255 255 255 255 255 255 255 255 255 255 255 255 255 255 255 255 255 255 255 255 255 255 255 255 255 255 255 255 255 255 255 255 255 255 255 255 255 255 255 255 255 255 
255 255 255 255 255 255 255 255 255 255 255 255 255 255 255 255 255 255 255 255 255 255 255 255 255 255 255 255 255 255 255 255 255 255 255 255 255 255 255 255 255 255 255 255 255 255 255 255 255 255 255 255 255 255 255 255 255 255 255 255 255 255 255 255 255 255 255 255 255 255 255 255 255 255 255 255 255 255 255 255 255 255 255 255 255 255 255 255 255 255 255 255 255 255 255 255 255 255 255 255 255 255 255 255 255 255 255 255 255 255 255 255 255 255 255 255 255 255 255 255 255 255 255 255 255 255 255 255 255 255 255 255 255 255 255 255 255 255 255 255 255 255 255 255 255 255 255 255 255 255 255 255 255 255 255 255 255 255 255 255 255 255 255 255 255 255 255 255 254 254 254 254 254 254 254 254 254 254 254 254 255 255 255 230 230 230 197 197 197 123 123 123 34 34 34 8 8 8 2 2 2 0 0 0 0 0 0 0 0 0 0 0 0 37 37 37 87 87 87 115 115 115 135 135 135 140 140 140 139 139 139 130 130 130 118 118 118 96 96 96 69 69 69 62 62 62 64 64 64 74 74 74 86 86 86 82 82 82 71 71 71 54 54 54 36 36 36 30 30 30 31 31 31 56 56 56 94 94 94 125 125 125 152 152 152 177 177 177 200 200 200 219 219 219 234 234 234 242 242 242 245 245 245 246 246 246 247 247 247 247 247 247 247 247 247 247 247 247 246 246 246 244 244 244 241 241 241 231 231 231 216 216 216 196 196 196 173 173 173 148 148 148 122 122 122 91 91 91 57 57 57 45 45 45 52 52 52 63 63 63 78 78 78 83 83 83 78 78 78 70 70 70 59 59 59 65 65 65 86 86 86 106 106 106 125 125 125 136 136 136 138 138 138 140 140 140 140 140 140 140 140 140 140 140 140 139 139 139 139 139 139 136 136 136 131 131 131 123 123 123 111 111 111 98 98 98 84 84 84 74 74 74 68 68 68 65 65 65 66 66 66 68 68 68 71 71 71 75 75 75 80 80 80 83 83 83 85 85 85 86 86 86 86 86 86 84 84 84 82 82 82 79 79 79 74 74 74 71 71 71 67 67 67 65 65 65 66 66 66 69 69 69 78 78 78 88 88 88 102 102 102 115 115 115 125 125 125 134 134 134 137 137 137 140 140 140 140 140 140 140 140 140 140 140 140 140 140 140 140 140 140 140 140 140 140 140 140 141 141 141 141 141 141 135 135 135 115 115 115 87 87 87 36 36 36 0 0 0 0 0 0 0 0 0 0 0 0 10 10 10 47 47 47 97 97 97 183 183 183 249 249 249 253 253 253 255 255 255 255 255 255 255 255 255 254 254 254 254 254 254 255 255 255 255 255 255 255 255 255 255 255 255 255 255 255 255 255 255 255 255 255 255 255 255 255 255 255 255 255 255 255 255 255 255 255 255 255 255 255 255 255 255 255 255 255 255 255 255 255 255 255 255 255 255 255 255 255 255 255 255 255 255 255 255 255 255 255 255 255 255 255 255 255 255 255 255 255 255 255 255 255 255 255 255 255 255 255 255 255 255 255 255 255 255 255 255 255 255 255 255 255 255 255 255 255 255 255 255 255 255 255 255 255 255 255 255 255 255 255 255 255 255 255 255 255 255 255 255 255 255 255 255 255 255 255 255 255 255 255 255 255 255 255 255 255 255 255 255 255 255 255 255 255 255 255 255 255 255 255 255 255 255 255 255 255 255 255 255 
255 255 255 255 255 255 255 255 255 255 255 255 255 255 255 255 255 255 255 255 255 255 255 255 255 255 255 255 255 255 255 255 255 255 255 255 255 255 255 255 255 255 255 255 255 255 255 255 255 255 255 255 255 255 255 255 255 255 255 255 255 255 255 255 255 255 255 255 255 255 255 255 255 255 255 255 255 255 255 255 255 255 255 255 255 255 255 255 255 255 255 255 255 255 255 255 255 255 255 255 255 255 255 255 255 255 255 255 255 255 255 255 255 255 255 255 255 255 255 255 255 255 255 255 255 255 255 255 255 255 255 255 255 255 255 255 255 255 255 255 255 255 255 255 255 255 255 255 255 255 255 255 255 255 255 255 255 255 255 255 255 255 255 255 255 255 255 255 254 254 254 254 254 254 254 254 254 254 254 254 255 255 255 213 213 213 159 159 159 93 93 93 22 22 22 3 3 3 1 1 1 0 0 0 0 0 0 0 0 0 0 0 0 39 39 39 92 92 92 118 118 118 132 132 132 135 135 135 131 131 131 117 117 117 98 98 98 79 79 79 60 60 60 59 59 59 68 68 68 72 72 72 74 74 74 65 65 65 49 49 49 39 39 39 33 33 33 45 45 45 67 67 67 99 99 99 136 136 136 166 166 166 192 192 192 211 211 211 225 225 225 236 236 236 244 244 244 249 249 249 251 251 251 251 251 251 251 251 251 251 251 251 251 251 251 251 251 251 251 251 251 250 250 250 249 249 249 243 243 243 234 234 234 222 222 222 208 208 208 187 187 187 162 162 162 131 131 131 96 96 96 72 72 72 55 55 55 53 53 53 61 61 61 68 68 68 73 73 73 71 71 71 60 60 60 60 60 60 70 70 70 87 87 87 110 110 110 125 125 125 132 132 132 136 136 136 136 136 136 136 136 136 134 134 134 131 131 131 125 125 125 117 117 117 107 107 107 97 97 97 87 87 87 80 80 80 77 77 77 76 76 76 79 79 79 82 82 82 88 88 88 94 94 94 99 99 99 104 104 104 108 108 108 111 111 111 114 114 114 115 115 115 114 114 114 113 113 113 111 111 111 108 108 108 103 103 103 98 98 98 92 92 92 87 87 87 82 82 82 78 78 78 76 76 76 77 77 77 82 82 82 89 89 89 99 99 99 109 109 109 119 119 119 127 127 127 132 132 132 135 135 135 136 136 136 137 137 137 136 136 136 136 136 136 137 137 137 137 137 137 137 137 137 132 132 132 118 118 118 92 92 92 39 39 39 0 0 0 0 0 0 0 0 0 0 0 0 6 6 6 28 28 28 68 68 68 159 159 159 231 231 231 245 245 245 255 255 255 255 255 255 255 255 255 254 254 254 254 254 254 255 255 255 255 255 255 255 255 255 255 255 255 255 255 255 255 255 255 255 255 255 255 255 255 255 255 255 255 255 255 255 255 255 255 255 255 255 255 255 255 255 255 255 255 255 255 255 255 255 255 255 255 255 255 255 255 255 255 255 255 255 255 255 255 255 255 255 255 255 255 255 255 255 255 255 255 255 255 255 255 255 255 255 255 255 255 255 255 255 255 255 255 255 255 255 255 255 255 255 255 255 255 255 255 255 255 255 255 255 255 255 255 255 255 255 255 255 255 255 255 255 255 255 255 255 255 255 255 255 255 255 255 255 255 255 255 255 255 255 255 255 255 255 255 255 255 255 255 255 255 255 255 255 255 255 255 255 255 255 255 255 255 255 255 255 255 255 255 
255 255 255 255 255 255 255 255 255 255 255 255 255 255 255 255 255 255 255 255 255 255 255 255 255 255 255 255 255 255 255 255 255 255 255 255 255 255 255 255 255 255 255 255 255 255 255 255 255 255 255 255 255 255 255 255 255 255 255 255 255 255 255 255 255 255 255 255 255 255 255 255 255 255 255 255 255 255 255 255 255 255 255 255 255 255 255 255 255 255 255 255 255 255 255 255 255 255 255 255 255 255 255 255 255 255 255 255 255 255 255 255 255 255 255 255 255 255 255 255 255 255 255 255 255 255 255 255 255 255 255 255 255 255 255 255 255 255 255 255 255 255 255 255 255 255 255 255 255 255 255 255 255 255 255 255 255 255 255 255 255 255 255 255 255 255 255 255 255 255 255 255 255 255 254 254 254 254 254 254 254 254 254 196 196 196 119 119 119 63 63 63 13 13 13 0 0 0 0 0 0 0 0 0 0 0 0 0 0 0 0 0 0 41 41 41 97 97 97 120 120 120 130 130 130 129 129 129 123 123 123 103 103 103 77 77 77 63 63 63 54 54 54 60 60 60 71 71 71 68 68 68 59 59 59 44 44 44 26 26 26 26 26 26 35 35 35 67 67 67 113 113 113 149 149 149 180 180 180 206 206 206 229 229 229 240 240 240 244 244 244 247 247 247 248 248 248 249 249 249 250 250 250 250 250 250 250 250 250 250 250 250 249 249 249 250 250 250 250 250 250 250 250 250 249 249 249 248 248 248 247 247 247 244 244 244 239 239 239 224 224 224 201 201 201 174 174 174 144 144 144 108 108 108 65 65 65 45 45 45 43 43 43 50 50 50 66 66 66 70 70 70 63 63 63 59 59 59 55 55 55 67 67 67 94 94 94 114 114 114 126 126 126 132 132 132 132 132 132 130 130 130 128 128 128 121 121 121 109 109 109 95 95 95 79 79 79 67 67 67 62 62 62 64 64 64 74 74 74 85 85 85 98 98 98 110 110 110 121 121 121 129 129 129 136 136 136 141 141 141 145 145 145 147 147 147 149 149 149 149 149 149 149 149 149 148 148 148 147 147 147 145 145 145 141 141 141 135 135 135 128 128 128 119 119 119 108 108 108 95 95 95 81 81 81 70 70 70 63 63 63 62 62 62 69 69 69 81 81 81 98 98 98 113 113 113 123 123 123 130 130 130 131 131 131 133 133 133 133 133 133 133 133 133 133 133 133 133 133 133 133 133 133 130 130 130 120 120 120 97 97 97 41 41 41 0 0 0 0 0 0 0 0 0 0 0 0 2 2 2 12 12 12 42 42 42 134 134 134 210 210 210 235 235 235 255 255 255 254 254 254 254 254 254 255 255 255 255 255 255 255 255 255 255 255 255 255 255 255 255 255 255 255 255 255 255 255 255 255 255 255 255 255 255 255 255 255 255 255 255 255 255 255 255 255 255 255 255 255 255 255 255 255 255 255 255 255 255 255 255 255 255 255 255 255 255 255 255 255 255 255 255 255 255 255 255 255 255 255 255 255 255 255 255 255 255 255 255 255 255 255 255 255 255 255 255 255 255 255 255 255 255 255 255 255 255 255 255 255 255 255 255 255 255 255 255 255 255 255 255 255 255 255 255 255 255 255 255 255 255 255 255 255 255 255 255 255 255 255 255 255 255 255 255 255 255 255 255 255 255 255 255 255 255 255 255 255 255 255 255 255 255 255 255 255 255 255 255 255 255 255 255 255 255 255 255 255 255 
255 255 255 255 255 255 255 255 255 255 255 255 255 255 255 255 255 255 255 255 255 255 255 255 255 255 255 255 255 255 255 255 255 255 255 255 255 255 255 255 255 255 255 255 255 255 255 255 255 255 255 255 255 255 255 255 255 255 255 255 255 255 255 255 255 255 255 255 255 255 255 255 255 255 255 255 255 255 255 255 255 255 255 255 255 255 255 255 255 255 255 255 255 255 255 255 255 255 255 255 255 255 255 255 255 255 255 255 255 255 255 255 255 255 255 255 255 255 255 255 255 255 255 255 255 255 255 255 255 255 255 255 255 255 255 255 255 255 255 255 255 255 255 255 255 255 255 255 255 255 255 255 255 255 255 255 255 255 255 255 255 255 255 255 255 255 255 255 255 255 255 255 255 255 254 254 254 250 250 250 245 245 245 177 177 177 88 88 88 42 42 42 8 8 8 0 0 0 0 0 0 0 0 0 0 0 0 0 0 0 0 0 0 42 42 42 100 100 100 120 120 120 127 127 127 120 120 120 109 109 109 88 88 88 63 63 63 56 56 56 56 56 56 59 59 59 63 63 63 56 56 56 42 42 42 32 32 32 24 24 24 40 40 40 69 69 69 103 103 103 139 139 139 169 169 169 194 194 194 215 215 215 234 234 234 243 243 243 246 246 246 248 248 248 248 248 248 248 248 248 249 249 249 249 249 249 249 249 249 249 249 249 248 248 248 248 248 248 249 249 249 249 249 249 248 248 248 248 248 248 248 248 248 247 247 247 245 245 245 237 237 237 223 223 223 203 203 203 179 179 179 145 145 145 103 103 103 71 71 71 47 47 47 42 42 42 53 53 53 59 59 59 61 61 61 58 58 58 51 51 51 58 58 58 78 78 78 97 97 97 115 115 115 124 124 124 123 123 123 118 118 118 109 109 109 98 98 98 86 86 86 77 77 77 72 72 72 71 71 71 75 75 75 83 83 83 94 94 94 104 104 104 113 113 113 119 119 119 123 123 123 125 125 125 127 127 127 127 127 127 127 127 127 126 126 126 126 126 126 126 126 126 126 126 126 127 127 127 128 128 128 129 129 129 129 129 129 129 129 129 127 127 127 125 125 125 120 120 120 113 113 113 103 103 103 93 93 93 83 83 83 74 74 74 71 71 71 71 71 71 80 80 80 89 89 89 101 101 101 112 112 112 120 120 120 126 126 126 128 128 128 129 129 129 130 130 130 130 130 130 129 129 129 127 127 127 121 121 121 100 100 100 42 42 42 0 0 0 0 0 0 0 0 0 0 0 0 1 1 1 5 5 5 29 29 29 109 109 109 179 179 179 222 222 222 255 255 255 255 255 255 254 254 254 255 255 255 255 255 255 255 255 255 255 255 255 255 255 255 255 255 255 255 255 255 255 255 255 255 255 255 255 255 255 255 255 255 255 255 255 255 255 255 255 255 255 255 255 255 255 255 255 255 255 255 255 255 255 255 255 255 255 255 255 255 255 255 255 255 255 255 255 255 255 255 255 255 255 255 255 255 255 255 255 255 255 255 255 255 255 255 255 255 255 255 255 255 255 255 255 255 255 255 255 255 255 255 255 255 255 255 255 255 255 255 255 255 255 255 255 255 255 255 255 255 255 255 255 255 255 255 255 255 255 255 255 255 255 255 255 255 255 255 255 255 255 255 255 255 255 255 255 255 255 255 255 255 255 255 255 255 255 255 255 255 255 255 255 255 255 255 255 255 255 255 255 255 255 
255 255 255 255 255 255 255 255 255 255 255 255 255 255 255 255 255 255 255 255 255 255 255 255 255 255 255 255 255 255 255 255 255 255 255 255 255 255 255 255 255 255 255 255 255 255 255 255 255 255 255 255 255 255 255 255 255 255 255 255 255 255 255 255 255 255 255 255 255 255 255 255 255 255 255 255 255 255 255 255 255 255 255 255 255 255 255 255 255 255 255 255 255 255 255 255 255 255 255 255 255 255 255 255 255 255 255 255 255 255 255 255 255 255 255 255 255 255 255 255 255 255 255 255 255 255 255 255 255 255 255 255 255 255 255 255 255 255 255 255 255 255 255 255 255 255 255 255 255 255 255 255 255 255 255 255 255 255 255 255 255 255 255 255 255 255 255 255 255 255 255 255 255 255 255 255 255 246 246 246 235 235 235 158 158 158 60 60 60 22 22 22 4 4 4 0 0 0 0 0 0 0 0 0 0 0 0 0 0 0 0 0 0 43 43 43 102 102 102 120 120 120 123 123 123 111 111 111 94 94 94 73 73 73 51 51 51 50 50 50 58 58 58 58 58 58 53 53 53 40 40 40 24 24 24 21 21 21 25 25 25 60 60 60 110 110 110 141 141 141 161 161 161 182 182 182 203 203 203 219 219 219 231 231 231 239 239 239 244 244 244 247 247 247 247 247 247 247 247 247 247 247 247 247 247 247 247 247 247 247 247 247 247 247 247 247 247 247 247 247 247 247 247 247 247 247 247 247 247 247 246 246 246 246 246 246 245 245 245 243 243 243 240 240 240 229 229 229 211 211 211 183 183 183 147 147 147 104 104 104 56 56 56 35 35 35 39 39 39 46 46 46 57 57 57 58 58 58 49 49 49 50 50 50 62 62 62 80 80 80 104 104 104 115 115 115 113 113 113 104 104 104 88 88 88 74 74 74 62 62 62 60 60 60 69 69 69 81 81 81 97 97 97 110 110 110 121 121 121 126 126 126 126 126 126 124 124 124 118 118 118 112 112 112 107 107 107 102 102 102 97 97 97 93 93 93 91 91 91 90 90 90 91 91 91 93 93 93 97 97 97 101 101 101 107 107 107 112 112 112 119 119 119 125 125 125 130 130 130 132 132 132 129 129 129 123 123 123 110 110 110 96 96 96 79 79 79 67 67 67 62 62 62 63 63 63 77 77 77 91 91 91 107 107 107 119 119 119 123 123 123 126 126 126 126 126 126 127 127 127 126 126 126 125 125 125 121 121 121 102 102 102 43 43 43 0 0 0 0 0 0 0 0 0 0 0 0 0 0 0 1 1 1 19 19 19 83 83 83 147 147 147 208 208 208 255 255 255 255 255 255 255 255 255 255 255 255 255 255 255 255 255 255 255 255 255 255 255 255 255 255 255 255 255 255 255 255 255 255 255 255 255 255 255 255 255 255 255 255 255 255 255 255 255 255 255 255 255 255 255 255 255 255 255 255 255 255 255 255 255 255 255 255 255 255 255 255 255 255 255 255 255 255 255 255 255 255 255 255 255 255 255 255 255 255 255 255 255 255 255 255 255 255 255 255 255 255 255 255 255 255 255 255 255 255 255 255 255 255 255 255 255 255 255 255 255 255 255 255 255 255 255 255 255 255 255 255 255 255 255 255 255 255 255 255 255 255 255 255 255 255 255 255 255 255 255 255 255 255 255 255 255 255 255 255 255 255 255 255 255 255 255 255 255 255 255 255 255 255 255 255 255 255 255 255 255 255 255 
255 255 255 255 255 255 255 255 255 255 255 255 255 255 255 255 255 255 255 255 255 255 255 255 255 255 255 255 255 255 255 255 255 255 255 255 255 255 255 255 255 255 255 255 255 255 255 255 255 255 255 255 255 255 255 255 255 255 255 255 255 255 255 255 255 255 255 255 255 255 255 255 255 255 255 255 255 255 255 255 255 255 255 255 255 255 255 255 255 255 255 255 255 255 255 255 255 255 255 255 255 255 255 255 255 255 255 255 255 255 255 255 255 255 255 255 255 255 255 255 255 255 255 255 255 255 255 255 255 255 255 255 255 255 255 255 255 255 255 255 255 255 255 255 255 255 255 255 255 255 255 255 255 255 255 255 255 255 255 255 255 255 255 255 255 255 255 255 255 255 255 255 255 255 255 255 255 237 237 237 215 215 215 137 137 137 43 43 43 12 12 12 2 2 2 0 0 0 0 0 0 0 0 0 0 0 0 0 0 0 0 0 0 43 43 43 102 102 102 117 117 117 115 115 115 99 99 99 77 77 77 61 61 61 47 47 47 47 47 47 54 54 54 49 49 49 39 39 39 29 29 29 17 17 17 31 31 31 57 57 57 92 92 92 133 133 133 155 155 155 168 168 168 182 182 182 196 196 196 207 207 207 216 216 216 223 223 223 230 230 230 236 236 236 241 241 241 244 244 244 246 246 246 246 246 246 247 247 247 247 247 247 247 247 247 246 246 246 246 246 246 246 246 246 246 246 246 246 246 246 245 245 245 245 245 245 244 244 244 243 243 243 243 243 243 236 236 236 226 226 226 205 205 205 176 176 176 137 137 137 91 91 91 58 58 58 39 39 39 36 36 36 47 47 47 51 51 51 48 48 48 48 48 48 51 51 51 64 64 64 87 87 87 96 96 96 91 91 91 83 83 83 72 72 72 66 66 66 66 66 66 70 70 70 80 80 80 89 89 89 95 95 95 99 99 99 98 98 98 96 96 96 90 90 90 84 84 84 77 77 77 70 70 70 65 65 65 61 61 61 56 56 56 53 53 53 51 51 51 51 51 51 51 51 51 53 53 53 56 56 56 60 60 60 65 65 65 70 70 70 76 76 76 83 83 83 91 91 91 98 98 98 103 103 103 106 106 106 104 104 104 100 100 100 90 90 90 81 81 81 72 72 72 66 66 66 68 68 68 74 74 74 87 87 87 100 100 100 110 110 110 118 118 118 121 121 121 123 123 123 122 122 122 122 122 122 120 120 120 102 102 102 43 43 43 0 0 0 0 0 0 0 0 0 0 0 0 0 0 0 0 0 0 13 13 13 61 61 61 116 116 116 193 193 193 252 252 252 253 253 253 255 255 255 255 255 255 255 255 255 255 255 255 255 255 255 255 255 255 255 255 255 255 255 255 255 255 255 255 255 255 255 255 255 255 255 255 255 255 255 255 255 255 255 255 255 255 255 255 255 255 255 255 255 255 255 255 255 255 255 255 255 255 255 255 255 255 255 255 255 255 255 255 255 255 255 255 255 255 255 255 255 255 255 255 255 255 255 255 255 255 255 255 255 255 255 255 255 255 255 255 255 255 255 255 255 255 255 255 255 255 255 255 255 255 255 255 255 255 255 255 255 255 255 255 255 255 255 255 255 255 255 255 255 255 255 255 255 255 255 255 255 255 255 255 255 255 255 255 255 255 255 255 255 255 255 255 255 255 255 255 255 255 255 255 255 255 255 255 255 255 255 255 255 255 255 255 255 
255 255 255 255 255 255 255 255 255 255 255 255 255 255 255 255 255 255 255 255 255 255 255 255 255 255 255 255 255 255 255 255 255 255 255 255 255 255 255 255 255 255 255 255 255 255 255 255 255 255 255 255 255 255 255 255 255 255 255 255 255 255 255 255 255 255 255 255 255 255 255 255 255 255 255 255 255 255 255 255 255 255 255 255 255 255 255 255 255 255 255 255 255 255 255 255 255 255 255 255 255 255 255 255 255 255 255 255 255 255 255 255 255 255 255 255 255 255 255 255 255 255 255 255 255 255 255 255 255 255 255 255 255 255 255 255 255 255 255 255 255 255 255 255 255 255 255 255 255 255 255 255 255 255 255 255 255 255 255 255 255 255 255 255 255 255 255 255 255 255 255 255 255 255 255 255 255 228 228 228 192 192 192 117 117 117 29 29 29 5 5 5 1 1 1 0 0 0 0 0 0 0 0 0 0 0 0 0 0 0 0 0 0 42 42 42 101 101 101 113 113 113 107 107 107 86 86 86 60 60 60 49 49 49 45 45 45 46 46 46 48 48 48 39 39 39 25 25 25 17 17 17 14 14 14 45 45 45 95 95 95 128 128 128 151 151 151 164 164 164 171 171 171 178 178 178 185 185 185 191 191 191 197 197 197 205 205 205 214 214 214 224 224 224 234 234 234 240 240 240 244 244 244 245 245 245 246 246 246 246 246 246 246 246 246 246 246 246 245 245 245 245 245 245 245 245 245 245 245 245 244 244 244 244 244 244 243 243 243 242 242 242 241 241 241 240 240 240 237 237 237 223 223 223 201 201 201 170 170 170 131 131 131 89 89 89 43 43 43 27 27 27 36 36 36 43 43 43 47 47 47 46 46 46 42 42 42 49 49 49 68 68 68 74 74 74 67 67 67 61 61 61 58 58 58 62 62 62 76 76 76 86 86 86 94 94 94 95 95 95 88 88 88 78 78 78 65 65 65 53 53 53 42 42 42 33 33 33 27 27 27 22 22 22 19 19 19 16 16 16 14 14 14 12 12 12 11 11 11 10 10 10 11 11 11 12 12 12 14 14 14 16 16 16 19 19 19 22 22 22 26 26 26 32 32 32 41 41 41 52 52 52 65 65 65 78 78 78 91 91 91 100 100 100 102 102 102 100 100 100 88 88 88 75 75 75 63 63 63 57 57 57 66 66 66 78 78 78 96 96 96 110 110 110 115 115 115 119 119 119 119 119 119 118 118 118 118 118 118 101 101 101 42 42 42 0 0 0 0 0 0 0 0 0 0 0 0 0 0 0 0 0 0 8 8 8 40 40 40 86 86 86 177 177 177 248 248 248 251 251 251 254 254 254 254 254 254 254 254 254 255 255 255 255 255 255 255 255 255 255 255 255 255 255 255 255 255 255 255 255 255 255 255 255 255 255 255 255 255 255 255 255 255 255 255 255 255 255 255 255 255 255 255 255 255 255 255 255 255 255 255 255 255 255 255 255 255 255 255 255 255 255 255 255 255 255 255 255 255 255 255 255 255 255 255 255 255 255 255 255 255 255 255 255 255 255 255 255 255 255 255 255 255 255 255 255 255 255 255 255 255 255 255 255 255 255 255 255 255 255 255 255 255 255 255 255 255 255 255 255 255 255 255 255 255 255 255 255 255 255 255 255 255 255 255 255 255 255 255 255 255 255 255 255 255 255 255 255 255 255 255 255 255 255 255 255 255 255 255 255 255 255 255 255 255 255 255 255 
255 255 255 255 255 255 255 255 255 255 255 255 255 255 255 255 255 255 255 255 255 255 255 255 255 255 255 255 255 255 255 255 255 255 255 255 255 255 255 255 255 255 255 255 255 255 255 255 255 255 255 255 255 255 255 255 255 255 255 255 255 255 255 255 255 255 255 255 255 255 255 255 255 255 255 255 255 255 255 255 255 255 255 255 255 255 255 255 255 255 255 255 255 255 255 255 255 255 255 255 255 255 255 255 255 255 255 255 255 255 255 255 255 255 255 255 255 255 255 255 255 255 255 255 255 255 255 255 255 255 255 255 255 255 255 255 255 255 255 255 255 255 255 255 255 255 255 255 255 255 255 255 255 255 255 255 255 255 255 255 255 255 255 255 255 255 255 255 255 255 255 255 255 255 255 255 255 215 215 215 164 164 164 95 95 95 21 21 21 2 2 2 0 0 0 0 0 0 0 0 0 0 0 0 0 0 0 0 0 0 0 0 0 41 41 41 97 97 97 105 105 105 95 95 95 74 74 74 50 50 50 43 43 43 43 43 43 41 41 41 39 39 39 29 29 29 16 16 16 20 20 20 34 34 34 70 70 70 119 119 119 145 145 145 161 161 161 170 170 170 176 176 176 181 181 181 187 187 187 192 192 192 196 196 196 203 203 203 209 209 209 217 217 217 225 225 225 231 231 231 237 237 237 240 240 240 244 244 244 245 245 245 245 245 245 245 245 245 245 245 245 244 244 244 244 244 244 244 244 244 243 243 243 243 243 243 242 242 242 241 241 241 240 240 240 239 239 239 237 237 237 229 229 229 215 215 215 191 191 191 158 158 158 116 116 116 67 67 67 40 40 40 32 32 32 33 33 33 41 41 41 42 42 42 36 36 36 39 39 39 50 50 50 56 56 56 55 55 55 56 56 56 60 60 60 64 64 64 71 71 71 73 73 73 72 72 72 66 66 66 57 57 57 49 49 49 43 43 43 40 40 40 42 42 42 44 44 44 48 48 48 52 52 52 56 56 56 58 58 58 60 60 60 62 62 62 62 62 62 62 62 62 61 61 61 59 59 59 56 56 56 52 52 52 48 48 48 43 43 43 35 35 35 30 30 30 28 28 28 29 29 29 37 37 37 45 45 45 57 57 57 67 67 67 76 76 76 81 81 81 80 80 80 77 77 77 68 68 68 62 62 62 61 61 61 64 64 64 78 78 78 91 91 91 103 103 103 111 111 111 114 114 114 115 115 115 114 114 114 97 97 97 41 41 41 0 0 0 0 0 0 0 0 0 0 0 0 0 0 0 0 0 0 5 5 5 26 26 26 65 65 65 159 159 159 235 235 235 246 246 246 254 254 254 254 254 254 254 254 254 255 255 255 255 255 255 255 255 255 255 255 255 255 255 255 255 255 255 255 255 255 255 255 255 255 255 255 255 255 255 255 255 255 255 255 255 255 255 255 255 255 255 255 255 255 255 255 255 255 255 255 255 255 255 255 255 255 255 255 255 255 255 255 255 255 255 255 255 255 255 255 255 255 255 255 255 255 255 255 255 255 255 255 255 255 255 255 255 255 255 255 255 255 255 255 255 255 255 255 255 255 255 255 255 255 255 255 255 255 255 255 255 255 255 255 255 255 255 255 255 255 255 255 255 255 255 255 255 255 255 255 255 255 255 255 255 255 255 255 255 255 255 255 255 255 255 255 255 255 255 255 255 255 255 255 255 255 255 255 255 255 255 255 255 255 255 255 255 
255 255 255 255 255 255 255 255 255 255 255 255 255 255 255 255 255 255 255 255 255 255 255 255 255 255 255 255 255 255 255 255 255 255 255 255 255 255 255 255 255 255 255 255 255 255 255 255 255 255 255 255 255 255 255 255 255 255 255 255 255 255 255 255 255 255 255 255 255 255 255 255 255 255 255 255 255 255 255 255 255 255 255 255 255 255 255 255 255 255 255 255 255 255 255 255 255 255 255 255 255 255 255 255 255 255 255 255 255 255 255 255 255 255 255 255 255 255 255 255 255 255 255 255 255 255 255 255 255 255 255 255 255 255 255 255 255 255 255 255 255 255 255 255 255 255 255 255 255 255 255 255 255 255 255 255 255 255 255 255 255 255 255 255 255 255 255 255 255 255 255 255 255 255 255 255 255 202 202 202 134 134 134 74 74 74 16 16 16 1 1 1 0 0 0 0 0 0 0 0 0 0 0 0 0 0 0 0 0 0 0 0 0 39 39 39 93 93 93 97 97 97 81 81 81 62 62 62 41 41 41 37 37 37 40 40 40 36 36 36 28 28 28 18 18 18 8 8 8 27 27 27 60 60 60 98 98 98 139 139 139 159 159 159 168 168 168 175 175 175 181 181 181 186 186 186 191 191 191 196 196 196 201 201 201 204 204 204 208 208 208 212 212 212 216 216 216 221 221 221 228 228 228 234 234 234 241 241 241 244 244 244 244 244 244 244 244 244 244 244 244 244 244 244 243 243 243 243 243 243 242 242 242 242 242 242 241 241 241 240 240 240 239 239 239 237 237 237 236 236 236 232 232 232 227 227 227 210 210 210 181 181 181 143 143 143 96 96 96 58 58 58 30 30 30 22 22 22 34 34 34 37 37 37 32 32 32 30 30 30 33 33 33 38 38 38 47 47 47 55 55 55 65 65 65 68 68 68 62 62 62 53 53 53 40 40 40 29 29 29 20 20 20 18 18 18 24 24 24 35 35 35 53 53 53 70 70 70 88 88 88 102 102 102 113 113 113 122 122 122 129 129 129 134 134 134 137 137 137 137 137 137 133 133 133 127 127 127 119 119 119 109 109 109 96 96 96 80 80 80 60 60 60 40 40 40 24 24 24 12 12 12 11 11 11 12 12 12 18 18 18 27 27 27 40 40 40 53 53 53 67 67 67 76 76 76 76 76 76 71 71 71 59 59 59 52 52 52 60 60 60 71 71 71 89 89 89 103 103 103 108 108 108 111 111 111 110 110 110 94 94 94 39 39 39 0 0 0 0 0 0 0 0 0 0 0 0 0 0 0 0 0 0 3 3 3 14 14 14 45 45 45 141 141 141 219 219 219 239 239 239 254 254 254 254 254 254 254 254 254 255 255 255 255 255 255 255 255 255 255 255 255 255 255 255 255 255 255 255 255 255 255 255 255 255 255 255 255 255 255 255 255 255 255 255 255 255 255 255 255 255 255 255 255 255 255 255 255 255 255 255 255 255 255 255 255 255 255 255 255 255 255 255 255 255 255 255 255 255 255 255 255 255 255 255 255 255 255 255 255 255 255 255 255 255 255 255 255 255 255 255 255 255 255 255 255 255 255 255 255 255 255 255 255 255 255 255 255 255 255 255 255 255 255 255 255 255 255 255 255 255 255 255 255 255 255 255 255 255 255 255 255 255 255 255 255 255 255 255 255 255 255 255 255 255 255 255 255 255 255 255 255 255 255 255 255 255 255 255 255 255 255 255 255 255 255 255 255 
255 255 255 255 255 255 255 255 255 255 255 255 255 255 255 255 255 255 255 255 255 255 255 255 255 255 255 255 255 255 255 255 255 255 255 255 255 255 255 255 255 255 255 255 255 255 255 255 255 255 255 255 255 255 255 255 255 255 255 255 255 255 255 255 255 255 255 255 255 255 255 255 255 255 255 255 255 255 255 255 255 255 255 255 255 255 255 255 255 255 255 255 255 255 255 255 255 255 255 255 255 255 255 255 255 255 255 255 255 255 255 255 255 255 255 255 255 255 255 255 255 255 255 255 255 255 255 255 255 255 255 255 255 255 255 255 255 255 255 255 255 255 255 255 255 255 255 255 255 255 255 255 255 255 255 255 255 255 255 255 255 255 255 255 255 255 255 255 255 255 255 254 254 254 253 253 253 190 190 190 109 109 109 56 56 56 11 11 11 0 0 0 0 0 0 0 0 0 0 0 0 0 0 0 0 0 0 0 0 0 0 0 0 36 36 36 85 85 85 86 86 86 68 68 68 52 52 52 36 36 36 33 33 33 35 35 35 29 29 29 20 20 20 14 14 14 11 11 11 41 41 41 87 87 87 122 122 122 151 151 151 166 166 166 173 173 173 179 179 179 185 185 185 190 190 190 195 195 195 200 200 200 204 204 204 207 207 207 210 210 210 213 213 213 215 215 215 219 219 219 224 224 224 229 229 229 234 234 234 238 238 238 241 241 241 243 243 243 243 243 243 243 243 243 242 242 242 242 242 242 241 241 241 241 241 241 240 240 240 239 239 239 238 238 238 236 236 236 235 235 235 232 232 232 229 229 229 217 217 217 197 197 197 166 166 166 124 124 124 82 82 82 39 39 39 21 21 21 27 27 27 29 29 29 27 27 27 27 27 27 30 30 30 35 35 35 43 43 43 49 49 49 51 51 51 48 48 48 40 40 40 34 34 34 29 29 29 31 31 31 41 41 41 52 52 52 66 66 66 81 81 81 96 96 96 110 110 110 123 123 123 134 134 134 144 144 144 155 155 155 170 170 170 181 181 181 188 188 188 190 190 190 185 185 185 179 179 179 171 171 171 161 161 161 148 148 148 132 132 132 112 112 112 93 93 93 74 74 74 57 57 57 42 42 42 29 29 29 19 19 19 15 15 15 21 21 21 29 29 29 42 42 42 53 53 53 59 59 59 62 62 62 56 56 56 52 52 52 53 53 53 58 58 58 74 74 74 88 88 88 98 98 98 105 105 105 104 104 104 88 88 88 37 37 37 0 0 0 0 0 0 0 0 0 0 0 0 0 0 0 0 0 0 2 2 2 8 8 8 34 34 34 123 123 123 199 199 199 230 230 230 254 254 254 254 254 254 254 254 254 255 255 255 255 255 255 255 255 255 255 255 255 255 255 255 255 255 255 255 255 255 255 255 255 255 255 255 255 255 255 255 255 255 255 255 255 255 255 255 255 255 255 255 255 255 255 255 255 255 255 255 255 255 255 255 255 255 255 255 255 255 255 255 255 255 255 255 255 255 255 255 255 255 255 255 255 255 255 255 255 255 255 255 255 255 255 255 255 255 255 255 255 255 255 255 255 255 255 255 255 255 255 255 255 255 255 255 255 255 255 255 255 255 255 255 255 255 255 255 255 255 255 255 255 255 255 255 255 255 255 255 255 255 255 255 255 255 255 255 255 255 255 255 255 255 255 255 255 255 255 255 255 255 255 255 255 255 255 255 255 255 255 255 255 255 255 255 255 
255 255 255 255 255 255 255 255 255 255 255 255 255 255 255 255 255 255 255 255 255 255 255 255 255 255 255 255 255 255 255 255 255 255 255 255 255 255 255 255 255 255 255 255 255 255 255 255 255 255 255 255 255 255 255 255 255 255 255 255 255 255 255 255 255 255 255 255 255 255 255 255 255 255 255 255 255 255 255 255 255 255 255 255 255 255 255 255 255 255 255 255 255 255 255 255 255 255 255 255 255 255 255 255 255 255 255 255 255 255 255 255 255 255 255 255 255 255 255 255 255 255 255 255 255 255 255 255 255 255 255 255 255 255 255 255 255 255 255 255 255 255 255 255 255 255 255 255 255 255 255 255 255 255 255 255 255 255 255 255 255 255 255 255 255 255 255 255 254 254 254 252 252 252 250 250 250 178 178 178 85 85 85 39 39 39 8 8 8 0 0 0 0 0 0 0 0 0 0 0 0 0 0 0 0 0 0 0 0 0 0 0 0 32 32 32 76 76 76 75 75 75 55 55 55 43 43 43 32 32 32 29 29 29 29 29 29 22 22 22 12 12 12 12 12 12 17 17 17 58 58 58 116 116 116 145 145 145 161 161 161 170 170 170 177 177 177 183 183 183 189 189 189 194 194 194 199 199 199 203 203 203 207 207 207 210 210 210 213 213 213 215 215 215 217 217 217 219 219 219 220 220 220 223 223 223 227 227 227 232 232 232 238 238 238 241 241 241 242 242 242 242 242 242 241 241 241 241 241 241 240 240 240 240 240 240 239 239 239 238 238 238 237 237 237 235 235 235 233 233 233 231 231 231 229 229 229 222 222 222 211 211 211 188 188 188 153 153 153 107 107 107 50 50 50 22 22 22 21 21 21 21 21 21 22 22 22 25 25 25 31 31 31 36 36 36 42 42 42 40 40 40 31 31 31 23 23 23 15 15 15 15 15 15 24 24 24 44 44 44 76 76 76 104 104 104 125 125 125 141 141 141 147 147 147 153 153 153 157 157 157 161 161 161 167 167 167 180 180 180 204 204 204 222 222 222 232 232 232 236 236 236 232 232 232 227 227 227 220 220 220 212 212 212 201 201 201 188 188 188 172 172 172 155 155 155 138 138 138 117 117 117 88 88 88 59 59 59 30 30 30 10 10 10 7 7 7 8 8 8 14 14 14 23 23 23 36 36 36 47 47 47 53 53 53 56 56 56 48 48 48 46 46 46 57 57 57 70 70 70 87 87 87 98 98 98 97 97 97 83 83 83 35 35 35 0 0 0 0 0 0 0 0 0 0 0 0 0 0 0 0 0 0 1 1 1 3 3 3 25 25 25 106 106 106 178 178 178 221 221 221 255 255 255 255 255 255 255 255 255 255 255 255 255 255 255 255 255 255 255 255 255 255 255 255 255 255 255 255 255 255 255 255 255 255 255 255 255 255 255 255 255 255 255 255 255 255 255 255 255 255 255 255 255 255 255 255 255 255 255 255 255 255 255 255 255 255 255 255 255 255 255 255 255 255 255 255 255 255 255 255 255 255 255 255 255 255 255 255 255 255 255 255 255 255 255 255 255 255 255 255 255 255 255 255 255 255 255 255 255 255 255 255 255 255 255 255 255 255 255 255 255 255 255 255 255 255 255 255 255 255 255 255 255 255 255 255 255 255 255 255 255 255 255 255 255 255 255 255 255 255 255 255 255 255 255 255 255 255 255 255 255 255 255 255 255 255 255 255 255 255 255 255 255 255 255 255 255 
255 255 255 255 255 255 255 255 255 255 255 255 255 255 255 255 255 255 255 255 255 255 255 255 255 255 255 255 255 255 255 255 255 255 255 255 255 255 255 255 255 255 255 255 255 255 255 255 255 255 255 255 255 255 255 255 255 255 255 255 255 255 255 255 255 255 255 255 255 255 255 255 255 255 255 255 255 255 255 255 255 255 255 255 255 255 255 255 255 255 255 255 255 255 255 255 255 255 255 255 255 255 255 255 255 255 255 255 255 255 255 255 255 255 255 255 255 255 255 255 255 255 255 255 255 255 255 255 255 255 255 255 255 255 255 255 255 255 255 255 255 255 255 255 255 255 255 255 255 255 255 255 255 255 255 255 255 255 255 255 255 255 255 255 255 255 255 255 254 254 254 248 248 248 240 240 240 163 163 163 66 66 66 27 27 27 5 5 5 0 0 0 0 0 0 0 0 0 0 0 0 0 0 0 0 0 0 0 0 0 0 0 0 27 27 27 65 65 65 63 63 63 45 45 45 35 35 35 29 29 29 25 25 25 23 23 23 16 16 16 7 7 7 18 18 18 37 37 37 79 79 79 132 132 132 156 156 156 167 167 167 174 174 174 180 180 180 186 186 186 192 192 192 197 197 197 202 202 202 206 206 206 209 209 209 212 212 212 215 215 215 217 217 217 218 218 218 219 219 219 220 220 220 222 222 222 224 224 224 228 228 228 233 233 233 236 236 236 240 240 240 241 241 241 241 241 241 240 240 240 240 240 240 239 239 239 238 238 238 237 237 237 235 235 235 234 234 234 232 232 232 230 230 230 228 228 228 223 223 223 217 217 217 198 198 198 169 169 169 127 127 127 72 72 72 37 37 37 22 22 22 16 16 16 19 19 19 23 23 23 27 27 27 29 29 29 29 29 29 26 26 26 19 19 19 19 19 19 27 27 27 41 41 41 64 64 64 87 87 87 112 112 112 133 133 133 149 149 149 160 160 160 164 164 164 168 168 168 170 170 170 172 172 172 176 176 176 185 185 185 202 202 202 218 218 218 232 232 232 241 241 241 242 242 242 241 241 241 237 237 237 232 232 232 225 225 225 217 217 217 208 208 208 197 197 197 182 182 182 163 163 163 135 135 135 107 107 107 77 77 77 51 51 51 30 30 30 15 15 15 11 11 11 11 11 11 20 20 20 29 29 29 37 37 37 42 42 42 40 40 40 41 41 41 46 46 46 56 56 56 73 73 73 85 85 85 87 87 87 75 75 75 32 32 32 0 0 0 0 0 0 0 0 0 0 0 0 0 0 0 0 0 0 0 0 0 2 2 2 19 19 19 88 88 88 154 154 154 211 211 211 255 255 255 255 255 255 255 255 255 255 255 255 255 255 255 255 255 255 255 255 255 255 255 255 255 255 255 255 255 255 255 255 255 255 255 255 255 255 255 255 255 255 255 255 255 255 255 255 255 255 255 255 255 255 255 255 255 255 255 255 255 255 255 255 255 255 255 255 255 255 255 255 255 255 255 255 255 255 255 255 255 255 255 255 255 255 255 255 255 255 255 255 255 255 255 255 255 255 255 255 255 255 255 255 255 255 255 255 255 255 255 255 255 255 255 255 255 255 255 255 255 255 255 255 255 255 255 255 255 255 255 255 255 255 255 255 255 255 255 255 255 255 255 255 255 255 255 255 255 255 255 255 255 255 255 255 255 255 255 255 255 255 255 255 255 255 255 255 255 255 255 255 255 255 255 255 255 
255 255 255 255 255 255 255 255 255 255 255 255 255 255 255 255 255 255 255 255 255 255 255 255 255 255 255 255 255 255 255 255 255 255 255 255 255 255 255 255 255 255 255 255 255 255 255 255 255 255 255 255 255 255 255 255 255 255 255 255 255 255 255 255 255 255 255 255 255 255 255 255 255 255 255 255 255 255 255 255 255 255 255 255 255 255 255 255 255 255 255 255 255 255 255 255 255 255 255 255 255 255 255 255 255 255 255 255 255 255 255 255 255 255 255 255 255 255 255 255 255 255 255 255 255 255 255 255 255 255 255 255 255 255 255 255 255 255 255 255 255 255 255 255 255 255 255 255 255 255 255 255 255 255 255 255 255 255 255 255 255 255 255 255 255 255 255 255 255 255 255 243 243 243 227 227 227 148 148 148 50 50 50 17 17 17 3 3 3 0 0 0 0 0 0 0 0 0 0 0 0 0 0 0 0 0 0 0 0 0 0 0 0 23 23 23 55 55 55 52 52 52 36 36 36 28 28 28 25 25 25 21 21 21 16 16 16 10 10 10 4 4 4 26 26 26 61 61 61 102 102 102 145 145 145 164 164 164 172 172 172 178 178 178 183 183 183 189 189 189 194 194 194 200 200 200 205 205 205 208 208 208 211 211 211 214 214 214 217 217 217 218 218 218 219 219 219 220 220 220 221 221 221 222 222 222 222 222 222 224 224 224 227 227 227 231 231 231 237 237 237 240 240 240 240 240 240 240 240 240 239 239 239 238 238 238 237 237 237 236 236 236 234 234 234 232 232 232 231 231 231 229 229 229 226 226 226 223 223 223 220 220 220 206 206 206 182 182 182 146 146 146 97 97 97 57 57 57 24 24 24 11 11 11 17 17 17 21 21 21 23 23 23 20 20 20 14 14 14 10 10 10 9 9 9 21 21 21 49 49 49 80 80 80 115 115 115 139 139 139 149 149 149 157 157 157 164 164 164 169 169 169 172 172 172 175 175 175 177 177 177 179 179 179 181 181 181 185 185 185 190 190 190 202 202 202 221 221 221 235 235 235 242 242 242 246 246 246 244 244 244 243 243 243 242 242 242 241 241 241 238 238 238 232 232 232 221 221 221 206 206 206 183 183 183 159 159 159 134 134 134 104 104 104 63 63 63 30 30 30 13 13 13 3 3 3 5 5 5 10 10 10 17 17 17 25 25 25 32 32 32 37 37 37 37 37 37 42 42 42 58 58 58 71 71 71 75 75 75 67 67 67 28 28 28 0 0 0 0 0 0 0 0 0 0 0 0 0 0 0 0 0 0 0 0 0 0 0 0 14 14 14 70 70 70 130 130 130 200 200 200 254 254 254 254 254 254 254 254 254 255 255 255 255 255 255 255 255 255 255 255 255 255 255 255 255 255 255 255 255 255 255 255 255 255 255 255 255 255 255 255 255 255 255 255 255 255 255 255 255 255 255 255 255 255 255 255 255 255 255 255 255 255 255 255 255 255 255 255 255 255 255 255 255 255 255 255 255 255 255 255 255 255 255 255 255 255 255 255 255 255 255 255 255 255 255 255 255 255 255 255 255 255 255 255 255 255 255 255 255 255 255 255 255 255 255 255 255 255 255 255 255 255 255 255 255 255 255 255 255 255 255 255 255 255 255 255 255 255 255 255 255 255 255 255 255 255 255 255 255 255 255 255 255 255 255 255 255 255 255 255 255 255 255 255 255 255 255 255 255 255 255 255 255 255 255 255 255 
255 255 255 255 255 255 255 255 255 255 255 255 255 255 255 255 255 255 255 255 255 255 255 255 255 255 255 255 255 255 255 255 255 255 255 255 255 255 255 255 255 255 255 255 255 255 255 255 255 255 255 255 255 255 255 255 255 255 255 255 255 255 255 255 255 255 255 255 255 255 255 255 255 255 255 255 255 255 255 255 255 255 255 255 255 255 255 255 255 255 255 255 255 255 255 255 255 255 255 255 255 255 255 255 255 255 255 255 255 255 255 255 255 255 255 255 255 255 255 255 255 255 255 255 255 255 255 255 255 255 255 255 255 255 255 255 255 255 255 255 255 255 255 255 255 255 255 255 255 255 255 255 255 255 255 255 255 255 255 255 255 255 255 255 255 255 255 255 255 255 255 236 236 236 213 213 213 134 134 134 40 40 40 11 11 11 2 2 2 0 0 0 0 0 0 0 0 0 0 0 0 0 0 0 0 0 0 0 0 0 0 0 0 18 18 18 43 43 43 41 41 41 28 28 28 23 23 23 21 21 21 17 17 17 11 11 11 7 7 7 4 4 4 36 36 36 84 84 84 122 122 122 154 154 154 169 169 169 175 175 175 181 181 181 186 186 186 192 192 192 197 197 197 202 202 202 207 207 207 210 210 210 213 213 213 215 215 215 218 218 218 219 219 219 220 220 220 221 221 221 222 222 222 222 222 222 222 222 222 223 223 223 224 224 224 228 228 228 233 233 233 236 236 236 238 238 238 238 238 238 238 238 238 237 237 237 237 237 237 235 235 235 233 233 233 232 232 232 230 230 230 227 227 227 225 225 225 222 222 222 219 219 219 208 208 208 191 191 191 161 161 161 120 120 120 77 77 77 32 32 32 11 11 11 14 14 14 16 16 16 15 15 15 12 12 12 9 9 9 15 15 15 31 31 31 55 55 55 86 86 86 115 115 115 140 140 140 157 157 157 163 163 163 168 168 168 172 172 172 176 176 176 179 179 179 182 182 182 184 184 184 186 186 186 187 187 187 189 189 189 191 191 191 198 198 198 211 211 211 223 223 223 235 235 235 243 243 243 243 243 243 244 244 244 244 244 244 244 244 244 243 243 243 240 240 240 233 233 233 224 224 224 210 210 210 193 193 193 172 172 172 145 145 145 108 108 108 72 72 72 42 42 42 19 19 19 9 9 9 4 4 4 8 8 8 14 14 14 21 21 21 26 26 26 28 28 28 32 32 32 45 45 45 55 55 55 61 61 61 56 56 56 23 23 23 0 0 0 0 0 0 0 0 0 0 0 0 0 0 0 0 0 0 0 0 0 0 0 0 11 11 11 56 56 56 109 109 109 190 190 190 252 252 252 253 253 253 254 254 254 255 255 255 255 255 255 255 255 255 255 255 255 255 255 255 255 255 255 255 255 255 255 255 255 255 255 255 255 255 255 255 255 255 255 255 255 255 255 255 255 255 255 255 255 255 255 255 255 255 255 255 255 255 255 255 255 255 255 255 255 255 255 255 255 255 255 255 255 255 255 255 255 255 255 255 255 255 255 255 255 255 255 255 255 255 255 255 255 255 255 255 255 255 255 255 255 255 255 255 255 255 255 255 255 255 255 255 255 255 255 255 255 255 255 255 255 255 255 255 255 255 255 255 255 255 255 255 255 255 255 255 255 255 255 255 255 255 255 255 255 255 255 255 255 255 255 255 255 255 255 255 255 255 255 255 255 255 255 255 255 255 255 255 255 255 255 255 255 
255 255 255 255 255 255 255 255 255 255 255 255 255 255 255 255 255 255 255 255 255 255 255 255 255 255 255 255 255 255 255 255 255 255 255 255 255 255 255 255 255 255 255 255 255 255 255 255 255 255 255 255 255 255 255 255 255 255 255 255 255 255 255 255 255 255 255 255 255 255 255 255 255 255 255 255 255 255 255 255 255 255 255 255 255 255 255 255 255 255 255 255 255 255 255 255 255 255 255 255 255 255 255 255 255 255 255 255 255 255 255 255 255 255 255 255 255 255 255 255 255 255 255 255 255 255 255 255 255 255 255 255 255 255 255 255 255 255 255 255 255 255 255 255 255 255 255 255 255 255 255 255 255 255 255 255 255 255 255 255 255 255 255 255 255 255 255 255 255 255 255 230 230 230 198 198 198 121 121 121 31 31 31 6 6 6 1 1 1 0 0 0 0 0 0 0 0 0 0 0 0 0 0 0 0 0 0 0 0 0 0 0 0 13 13 13 32 32 32 31 31 31 22 22 22 18 18 18 17 17 17 13 13 13 7 7 7 5 5 5 5 5 5 47 47 47 107 107 107 141 141 141 163 163 163 173 173 173 178 178 178 183 183 183 189 189 189 195 195 195 200 200 200 204 204 204 208 208 208 212 212 212 215 215 215 217 217 217 218 218 218 220 220 220 221 221 221 221 221 221 222 222 222 223 223 223 223 223 223 223 223 223 223 223 223 225 225 225 228 228 228 231 231 231 235 235 235 237 237 237 237 237 237 237 237 237 236 236 236 234 234 234 233 233 233 231 231 231 228 228 228 226 226 226 223 223 223 221 221 221 217 217 217 210 210 210 199 199 199 176 176 176 142 142 142 97 97 97 40 40 40 12 12 12 11 11 11 9 9 9 6 6 6 5 5 5 6 6 6 25 25 25 63 63 63 98 98 98 128 128 128 149 149 149 158 158 158 165 165 165 171 171 171 175 175 175 179 179 179 183 183 183 185 185 185 188 188 188 190 190 190 192 192 192 194 194 194 195 195 195 196 196 196 198 198 198 202 202 202 211 211 211 227 227 227 237 237 237 240 240 240 241 241 241 242 242 242 241 241 241 241 241 241 240 240 240 238 238 238 235 235 235 231 231 231 223 223 223 205 205 205 184 184 184 156 156 156 123 123 123 78 78 78 41 41 41 17 17 17 2 2 2 2 2 2 5 5 5 9 9 9 14 14 14 19 19 19 24 24 24 32 32 32 39 39 39 46 46 46 43 43 43 18 18 18 0 0 0 0 0 0 0 0 0 0 0 0 0 0 0 0 0 0 0 0 0 0 0 0 8 8 8 43 43 43 90 90 90 180 180 180 249 249 249 252 252 252 254 254 254 255 255 255 255 255 255 255 255 255 255 255 255 255 255 255 255 255 255 255 255 255 255 255 255 255 255 255 255 255 255 255 255 255 255 255 255 255 255 255 255 255 255 255 255 255 255 255 255 255 255 255 255 255 255 255 255 255 255 255 255 255 255 255 255 255 255 255 255 255 255 255 255 255 255 255 255 255 255 255 255 255 255 255 255 255 255 255 255 255 255 255 255 255 255 255 255 255 255 255 255 255 255 255 255 255 255 255 255 255 255 255 255 255 255 255 255 255 255 255 255 255 255 255 255 255 255 255 255 255 255 255 255 255 255 255 255 255 255 255 255 255 255 255 255 255 255 255 255 255 255 255 255 255 255 255 255 255 255 255 255 255 255 255 255 255 255 255 255 
255 255 255 255 255 255 255 255 255 255 255 255 255 255 255 255 255 255 255 255 255 255 255 255 255 255 255 255 255 255 255 255 255 255 255 255 255 255 255 255 255 255 255 255 255 255 255 255 255 255 255 255 255 255 255 255 255 255 255 255 255 255 255 255 255 255 255 255 255 255 255 255 255 255 255 255 255 255 255 255 255 255 255 255 255 255 255 255 255 255 255 255 255 255 255 255 255 255 255 255 255 255 255 255 255 255 255 255 255 255 255 255 255 255 255 255 255 255 255 255 255 255 255 255 255 255 255 255 255 255 255 255 255 255 255 255 255 255 255 255 255 255 255 255 255 255 255 255 255 255 255 255 255 255 255 255 255 255 255 255 255 255 255 255 255 255 255 255 255 255 255 222 222 222 180 180 180 107 107 107 25 25 25 4 4 4 1 1 1 0 0 0 0 0 0 0 0 0 0 0 0 0 0 0 0 0 0 0 0 0 0 0 0 9 9 9 22 22 22 22 22 22 17 17 17 15 15 15 13 13 13 9 9 9 4 4 4 8 8 8 15 15 15 59 59 59 121 121 121 152 152 152 168 168 168 176 176 176 180 180 180 185 185 185 191 191 191 196 196 196 201 201 201 206 206 206 209 209 209 213 213 213 215 215 215 217 217 217 219 219 219 220 220 220 221 221 221 221 221 221 222 222 222 222 222 222 222 222 222 222 222 222 223 223 223 224 224 224 225 225 225 228 228 228 232 232 232 234 234 234 235 235 235 235 235 235 234 234 234 233 233 233 231 231 231 229 229 229 227 227 227 225 225 225 222 222 222 219 219 219 215 215 215 210 210 210 202 202 202 184 184 184 156 156 156 112 112 112 52 52 52 19 19 19 11 11 11 5 5 5 3 3 3 10 10 10 26 26 26 54 54 54 94 94 94 125 125 125 147 147 147 161 161 161 167 167 167 172 172 172 177 177 177 181 181 181 185 185 185 188 188 188 191 191 191 193 193 193 195 195 195 197 197 197 199 199 199 200 200 200 200 200 200 201 201 201 203 203 203 208 208 208 220 220 220 229 229 229 236 236 236 239 239 239 239 239 239 239 239 239 239 239 239 238 238 238 237 237 237 236 236 236 234 234 234 230 230 230 219 219 219 205 205 205 185 185 185 158 158 158 117 117 117 78 78 78 41 41 41 14 14 14 6 6 6 1 1 1 4 4 4 7 7 7 11 11 11 16 16 16 23 23 23 28 28 28 32 32 32 30 30 30 13 13 13 0 0 0 0 0 0 0 0 0 0 0 0 0 0 0 0 0 0 0 0 0 0 0 0 6 6 6 32 32 32 74 74 74 168 168 168 243 243 243 249 249 249 254 254 254 255 255 255 255 255 255 255 255 255 255 255 255 255 255 255 255 255 255 255 255 255 255 255 255 255 255 255 255 255 255 255 255 255 255 255 255 255 255 255 255 255 255 255 255 255 255 255 255 255 255 255 255 255 255 255 255 255 255 255 255 255 255 255 255 255 255 255 255 255 255 255 255 255 255 255 255 255 255 255 255 255 255 255 255 255 255 255 255 255 255 255 255 255 255 255 255 255 255 255 255 255 255 255 255 255 255 255 255 255 255 255 255 255 255 255 255 255 255 255 255 255 255 255 255 255 255 255 255 255 255 255 255 255 255 255 255 255 255 255 255 255 255 255 255 255 255 255 255 255 255 255 255 255 255 255 255 255 255 255 255 255 255 255 255 255 255 255 255 
255 255 255 255 255 255 255 255 255 255 255 255 255 255 255 255 255 255 255 255 255 255 255 255 255 255 255 255 255 255 255 255 255 255 255 255 255 255 255 255 255 255 255 255 255 255 255 255 255 255 255 255 255 255 255 255 255 255 255 255 255 255 255 255 255 255 255 255 255 255 255 255 255 255 255 255 255 255 255 255 255 255 255 255 255 255 255 255 255 255 255 255 255 255 255 255 255 255 255 255 255 255 255 255 255 255 255 255 255 255 255 255 255 255 255 255 255 255 255 255 255 255 255 255 255 255 255 255 255 255 255 255 255 255 255 255 255 255 255 255 255 255 255 255 255 255 255 255 255 255 255 255 255 255 255 255 255 255 255 255 255 255 255 255 255 255 255 255 255 255 255 214 214 214 162 162 162 93 93 93 20 20 20 2 2 2 0 0 0 0 0 0 0 0 0 0 0 0 0 0 0 0 0 0 0 0 0 0 0 0 0 0 0 6 6 6 13 13 13 14 14 14 13 13 13 11 11 11 10 10 10 6 6 6 3 3 3 12 12 12 28 28 28 73 73 73 132 132 132 160 160 160 173 173 173 179 179 179 182 182 182 187 187 187 193 193 193 198 198 198 203 203 203 207 207 207 210 210 210 213 213 213 216 216 216 218 218 218 219 219 219 220 220 220 221 221 221 221 221 221 221 221 221 221 221 221 221 221 221 221 221 221 222 222 222 222 222 222 223 223 223 225 225 225 228 228 228 231 231 231 233 233 233 233 233 233 233 233 233 231 231 231 229 229 229 228 228 228 226 226 226 223 223 223 220 220 220 217 217 217 214 214 214 210 210 210 205 205 205 190 190 190 166 166 166 125 125 125 65 65 65 27 27 27 11 11 11 2 2 2 1 1 1 18 18 18 52 52 52 87 87 87 125 125 125 149 149 149 158 158 158 166 166 166 172 172 172 178 178 178 182 182 182 186 186 186 190 190 190 194 194 194 196 196 196 198 198 198 200 200 200 202 202 202 203 203 203 204 204 204 205 205 205 206 206 206 206 206 206 208 208 208 213 213 213 220 220 220 231 231 231 237 237 237 237 237 237 237 237 237 237 237 237 236 236 236 235 235 235 234 234 234 232 232 232 230 230 230 227 227 227 221 221 221 208 208 208 189 189 189 157 157 157 120 120 120 69 69 69 30 30 30 12 12 12 0 0 0 1 1 1 2 2 2 5 5 5 8 8 8 14 14 14 18 18 18 20 20 20 18 18 18 7 7 7 0 0 0 0 0 0 0 0 0 0 0 0 0 0 0 0 0 0 0 0 0 0 0 0 4 4 4 22 22 22 59 59 59 157 157 157 235 235 235 246 246 246 254 254 254 255 255 255 255 255 255 255 255 255 255 255 255 255 255 255 255 255 255 255 255 255 255 255 255 255 255 255 255 255 255 255 255 255 255 255 255 255 255 255 255 255 255 255 255 255 255 255 255 255 255 255 255 255 255 255 255 255 255 255 255 255 255 255 255 255 255 255 255 255 255 255 255 255 255 255 255 255 255 255 255 255 255 255 255 255 255 255 255 255 255 255 255 255 255 255 255 255 255 255 255 255 255 255 255 255 255 255 255 255 255 255 255 255 255 255 255 255 255 255 255 255 255 255 255 255 255 255 255 255 255 255 255 255 255 255 255 255 255 255 255 255 255 255 255 255 255 255 255 255 255 255 255 255 255 255 255 255 255 255 255 255 255 255 255 255 255 255 255 
255 255 255 255 255 255 255 255 255 255 255 255 255 255 255 255 255 255 255 255 255 255 255 255 255 255 255 255 255 255 255 255 255 255 255 255 255 255 255 255 255 255 255 255 255 255 255 255 255 255 255 255 255 255 255 255 255 255 255 255 255 255 255 255 255 255 255 255 255 255 255 255 255 255 255 255 255 255 255 255 255 255 255 255 255 255 255 255 255 255 255 255 255 255 255 255 255 255 255 255 255 255 255 255 255 255 255 255 255 255 255 255 255 255 255 255 255 255 255 255 255 255 255 255 255 255 255 255 255 255 255 255 255 255 255 255 255 255 255 255 255 255 255 255 255 255 255 255 255 255 255 255 255 255 255 255 255 255 255 255 255 255 255 255 255 255 255 255 255 255 255 207 207 207 145 145 145 81 81 81 16 16 16 1 1 1 0 0 0 0 0 0 0 0 0 0 0 0 0 0 0 0 0 0 0 0 0 0 0 0 0 0 0 4 4 4 9 9 9 10 10 10 10 10 10 9 9 9 7 7 7 4 4 4 1 1 1 18 18 18 43 43 43 87 87 87 140 140 140 165 165 165 176 176 176 182 182 182 184 184 184 189 189 189 194 194 194 199 199 199 204 204 204 208 208 208 211 211 211 214 214 214 216 216 216 218 218 218 219 219 219 220 220 220 221 221 221 221 221 221 221 221 221 221 221 221 221 221 221 221 221 221 221 221 221 221 221 221 221 221 221 223 223 223 225 225 225 228 228 228 230 230 230 231 231 231 231 231 231 230 230 230 228 228 228 226 226 226 223 223 223 216 216 216 205 205 205 195 195 195 185 185 185 180 180 180 178 178 178 172 172 172 161 161 161 129 129 129 78 78 78 40 40 40 14 14 14 5 5 5 13 13 13 37 37 37 79 79 79 114 114 114 140 140 140 158 158 158 165 165 165 171 171 171 177 177 177 182 182 182 187 187 187 191 191 191 195 195 195 198 198 198 200 200 200 202 202 202 204 204 204 206 206 206 207 207 207 208 208 208 209 209 209 209 209 209 209 209 209 210 210 210 212 212 212 217 217 217 226 226 226 233 233 233 235 235 235 236 236 236 235 235 235 234 234 234 233 233 233 232 232 232 230 230 230 229 229 229 227 227 227 223 223 223 216 216 216 203 203 203 179 179 179 149 149 149 104 104 104 63 63 63 28 28 28 4 4 4 2 2 2 0 0 0 2 2 2 4 4 4 8 8 8 12 12 12 12 12 12 11 11 11 4 4 4 0 0 0 0 0 0 0 0 0 0 0 0 0 0 0 0 0 0 0 0 0 0 0 0 3 3 3 16 16 16 49 49 49 147 147 147 226 226 226 242 242 242 254 254 254 255 255 255 255 255 255 255 255 255 255 255 255 255 255 255 255 255 255 255 255 255 255 255 255 255 255 255 255 255 255 255 255 255 255 255 255 255 255 255 255 255 255 255 255 255 255 255 255 255 255 255 255 255 255 255 255 255 255 255 255 255 255 255 255 255 255 255 255 255 255 255 255 255 255 255 255 255 255 255 255 255 255 255 255 255 255 255 255 255 255 255 255 255 255 255 255 255 255 255 255 255 255 255 255 255 255 255 255 255 255 255 255 255 255 255 255 255 255 255 255 255 255 255 255 255 255 255 255 255 255 255 255 255 255 255 255 255 255 255 255 255 255 255 255 255 255 255 255 255 255 255 255 255 255 255 255 255 255 255 255 255 255 255 255 255 255 255 255 
255 255 255 255 255 255 255 255 255 255 255 255 255 255 255 255 255 255 255 255 255 255 255 255 255 255 255 255 255 255 255 255 255 255 255 255 255 255 255 255 255 255 255 255 255 255 255 255 255 255 255 255 255 255 255 255 255 255 255 255 255 255 255 255 255 255 255 255 255 255 255 255 255 255 255 255 255 255 255 255 255 255 255 255 255 255 255 255 255 255 255 255 255 255 255 255 255 255 255 255 255 255 255 255 255 255 255 255 255 255 255 255 255 255 255 255 255 255 255 255 255 255 255 255 255 255 255 255 255 255 255 255 255 255 255 255 255 255 255 255 255 255 255 255 255 255 255 255 255 255 255 255 255 255 255 255 255 255 255 255 255 255 255 255 255 255 255 255 254 254 254 199 199 199 129 129 129 69 69 69 13 13 13 0 0 0 0 0 0 0 0 0 0 0 0 0 0 0 0 0 0 0 0 0 0 0 0 0 0 0 0 0 0 2 2 2 5 5 5 7 7 7 7 7 7 6 6 6 4 4 4 2 2 2 1 1 1 24 24 24 59 59 59 101 101 101 146 146 146 168 168 168 179 179 179 184 184 184 186 186 186 190 190 190 196 196 196 201 201 201 205 205 205 209 209 209 212 212 212 215 215 215 216 216 216 218 218 218 219 219 219 220 220 220 221 221 221 221 221 221 221 221 221 221 221 221 221 221 221 221 221 221 220 220 220 220 220 220 220 220 220 221 221 221 222 222 222 224 224 224 228 228 228 229 229 229 229 229 229 229 229 229 228 228 228 225 225 225 220 220 220 207 207 207 186 186 186 166 166 166 148 148 148 140 140 140 143 143 143 146 146 146 150 150 150 131 131 131 91 91 91 53 53 53 18 18 18 9 9 9 28 28 28 60 60 60 107 107 107 138 138 138 152 152 152 162 162 162 169 169 169 176 176 176 182 182 182 187 187 187 191 191 191 196 196 196 200 200 200 203 203 203 205 205 205 207 207 207 208 208 208 210 210 210 211 211 211 211 211 211 212 212 212 212 212 212 212 212 212 212 212 212 213 213 213 215 215 215 221 221 221 227 227 227 232 232 232 235 235 235 234 234 234 233 233 233 231 231 231 230 230 230 228 228 228 227 227 227 225 225 225 222 222 222 219 219 219 211 211 211 195 195 195 174 174 174 141 141 141 101 101 101 47 47 47 9 9 9 4 4 4 0 0 0 0 0 0 1 1 1 4 4 4 6 6 6 6 6 6 6 6 6 2 2 2 0 0 0 0 0 0 0 0 0 0 0 0 0 0 0 0 0 0 0 0 0 0 0 0 2 2 2 12 12 12 42 42 42 139 139 139 218 218 218 239 239 239 255 255 255 255 255 255 255 255 255 255 255 255 255 255 255 255 255 255 255 255 255 255 255 255 255 255 255 255 255 255 255 255 255 255 255 255 255 255 255 255 255 255 255 255 255 255 255 255 255 255 255 255 255 255 255 255 255 255 255 255 255 255 255 255 255 255 255 255 255 255 255 255 255 255 255 255 255 255 255 255 255 255 255 255 255 255 255 255 255 255 255 255 255 255 255 255 255 255 255 255 255 255 255 255 255 255 255 255 255 255 255 255 255 255 255 255 255 255 255 255 255 255 255 255 255 255 255 255 255 255 255 255 255 255 255 255 255 255 255 255 255 255 255 255 255 255 255 255 255 255 255 255 255 255 255 255 255 255 255 255 255 255 255 255 255 255 255 255 255 255 255 
255 255 255 255 255 255 255 255 255 255 255 255 255 255 255 255 255 255 255 255 255 255 255 255 255 255 255 255 255 255 255 255 255 255 255 255 255 255 255 255 255 255 255 255 255 255 255 255 255 255 255 255 255 255 255 255 255 255 255 255 255 255 255 255 255 255 255 255 255 255 255 255 255 255 255 255 255 255 255 255 255 255 255 255 255 255 255 255 255 255 255 255 255 255 255 255 255 255 255 255 255 255 255 255 255 255 255 255 255 255 255 255 255 255 255 255 255 255 255 255 255 255 255 255 255 255 255 255 255 255 255 255 255 255 255 255 255 255 255 255 255 255 255 255 255 255 255 255 255 255 255 255 255 255 255 255 255 255 255 255 255 255 255 255 255 255 255 255 254 254 254 193 193 193 114 114 114 59 59 59 11 11 11 0 0 0 0 0 0 0 0 0 0 0 0 0 0 0 0 0 0 0 0 0 0 0 0 0 0 0 0 0 0 1 1 1 3 3 3 5 5 5 6 6 6 5 5 5 3 3 3 1 1 1 0 0 0 30 30 30 73 73 73 113 113 113 152 152 152 171 171 171 181 181 181 185 185 185 187 187 187 192 192 192 197 197 197 201 201 201 206 206 206 210 210 210 213 213 213 215 215 215 216 216 216 218 218 218 219 219 219 219 219 219 220 220 220 220 220 220 220 220 220 220 220 220 220 220 220 220 220 220 220 220 220 220 220 220 220 220 220 220 220 220 220 220 220 222 222 222 225 225 225 227 227 227 228 228 228 227 227 227 225 225 225 213 213 213 194 194 194 174 174 174 155 155 155 151 151 151 158 158 158 162 162 162 161 161 161 156 156 156 148 148 148 127 127 127 96 96 96 61 61 61 22 22 22 17 17 17 47 47 47 79 79 79 111 111 111 130 130 130 133 133 133 139 139 139 149 149 149 161 161 161 176 176 176 187 187 187 194 194 194 199 199 199 203 203 203 206 206 206 208 208 208 210 210 210 211 211 211 212 212 212 213 213 213 214 214 214 214 214 214 215 215 215 215 215 215 215 215 215 215 215 215 216 216 216 219 219 219 223 223 223 229 229 229 233 233 233 233 233 233 232 232 232 230 230 230 229 229 229 227 227 227 225 225 225 223 223 223 221 221 221 218 218 218 213 213 213 202 202 202 187 187 187 160 160 160 125 125 125 72 72 72 30 30 30 12 12 12 0 0 0 0 0 0 0 0 0 2 2 2 3 3 3 3 3 3 3 3 3 1 1 1 0 0 0 0 0 0 0 0 0 0 0 0 0 0 0 0 0 0 0 0 0 0 0 0 2 2 2 8 8 8 35 35 35 129 129 129 208 208 208 234 234 234 255 255 255 255 255 255 255 255 255 255 255 255 255 255 255 255 255 255 255 255 255 255 255 255 255 255 255 255 255 255 255 255 255 255 255 255 255 255 255 255 255 255 255 255 255 255 255 255 255 255 255 255 255 255 255 255 255 255 255 255 255 255 255 255 255 255 255 255 255 255 255 255 255 255 255 255 255 255 255 255 255 255 255 255 255 255 255 255 255 255 255 255 255 255 255 255 255 255 255 255 255 255 255 255 255 255 255 255 255 255 255 255 255 255 255 255 255 255 255 255 255 255 255 255 255 255 255 255 255 255 255 255 255 255 255 255 255 255 255 255 255 255 255 255 255 255 255 255 255 255 255 255 255 255 255 255 255 255 255 255 255 255 255 255 255 255 255 255 255 255 255 
255 255 255 255 255 255 255 255 255 255 255 255 255 255 255 255 255 255 255 255 255 255 255 255 255 255 255 255 255 255 255 255 255 255 255 255 255 255 255 255 255 255 255 255 255 255 255 255 255 255 255 255 255 255 255 255 255 255 255 255 255 255 255 255 255 255 255 255 255 255 255 255 255 255 255 255 255 255 255 255 255 255 255 255 255 255 255 255 255 255 255 255 255 255 255 255 255 255 255 255 255 255 255 255 255 255 255 255 255 255 255 255 255 255 255 255 255 255 255 255 255 255 255 255 255 255 255 255 255 255 255 255 255 255 255 255 255 255 255 255 255 255 255 255 255 255 255 255 255 255 255 255 255 255 255 255 255 255 255 255 255 255 255 255 255 255 255 255 254 254 254 186 186 186 100 100 100 49 49 49 9 9 9 0 0 0 0 0 0 0 0 0 0 0 0 0 0 0 0 0 0 0 0 0 0 0 0 0 0 0 0 0 0 1 1 1 2 2 2 3 3 3 4 4 4 3 3 3 2 2 2 1 1 1 0 0 0 35 35 35 85 85 85 124 124 124 157 157 157 174 174 174 183 183 183 187 187 187 189 189 189 193 193 193 197 197 197 202 202 202 206 206 206 210 210 210 213 213 213 215 215 215 216 216 216 218 218 218 219 219 219 219 219 219 219 219 219 219 219 219 219 219 219 219 219 219 219 219 219 219 219 219 219 219 219 219 219 219 219 219 219 219 219 219 219 219 219 221 221 221 223 223 223 224 224 224 226 226 226 225 225 225 221 221 221 199 199 199 160 160 160 135 135 135 121 121 121 139 139 139 185 185 185 203 203 203 196 196 196 177 177 177 148 148 148 122 122 122 99 99 99 66 66 66 25 25 25 26 26 26 69 69 69 96 96 96 108 108 108 111 111 111 104 104 104 107 107 107 122 122 122 141 141 141 166 166 166 185 185 185 195 195 195 203 203 203 206 206 206 208 208 208 211 211 211 213 213 213 214 214 214 215 215 215 216 216 216 216 216 216 216 216 216 217 217 217 217 217 217 217 217 217 217 217 217 217 217 217 218 218 218 221 221 221 227 227 227 231 231 231 231 231 231 231 231 231 229 229 229 228 228 228 226 226 226 224 224 224 221 221 221 218 218 218 216 216 216 212 212 212 207 207 207 196 196 196 174 174 174 145 145 145 98 98 98 56 56 56 23 23 23 0 0 0 0 0 0 0 0 0 0 0 0 1 1 1 1 1 1 1 1 1 1 1 1 0 0 0 0 0 0 0 0 0 0 0 0 0 0 0 0 0 0 0 0 0 0 0 0 1 1 1 5 5 5 29 29 29 119 119 119 197 197 197 229 229 229 255 255 255 255 255 255 255 255 255 255 255 255 255 255 255 255 255 255 255 255 255 255 255 255 255 255 255 255 255 255 255 255 255 255 255 255 255 255 255 255 255 255 255 255 255 255 255 255 255 255 255 255 255 255 255 255 255 255 255 255 255 255 255 255 255 255 255 255 255 255 255 255 255 255 255 255 255 255 255 255 255 255 255 255 255 255 255 255 255 255 255 255 255 255 255 255 255 255 255 255 255 255 255 255 255 255 255 255 255 255 255 255 255 255 255 255 255 255 255 255 255 255 255 255 255 255 255 255 255 255 255 255 255 255 255 255 255 255 255 255 255 255 255 255 255 255 255 255 255 255 255 255 255 255 255 255 255 255 255 255 255 255 255 255 255 255 255 255 255 255 255 
255 255 255 255 255 255 255 255 255 255 255 255 255 255 255 255 255 255 255 255 255 255 255 255 255 255 255 255 255 255 255 255 255 255 255 255 255 255 255 255 255 255 255 255 255 255 255 255 255 255 255 255 255 255 255 255 255 255 255 255 255 255 255 255 255 255 255 255 255 255 255 255 255 255 255 255 255 255 255 255 255 255 255 255 255 255 255 255 255 255 255 255 255 255 255 255 255 255 255 255 255 255 255 255 255 255 255 255 255 255 255 255 255 255 255 255 255 255 255 255 255 255 255 255 255 255 255 255 255 255 255 255 255 255 255 255 255 255 255 255 255 255 255 255 255 255 255 255 255 255 255 255 255 255 255 255 255 255 255 255 255 255 255 255 255 253 253 253 251 251 251 180 180 180 88 88 88 41 41 41 8 8 8 0 0 0 0 0 0 0 0 0 0 0 0 0 0 0 0 0 0 0 0 0 0 0 0 0 0 0 0 0 0 1 1 1 1 1 1 2 2 2 3 3 3 2 2 2 1 1 1 0 0 0 0 0 0 39 39 39 95 95 95 132 132 132 161 161 161 176 176 176 184 184 184 188 188 188 190 190 190 194 194 194 198 198 198 202 202 202 206 206 206 210 210 210 213 213 213 215 215 215 216 216 216 217 217 217 218 218 218 219 219 219 219 219 219 219 219 219 219 219 219 219 219 219 219 219 219 219 219 219 219 219 219 219 219 219 219 219 219 219 219 219 219 219 219 219 219 219 221 221 221 222 222 222 224 224 224 218 218 218 207 207 207 172 172 172 118 118 118 89 89 89 82 82 82 112 112 112 176 176 176 208 208 208 212 212 212 201 201 201 174 174 174 143 143 143 107 107 107 71 71 71 34 34 34 34 34 34 71 71 71 93 93 93 100 100 100 108 108 108 120 120 120 126 126 126 127 127 127 133 133 133 143 143 143 160 160 160 184 184 184 200 200 200 206 206 206 211 211 211 213 213 213 215 215 215 216 216 216 216 216 216 217 217 217 217 217 217 218 218 218 218 218 218 218 218 218 218 218 218 218 218 218 218 218 218 218 218 218 220 220 220 224 224 224 228 228 228 229 229 229 229 229 229 228 228 228 226 226 226 224 224 224 222 222 222 219 219 219 216 216 216 213 213 213 210 210 210 206 206 206 198 198 198 181 181 181 158 158 158 120 120 120 80 80 80 34 34 34 2 2 2 1 1 1 0 0 0 0 0 0 0 0 0 0 0 0 1 1 1 0 0 0 0 0 0 0 0 0 0 0 0 0 0 0 0 0 0 0 0 0 0 0 0 0 0 0 1 1 1 3 3 3 25 25 25 109 109 109 184 184 184 224 224 224 255 255 255 255 255 255 255 255 255 255 255 255 255 255 255 255 255 255 255 255 255 255 255 255 255 255 255 255 255 255 255 255 255 255 255 255 255 255 255 255 255 255 255 255 255 255 255 255 255 255 255 255 255 255 255 255 255 255 255 255 255 255 255 255 255 255 255 255 255 255 255 255 255 255 255 255 255 255 255 255 255 255 255 255 255 255 255 255 255 255 255 255 255 255 255 255 255 255 255 255 255 255 255 255 255 255 255 255 255 255 255 255 255 255 255 255 255 255 255 255 255 255 255 255 255 255 255 255 255 255 255 255 255 255 255 255 255 255 255 255 255 255 255 255 255 255 255 255 255 255 255 255 255 255 255 255 255 255 255 255 255 255 255 255 255 255 255 255 255 255 255 
255 255 255 255 255 255 255 255 255 255 255 255 255 255 255 255 255 255 255 255 255 255 255 255 255 255 255 255 255 255 255 255 255 255 255 255 255 255 255 255 255 255 255 255 255 255 255 255 255 255 255 255 255 255 255 255 255 255 255 255 255 255 255 255 255 255 255 255 255 255 255 255 255 255 255 255 255 255 255 255 255 255 255 255 255 255 255 255 255 255 255 255 255 255 255 255 255 255 255 255 255 255 255 255 255 255 255 255 255 255 255 255 255 255 255 255 255 255 255 255 255 255 255 255 255 255 255 255 255 255 255 255 255 255 255 255 255 255 255 255 255 255 255 255 255 255 255 255 255 255 255 255 255 255 255 255 255 255 255 255 255 255 255 255 255 252 252 252 248 248 248 173 173 173 77 77 77 34 34 34 6 6 6 0 0 0 0 0 0 0 0 0 0 0 0 0 0 0 0 0 0 0 0 0 0 0 0 0 0 0 0 0 0 0 0 0 1 1 1 1 1 1 1 1 1 1 1 1 0 0 0 0 0 0 0 0 0 42 42 42 103 103 103 139 139 139 164 164 164 178 178 178 185 185 185 189 189 189 191 191 191 194 194 194 198 198 198 203 203 203 207 207 207 210 210 210 213 213 213 215 215 215 216 216 216 217 217 217 218 218 218 218 218 218 218 218 218 218 218 218 218 218 218 218 218 218 218 218 218 218 218 218 218 218 218 218 218 218 218 218 218 218 218 218 218 218 218 219 219 219 219 219 219 221 221 221 223 223 223 211 211 211 189 189 189 141 141 141 73 73 73 42 42 42 40 40 40 80 80 80 155 155 155 202 202 202 222 222 222 224 224 224 209 209 209 173 173 173 117 117 117 75 75 75 45 45 45 42 42 42 66 66 66 82 82 82 90 90 90 112 112 112 150 150 150 162 162 162 144 144 144 128 128 128 115 115 115 127 127 127 169 169 169 197 197 197 206 206 206 212 212 212 214 214 214 216 216 216 217 217 217 218 218 218 218 218 218 218 218 218 218 218 218 219 219 219 219 219 219 219 219 219 219 219 219 219 219 219 218 218 218 219 219 219 221 221 221 224 224 224 227 227 227 228 228 228 226 226 226 225 225 225 223 223 223 220 220 220 217 217 217 214 214 214 211 211 211 207 207 207 203 203 203 197 197 197 186 186 186 170 170 170 141 141 141 104 104 104 45 45 45 4 4 4 2 2 2 0 0 0 0 0 0 0 0 0 0 0 0 0 0 0 0 0 0 0 0 0 0 0 0 0 0 0 0 0 0 0 0 0 0 0 0 0 0 0 0 0 0 0 0 0 2 2 2 21 21 21 99 99 99 171 171 171 218 218 218 255 255 255 255 255 255 255 255 255 255 255 255 255 255 255 255 255 255 255 255 255 255 255 255 255 255 255 255 255 255 255 255 255 255 255 255 255 255 255 255 255 255 255 255 255 255 255 255 255 255 255 255 255 255 255 255 255 255 255 255 255 255 255 255 255 255 255 255 255 255 255 255 255 255 255 255 255 255 255 255 255 255 255 255 255 255 255 255 255 255 255 255 255 255 255 255 255 255 255 255 255 255 255 255 255 255 255 255 255 255 255 255 255 255 255 255 255 255 255 255 255 255 255 255 255 255 255 255 255 255 255 255 255 255 255 255 255 255 255 255 255 255 255 255 255 255 255 255 255 255 255 255 255 255 255 255 255 255 255 255 255 255 255 255 255 255 255 255 255 255 255 
255 255 255 255 255 255 255 255 255 255 255 255 255 255 255 255 255 255 255 255 255 255 255 255 255 255 255 255 255 255 255 255 255 255 255 255 255 255 255 255 255 255 255 255 255 255 255 255 255 255 255 255 255 255 255 255 255 255 255 255 255 255 255 255 255 255 255 255 255 255 255 255 255 255 255 255 255 255 255 255 255 255 255 255 255 255 255 255 255 255 255 255 255 255 255 255 255 255 255 255 255 255 255 255 255 255 255 255 255 255 255 255 255 255 255 255 255 255 255 255 255 255 255 255 255 255 255 255 255 255 255 255 255 255 255 255 255 255 255 255 255 255 255 255 255 255 255 255 255 255 255 255 255 255 255 255 255 255 255 255 255 255 255 255 255 250 250 250 244 244 244 167 167 167 69 69 69 29 29 29 6 6 6 0 0 0 0 0 0 0 0 0 0 0 0 0 0 0 0 0 0 0 0 0 0 0 0 0 0 0 0 0 0 0 0 0 1 1 1 1 1 1 1 1 1 0 0 0 0 0 0 0 0 0 0 0 0 45 45 45 110 110 110 145 145 145 167 167 167 179 179 179 186 186 186 190 190 190 192 192 192 195 195 195 199 199 199 203 203 203 207 207 207 210 210 210 213 213 213 214 214 214 216 216 216 217 217 217 217 217 217 218 218 218 218 218 218 218 218 218 218 218 218 218 218 218 218 218 218 218 218 218 218 218 218 218 218 218 218 218 218 218 218 218 218 218 218 218 218 218 218 218 218 219 219 219 220 220 220 199 199 199 162 162 162 112 112 112 52 52 52 23 23 23 22 22 22 56 56 56 121 121 121 171 171 171 207 207 207 221 221 221 213 213 213 182 182 182 129 129 129 87 87 87 56 56 56 44 44 44 52 52 52 59 59 59 66 66 66 98 98 98 157 157 157 184 184 184 176 176 176 156 156 156 124 124 124 121 121 121 151 151 151 178 178 178 200 200 200 213 213 213 215 215 215 217 217 217 218 218 218 218 218 218 218 218 218 218 218 218 219 219 219 219 219 219 219 219 219 219 219 219 219 219 219 219 219 219 218 218 218 218 218 218 220 220 220 222 222 222 224 224 224 226 226 226 225 225 225 223 223 223 221 221 221 219 219 219 216 216 216 213 213 213 209 209 209 205 205 205 201 201 201 195 195 195 187 187 187 175 175 175 152 152 152 118 118 118 58 58 58 14 14 14 6 6 6 0 0 0 0 0 0 0 0 0 0 0 0 0 0 0 0 0 0 0 0 0 0 0 0 0 0 0 0 0 0 0 0 0 0 0 0 0 0 0 0 0 0 0 0 0 1 1 1 19 19 19 92 92 92 161 161 161 214 214 214 255 255 255 255 255 255 255 255 255 255 255 255 255 255 255 255 255 255 255 255 255 255 255 255 255 255 255 255 255 255 255 255 255 255 255 255 255 255 255 255 255 255 255 255 255 255 255 255 255 255 255 255 255 255 255 255 255 255 255 255 255 255 255 255 255 255 255 255 255 255 255 255 255 255 255 255 255 255 255 255 255 255 255 255 255 255 255 255 255 255 255 255 255 255 255 255 255 255 255 255 255 255 255 255 255 255 255 255 255 255 255 255 255 255 255 255 255 255 255 255 255 255 255 255 255 255 255 255 255 255 255 255 255 255 255 255 255 255 255 255 255 255 255 255 255 255 255 255 255 255 255 255 255 255 255 255 255 255 255 255 255 255 255 255 255 255 255 255 255 255 255 
255 255 255 255 255 255 255 255 255 255 255 255 255 255 255 255 255 255 255 255 255 255 255 255 255 255 255 255 255 255 255 255 255 255 255 255 255 255 255 255 255 255 255 255 255 255 255 255 255 255 255 255 255 255 255 255 255 255 255 255 255 255 255 255 255 255 255 255 255 255 255 255 255 255 255 255 255 255 255 255 255 255 255 255 255 255 255 255 255 255 255 255 255 255 255 255 255 255 255 255 255 255 255 255 255 255 255 255 255 255 255 255 255 255 255 255 255 255 255 255 255 255 255 255 255 255 255 255 255 255 255 255 255 255 255 255 255 255 255 255 255 255 255 255 255 255 255 255 255 255 255 255 255 255 255 255 255 255 255 255 255 255 255 255 255 248 248 248 240 240 240 162 162 162 63 63 63 25 25 25 5 5 5 0 0 0 0 0 0 0 0 0 0 0 0 0 0 0 0 0 0 0 0 0 0 0 0 0 0 0 0 0 0 0 0 0 0 0 0 0 0 0 0 0 0 0 0 0 0 0 0 0 0 0 0 0 0 47 47 47 116 116 116 151 151 151 170 170 170 181 181 181 188 188 188 191 191 191 194 194 194 196 196 196 199 199 199 203 203 203 207 207 207 210 210 210 212 212 212 214 214 214 215 215 215 216 216 216 217 217 217 217 217 217 217 217 217 217 217 217 217 217 217 217 217 217 217 217 217 217 217 217 217 217 217 217 217 217 217 217 217 217 217 217 217 217 217 217 217 217 217 217 217 217 217 217 216 216 216 186 186 186 132 132 132 83 83 83 38 38 38 15 15 15 11 11 11 34 34 34 81 81 81 131 131 131 183 183 183 208 208 208 207 207 207 184 184 184 141 141 141 103 103 103 67 67 67 44 44 44 33 33 33 30 30 30 37 37 37 77 77 77 156 156 156 202 202 202 213 213 213 196 196 196 147 147 147 124 124 124 132 132 132 153 153 153 192 192 192 214 214 214 216 216 216 217 217 217 218 218 218 218 218 218 219 219 219 219 219 219 219 219 219 219 219 219 219 219 219 219 219 219 219 219 219 219 219 219 218 218 218 218 218 218 218 218 218 219 219 219 222 222 222 223 223 223 223 223 223 222 222 222 220 220 220 217 217 217 214 214 214 211 211 211 207 207 207 203 203 203 198 198 198 193 193 193 187 187 187 177 177 177 160 160 160 130 130 130 71 71 71 26 26 26 11 11 11 0 0 0 0 0 0 0 0 0 0 0 0 0 0 0 0 0 0 0 0 0 0 0 0 0 0 0 0 0 0 0 0 0 0 0 0 0 0 0 0 0 0 0 0 0 0 0 0 17 17 17 86 86 86 153 153 153 210 210 210 255 255 255 255 255 255 255 255 255 255 255 255 255 255 255 255 255 255 255 255 255 255 255 255 255 255 255 255 255 255 255 255 255 255 255 255 255 255 255 255 255 255 255 255 255 255 255 255 255 255 255 255 255 255 255 255 255 255 255 255 255 255 255 255 255 255 255 255 255 255 255 255 255 255 255 255 255 255 255 255 255 255 255 255 255 255 255 255 255 255 255 255 255 255 255 255 255 255 255 255 255 255 255 255 255 255 255 255 255 255 255 255 255 255 255 255 255 255 255 255 255 255 255 255 255 255 255 255 255 255 255 255 255 255 255 255 255 255 255 255 255 255 255 255 255 255 255 255 255 255 255 255 255 255 255 255 255 255 255 255 255 255 255 255 255 255 255 255 255 255 255 
255 255 255 255 255 255 255 255 255 255 255 255 255 255 255 255 255 255 255 255 255 255 255 255 255 255 255 255 255 255 255 255 255 255 255 255 255 255 255 255 255 255 255 255 255 255 255 255 255 255 255 255 255 255 255 255 255 255 255 255 255 255 255 255 255 255 255 255 255 255 255 255 255 255 255 255 255 255 255 255 255 255 255 255 255 255 255 255 255 255 255 255 255 255 255 255 255 255 255 255 255 255 255 255 255 255 255 255 255 255 255 255 255 255 255 255 255 255 255 255 255 255 255 255 255 255 255 255 255 255 255 255 255 255 255 255 255 255 255 255 255 255 255 255 255 255 255 255 255 255 255 255 255 255 255 255 255 255 255 255 255 255 255 255 255 247 247 247 236 236 236 157 157 157 58 58 58 22 22 22 4 4 4 0 0 0 0 0 0 0 0 0 0 0 0 0 0 0 0 0 0 0 0 0 0 0 0 0 0 0 0 0 0 0 0 0 0 0 0 0 0 0 0 0 0 0 0 0 0 0 0 0 0 0 0 0 0 49 49 49 119 119 119 154 154 154 172 172 172 182 182 182 188 188 188 192 192 192 195 195 195 197 197 197 199 199 199 202 202 202 206 206 206 209 209 209 212 212 212 213 213 213 215 215 215 216 216 216 216 216 216 217 217 217 217 217 217 217 217 217 217 217 217 217 217 217 217 217 217 217 217 217 217 217 217 217 217 217 217 217 217 217 217 217 217 217 217 217 217 217 217 217 217 215 215 215 213 213 213 176 176 176 111 111 111 65 65 65 34 34 34 15 15 15 7 7 7 22 22 22 55 55 55 100 100 100 153 153 153 175 175 175 167 167 167 145 145 145 108 108 108 79 79 79 56 56 56 38 38 38 23 23 23 17 17 17 21 21 21 57 57 57 128 128 128 178 178 178 205 205 205 200 200 200 158 158 158 129 129 129 115 115 115 131 131 131 181 181 181 211 211 211 215 215 215 217 217 217 217 217 217 218 218 218 218 218 218 218 218 218 218 218 218 218 218 218 218 218 218 218 218 218 218 218 218 218 218 218 218 218 218 218 218 218 218 218 218 218 218 218 220 220 220 221 221 221 221 221 221 220 220 220 218 218 218 215 215 215 212 212 212 209 209 209 205 205 205 200 200 200 196 196 196 190 190 190 184 184 184 176 176 176 162 162 162 135 135 135 81 81 81 36 36 36 15 15 15 0 0 0 0 0 0 0 0 0 0 0 0 0 0 0 0 0 0 0 0 0 0 0 0 0 0 0 0 0 0 0 0 0 0 0 0 0 0 0 0 0 0 0 0 0 0 0 0 15 15 15 81 81 81 145 145 145 207 207 207 255 255 255 255 255 255 255 255 255 255 255 255 255 255 255 255 255 255 255 255 255 255 255 255 255 255 255 255 255 255 255 255 255 255 255 255 255 255 255 255 255 255 255 255 255 255 255 255 255 255 255 255 255 255 255 255 255 255 255 255 255 255 255 255 255 255 255 255 255 255 255 255 255 255 255 255 255 255 255 255 255 255 255 255 255 255 255 255 255 255 255 255 255 255 255 255 255 255 255 255 255 255 255 255 255 255 255 255 255 255 255 255 255 255 255 255 255 255 255 255 255 255 255 255 255 255 255 255 255 255 255 255 255 255 255 255 255 255 255 255 255 255 255 255 255 255 255 255 255 255 255 255 255 255 255 255 255 255 255 255 255 255 255 255 255 255 255 255 255 255 255 
255 255 255 255 255 255 255 255 255 255 255 255 255 255 255 255 255 255 255 255 255 255 255 255 255 255 255 255 255 255 255 255 255 255 255 255 255 255 255 255 255 255 255 255 255 255 255 255 255 255 255 255 255 255 255 255 255 255 255 255 255 255 255 255 255 255 255 255 255 255 255 255 255 255 255 255 255 255 255 255 255 255 255 255 255 255 255 255 255 255 255 255 255 255 255 255 255 255 255 255 255 255 255 255 255 255 255 255 255 255 255 255 255 255 255 255 255 255 255 255 255 255 255 255 255 255 255 255 255 255 255 255 255 255 255 255 255 255 255 255 255 255 255 255 255 255 255 255 255 255 255 255 255 255 255 255 255 255 255 255 255 255 255 255 255 245 245 245 233 233 233 153 153 153 53 53 53 19 19 19 4 4 4 0 0 0 0 0 0 0 0 0 0 0 0 0 0 0 0 0 0 0 0 0 0 0 0 0 0 0 0 0 0 0 0 0 0 0 0 0 0 0 0 0 0 0 0 0 0 0 0 0 0 0 0 0 0 50 50 50 122 122 122 157 157 157 173 173 173 183 183 183 189 189 189 193 193 193 196 196 196 198 198 198 199 199 199 202 202 202 206 206 206 209 209 209 211 211 211 213 213 213 214 214 214 215 215 215 216 216 216 216 216 216 216 216 216 216 216 216 216 216 216 216 216 216 216 216 216 216 216 216 216 216 216 216 216 216 216 216 216 216 216 216 216 216 216 216 216 216 216 216 216 213 213 213 209 209 209 166 166 166 94 94 94 51 51 51 32 32 32 18 18 18 7 7 7 14 14 14 35 35 35 71 71 71 121 121 121 135 135 135 116 116 116 90 90 90 58 58 58 41 41 41 37 37 37 29 29 29 16 16 16 9 9 9 10 10 10 37 37 37 91 91 91 139 139 139 181 181 181 191 191 191 165 165 165 135 135 135 100 100 100 108 108 108 171 171 171 208 208 208 213 213 213 216 216 216 217 217 217 217 217 217 217 217 217 217 217 217 217 217 217 217 217 217 217 217 217 217 217 217 217 217 217 217 217 217 217 217 217 217 217 217 217 217 217 217 217 217 218 218 218 219 219 219 219 219 219 218 218 218 216 216 216 213 213 213 210 210 210 206 206 206 202 202 202 198 198 198 193 193 193 188 188 188 181 181 181 173 173 173 161 161 161 137 137 137 88 88 88 46 46 46 19 19 19 0 0 0 0 0 0 0 0 0 0 0 0 0 0 0 0 0 0 0 0 0 0 0 0 0 0 0 0 0 0 0 0 0 0 0 0 0 0 0 0 0 0 0 0 0 0 0 0 14 14 14 76 76 76 138 138 138 203 203 203 254 254 254 255 255 255 255 255 255 255 255 255 255 255 255 255 255 255 255 255 255 255 255 255 255 255 255 255 255 255 255 255 255 255 255 255 255 255 255 255 255 255 255 255 255 255 255 255 255 255 255 255 255 255 255 255 255 255 255 255 255 255 255 255 255 255 255 255 255 255 255 255 255 255 255 255 255 255 255 255 255 255 255 255 255 255 255 255 255 255 255 255 255 255 255 255 255 255 255 255 255 255 255 255 255 255 255 255 255 255 255 255 255 255 255 255 255 255 255 255 255 255 255 255 255 255 255 255 255 255 255 255 255 255 255 255 255 255 255 255 255 255 255 255 255 255 255 255 255 255 255 255 255 255 255 255 255 255 255 255 255 255 255 255 255 255 255 255 255 255 255 
255 255 255 255 255 255 255 255 255 255 255 255 255 255 255 255 255 255 255 255 255 255 255 255 255 255 255 255 255 255 255 255 255 255 255 255 255 255 255 255 255 255 255 255 255 255 255 255 255 255 255 255 255 255 255 255 255 255 255 255 255 255 255 255 255 255 255 255 255 255 255 255 255 255 255 255 255 255 255 255 255 255 255 255 255 255 255 255 255 255 255 255 255 255 255 255 255 255 255 255 255 255 255 255 255 255 255 255 255 255 255 255 255 255 255 255 255 255 255 255 255 255 255 255 255 255 255 255 255 255 255 255 255 255 255 255 255 255 255 255 255 255 255 255 255 255 255 255 255 255 255 255 255 255 255 255 255 255 255 255 255 255 255 255 255 243 243 243 227 227 227 146 146 146 47 47 47 15 15 15 3 3 3 0 0 0 0 0 0 0 0 0 0 0 0 0 0 0 0 0 0 0 0 0 0 0 0 0 0 0 0 0 0 0 0 0 0 0 0 0 0 0 0 0 0 0 0 0 0 0 0 0 0 0 0 0 0 50 50 50 122 122 122 157 157 157 174 174 174 183 183 183 189 189 189 194 194 194 197 197 197 199 199 199 199 199 199 201 201 201 205 205 205 208 208 208 211 211 211 212 212 212 214 214 214 215 215 215 215 215 215 216 216 216 216 216 216 216 216 216 216 216 216 216 216 216 215 215 215 215 215 215 216 216 216 216 216 216 216 216 216 216 216 216 216 216 216 216 216 216 215 215 215 212 212 212 206 206 206 161 161 161 84 84 84 44 44 44 34 34 34 22 22 22 9 9 9 8 8 8 19 19 19 41 41 41 72 72 72 79 79 79 65 65 65 48 48 48 29 29 29 21 21 21 25 25 25 23 23 23 14 14 14 9 9 9 9 9 9 26 26 26 61 61 61 95 95 95 126 126 126 133 133 133 113 113 113 92 92 92 70 70 70 90 90 90 161 161 161 204 204 204 212 212 212 216 216 216 216 216 216 217 217 217 217 217 217 217 217 217 217 217 217 217 217 217 216 216 216 216 216 216 217 217 217 217 217 217 216 216 216 216 216 216 217 217 217 217 217 217 217 217 217 216 216 216 216 216 216 215 215 215 213 213 213 211 211 211 208 208 208 204 204 204 200 200 200 195 195 195 190 190 190 185 185 185 178 178 178 170 170 170 160 160 160 138 138 138 93 93 93 52 52 52 21 21 21 0 0 0 0 0 0 0 0 0 0 0 0 0 0 0 0 0 0 0 0 0 0 0 0 0 0 0 0 0 0 0 0 0 0 0 0 0 0 0 0 0 0 0 0 0 0 0 0 13 13 13 69 69 69 128 128 128 199 199 199 254 254 254 254 254 254 255 255 255 255 255 255 255 255 255 255 255 255 255 255 255 255 255 255 255 255 255 255 255 255 255 255 255 255 255 255 255 255 255 255 255 255 255 255 255 255 255 255 255 255 255 255 255 255 255 255 255 255 255 255 255 255 255 255 255 255 255 255 255 255 255 255 255 255 255 255 255 255 255 255 255 255 255 255 255 255 255 255 255 255 255 255 255 255 255 255 255 255 255 255 255 255 255 255 255 255 255 255 255 255 255 255 255 255 255 255 255 255 255 255 255 255 255 255 255 255 255 255 255 255 255 255 255 255 255 255 255 255 255 255 255 255 255 255 255 255 255 255 255 255 255 255 255 255 255 255 255 255 255 255 255 255 255 255 255 255 255 255 255 255 255 
255 255 255 255 255 255 255 255 255 255 255 255 255 255 255 255 255 255 255 255 255 255 255 255 255 255 255 255 255 255 255 255 255 255 255 255 255 255 255 255 255 255 255 255 255 255 255 255 255 255 255 255 255 255 255 255 255 255 255 255 255 255 255 255 255 255 255 255 255 255 255 255 255 255 255 255 255 255 255 255 255 255 255 255 255 255 255 255 255 255 255 255 255 255 255 255 255 255 255 255 255 255 255 255 255 255 255 255 255 255 255 255 255 255 255 255 255 255 255 255 255 255 255 255 255 255 255 255 255 255 255 255 255 255 255 255 255 255 255 255 255 255 255 255 255 255 255 255 255 255 255 255 255 255 255 255 255 255 255 255 255 255 255 255 255 240 240 240 220 220 220 139 139 139 40 40 40 11 11 11 2 2 2 0 0 0 0 0 0 0 0 0 0 0 0 0 0 0 0 0 0 0 0 0 0 0 0 0 0 0 0 0 0 0 0 0 0 0 0 0 0 0 0 0 0 0 0 0 0 0 0 0 0 0 0 0 0 50 50 50 122 122 122 156 156 156 173 173 173 183 183 183 190 190 190 194 194 194 198 198 198 199 199 199 199 199 199 201 201 201 204 204 204 207 207 207 210 210 210 212 212 212 213 213 213 214 214 214 215 215 215 215 215 215 215 215 215 215 215 215 215 215 215 215 215 215 214 214 214 215 215 215 215 215 215 215 215 215 215 215 215 215 215 215 215 215 215 215 215 215 214 214 214 210 210 210 204 204 204 157 157 157 78 78 78 40 40 40 37 37 37 27 27 27 11 11 11 5 5 5 6 6 6 10 10 10 16 16 16 18 18 18 14 14 14 11 11 11 7 7 7 9 9 9 16 16 16 18 18 18 14 14 14 12 12 12 11 11 11 18 18 18 35 35 35 49 49 49 59 59 59 57 57 57 39 39 39 31 31 31 36 36 36 74 74 74 153 153 153 201 201 201 210 210 210 215 215 215 216 216 216 216 216 216 216 216 216 216 216 216 216 216 216 216 216 216 216 216 216 215 215 215 216 216 216 216 216 216 216 216 216 215 215 215 216 216 216 216 216 216 215 215 215 214 214 214 214 214 214 213 213 213 211 211 211 209 209 209 206 206 206 202 202 202 198 198 198 193 193 193 187 187 187 182 182 182 175 175 175 168 168 168 159 159 159 139 139 139 97 97 97 57 57 57 23 23 23 0 0 0 0 0 0 0 0 0 0 0 0 0 0 0 0 0 0 0 0 0 0 0 0 0 0 0 0 0 0 0 0 0 0 0 0 0 0 0 0 0 0 0 0 0 0 0 0 12 12 12 61 61 61 116 116 116 193 193 193 253 253 253 254 254 254 255 255 255 255 255 255 255 255 255 255 255 255 255 255 255 255 255 255 255 255 255 255 255 255 255 255 255 255 255 255 255 255 255 255 255 255 255 255 255 255 255 255 255 255 255 255 255 255 255 255 255 255 255 255 255 255 255 255 255 255 255 255 255 255 255 255 255 255 255 255 255 255 255 255 255 255 255 255 255 255 255 255 255 255 255 255 255 255 255 255 255 255 255 255 255 255 255 255 255 255 255 255 255 255 255 255 255 255 255 255 255 255 255 255 255 255 255 255 255 255 255 255 255 255 255 255 255 255 255 255 255 255 255 255 255 255 255 255 255 255 255 255 255 255 255 255 255 255 255 255 255 255 255 255 255 255 255 255 255 255 255 255 255 255 255 
255 255 255 255 255 255 255 255 255 255 255 255 255 255 255 255 255 255 255 255 255 255 255 255 255 255 255 255 255 255 255 255 255 255 255 255 255 255 255 255 255 255 255 255 255 255 255 255 255 255 255 255 255 255 255 255 255 255 255 255 255 255 255 255 255 255 255 255 255 255 255 255 255 255 255 255 255 255 255 255 255 255 255 255 255 255 255 255 255 255 255 255 255 255 255 255 255 255 255 255 255 255 255 255 255 255 255 255 255 255 255 255 255 255 255 255 255 255 255 255 255 255 255 255 255 255 255 255 255 255 255 255 255 255 255 255 255 255 255 255 255 255 255 255 255 255 255 255 255 255 255 255 255 255 255 255 255 255 255 255 255 255 255 255 255 236 236 236 211 211 211 131 131 131 35 35 35 8 8 8 2 2 2 0 0 0 0 0 0 0 0 0 0 0 0 0 0 0 0 0 0 0 0 0 0 0 0 0 0 0 0 0 0 0 0 0 0 0 0 0 0 0 0 0 0 0 0 0 0 0 0 0 0 0 0 0 0 48 48 48 118 118 118 153 153 153 172 172 172 183 183 183 190 190 190 195 195 195 199 199 199 200 200 200 200 200 200 201 201 201 204 204 204 207 207 207 210 210 210 211 211 211 213 213 213 214 214 214 214 214 214 215 215 215 214 214 214 214 214 214 214 214 214 214 214 214 214 214 214 214 214 214 214 214 214 215 215 215 214 214 214 214 214 214 214 214 214 214 214 214 214 214 214 210 210 210 203 203 203 156 156 156 77 77 77 42 42 42 41 41 41 32 32 32 14 14 14 5 5 5 3 3 3 1 1 1 0 0 0 0 0 0 0 0 0 0 0 0 0 0 0 5 5 5 13 13 13 17 17 17 17 17 17 16 16 16 15 15 15 16 16 16 19 19 19 23 23 23 26 26 26 22 22 22 11 11 11 11 11 11 23 23 23 67 67 67 149 149 149 199 199 199 209 209 209 214 214 214 215 215 215 215 215 215 215 215 215 215 215 215 215 215 215 215 215 215 215 215 215 215 215 215 215 215 215 215 215 215 215 215 215 215 215 215 215 215 215 215 215 215 214 214 214 213 213 213 212 212 212 211 211 211 209 209 209 206 206 206 203 203 203 200 200 200 195 195 195 190 190 190 185 185 185 179 179 179 172 172 172 165 165 165 156 156 156 138 138 138 96 96 96 57 57 57 24 24 24 0 0 0 0 0 0 0 0 0 0 0 0 0 0 0 0 0 0 0 0 0 0 0 0 0 0 0 0 0 0 0 0 0 0 0 0 0 0 0 0 0 0 0 0 0 0 0 0 10 10 10 52 52 52 104 104 104 187 187 187 252 252 252 254 254 254 255 255 255 255 255 255 255 255 255 255 255 255 255 255 255 255 255 255 255 255 255 255 255 255 255 255 255 255 255 255 255 255 255 255 255 255 255 255 255 255 255 255 255 255 255 255 255 255 255 255 255 255 255 255 255 255 255 255 255 255 255 255 255 255 255 255 255 255 255 255 255 255 255 255 255 255 255 255 255 255 255 255 255 255 255 255 255 255 255 255 255 255 255 255 255 255 255 255 255 255 255 255 255 255 255 255 255 255 255 255 255 255 255 255 255 255 255 255 255 255 255 255 255 255 255 255 255 255 255 255 255 255 255 255 255 255 255 255 255 255 255 255 255 255 255 255 255 255 255 255 255 255 255 255 255 255 255 255 255 255 255 255 255 255 255 
255 255 255 255 255 255 255 255 255 255 255 255 255 255 255 255 255 255 255 255 255 255 255 255 255 255 255 255 255 255 255 255 255 255 255 255 255 255 255 255 255 255 255 255 255 255 255 255 255 255 255 255 255 255 255 255 255 255 255 255 255 255 255 255 255 255 255 255 255 255 255 255 255 255 255 255 255 255 255 255 255 255 255 255 255 255 255 255 255 255 255 255 255 255 255 255 255 255 255 255 255 255 255 255 255 255 255 255 255 255 255 255 255 255 255 255 255 255 255 255 255 255 255 255 255 255 255 255 255 255 255 255 255 255 255 255 255 255 255 255 255 255 255 255 255 255 255 255 255 255 255 255 255 255 255 255 255 255 255 255 255 255 255 255 255 231 231 231 200 200 200 122 122 122 30 30 30 6 6 6 1 1 1 0 0 0 0 0 0 0 0 0 0 0 0 0 0 0 0 0 0 0 0 0 0 0 0 0 0 0 0 0 0 0 0 0 0 0 0 0 0 0 0 0 0 0 0 0 0 0 0 0 0 0 0 0 0 46 46 46 113 113 113 149 149 149 171 171 171 183 183 183 190 190 190 195 195 195 199 199 199 201 201 201 201 201 201 202 202 202 204 204 204 206 206 206 209 209 209 211 211 211 212 212 212 213 213 213 214 214 214 214 214 214 213 213 213 213 213 213 213 213 213 213 213 213 213 213 213 213 213 213 214 214 214 214 214 214 213 213 213 213 213 213 213 213 213 213 213 213 213 213 213 209 209 209 202 202 202 156 156 156 79 79 79 45 45 45 46 46 46 37 37 37 18 18 18 7 7 7 3 3 3 0 0 0 0 0 0 0 0 0 0 0 0 0 0 0 0 0 0 4 4 4 13 13 13 18 18 18 20 20 20 21 21 21 19 19 19 15 15 15 8 8 8 5 5 5 6 6 6 5 5 5 3 3 3 7 7 7 19 19 19 63 63 63 146 146 146 197 197 197 207 207 207 213 213 213 213 213 213 214 214 214 214 214 214 214 214 214 214 214 214 214 214 214 214 214 214 214 214 214 214 214 214 214 214 214 214 214 214 214 214 214 214 214 214 214 214 214 213 213 213 212 212 212 211 211 211 210 210 210 207 207 207 204 204 204 201 201 201 197 197 197 193 193 193 188 188 188 182 182 182 176 176 176 169 169 169 162 162 162 154 154 154 136 136 136 94 94 94 56 56 56 23 23 23 0 0 0 0 0 0 0 0 0 0 0 0 0 0 0 0 0 0 0 0 0 0 0 0 0 0 0 0 0 0 0 0 0 0 0 0 0 0 0 0 0 0 0 0 0 0 0 0 8 8 8 43 43 43 91 91 91 179 179 179 249 249 249 253 253 253 255 255 255 255 255 255 255 255 255 255 255 255 255 255 255 255 255 255 255 255 255 255 255 255 255 255 255 255 255 255 255 255 255 255 255 255 255 255 255 255 255 255 255 255 255 255 255 255 255 255 255 255 255 255 255 255 255 255 255 255 255 255 255 255 255 255 255 255 255 255 255 255 255 255 255 255 255 255 255 255 255 255 255 255 255 255 255 255 255 255 255 255 255 255 255 255 255 255 255 255 255 255 255 255 255 255 255 255 255 255 255 255 255 255 255 255 255 255 255 255 255 255 255 255 255 255 255 255 255 255 255 255 255 255 255 255 255 255 255 255 255 255 255 255 255 255 255 255 255 255 255 255 255 255 255 255 255 255 255 255 255 255 255 255 255 
255 255 255 255 255 255 255 255 255 255 255 255 255 255 255 255 255 255 255 255 255 255 255 255 255 255 255 255 255 255 255 255 255 255 255 255 255 255 255 255 255 255 255 255 255 255 255 255 255 255 255 255 255 255 255 255 255 255 255 255 255 255 255 255 255 255 255 255 255 255 255 255 255 255 255 255 255 255 255 255 255 255 255 255 255 255 255 255 255 255 255 255 255 255 255 255 255 255 255 255 255 255 255 255 255 255 255 255 255 255 255 255 255 255 255 255 255 255 255 255 255 255 255 255 255 255 255 255 255 255 255 255 255 255 255 255 255 255 255 255 255 255 255 255 255 255 255 255 255 255 255 255 255 255 255 255 255 255 255 255 255 255 255 255 255 226 226 226 189 189 189 113 113 113 26 26 26 4 4 4 1 1 1 0 0 0 0 0 0 0 0 0 0 0 0 0 0 0 0 0 0 0 0 0 0 0 0 0 0 0 0 0 0 0 0 0 0 0 0 0 0 0 0 0 0 0 0 0 0 0 0 0 0 0 0 0 0 44 44 44 107 107 107 143 143 143 169 169 169 182 182 182 189 189 189 195 195 195 199 199 199 201 201 201 202 202 202 203 203 203 203 203 203 205 205 205 208 208 208 210 210 210 211 211 211 212 212 212 213 213 213 213 213 213 213 213 213 213 213 213 213 213 213 213 213 213 213 213 213 213 213 213 213 213 213 213 213 213 213 213 213 213 213 213 213 213 213 213 213 213 213 213 213 209 209 209 203 203 203 159 159 159 85 85 85 52 52 52 52 52 52 43 43 43 25 25 25 12 12 12 4 4 4 0 0 0 0 0 0 0 0 0 0 0 0 0 0 0 1 1 1 5 5 5 14 14 14 21 21 21 24 24 24 25 25 25 25 25 25 19 19 19 7 7 7 0 0 0 0 0 0 0 0 0 0 0 0 7 7 7 23 23 23 68 68 68 148 148 148 197 197 197 207 207 207 212 212 212 213 213 213 213 213 213 213 213 213 213 213 213 213 213 213 213 213 213 213 213 213 213 213 213 213 213 213 213 213 213 213 213 213 213 213 213 213 213 213 213 213 213 212 212 212 211 211 211 210 210 210 208 208 208 206 206 206 203 203 203 199 199 199 195 195 195 191 191 191 186 186 186 180 180 180 174 174 174 167 167 167 160 160 160 152 152 152 133 133 133 89 89 89 49 49 49 20 20 20 0 0 0 0 0 0 0 0 0 0 0 0 0 0 0 0 0 0 0 0 0 0 0 0 0 0 0 0 0 0 0 0 0 0 0 0 0 0 0 0 0 0 0 0 0 0 0 0 7 7 7 36 36 36 80 80 80 173 173 173 247 247 247 251 251 251 255 255 255 255 255 255 255 255 255 255 255 255 255 255 255 255 255 255 255 255 255 255 255 255 255 255 255 255 255 255 255 255 255 255 255 255 255 255 255 255 255 255 255 255 255 255 255 255 255 255 255 255 255 255 255 255 255 255 255 255 255 255 255 255 255 255 255 255 255 255 255 255 255 255 255 255 255 255 255 255 255 255 255 255 255 255 255 255 255 255 255 255 255 255 255 255 255 255 255 255 255 255 255 255 255 255 255 255 255 255 255 255 255 255 255 255 255 255 255 255 255 255 255 255 255 255 255 255 255 255 255 255 255 255 255 255 255 255 255 255 255 255 255 255 255 255 255 255 255 255 255 255 255 255 255 255 255 255 255 255 255 255 255 255 255 
255 255 255 255 255 255 255 255 255 255 255 255 255 255 255 255 255 255 255 255 255 255 255 255 255 255 255 255 255 255 255 255 255 255 255 255 255 255 255 255 255 255 255 255 255 255 255 255 255 255 255 255 255 255 255 255 255 255 255 255 255 255 255 255 255 255 255 255 255 255 255 255 255 255 255 255 255 255 255 255 255 255 255 255 255 255 255 255 255 255 255 255 255 255 255 255 255 255 255 255 255 255 255 255 255 255 255 255 255 255 255 255 255 255 255 255 255 255 255 255 255 255 255 255 255 255 255 255 255 255 255 255 255 255 255 255 255 255 255 255 255 255 255 255 255 255 255 255 255 255 255 255 255 255 255 255 255 255 255 255 255 255 255 255 255 221 221 221 177 177 177 104 104 104 23 23 23 3 3 3 1 1 1 0 0 0 0 0 0 0 0 0 0 0 0 0 0 0 0 0 0 0 0 0 0 0 0 0 0 0 0 0 0 0 0 0 0 0 0 0 0 0 0 0 0 0 0 0 0 0 0 0 0 0 0 0 0 41 41 41 100 100 100 138 138 138 166 166 166 180 180 180 188 188 188 194 194 194 199 199 199 202 202 202 204 204 204 205 205 205 204 204 204 205 205 205 207 207 207 208 208 208 210 210 210 211 211 211 212 212 212 212 212 212 212 212 212 212 212 212 212 212 212 212 212 212 212 212 212 212 212 212 212 212 212 212 212 212 212 212 212 212 212 212 212 212 212 212 212 212 212 212 212 209 209 209 203 203 203 162 162 162 94 94 94 62 62 62 59 59 59 49 49 49 33 33 33 19 19 19 6 6 6 0 0 0 0 0 0 0 0 0 0 0 0 0 0 0 1 1 1 7 7 7 17 17 17 24 24 24 27 27 27 29 29 29 32 32 32 25 25 25 9 9 9 0 0 0 0 0 0 0 0 0 0 0 0 10 10 10 30 30 30 76 76 76 152 152 152 198 198 198 207 207 207 211 211 211 212 212 212 212 212 212 212 212 212 212 212 212 212 212 212 212 212 212 212 212 212 212 212 212 212 212 212 212 212 212 212 212 212 212 212 212 212 212 212 212 212 212 211 211 211 210 210 210 208 208 208 207 207 207 204 204 204 201 201 201 198 198 198 194 194 194 189 189 189 184 184 184 178 178 178 172 172 172 165 165 165 158 158 158 150 150 150 130 130 130 82 82 82 41 41 41 17 17 17 0 0 0 0 0 0 0 0 0 0 0 0 0 0 0 0 0 0 0 0 0 0 0 0 0 0 0 0 0 0 0 0 0 0 0 0 0 0 0 0 0 0 0 0 0 0 0 0 6 6 6 30 30 30 70 70 70 167 167 167 243 243 243 250 250 250 255 255 255 255 255 255 255 255 255 255 255 255 255 255 255 255 255 255 255 255 255 255 255 255 255 255 255 255 255 255 255 255 255 255 255 255 255 255 255 255 255 255 255 255 255 255 255 255 255 255 255 255 255 255 255 255 255 255 255 255 255 255 255 255 255 255 255 255 255 255 255 255 255 255 255 255 255 255 255 255 255 255 255 255 255 255 255 255 255 255 255 255 255 255 255 255 255 255 255 255 255 255 255 255 255 255 255 255 255 255 255 255 255 255 255 255 255 255 255 255 255 255 255 255 255 255 255 255 255 255 255 255 255 255 255 255 255 255 255 255 255 255 255 255 255 255 255 255 255 255 255 255 255 255 255 255 255 255 255 255 255 255 255 255 255 
255 255 255 255 255 255 255 255 255 255 255 255 255 255 255 255 255 255 255 255 255 255 255 255 255 255 255 255 255 255 255 255 255 255 255 255 255 255 255 255 255 255 255 255 255 255 255 255 255 255 255 255 255 255 255 255 255 255 255 255 255 255 255 255 255 255 255 255 255 255 255 255 255 255 255 255 255 255 255 255 255 255 255 255 255 255 255 255 255 255 255 255 255 255 255 255 255 255 255 255 255 255 255 255 255 255 255 255 255 255 255 255 255 255 255 255 255 255 255 255 255 255 255 255 255 255 255 255 255 255 255 255 255 255 255 255 255 255 255 255 255 255 255 255 255 255 255 255 255 255 255 255 255 255 255 255 255 255 255 255 255 255 255 255 255 215 215 215 165 165 165 95 95 95 20 20 20 2 2 2 0 0 0 0 0 0 0 0 0 0 0 0 0 0 0 0 0 0 0 0 0 0 0 0 0 0 0 0 0 0 0 0 0 0 0 0 0 0 0 0 0 0 0 0 0 0 0 0 0 0 0 0 0 0 0 0 0 37 37 37 91 91 91 130 130 130 161 161 161 178 178 178 188 188 188 194 194 194 198 198 198 202 202 202 205 205 205 205 205 205 204 204 204 205 205 205 206 206 206 207 207 207 209 209 209 210 210 210 211 211 211 212 212 212 212 212 212 212 212 212 212 212 212 212 212 212 212 212 212 212 212 212 212 212 212 212 212 212 212 212 212 212 212 212 212 212 212 212 212 212 212 212 212 209 209 209 205 205 205 168 168 168 106 106 106 74 74 74 66 66 66 56 56 56 44 44 44 29 29 29 11 11 11 2 2 2 1 1 1 0 0 0 0 0 0 1 1 1 2 2 2 8 8 8 19 19 19 26 26 26 27 27 27 32 32 32 40 40 40 35 35 35 15 15 15 4 4 4 1 1 1 0 0 0 1 1 1 14 14 14 43 43 43 90 90 90 158 158 158 199 199 199 206 206 206 210 210 210 211 211 211 211 211 211 211 211 211 211 211 211 211 211 211 211 211 211 211 211 211 211 211 211 211 211 211 211 211 211 211 211 211 211 211 211 211 211 211 211 211 211 209 209 209 208 208 208 207 207 207 205 205 205 202 202 202 199 199 199 196 196 196 191 191 191 186 186 186 181 181 181 176 176 176 170 170 170 163 163 163 156 156 156 147 147 147 125 125 125 73 73 73 31 31 31 13 13 13 0 0 0 0 0 0 0 0 0 0 0 0 0 0 0 0 0 0 0 0 0 0 0 0 0 0 0 0 0 0 0 0 0 0 0 0 0 0 0 0 0 0 0 0 0 0 0 0 5 5 5 24 24 24 61 61 61 160 160 160 239 239 239 248 248 248 255 255 255 255 255 255 255 255 255 255 255 255 255 255 255 255 255 255 255 255 255 255 255 255 255 255 255 255 255 255 255 255 255 255 255 255 255 255 255 255 255 255 255 255 255 255 255 255 255 255 255 255 255 255 255 255 255 255 255 255 255 255 255 255 255 255 255 255 255 255 255 255 255 255 255 255 255 255 255 255 255 255 255 255 255 255 255 255 255 255 255 255 255 255 255 255 255 255 255 255 255 255 255 255 255 255 255 255 255 255 255 255 255 255 255 255 255 255 255 255 255 255 255 255 255 255 255 255 255 255 255 255 255 255 255 255 255 255 255 255 255 255 255 255 255 255 255 255 255 255 255 255 255 255 255 255 255 255 255 255 255 255 255 255 255 
255 255 255 255 255 255 255 255 255 255 255 255 255 255 255 255 255 255 255 255 255 255 255 255 255 255 255 255 255 255 255 255 255 255 255 255 255 255 255 255 255 255 255 255 255 255 255 255 255 255 255 255 255 255 255 255 255 255 255 255 255 255 255 255 255 255 255 255 255 255 255 255 255 255 255 255 255 255 255 255 255 255 255 255 255 255 255 255 255 255 255 255 255 255 255 255 255 255 255 255 255 255 255 255 255 255 255 255 255 255 255 255 255 255 255 255 255 255 255 255 255 255 255 255 255 255 255 255 255 255 255 255 255 255 255 255 255 255 255 255 255 255 255 255 255 255 255 255 255 255 255 255 255 255 255 255 255 255 255 255 255 255 255 255 255 210 210 210 152 152 152 86 86 86 17 17 17 1 1 1 0 0 0 0 0 0 0 0 0 0 0 0 0 0 0 0 0 0 0 0 0 0 0 0 0 0 0 0 0 0 0 0 0 0 0 0 0 0 0 0 0 0 0 0 0 0 0 0 0 0 0 0 0 0 0 0 0 33 33 33 81 81 81 121 121 121 157 157 157 176 176 176 187 187 187 193 193 193 198 198 198 202 202 202 206 206 206 206 206 206 205 205 205 205 205 205 205 205 205 207 207 207 208 208 208 210 210 210 211 211 211 211 211 211 211 211 211 211 211 211 211 211 211 211 211 211 211 211 211 211 211 211 211 211 211 211 211 211 211 211 211 211 211 211 211 211 211 211 211 211 211 211 211 209 209 209 207 207 207 174 174 174 119 119 119 87 87 87 73 73 73 63 63 63 57 57 57 41 41 41 18 18 18 5 5 5 2 2 2 0 0 0 0 0 0 1 1 1 3 3 3 10 10 10 22 22 22 27 27 27 27 27 27 35 35 35 49 49 49 46 46 46 24 24 24 9 9 9 3 3 3 0 0 0 1 1 1 20 20 20 59 59 59 107 107 107 166 166 166 201 201 201 206 206 206 209 209 209 209 209 209 210 210 210 210 210 210 210 210 210 210 210 210 210 210 210 210 210 210 210 210 210 210 210 210 210 210 210 210 210 210 210 210 210 210 210 210 209 209 209 208 208 208 206 206 206 205 205 205 203 203 203 200 200 200 197 197 197 193 193 193 189 189 189 183 183 183 178 178 178 173 173 173 167 167 167 160 160 160 153 153 153 144 144 144 120 120 120 63 63 63 20 20 20 8 8 8 0 0 0 0 0 0 0 0 0 0 0 0 0 0 0 0 0 0 0 0 0 0 0 0 0 0 0 0 0 0 0 0 0 0 0 0 0 0 0 0 0 0 0 0 0 0 0 0 3 3 3 18 18 18 52 52 52 152 152 152 233 233 233 246 246 246 255 255 255 255 255 255 255 255 255 255 255 255 255 255 255 255 255 255 255 255 255 255 255 255 255 255 255 255 255 255 255 255 255 255 255 255 255 255 255 255 255 255 255 255 255 255 255 255 255 255 255 255 255 255 255 255 255 255 255 255 255 255 255 255 255 255 255 255 255 255 255 255 255 255 255 255 255 255 255 255 255 255 255 255 255 255 255 255 255 255 255 255 255 255 255 255 255 255 255 255 255 255 255 255 255 255 255 255 255 255 255 255 255 255 255 255 255 255 255 255 255 255 255 255 255 255 255 255 255 255 255 255 255 255 255 255 255 255 255 255 255 255 255 255 255 255 255 255 255 255 255 255 255 255 255 255 255 255 255 255 255 255 255 255 255 
255 255 255 255 255 255 255 255 255 255 255 255 255 255 255 255 255 255 255 255 255 255 255 255 255 255 255 255 255 255 255 255 255 255 255 255 255 255 255 255 255 255 255 255 255 255 255 255 255 255 255 255 255 255 255 255 255 255 255 255 255 255 255 255 255 255 255 255 255 255 255 255 255 255 255 255 255 255 255 255 255 255 255 255 255 255 255 255 255 255 255 255 255 255 255 255 255 255 255 255 255 255 255 255 255 255 255 255 255 255 255 255 255 255 255 255 255 255 255 255 255 255 255 255 255 255 255 255 255 255 255 255 255 255 255 255 255 255 255 255 255 255 255 255 255 255 255 255 255 255 255 255 255 255 255 255 255 255 255 255 255 255 255 255 255 202 202 202 135 135 135 74 74 74 14 14 14 0 0 0 0 0 0 0 0 0 0 0 0 0 0 0 0 0 0 0 0 0 0 0 0 0 0 0 0 0 0 0 0 0 0 0 0 0 0 0 0 0 0 0 0 0 0 0 0 0 0 0 0 0 0 0 0 0 0 0 0 28 28 28 68 68 68 109 109 109 150 150 150 172 172 172 185 185 185 192 192 192 197 197 197 201 201 201 205 205 205 206 206 206 207 207 207 206 206 206 205 205 205 206 206 206 208 208 208 209 209 209 210 210 210 210 210 210 211 211 211 211 211 211 211 211 211 211 211 211 211 211 211 211 211 211 211 211 211 211 211 211 211 211 211 211 211 211 211 211 211 211 211 211 210 210 210 209 209 209 207 207 207 182 182 182 140 140 140 106 106 106 80 80 80 67 67 67 66 66 66 55 55 55 34 34 34 19 19 19 10 10 10 6 6 6 4 4 4 5 5 5 7 7 7 12 12 12 19 19 19 25 24 25 29 28 29 38 38 38 52 52 53 54 54 54 40 40 40 29 29 29 19 19 19 14 14 14 15 15 15 37 37 37 83 84 84 129 129 129 174 174 174 201 201 201 204 204 204 206 206 206 207 207 207 208 208 208 208 208 208 208 208 208 209 209 209 209 209 209 209 209 209 209 209 209 209 209 209 209 209 209 208 208 208 208 208 208 208 208 208 207 207 207 205 205 205 204 204 204 202 202 202 200 200 200 197 197 197 194 194 194 190 190 190 186 186 186 180 180 180 175 175 175 170 170 170 165 165 165 159 159 159 150 150 150 135 135 135 107 107 107 51 51 51 11 11 11 4 4 4 0 0 0 0 0 0 0 0 0 0 0 0 0 0 0 0 0 0 0 0 0 0 0 0 0 0 0 0 0 0 0 0 0 0 0 0 0 0 0 0 0 0 0 0 0 0 0 0 2 2 2 13 13 13 43 43 43 142 142 142 223 223 223 241 241 241 255 255 255 255 255 255 255 255 255 255 255 255 255 255 255 255 255 255 255 255 255 255 255 255 255 255 255 255 255 255 255 255 255 255 255 255 255 255 255 255 255 255 255 255 255 255 255 255 255 255 255 255 255 255 255 255 255 255 255 255 255 255 255 255 255 255 255 255 255 255 255 255 255 255 255 255 255 255 255 255 255 255 255 255 255 255 255 255 255 255 255 255 255 255 255 255 255 255 255 255 255 255 255 255 255 255 255 255 255 255 255 255 255 255 255 255 255 255 255 255 255 255 255 255 255 255 255 255 255 255 255 255 255 255 255 255 255 255 255 255 255 255 255 255 255 255 255 255 255 255 255 255 255 255 255 255 255 255 255 255 255 255 255 255 255 
255 255 255 255 255 255 255 255 255 255 255 255 255 255 255 255 255 255 255 255 255 255 255 255 255 255 255 255 255 255 255 255 255 255 255 255 255 255 255 255 255 255 255 255 255 255 255 255 255 255 255 255 255 255 255 255 255 255 255 255 255 255 255 255 255 255 255 255 255 255 255 255 255 255 255 255 255 255 255 255 255 255 255 255 255 255 255 255 255 255 255 255 255 255 255 255 255 255 255 255 255 255 255 255 255 255 255 255 255 255 255 255 255 255 255 255 255 255 255 255 255 255 255 255 255 255 255 255 255 255 255 255 255 255 255 255 255 255 255 255 255 255 255 255 254 254 254 254 254 254 255 255 255 255 255 255 254 254 254 254 254 254 254 254 254 193 193 193 116 116 116 60 60 60 11 11 11 0 0 0 0 0 0 0 0 0 0 0 0 0 0 0 0 0 0 0 0 0 0 0 0 0 0 0 0 0 0 0 0 0 0 0 0 0 0 0 0 0 0 0 0 0 0 0 0 0 0 0 0 0 0 0 0 0 0 0 0 22 22 22 54 54 54 96 96 96 143 143 143 168 168 168 183 183 183 191 191 191 196 196 196 201 201 201 204 204 204 207 207 207 209 209 209 208 208 208 205 205 205 205 205 205 207 207 207 208 208 208 209 209 209 210 210 210 210 210 210 210 210 210 210 210 210 210 210 210 210 210 210 210 210 210 210 210 210 210 210 210 210 210 210 210 210 210 210 210 210 210 210 210 209 209 209 208 208 208 207 207 206 191 191 190 163 163 163 128 128 128 87 87 87 71 71 71 75 75 75 69 69 69 53 53 53 38 38 38 23 23 23 14 14 14 11 11 11 10 10 10 12 12 12 14 14 14 14 14 14 20 20 20 31 30 32 42 41 43 53 53 53 59 59 59 60 60 60 55 55 55 41 41 41 34 34 34 35 34 35 59 59 59 112 112 112 154 155 155 183 183 183 201 200 200 202 202 202 204 204 204 205 205 205 206 206 206 206 206 206 206 206 206 206 206 206 207 207 207 207 207 207 207 207 207 207 207 207 206 206 206 206 206 206 206 206 206 205 205 205 204 204 204 203 203 203 202 202 202 200 200 200 198 198 198 194 194 194 191 191 191 187 187 187 182 182 182 177 177 177 173 173 173 168 168 168 164 164 164 158 158 158 146 146 146 122 122 122 90 90 90 38 38 38 3 3 3 1 1 1 0 0 0 0 0 0 0 0 0 0 0 0 0 0 0 0 0 0 0 0 0 0 0 0 0 0 0 0 0 0 0 0 0 0 0 0 0 0 0 0 0 0 0 0 0 0 0 0 1 1 1 8 8 8 34 34 34 130 130 130 210 210 210 235 235 235 255 255 255 255 255 255 255 255 255 255 255 255 255 255 255 255 255 255 255 255 255 255 255 255 255 255 255 255 255 255 255 255 255 255 255 255 255 255 255 255 255 255 255 255 255 255 255 255 255 255 255 255 255 255 255 255 255 255 255 255 255 255 255 255 255 255 255 255 255 255 255 255 255 255 255 255 255 255 255 255 255 255 255 255 255 255 255 255 255 255 255 255 255 255 255 255 255 255 255 255 255 255 255 255 255 255 255 255 255 255 255 255 255 255 255 255 255 255 255 255 255 255 255 255 255 255 255 255 255 255 255 255 255 255 255 255 255 255 255 255 255 255 255 255 255 255 255 255 255 255 255 255 255 255 255 255 255 255 255 255 255 255 255 255 255 
255 255 255 255 255 255 255 255 255 255 255 255 255 255 255 255 255 255 255 255 255 255 255 255 255 255 255 255 255 255 255 255 255 255 255 255 255 255 255 255 255 255 255 255 255 255 255 255 255 255 255 255 255 255 255 255 255 255 255 255 255 255 255 255 255 255 255 255 255 255 255 255 255 255 255 255 255 255 255 255 255 255 255 255 255 255 255 255 255 255 255 255 255 255 255 255 255 255 255 255 255 255 255 255 255 255 255 255 255 255 255 255 255 255 255 255 255 255 255 255 255 255 255 255 255 255 255 255 255 255 255 255 255 255 255 255 255 255 255 255 255 255 255 255 254 254 254 255 255 255 255 255 255 255 255 255 254 254 254 254 254 254 253 253 253 185 185 185 100 100 100 50 50 50 9 9 9 0 0 0 0 0 0 0 0 0 0 0 0 0 0 0 0 0 0 0 0 0 0 0 0 0 0 0 0 0 0 0 0 0 0 0 0 0 0 0 0 0 0 0 0 0 0 0 0 0 0 0 0 0 0 0 0 0 0 0 0 16 16 16 39 39 39 82 82 82 135 135 135 163 163 163 180 180 180 189 189 189 195 195 195 199 199 199 203 203 203 206 206 206 209 209 209 209 209 209 207 207 207 206 206 206 206 206 206 207 207 207 208 208 208 209 209 209 209 209 209 209 209 209 210 210 210 210 210 210 210 210 210 210 210 210 210 210 210 210 210 210 209 209 209 209 209 209 209 209 209 209 209 209 209 209 209 207 207 207 206 206 205 196 196 196 179 179 180 148 148 149 106 106 105 84 84 84 80 80 79 74 74 73 66 66 66 55 55 55 43 43 43 35 35 35 31 31 31 26 26 26 19 19 20 14 14 14 10 10 10 17 17 17 34 33 35 46 46 47 53 53 53 57 57 57 60 60 60 57 57 58 50 50 51 52 52 52 63 63 63 91 90 91 136 137 137 170 170 170 187 187 187 198 197 197 199 199 199 200 200 200 202 202 202 203 203 203 203 203 203 203 203 203 204 204 204 204 204 204 205 205 205 205 205 205 204 204 204 204 204 204 203 203 203 203 203 203 202 202 202 201 201 201 200 200 200 198 198 198 196 196 196 194 194 194 191 191 191 188 188 188 184 184 184 181 181 181 178 178 178 174 174 174 170 170 170 164 164 164 155 155 155 137 137 137 102 102 102 66 66 66 27 27 27 0 0 0 0 0 0 0 0 0 0 0 0 0 0 0 0 0 0 0 0 0 0 0 0 0 0 0 0 0 0 0 0 0 0 0 0 0 0 0 0 0 0 0 0 0 0 0 0 0 0 0 0 0 0 1 1 1 5 5 5 28 28 28 119 119 119 197 197 197 230 230 230 255 255 255 255 255 255 255 255 255 255 255 255 255 255 255 255 255 255 255 255 255 255 255 255 255 255 255 255 255 255 255 255 255 255 255 255 255 255 255 255 255 255 255 255 255 255 255 255 255 255 255 255 255 255 255 255 255 255 255 255 255 255 255 255 255 255 255 255 255 255 255 255 255 255 255 255 255 255 255 255 255 255 255 255 255 255 255 255 255 255 255 255 255 255 255 255 255 255 255 255 255 255 255 255 255 255 255 255 255 255 255 255 255 255 255 255 255 255 255 255 255 255 255 255 255 255 255 255 255 255 255 255 255 255 255 255 255 255 255 255 255 255 255 255 255 255 255 255 255 255 255 255 255 255 255 255 255 255 255 255 255 255 255 255 255 
255 255 255 255 255 255 255 255 255 255 255 255 255 255 255 255 255 255 255 255 255 255 255 255 255 255 255 255 255 255 255 255 255 255 255 255 255 255 255 255 255 255 255 255 255 255 255 255 255 255 255 255 255 255 255 255 255 255 255 255 255 255 255 255 255 255 255 255 255 255 255 255 255 255 255 255 255 255 255 255 255 255 255 255 255 255 255 255 255 255 255 255 255 255 255 255 255 255 255 255 255 255 255 255 255 255 255 255 255 255 255 255 255 255 255 255 255 255 255 255 255 255 255 255 255 255 255 255 255 255 255 255 255 255 255 255 255 255 255 255 255 255 255 255 255 255 255 255 255 255 255 255 255 255 255 255 255 255 255 253 253 253 251 251 251 178 178 178 86 86 86 40 40 40 8 8 8 0 0 0 0 0 0 0 0 0 0 0 0 0 0 0 0 0 0 0 0 0 0 0 0 0 0 0 0 0 0 0 0 0 0 0 0 0 0 0 0 0 0 0 0 0 0 0 0 0 0 0 0 0 0 0 0 0 0 0 0 10 10 10 24 24 24 68 68 68 126 126 126 158 158 158 177 177 177 187 187 187 193 193 193 198 198 198 202 202 202 205 205 205 208 208 208 209 209 209 210 210 210 208 208 208 206 206 206 206 206 206 207 207 207 208 208 208 208 208 208 209 209 209 209 209 209 209 209 209 209 209 209 209 209 209 209 209 209 209 209 209 208 208 208 208 208 208 208 208 208 208 208 208 208 208 208 206 206 206 205 205 205 200 200 200 193 193 193 168 168 169 130 130 130 102 102 101 82 82 82 74 74 73 75 75 74 72 72 72 66 66 66 62 62 62 58 58 58 46 46 47 27 27 28 14 14 14 6 6 7 14 14 14 38 38 38 51 51 51 53 53 52 52 52 52 49 49 49 49 49 50 54 54 54 69 69 69 96 96 97 126 126 127 159 159 160 181 181 181 189 188 188 194 193 193 195 195 195 197 197 197 198 198 198 199 199 199 200 200 200 200 200 200 201 201 201 201 201 201 202 202 202 202 202 202 201 201 201 201 201 201 200 200 200 200 200 200 199 199 199 198 198 198 196 196 196 194 194 194 192 192 192 189 189 189 187 187 187 184 184 184 183 183 183 181 181 181 180 180 180 178 178 178 174 174 174 166 166 166 151 151 151 126 126 126 78 78 78 38 38 38 16 16 16 0 0 0 0 0 0 0 0 0 0 0 0 0 0 0 0 0 0 0 0 0 0 0 0 0 0 0 0 0 0 0 0 0 0 0 0 0 0 0 0 0 0 0 0 0 0 0 0 0 0 0 0 0 0 0 0 0 3 3 3 24 24 24 109 109 109 184 184 184 224 224 224 255 255 255 255 255 255 255 255 255 255 255 255 255 255 255 255 255 255 255 255 255 255 255 255 255 255 255 255 255 255 255 255 255 255 255 255 255 255 255 255 255 255 255 255 255 255 255 255 255 255 255 255 255 255 255 255 255 255 255 255 255 255 255 255 255 255 255 255 255 255 255 255 255 255 255 255 255 255 255 255 255 255 255 255 255 255 255 255 255 255 255 255 255 255 255 255 255 255 255 255 255 255 255 255 255 255 255 255 255 255 255 255 255 255 255 255 255 255 255 255 255 255 255 255 255 255 255 255 255 255 255 255 255 255 255 255 255 255 255 255 255 255 255 255 255 255 255 255 255 255 255 255 255 255 255 255 255 255 255 255 255 255 255 255 255 
255 255 255 255 255 255 255 255 255 255 255 255 255 255 255 255 255 255 255 255 255 255 255 255 255 255 255 255 255 255 255 255 255 255 255 255 255 255 255 255 255 255 255 255 255 255 255 255 255 255 255 255 255 255 255 255 255 255 255 255 255 255 255 255 255 255 255 255 255 255 255 255 255 255 255 255 255 255 255 255 255 255 255 255 255 255 255 255 255 255 255 255 255 255 255 255 255 255 255 255 255 255 255 255 255 255 255 255 255 255 255 255 255 255 255 255 255 255 255 255 255 255 255 255 255 255 255 255 255 255 255 255 255 255 255 255 255 255 255 255 255 255 255 255 255 255 255 255 255 255 255 255 255 255 255 255 255 255 255 251 251 251 245 245 245 168 168 168 72 72 72 31 31 31 6 6 6 0 0 0 0 0 0 0 0 0 0 0 0 0 0 0 0 0 0 0 0 0 0 0 0 0 0 0 0 0 0 0 0 0 0 0 0 0 0 0 0 0 0 0 0 0 0 0 0 0 0 0 0 0 0 0 0 0 0 0 0 5 5 5 13 13 13 55 55 55 113 113 113 147 147 147 170 170 170 183 183 183 191 191 191 196 196 196 201 201 201 204 204 204 207 207 207 209 209 209 211 211 211 210 210 210 208 208 208 206 206 206 206 206 206 206 206 206 207 207 207 208 208 208 208 208 208 208 208 208 208 208 208 208 208 208 209 209 209 208 208 208 208 208 208 208 208 208 207 207 207 207 207 207 206 206 206 205 205 205 203 204 204 201 201 201 197 197 197 180 180 180 154 154 154 129 129 128 105 105 105 92 92 91 88 88 87 85 85 84 82 82 82 80 80 80 76 77 76 59 59 59 28 28 28 9 9 10 3 4 4 9 10 10 28 29 29 46 46 46 62 61 61 71 71 71 74 74 74 80 80 81 90 89 90 106 106 106 130 130 130 152 152 152 172 172 172 184 184 184 188 187 188 191 190 190 192 192 192 193 193 193 195 195 195 196 196 196 196 196 196 197 197 197 197 197 197 198 198 198 198 198 198 199 199 199 198 198 198 198 198 198 198 198 198 197 197 197 197 197 197 196 196 196 195 195 195 194 194 194 192 192 192 190 190 190 188 188 188 186 186 186 184 184 184 182 182 182 180 180 180 177 177 177 169 169 169 157 157 157 134 134 134 104 104 104 56 56 56 20 20 20 8 8 8 0 0 0 0 0 0 0 0 0 0 0 0 0 0 0 0 0 0 0 0 0 0 0 0 0 0 0 0 0 0 0 0 0 0 0 0 0 0 0 0 0 0 0 0 0 0 0 0 0 0 0 0 0 0 0 0 0 1 1 1 20 20 20 97 97 97 168 168 168 216 216 216 255 255 255 255 255 255 255 255 255 255 255 255 255 255 255 255 255 255 255 255 255 255 255 255 255 255 255 255 255 255 255 255 255 255 255 255 255 255 255 255 255 255 255 255 255 255 255 255 255 255 255 255 255 255 255 255 255 255 255 255 255 255 255 255 255 255 255 255 255 255 255 255 255 255 255 255 255 255 255 255 255 255 255 255 255 255 255 255 255 255 255 255 255 255 255 255 255 255 255 255 255 255 255 255 255 255 255 255 255 255 255 255 255 255 255 255 255 255 255 255 255 255 255 255 255 255 255 255 255 255 255 255 255 255 255 255 255 255 255 255 255 255 255 255 255 255 255 255 255 255 255 255 255 255 255 255 255 255 255 255 255 255 255 255 255 
255 255 255 255 255 255 255 255 255 255 255 255 255 255 255 255 255 255 255 255 255 255 255 255 255 255 255 255 255 255 255 255 255 255 255 255 255 255 255 255 255 255 255 255 255 255 255 255 255 255 255 255 255 255 255 255 255 255 255 255 255 255 255 255 255 255 255 255 255 255 255 255 255 255 255 255 255 255 255 255 255 255 255 255 255 255 255 255 255 255 255 255 255 255 255 255 255 255 255 255 255 255 255 255 255 255 255 255 255 255 255 255 255 255 255 255 255 255 255 255 255 255 255 255 255 255 255 255 255 255 255 255 255 255 255 255 255 255 255 255 255 255 255 255 254 254 254 254 254 254 254 254 254 254 254 254 255 255 255 247 247 247 238 238 238 157 157 157 58 58 58 22 22 22 4 4 4 0 0 0 0 0 0 0 0 0 0 0 0 0 0 0 0 0 0 0 0 0 0 0 0 0 0 0 0 0 0 0 0 0 0 0 0 0 0 0 0 0 0 0 0 0 0 0 0 0 0 0 0 0 0 0 0 0 0 0 0 1 1 1 3 3 3 41 41 41 96 96 96 133 133 133 162 162 162 179 179 179 188 188 188 195 195 195 199 199 199 203 203 203 206 206 206 209 209 209 211 211 211 211 211 211 210 210 210 208 208 208 205 205 205 205 205 205 206 206 206 207 207 207 207 207 207 207 207 207 207 207 207 208 208 208 208 208 208 208 208 208 207 207 207 207 207 207 207 207 207 206 206 206 205 205 205 203 204 204 202 202 202 199 200 199 196 196 196 189 189 188 177 178 178 160 160 160 138 138 138 118 118 118 102 102 102 95 94 94 95 94 95 94 93 94 91 91 91 67 68 68 25 25 26 3 3 4 1 1 1 4 5 5 13 14 13 36 37 36 75 74 75 102 100 102 116 116 117 130 129 130 141 141 141 153 152 152 163 163 163 172 172 172 179 179 178 184 184 183 186 185 186 188 187 188 189 189 189 190 190 190 191 191 191 192 192 192 193 193 193 193 193 193 194 194 194 194 194 194 195 195 195 195 195 195 195 195 195 195 195 195 195 195 195 196 196 196 195 195 195 195 195 195 196 196 196 195 195 195 195 195 195 194 194 194 192 192 192 191 191 191 188 188 188 185 185 185 180 180 180 173 173 173 161 161 161 142 142 142 111 111 111 76 76 76 35 35 35 6 6 6 2 2 2 0 0 0 0 0 0 0 0 0 0 0 0 0 0 0 0 0 0 0 0 0 0 0 0 0 0 0 0 0 0 0 0 0 0 0 0 0 0 0 0 0 0 0 0 0 0 0 0 0 0 0 0 0 0 0 0 0 0 0 0 16 16 16 83 83 83 149 149 149 208 208 208 254 254 254 255 255 255 255 255 255 255 255 255 255 255 255 255 255 255 255 255 255 255 255 255 255 255 255 255 255 255 255 255 255 255 255 255 255 255 255 255 255 255 255 255 255 255 255 255 255 255 255 255 255 255 255 255 255 255 255 255 255 255 255 255 255 255 255 255 255 255 255 255 255 255 255 255 255 255 255 255 255 255 255 255 255 255 255 255 255 255 255 255 255 255 255 255 255 255 255 255 255 255 255 255 255 255 255 255 255 255 255 255 255 255 255 255 255 255 255 255 255 255 255 255 255 255 255 255 255 255 255 255 255 255 255 255 255 255 255 255 255 255 255 255 255 255 255 255 255 255 255 255 255 255 255 255 255 255 255 255 255 255 255 255 255 
255 255 255 255 255 255 255 255 255 255 255 255 255 255 255 255 255 255 255 255 255 255 255 255 255 255 255 255 255 255 255 255 255 255 255 255 255 255 255 255 255 255 255 255 255 255 255 255 255 255 255 255 255 255 255 255 255 255 255 255 255 255 255 255 255 255 255 255 255 255 255 255 255 255 255 255 255 255 255 255 255 255 255 255 255 255 255 255 255 255 255 255 255 255 255 255 255 255 255 255 255 255 255 255 255 255 255 255 255 255 255 255 255 255 255 255 255 255 255 255 255 255 255 255 255 255 255 255 255 255 255 255 255 255 255 255 255 255 255 255 255 255 255 255 254 254 254 254 254 254 254 254 254 254 254 254 255 255 255 242 242 242 227 227 227 146 146 146 47 47 47 15 15 15 3 3 3 0 0 0 0 0 0 0 0 0 0 0 0 0 0 0 0 0 0 0 0 0 0 0 0 0 0 0 0 0 0 0 0 0 0 0 0 0 0 0 0 0 0 0 0 0 0 0 0 0 0 0 0 0 0 0 0 0 0 0 0 0 0 0 0 0 0 30 30 30 75 75 75 114 114 114 151 151 151 172 172 172 185 185 185 192 192 192 197 197 197 201 201 201 204 204 204 207 207 207 210 210 210 211 211 211 211 211 211 210 210 210 207 207 207 206 206 206 205 205 205 205 205 205 206 206 206 206 206 206 206 206 206 207 207 207 207 207 207 207 207 207 206 206 206 206 206 206 205 205 205 204 204 204 203 203 203 202 202 202 200 200 200 197 197 197 195 194 193 191 190 186 186 184 177 176 173 161 162 156 138 149 141 116 136 127 95 132 121 83 134 121 80 133 120 75 130 118 69 113 100 50 82 69 17 66 53 1 66 53 0 67 54 2 69 57 5 84 73 23 113 102 55 135 124 81 149 139 101 160 152 119 168 161 136 174 169 151 179 176 163 182 181 173 184 183 179 186 185 184 187 187 187 189 189 190 191 191 191 192 192 192 193 193 193 193 193 193 195 195 195 195 195 195 196 196 196 196 196 196 196 196 196 197 197 197 197 197 197 197 197 197 197 197 197 197 197 197 197 197 197 196 196 196 196 196 196 196 196 196 195 195 195 193 193 193 192 192 192 189 189 189 186 186 186 181 181 181 173 173 173 162 162 162 144 144 144 120 120 120 82 82 82 47 47 47 20 20 20 1 1 1 0 0 0 0 0 0 0 0 0 0 0 0 0 0 0 0 0 0 0 0 0 0 0 0 0 0 0 0 0 0 0 0 0 0 0 0 0 0 0 0 0 0 0 0 0 0 0 0 0 0 0 0 0 0 0 0 0 0 0 0 0 0 0 13 13 13 70 70 70 130 130 130 199 199 199 253 253 253 254 254 254 255 255 255 255 255 255 255 255 255 255 255 255 255 255 255 255 255 255 255 255 255 255 255 255 255 255 255 255 255 255 255 255 255 255 255 255 255 255 255 255 255 255 255 255 255 255 255 255 255 255 255 255 255 255 255 255 255 255 255 255 255 255 255 255 255 255 255 255 255 255 255 255 255 255 255 255 255 255 255 255 255 255 255 255 255 255 255 255 255 255 255 255 255 255 255 255 255 255 255 255 255 255 255 255 255 255 255 255 255 255 255 255 255 255 255 255 255 255 255 255 255 255 255 255 255 255 255 255 255 255 255 255 255 255 255 255 255 255 255 255 255 255 255 255 255 255 255 255 255 255 255 255 255 255 255 255 255 255 255 
255 255 255 255 255 255 255 255 255 255 255 255 255 255 255 255 255 255 255 255 255 255 255 255 255 255 255 255 255 255 255 255 255 255 255 255 255 255 255 255 255 255 255 255 255 255 255 255 255 255 255 255 255 255 255 255 255 255 255 255 255 255 255 255 255 255 255 255 255 255 255 255 255 255 255 255 255 255 255 255 255 255 255 255 255 255 255 255 255 255 255 255 255 255 255 255 255 255 255 255 255 255 255 255 255 255 255 255 255 255 255 255 255 255 255 255 255 255 255 255 255 255 255 255 255 255 255 255 255 255 255 255 255 255 255 255 255 255 255 255 255 255 255 255 255 255 255 254 254 254 254 254 254 254 254 254 255 255 255 237 237 237 214 214 214 134 134 134 38 38 38 10 10 10 2 2 2 0 0 0 0 0 0 0 0 0 0 0 0 0 0 0 0 0 0 0 0 0 0 0 0 0 0 0 0 0 0 0 0 0 0 0 0 0 0 0 0 0 0 0 0 0 0 0 0 0 0 0 0 0 0 0 0 0 0 0 0 0 0 0 0 0 0 21 21 21 51 51 51 91 91 91 137 137 137 163 163 163 181 181 181 190 190 190 195 195 195 199 199 199 202 202 202 206 206 206 208 208 208 211 211 211 213 213 213 212 212 212 210 210 210 207 207 207 205 205 205 204 204 204 204 204 204 205 205 205 205 205 205 205 205 205 205 205 205 205 205 205 205 205 205 204 204 204 204 204 204 203 203 203 201 201 201 200 200 200 198 198 198 195 195 194 193 191 188 190 187 178 187 182 165 185 176 146 182 168 123 181 162 100 181 157 78 182 155 62 185 155 51 185 154 41 182 150 30 176 144 19 168 135 6 164 131 0 165 132 0 164 131 0 160 129 1 160 131 8 165 138 20 170 145 36 177 154 57 181 161 79 182 167 103 183 172 126 185 178 148 187 183 165 188 186 177 189 188 186 191 190 190 193 193 193 195 195 195 196 196 196 197 197 197 198 198 198 199 199 199 200 200 200 200 200 200 201 201 201 201 201 201 201 201 201 201 201 201 201 201 201 200 200 200 200 200 200 199 199 199 198 198 198 197 197 197 195 195 195 194 194 194 192 192 192 189 189 189 186 186 186 181 181 181 175 175 175 163 163 163 147 147 147 123 123 123 93 93 93 50 50 50 18 18 18 7 7 7 0 0 0 0 0 0 0 0 0 0 0 0 0 0 0 0 0 0 0 0 0 0 0 0 0 0 0 0 0 0 0 0 0 0 0 0 0 0 0 0 0 0 0 0 0 0 0 0 0 0 0 0 0 0 0 0 0 0 0 0 0 0 0 0 0 0 11 11 11 57 57 57 110 110 110 189 189 189 252 252 252 253 253 253 254 254 254 255 255 255 255 255 255 255 255 255 255 255 255 255 255 255 255 255 255 255 255 255 255 255 255 255 255 255 255 255 255 255 255 255 255 255 255 255 255 255 255 255 255 255 255 255 255 255 255 255 255 255 255 255 255 255 255 255 255 255 255 255 255 255 255 255 255 255 255 255 255 255 255 255 255 255 255 255 255 255 255 255 255 255 255 255 255 255 255 255 255 255 255 255 255 255 255 255 255 255 255 255 255 255 255 255 255 255 255 255 255 255 255 255 255 255 255 255 255 255 255 255 255 255 255 255 255 255 255 255 255 255 255 255 255 255 255 255 255 255 255 255 255 255 255 255 255 255 255 255 255 255 255 255 255 255 255 
255 255 255 255 255 255 255 255 255 255 255 255 255 255 255 255 255 255 255 255 255 255 255 255 255 255 255 255 255 255 255 255 255 255 255 255 255 255 255 255 255 255 255 255 255 255 255 255 255 255 255 255 255 255 255 255 255 255 255 255 255 255 255 255 255 255 255 255 255 255 255 255 255 255 255 255 255 255 255 255 255 255 255 255 255 255 255 255 255 255 255 255 255 255 255 255 255 255 255 255 255 255 255 255 255 255 255 255 255 255 255 255 255 255 255 255 255 255 255 255 255 255 255 255 255 255 255 255 255 255 255 255 255 255 255 255 255 255 255 255 255 255 255 255 255 255 255 255 255 255 254 254 254 254 254 254 255 255 255 229 229 229 197 197 197 120 120 120 30 30 30 7 7 7 1 1 1 0 0 0 0 0 0 0 0 0 0 0 0 0 0 0 0 0 0 0 0 0 0 0 0 0 0 0 0 0 0 0 0 0 0 0 0 0 0 0 0 0 0 0 0 0 0 0 0 0 0 0 0 0 0 0 0 0 0 0 0 0 0 0 0 0 0 12 12 12 31 31 31 70 70 70 120 120 120 151 151 151 173 173 173 185 185 185 192 192 192 197 197 197 200 200 200 204 204 204 207 207 207 209 209 209 211 211 211 212 212 212 212 212 212 210 210 210 207 207 207 205 205 205 204 204 204 203 203 203 204 204 204 204 204 203 203 203 203 203 203 203 203 203 203 202 202 202 202 202 202 201 200 198 200 198 192 199 195 182 199 191 168 199 188 154 199 184 141 199 181 128 199 179 114 200 177 102 202 176 91 205 177 82 208 178 74 212 181 70 215 183 69 215 184 67 214 183 63 213 182 61 213 183 61 214 184 62 215 185 63 213 184 63 209 181 62 206 179 62 203 177 62 202 177 65 204 180 71 204 181 78 202 182 87 201 183 96 201 184 106 200 185 117 199 186 129 198 188 142 197 189 155 197 191 167 196 193 180 196 195 190 196 196 195 197 197 198 199 198 199 199 199 199 200 200 200 200 200 200 200 200 200 200 200 200 199 199 199 199 199 199 199 199 199 198 198 198 197 197 197 196 196 196 194 194 194 193 193 193 190 190 190 187 187 187 183 183 183 178 178 178 171 171 171 160 160 160 143 143 143 121 121 121 91 91 91 60 60 60 28 28 28 5 5 5 2 2 2 0 0 0 0 0 0 0 0 0 0 0 0 0 0 0 0 0 0 0 0 0 0 0 0 0 0 0 0 0 0 0 0 0 0 0 0 0 0 0 0 0 0 0 0 0 0 0 0 0 0 0 0 0 0 0 0 0 0 0 0 0 0 0 0 0 0 8 8 8 44 44 44 91 91 91 179 179 179 248 248 248 251 251 251 254 254 254 255 255 255 255 255 255 255 255 255 255 255 255 255 255 255 255 255 255 255 255 255 255 255 255 255 255 255 255 255 255 255 255 255 255 255 255 255 255 255 255 255 255 255 255 255 255 255 255 255 255 255 255 255 255 255 255 255 255 255 255 255 255 255 255 255 255 255 255 255 255 255 255 255 255 255 255 255 255 255 255 255 255 255 255 255 255 255 255 255 255 255 255 255 255 255 255 255 255 255 255 255 255 255 255 255 255 255 255 255 255 255 255 255 255 255 255 255 255 255 255 255 255 255 255 255 255 255 255 255 255 255 255 255 255 255 255 255 255 255 255 255 255 255 255 255 255 255 255 255 255 255 255 255 255 255 255 
255 255 255 255 255 255 255 255 255 255 255 255 255 255 255 255 255 255 255 255 255 255 255 255 255 255 255 255 255 255 255 255 255 255 255 255 255 255 255 255 255 255 255 255 255 255 255 255 255 255 255 255 255 255 255 255 255 255 255 255 255 255 255 255 255 255 255 255 255 255 255 255 255 255 255 255 255 255 255 255 255 255 255 255 255 255 255 255 255 255 255 255 255 255 255 255 255 255 255 255 255 255 255 255 255 255 255 255 255 255 255 255 255 255 255 255 255 255 255 255 255 255 255 255 255 255 255 255 255 255 255 255 255 255 255 255 255 255 255 255 255 255 255 255 255 255 255 255 255 255 254 254 254 254 254 254 255 255 255 221 221 221 178 178 178 105 105 105 24 24 24 4 4 4 1 1 1 0 0 0 0 0 0 0 0 0 0 0 0 0 0 0 0 0 0 0 0 0 0 0 0 0 0 0 0 0 0 0 0 0 0 0 0 0 0 0 0 0 0 0 0 0 0 0 0 0 0 0 0 0 0 0 0 0 0 0 0 0 0 0 0 0 0 5 5 5 12 12 12 50 50 50 103 103 103 137 137 137 163 163 163 178 178 178 188 188 188 194 194 194 198 198 198 202 202 202 205 205 205 207 207 207 209 209 209 211 211 211 213 213 213 212 212 212 210 210 210 207 207 207 204 204 204 202 202 202 202 202 202 201 201 201 201 201 200 201 201 200 201 200 201 200 200 200 199 199 199 199 197 192 198 193 179 200 188 156 203 183 124 206 179 96 209 175 72 213 174 55 216 175 43 219 178 42 222 183 50 224 188 62 227 195 76 230 201 93 233 208 111 235 212 124 236 215 133 237 218 142 238 221 150 239 223 156 239 224 159 239 224 159 238 223 156 236 221 151 235 219 144 233 216 132 231 211 115 229 207 98 226 202 81 223 197 65 220 192 50 217 189 47 213 187 58 209 186 75 205 186 100 201 187 127 196 189 157 194 191 178 193 192 189 194 193 195 195 194 195 196 195 196 196 196 196 196 197 196 196 196 196 196 196 196 196 196 196 195 195 195 195 195 195 194 194 194 194 194 194 192 192 192 191 191 191 188 188 188 186 186 186 182 182 182 176 176 176 168 168 168 157 157 157 141 141 141 118 118 118 90 90 90 52 52 52 23 23 23 10 10 10 1 1 1 1 1 1 0 0 0 0 0 0 0 0 0 0 0 0 0 0 0 0 0 0 0 0 0 0 0 0 0 0 0 0 0 0 0 0 0 0 0 0 0 0 0 0 0 0 0 0 0 0 0 0 0 0 0 0 0 0 0 0 0 0 0 0 0 0 0 0 0 0 6 6 6 32 32 32 73 73 73 167 167 167 243 243 243 249 249 249 254 254 254 255 255 255 255 255 255 255 255 255 254 254 254 255 255 255 255 255 255 255 255 255 255 255 255 255 255 255 255 255 255 255 255 255 255 255 255 255 255 255 255 255 255 255 255 255 255 255 255 255 255 255 255 255 255 255 255 255 255 255 255 255 255 255 255 255 255 255 255 255 255 255 255 255 255 255 255 255 255 255 255 255 255 255 255 255 255 255 255 255 255 255 255 255 255 255 255 255 255 255 255 255 255 255 255 255 255 255 255 255 255 255 255 255 255 255 255 255 255 255 255 255 255 255 255 255 255 255 255 255 255 255 255 255 255 255 255 255 255 255 255 255 255 255 255 255 255 255 255 255 255 255 255 255 255 255 255 
255 255 255 255 255 255 255 255 255 255 255 255 255 255 255 255 255 255 255 255 255 255 255 255 255 255 255 255 255 255 255 255 255 255 255 255 255 255 255 255 255 255 255 255 255 255 255 255 255 255 255 255 255 255 255 255 255 255 255 255 255 255 255 255 255 255 255 255 255 255 255 255 255 255 255 255 255 255 255 255 255 255 255 255 255 255 255 255 255 255 255 255 255 255 255 255 255 255 255 255 255 255 255 255 255 255 255 255 255 255 255 255 255 255 255 255 255 255 255 255 255 255 255 255 255 255 255 255 255 255 255 255 255 255 255 255 255 255 255 255 255 255 255 255 255 255 255 255 255 255 254 254 254 254 254 254 255 255 255 211 211 211 157 157 157 89 89 89 18 18 18 2 2 2 0 0 0 0 0 0 0 0 0 0 0 0 0 0 0 0 0 0 0 0 0 0 0 0 0 0 0 0 0 0 0 0 0 0 0 0 0 0 0 0 0 0 0 0 0 0 0 0 0 0 0 0 0 0 0 0 0 0 0 0 0 0 0 0 0 0 0 0 0 2 2 2 4 4 4 34 34 34 77 77 77 114 114 114 148 148 148 169 169 169 183 183 183 191 191 191 196 196 196 199 199 199 202 202 202 205 205 205 207 207 207 209 209 209 211 211 211 212 212 212 212 212 212 210 210 210 206 206 206 204 204 204 202 202 202 200 200 200 199 199 198 198 198 197 198 197 195 199 195 185 200 192 169 202 188 149 205 184 127 208 181 105 211 179 82 215 179 67 220 180 57 224 183 52 227 187 51 231 192 59 233 198 72 236 204 88 237 210 105 239 216 123 241 222 141 243 227 156 245 230 167 246 234 177 247 237 186 248 239 193 248 240 197 249 241 199 248 241 199 248 240 196 248 239 191 246 236 181 245 232 165 243 227 149 241 223 132 238 218 115 235 213 98 232 208 86 228 203 82 223 199 82 217 194 86 211 191 96 206 189 112 201 189 130 197 189 151 195 190 169 193 190 182 192 191 190 192 192 192 192 193 192 192 193 192 192 192 192 192 192 192 191 191 191 191 191 191 190 190 190 189 189 189 187 187 187 184 184 184 180 180 180 175 175 175 169 169 169 160 160 160 148 148 148 129 129 129 107 107 107 81 81 81 54 54 54 27 27 27 7 7 7 3 3 3 0 0 0 0 0 0 0 0 0 0 0 0 0 0 0 0 0 0 0 0 0 0 0 0 0 0 0 0 0 0 0 0 0 0 0 0 0 0 0 0 0 0 0 0 0 0 0 0 0 0 0 0 0 0 0 0 0 0 0 0 0 0 0 0 0 0 0 0 0 0 0 0 4 4 4 22 22 22 57 57 57 155 155 155 234 234 234 245 245 245 254 254 254 255 255 255 255 255 255 254 254 254 254 254 254 255 255 255 255 255 255 255 255 255 255 255 255 255 255 255 255 255 255 255 255 255 255 255 255 255 255 255 255 255 255 255 255 255 255 255 255 255 255 255 255 255 255 255 255 255 255 255 255 255 255 255 255 255 255 255 255 255 255 255 255 255 255 255 255 255 255 255 255 255 255 255 255 255 255 255 255 255 255 255 255 255 255 255 255 255 255 255 255 255 255 255 255 255 255 255 255 255 255 255 255 255 255 255 255 255 255 255 255 255 255 255 255 255 255 255 255 255 255 255 255 255 255 255 255 255 255 255 255 255 255 255 255 255 255 255 255 255 255 255 255 255 255 255 255 
255 255 255 255 255 255 255 255 255 255 255 255 255 255 255 255 255 255 255 255 255 255 255 255 255 255 255 255 255 255 255 255 255 255 255 255 255 255 255 255 255 255 255 255 255 255 255 255 255 255 255 255 255 255 255 255 255 255 255 255 255 255 255 255 255 255 255 255 255 255 255 255 255 255 255 255 255 255 255 255 255 255 255 255 255 255 255 255 255 255 255 255 255 255 255 255 255 255 255 255 255 255 255 255 255 255 255 255 255 255 255 255 255 255 255 255 255 255 255 255 255 255 255 255 255 255 255 255 255 255 255 255 255 255 255 255 255 255 255 255 255 255 255 255 255 255 255 255 255 255 255 255 255 255 255 255 254 254 254 201 201 201 133 133 133 73 73 73 14 14 14 0 0 0 0 0 0 0 0 0 0 0 0 0 0 0 0 0 0 0 0 0 0 0 0 0 0 0 0 0 0 0 0 0 0 0 0 0 0 0 0 0 0 0 0 0 0 0 0 0 0 0 0 0 0 0 0 0 0 0 0 0 0 0 0 0 0 0 0 0 0 0 0 0 0 0 1 1 1 20 20 20 47 47 47 85 85 85 129 129 129 157 157 157 177 177 177 187 187 187 193 193 193 197 197 197 200 200 200 202 202 202 205 205 205 207 207 207 209 209 209 211 211 211 212 212 212 212 212 212 210 210 210 207 207 207 203 203 203 199 199 199 196 196 197 195 195 193 196 194 187 199 189 163 203 182 124 209 176 88 214 171 55 219 172 41 222 177 42 226 183 52 230 192 69 233 200 86 236 207 102 238 213 116 241 217 128 242 221 139 243 225 148 244 228 157 245 231 165 246 234 173 247 236 181 248 238 188 248 241 194 249 242 200 249 243 205 250 244 210 250 246 214 250 246 217 251 247 218 251 246 219 251 246 218 250 245 217 250 245 215 249 243 209 248 240 199 246 236 182 242 228 158 237 220 129 231 208 94 225 199 68 219 192 55 213 187 63 205 187 97 198 186 131 191 187 163 188 187 184 188 188 187 188 188 188 188 188 188 188 188 188 188 188 188 188 188 188 187 187 187 186 186 186 183 183 183 180 180 180 175 175 175 168 168 168 160 160 160 151 151 151 140 140 140 122 122 122 93 93 93 64 64 64 38 38 38 17 17 17 8 8 8 2 2 2 1 1 1 0 0 0 0 0 0 0 0 0 0 0 0 0 0 0 0 0 0 0 0 0 0 0 0 0 0 0 0 0 0 0 0 0 0 0 0 0 0 0 0 0 0 0 0 0 0 0 0 0 0 0 0 0 0 0 0 0 0 0 0 0 0 0 0 0 0 0 0 0 0 0 0 2 2 2 13 13 13 44 44 44 141 141 141 222 222 222 240 240 240 254 254 254 255 255 255 255 255 255 254 254 254 254 254 254 255 255 255 255 255 255 255 255 255 255 255 255 255 255 255 255 255 255 255 255 255 255 255 255 255 255 255 255 255 255 255 255 255 255 255 255 255 255 255 255 255 255 255 255 255 255 255 255 255 255 255 255 255 255 255 255 255 255 255 255 255 255 255 255 255 255 255 255 255 255 255 255 255 255 255 255 255 255 255 255 255 255 255 255 255 255 255 255 255 255 255 255 255 255 255 255 255 255 255 255 255 255 255 255 255 255 255 255 255 255 255 255 255 255 255 255 255 255 255 255 255 255 255 255 255 255 255 255 255 255 255 255 255 255 255 255 255 255 255 255 255 255 255 255 
255 255 255 255 255 255 255 255 255 255 255 255 255 255 255 255 255 255 255 255 255 255 255 255 255 255 255 255 255 255 255 255 255 255 255 255 255 255 255 255 255 255 255 255 255 255 255 255 255 255 255 255 255 255 255 255 255 255 255 255 255 255 255 255 255 255 255 255 255 255 255 255 255 255 255 255 255 255 255 255 255 255 255 255 255 255 255 255 255 255 255 255 255 255 255 255 255 255 255 255 255 255 255 255 255 255 255 255 255 255 255 255 255 255 255 255 255 255 255 255 255 255 255 255 255 255 255 255 255 255 255 255 255 255 255 255 255 255 255 255 255 255 255 255 255 255 255 255 255 255 255 255 255 254 254 254 252 252 252 189 189 189 111 111 111 57 57 57 10 10 10 0 0 0 0 0 0 0 0 0 0 0 0 0 0 0 0 0 0 0 0 0 0 0 0 0 0 0 0 0 0 0 0 0 0 0 0 0 0 0 0 0 0 0 0 0 0 0 0 0 0 0 0 0 0 0 0 0 0 0 0 0 0 0 0 0 0 0 0 0 0 0 0 0 0 0 0 0 0 10 10 10 25 25 25 60 60 60 105 105 105 137 137 137 163 163 163 178 178 178 188 188 188 194 194 194 197 197 197 200 200 200 202 202 202 205 205 205 207 207 207 209 209 209 210 210 210 211 211 211 210 210 210 208 208 208 205 205 205 202 202 201 199 198 196 198 193 178 200 187 151 204 180 117 210 174 78 215 170 46 219 167 20 223 169 13 226 176 21 229 184 36 232 193 58 235 202 80 238 210 102 240 217 120 242 222 135 244 226 147 245 229 156 245 231 163 246 234 169 246 236 175 247 237 181 248 239 187 249 241 192 249 243 198 250 244 204 250 245 210 251 246 215 251 248 220 252 249 224 252 249 229 253 250 234 253 251 238 253 252 241 253 252 241 253 251 237 251 248 226 249 243 205 246 236 179 242 227 146 237 217 116 232 208 90 225 200 76 216 193 80 206 187 95 195 183 128 186 180 153 180 178 168 177 177 177 177 177 177 177 177 177 177 177 177 176 176 176 174 174 174 172 172 172 169 169 169 163 163 163 155 155 155 145 145 145 131 131 131 116 116 116 99 99 99 80 80 80 56 56 56 33 33 33 15 15 15 3 3 3 1 1 1 0 0 0 0 0 0 0 0 0 0 0 0 0 0 0 0 0 0 0 0 0 0 0 0 0 0 0 0 0 0 0 0 0 0 0 0 0 0 0 0 0 0 0 0 0 0 0 0 0 0 0 0 0 0 0 0 0 0 0 0 0 0 0 0 0 0 0 0 0 0 0 0 0 0 0 0 0 0 1 1 1 7 7 7 32 32 32 124 124 124 203 203 203 231 231 231 254 254 254 255 255 255 255 255 255 254 254 254 254 254 254 255 255 255 255 255 255 255 255 255 255 255 255 255 255 255 255 255 255 255 255 255 255 255 255 255 255 255 255 255 255 255 255 255 255 255 255 255 255 255 255 255 255 255 255 255 255 255 255 255 255 255 255 255 255 255 255 255 255 255 255 255 255 255 255 255 255 255 255 255 255 255 255 255 255 255 255 255 255 255 255 255 255 255 255 255 255 255 255 255 255 255 255 255 255 255 255 255 255 255 255 255 255 255 255 255 255 255 255 255 255 255 255 255 255 255 255 255 255 255 255 255 255 255 255 255 255 255 255 255 255 255 255 255 255 255 255 255 255 255 255 255 255 255 255 
255 255 255 255 255 255 255 255 255 255 255 255 255 255 255 255 255 255 255 255 255 255 255 255 255 255 255 255 255 255 255 255 255 255 255 255 255 255 255 255 255 255 255 255 255 255 255 255 255 255 255 255 255 255 255 255 255 255 255 255 255 255 255 255 255 255 255 255 255 255 255 255 255 255 255 255 255 255 255 255 255 255 255 255 255 255 255 255 255 255 255 255 255 255 255 255 255 255 255 255 255 255 255 255 255 255 255 255 255 255 255 255 255 255 255 255 255 255 255 255 255 255 255 255 255 255 255 255 255 255 255 255 255 255 255 255 255 255 255 255 255 255 255 255 255 255 255 255 255 255 254 254 254 252 252 252 250 250 250 178 178 178 88 88 88 42 42 42 8 8 8 0 0 0 0 0 0 0 0 0 0 0 0 0 0 0 0 0 0 0 0 0 0 0 0 0 0 0 0 0 0 0 0 0 0 0 0 0 0 0 0 0 0 0 0 0 0 0 0 0 0 0 0 0 0 0 0 0 0 0 0 0 0 0 0 0 0 0 0 0 0 0 0 0 0 0 0 0 0 3 3 3 8 8 8 36 36 36 76 76 76 112 112 112 145 145 145 167 167 167 182 182 182 190 190 190 194 194 194 197 197 197 200 200 200 202 202 202 204 204 204 206 206 206 207 207 207 208 208 208 209 209 209 209 209 209 209 209 209 207 206 204 203 201 196 204 191 158 208 177 98 213 170 57 218 167 31 221 166 14 221 167 6 223 170 5 226 175 9 228 182 20 230 189 34 232 197 53 235 205 74 238 211 94 241 217 115 243 223 132 244 227 146 245 231 155 245 233 161 246 235 167 247 237 174 248 238 180 248 240 185 249 241 191 250 243 197 250 244 203 250 245 207 251 246 213 252 247 218 253 248 223 252 249 228 252 250 232 253 251 235 253 252 238 253 252 241 253 252 241 252 251 237 252 249 232 251 247 224 248 241 206 245 232 174 238 220 134 229 204 83 217 190 62 200 180 83 185 171 108 170 165 141 162 162 161 163 163 162 163 163 163 162 162 162 160 160 160 157 157 157 154 154 154 149 149 149 141 141 141 129 129 129 114 114 114 93 93 93 71 71 71 48 48 48 29 29 29 18 18 18 9 9 9 4 4 4 1 1 1 0 0 0 0 0 0 0 0 0 0 0 0 0 0 0 0 0 0 0 0 0 0 0 0 0 0 0 0 0 0 0 0 0 0 0 0 0 0 0 0 0 0 0 0 0 0 0 0 0 0 0 0 0 0 0 0 0 0 0 0 0 0 0 0 0 0 0 0 0 0 0 0 0 0 0 0 0 0 0 0 0 0 0 0 2 2 2 22 22 22 105 105 105 179 179 179 221 221 221 254 254 254 255 255 255 255 255 255 254 254 254 254 254 254 255 255 255 255 255 255 255 255 255 255 255 255 255 255 255 255 255 255 255 255 255 255 255 255 255 255 255 255 255 255 255 255 255 255 255 255 255 255 255 255 255 255 255 255 255 255 255 255 255 255 255 255 255 255 255 255 255 255 255 255 255 255 255 255 255 255 255 255 255 255 255 255 255 255 255 255 255 255 255 255 255 255 255 255 255 255 255 255 255 255 255 255 255 255 255 255 255 255 255 255 255 255 255 255 255 255 255 255 255 255 255 255 255 255 255 255 255 255 255 255 255 255 255 255 255 255 255 255 255 255 255 255 255 255 255 255 255 255 255 255 255 255 255 255 
255 255 255 255 255 255 255 255 255 255 255 255 255 255 255 255 255 255 255 255 255 255 255 255 255 255 255 255 255 255 255 255 255 255 255 255 255 255 255 255 255 255 255 255 255 255 255 255 255 255 255 255 255 255 255 255 255 255 255 255 255 255 255 255 255 255 255 255 255 255 255 255 255 255 255 255 255 255 255 255 255 255 255 255 255 255 255 255 255 255 255 255 255 255 255 255 255 255 255 255 255 255 255 255 255 255 255 255 255 255 255 255 255 255 255 255 255 255 255 255 255 255 255 255 255 255 255 255 255 255 255 255 255 255 255 255 255 255 255 255 255 255 255 255 255 255 255 255 255 255 254 254 254 249 249 249 242 242 242 164 164 164 68 68 68 29 29 29 5 5 5 0 0 0 0 0 0 0 0 0 0 0 0 0 0 0 0 0 0 0 0 0 0 0 0 0 0 0 0 0 0 0 0 0 0 0 0 0 0 0 0 0 0 0 0 0 0 0 0 0 0 0 0 0 0 0 0 0 0 0 0 0 0 0 0 0 0 0 0 0 0 0 0 0 0 0 0 0 0 0 0 0 1 1 1 20 20 20 47 47 47 82 82 82 120 120 120 147 147 147 168 168 168 181 181 181 188 188 188 193 193 193 197 197 197 199 199 199 201 201 201 203 203 203 205 205 205 206 206 206 207 207 207 207 207 207 208 208 208 208 204 195 207 198 173 210 187 129 215 174 68 219 168 33 222 167 17 224 167 8 223 169 2 224 172 1 226 176 4 228 181 9 229 187 17 231 193 29 233 199 44 236 204 59 238 209 75 240 214 91 241 220 107 243 224 123 244 229 138 245 232 152 247 235 163 248 237 172 248 239 178 248 240 184 249 242 190 250 243 195 250 244 200 250 245 205 252 246 211 252 247 217 252 249 221 252 250 225 253 250 229 253 251 234 253 252 239 253 253 243 253 253 246 254 253 248 254 254 250 253 251 242 250 245 219 246 235 183 239 220 128 228 203 88 211 186 69 191 171 76 168 159 116 153 151 143 152 151 148 151 151 151 150 150 150 149 149 149 147 147 147 143 143 143 135 135 135 121 121 121 99 99 99 77 77 77 57 57 57 37 37 37 20 20 20 7 7 7 3 3 3 0 0 0 0 0 0 0 0 0 0 0 0 0 0 0 0 0 0 0 0 0 0 0 0 0 0 0 0 0 0 0 0 0 0 0 0 0 0 0 0 0 0 0 0 0 0 0 0 0 0 0 0 0 0 0 0 0 0 0 0 0 0 0 0 0 0 0 0 0 0 0 0 0 0 0 0 0 0 0 0 0 0 0 0 0 0 0 0 0 0 0 0 0 0 0 0 15 15 15 78 78 78 141 141 141 203 203 203 253 253 253 254 254 254 255 255 255 255 255 255 254 254 254 255 255 255 255 255 255 255 255 255 255 255 255 255 255 255 255 255 255 255 255 255 255 255 255 255 255 255 255 255 255 255 255 255 255 255 255 255 255 255 255 255 255 255 255 255 255 255 255 255 255 255 255 255 255 255 255 255 255 255 255 255 255 255 255 255 255 255 255 255 255 255 255 255 255 255 255 255 255 255 255 255 255 255 255 255 255 255 255 255 255 255 255 255 255 255 255 255 255 255 255 255 255 255 255 255 255 255 255 255 255 255 255 255 255 255 255 255 255 255 255 255 255 255 255 255 255 255 255 255 255 255 255 255 255 255 255 255 255 255 255 255 255 255 255 
255 255 255 255 255 255 255 255 255 255 255 255 255 255 255 255 255 255 255 255 255 255 255 255 255 255 255 255 255 255 255 255 255 255 255 255 255 255 255 255 255 255 255 255 255 255 255 255 255 255 255 255 255 255 255 255 255 255 255 255 255 255 255 255 255 255 255 255 255 255 255 255 255 255 255 255 255 255 255 255 255 255 255 255 255 255 255 255 255 255 255 255 255 255 255 255 255 255 255 255 255 255 255 255 255 255 255 255 255 255 255 255 255 255 255 255 255 255 255 255 255 255 255 255 255 255 255 255 255 255 255 255 255 255 255 255 255 255 255 255 255 255 255 255 255 255 255 255 255 255 254 254 254 244 244 244 232 232 232 150 150 150 49 49 49 17 17 17 3 3 3 0 0 0 0 0 0 0 0 0 0 0 0 0 0 0 0 0 0 0 0 0 0 0 0 0 0 0 0 0 0 0 0 0 0 0 0 0 0 0 0 0 0 0 0 0 0 0 0 0 0 0 0 0 0 0 0 0 0 0 0 0 0 0 0 0 0 0 0 0 0 0 0 0 0 0 0 0 0 0 0 0 0 0 0 7 7 7 17 17 17 49 49 49 91 91 91 124 124 124 150 150 150 169 169 169 182 182 182 189 189 189 193 193 193 196 196 196 198 198 198 200 200 200 202 202 202 203 203 203 204 204 204 204 204 204 205 205 205 207 199 180 210 189 137 215 181 94 220 173 51 223 170 29 224 171 24 225 172 15 225 172 5 226 174 0 227 178 1 228 182 3 230 185 5 231 189 8 231 193 12 232 196 17 233 199 23 235 203 35 237 209 53 239 215 77 242 222 107 244 228 132 246 233 151 247 236 164 248 238 170 248 239 176 249 241 182 249 243 187 250 244 192 250 245 198 250 246 204 251 247 210 252 248 214 252 249 219 252 250 224 252 250 228 253 251 233 253 252 238 253 252 241 253 253 245 253 253 247 253 253 247 253 251 242 251 247 227 248 239 197 239 224 148 223 198 74 201 175 49 170 156 92 149 144 122 143 141 133 140 140 140 141 141 141 141 141 141 141 141 141 136 136 136 125 125 125 103 103 103 65 65 65 36 36 36 21 21 21 10 10 10 5 5 5 2 2 2 1 1 1 0 0 0 0 0 0 0 0 0 0 0 0 0 0 0 0 0 0 0 0 0 0 0 0 0 0 0 0 0 0 0 0 0 0 0 0 0 0 0 0 0 0 0 0 0 0 0 0 0 0 0 0 0 0 0 0 0 0 0 0 0 0 0 0 0 0 0 0 0 0 0 0 0 0 0 0 0 0 0 0 0 0 0 0 0 0 0 0 0 0 0 0 0 0 0 0 9 9 9 47 47 47 95 95 95 182 182 182 252 252 252 254 254 254 255 255 255 255 255 255 255 255 255 255 255 255 255 255 255 255 255 255 255 255 255 255 255 255 255 255 255 255 255 255 255 255 255 255 255 255 255 255 255 255 255 255 255 255 255 255 255 255 255 255 255 255 255 255 255 255 255 255 255 255 255 255 255 255 255 255 255 255 255 255 255 255 255 255 255 255 255 255 255 255 255 255 255 255 255 255 255 255 255 255 255 255 255 255 255 255 255 255 255 255 255 255 255 255 255 255 255 255 255 255 255 255 255 255 255 255 255 255 255 255 255 255 255 255 255 255 255 255 255 255 255 255 255 255 255 255 255 255 255 255 255 255 255 255 255 255 255 255 255 255 255 255 255 
255 255 255 255 255 255 255 255 255 255 255 255 255 255 255 255 255 255 255 255 255 255 255 255 255 255 255 255 255 255 255 255 255 255 255 255 255 255 255 255 255 255 255 255 255 255 255 255 255 255 255 255 255 255 255 255 255 255 255 255 255 255 255 255 255 255 255 255 255 255 255 255 255 255 255 255 255 255 255 255 255 255 255 255 255 255 255 255 255 255 255 255 255 255 255 255 255 255 255 255 255 255 255 255 255 255 255 255 255 255 255 255 255 255 255 255 255 255 255 255 255 255 255 255 255 255 255 255 255 255 255 255 255 255 255 255 255 255 255 255 255 255 255 255 255 255 255 255 255 255 254 254 254 234 234 234 209 209 209 129 129 129 35 35 35 9 9 9 2 2 2 0 0 0 0 0 0 0 0 0 0 0 0 0 0 0 0 0 0 0 0 0 0 0 0 0 0 0 0 0 0 0 0 0 0 0 0 0 0 0 0 0 0 0 0 0 0 0 0 0 0 0 0 0 0 0 0 0 0 0 0 0 0 0 0 0 0 0 0 0 0 0 0 0 0 0 0 0 0 0 0 0 0 0 0 2 2 2 4 4 4 26 26 26 58 58 58 90 90 90 123 123 123 147 147 147 166 166 166 177 177 177 185 185 185 190 190 190 194 194 194 197 197 197 198 198 198 199 199 199 200 200 200 201 201 201 202 202 202 205 194 167 211 182 108 218 177 73 225 177 54 227 177 44 227 178 39 227 177 26 226 175 8 227 176 0 228 180 0 229 183 0 230 186 0 230 189 0 231 192 1 232 194 1 232 196 3 233 199 10 235 203 23 237 208 42 239 214 66 241 220 90 243 226 112 245 230 133 246 234 151 247 237 164 248 240 172 249 242 179 250 243 185 250 244 191 250 245 197 250 246 203 251 247 207 251 248 212 252 249 217 252 250 222 252 250 227 253 251 232 253 251 236 253 252 240 253 252 243 253 253 246 253 253 248 253 252 243 252 248 229 245 234 180 230 206 87 209 181 48 176 160 83 153 146 112 145 142 130 141 141 141 143 143 143 144 144 144 145 145 145 143 143 143 135 135 135 118 118 118 88 88 88 60 60 60 39 39 39 21 21 21 9 9 9 1 1 1 0 0 0 0 0 0 0 0 0 0 0 0 0 0 0 0 0 0 0 0 0 0 0 0 0 0 0 0 0 0 0 0 0 0 0 0 0 0 0 0 0 0 0 0 0 0 0 0 0 0 0 0 0 0 0 0 0 0 0 0 0 0 0 0 0 0 0 0 0 0 0 0 0 0 0 0 0 0 0 0 0 0 0 0 0 0 0 0 0 0 0 0 0 0 0 0 0 0 0 5 5 5 25 25 25 61 61 61 155 155 155 232 232 232 245 245 245 255 255 255 255 255 255 255 255 255 255 255 255 255 255 255 255 255 255 255 255 255 255 255 255 255 255 255 255 255 255 255 255 255 255 255 255 255 255 255 255 255 255 255 255 255 255 255 255 255 255 255 255 255 255 255 255 255 255 255 255 255 255 255 255 255 255 255 255 255 255 255 255 255 255 255 255 255 255 255 255 255 255 255 255 255 255 255 255 255 255 255 255 255 255 255 255 255 255 255 255 255 255 255 255 255 255 255 255 255 255 255 255 255 255 255 255 255 255 255 255 255 255 255 255 255 255 255 255 255 255 255 255 255 255 255 255 255 255 255 255 255 255 255 255 255 255 255 255 255 255 255 255 255 
255 255 255 255 255 255 255 255 255 255 255 255 255 255 255 255 255 255 255 255 255 255 255 255 255 255 255 255 255 255 255 255 255 255 255 255 255 255 255 255 255 255 255 255 255 255 255 255 255 255 255 255 255 255 255 255 255 255 255 255 255 255 255 255 255 255 255 255 255 255 255 255 255 255 255 255 255 255 255 255 255 255 255 255 255 255 255 255 255 255 255 255 255 255 255 255 255 255 255 255 255 255 255 255 255 255 255 255 255 255 255 255 255 255 255 255 255 255 255 255 255 255 255 255 255 255 255 255 255 255 255 255 255 255 255 255 255 255 255 255 255 255 255 255 254 254 254 254 254 254 255 255 255 221 221 221 180 180 180 105 105 105 22 22 22 3 3 3 1 1 1 0 0 0 0 0 0 0 0 0 0 0 0 0 0 0 0 0 0 0 0 0 0 0 0 0 0 0 0 0 0 0 0 0 0 0 0 0 0 0 0 0 0 0 0 0 0 0 0 0 0 0 0 0 0 0 0 0 0 0 0 0 0 0 0 0 0 0 0 0 0 0 0 0 0 0 0 0 0 0 0 0 0 0 0 0 0 0 1 1 1 10 10 10 22 22 22 51 51 51 89 89 89 119 119 119 144 144 144 161 161 161 174 174 174 183 183 183 189 189 189 193 193 193 195 195 195 196 196 196 197 197 197 198 198 198 198 198 198 203 190 156 211 176 84 220 175 61 228 183 70 231 187 69 230 186 59 229 183 39 227 178 12 228 177 0 229 181 0 230 184 0 230 187 0 231 190 0 232 193 0 233 195 0 233 197 1 233 199 3 234 200 7 235 203 12 235 206 19 237 210 35 239 215 58 242 222 87 244 229 123 246 235 148 248 238 161 249 240 171 250 241 177 250 242 184 250 243 190 250 244 195 250 246 201 251 247 206 251 248 211 251 249 216 252 249 221 252 250 225 252 250 230 252 251 234 253 252 238 253 252 242 253 253 245 253 252 244 253 251 239 247 238 197 234 212 105 215 189 61 185 167 84 163 153 107 153 150 132 148 148 148 151 151 151 153 153 153 155 155 155 156 156 156 156 156 156 152 152 152 143 143 143 124 124 124 88 88 88 54 54 54 22 22 22 1 1 1 1 1 1 0 0 0 0 0 0 0 0 0 0 0 0 0 0 0 0 0 0 0 0 0 0 0 0 0 0 0 0 0 0 0 0 0 0 0 0 0 0 0 0 0 0 0 0 0 0 0 0 0 0 0 0 0 0 0 0 0 0 0 0 0 0 0 0 0 0 0 0 0 0 0 0 0 0 0 0 0 0 0 0 0 0 0 0 0 0 0 0 0 0 0 0 0 0 0 0 2 2 2 9 9 9 33 33 33 123 123 123 200 200 200 231 231 231 255 255 255 255 255 255 255 255 255 255 255 255 255 255 255 255 255 255 255 255 255 255 255 255 255 255 255 255 255 255 255 255 255 255 255 255 255 255 255 255 255 255 255 255 255 255 255 255 255 255 255 255 255 255 255 255 255 255 255 255 255 255 255 255 255 255 255 255 255 255 255 255 255 255 255 255 255 255 255 255 255 255 255 255 255 255 255 255 255 255 255 255 255 255 255 255 255 255 255 255 255 255 255 255 255 255 255 255 255 255 255 255 255 255 255 255 255 255 255 255 255 255 255 255 255 255 255 255 255 255 255 255 255 255 255 255 255 255 255 255 255 255 255 255 255 255 255 255 255 255 255 255 255 
255 255 255 255 255 255 255 255 255 255 255 255 255 255 255 255 255 255 255 255 255 255 255 255 255 255 255 255 255 255 255 255 255 255 255 255 255 255 255 255 255 255 255 255 255 255 255 255 255 255 255 255 255 255 255 255 255 255 255 255 255 255 255 255 255 255 255 255 255 255 255 255 255 255 255 255 255 255 255 255 255 255 255 255 255 255 255 255 255 255 255 255 255 255 255 255 255 255 255 255 255 255 255 255 255 255 255 255 255 255 255 255 255 255 255 255 255 255 255 255 255 255 255 255 255 255 255 255 255 255 255 255 255 255 255 255 255 255 255 255 255 255 255 255 254 254 254 254 254 254 254 254 254 204 204 204 142 142 142 78 78 78 14 14 14 0 0 0 0 0 0 0 0 0 0 0 0 0 0 0 0 0 0 0 0 0 0 0 0 0 0 0 0 0 0 0 0 0 0 0 0 0 0 0 0 0 0 0 0 0 0 0 0 0 0 0 0 0 0 0 0 0 0 0 0 0 0 0 0 0 0 0 0 0 0 0 0 0 0 0 0 0 0 0 0 0 0 0 0 0 0 0 0 0 0 0 0 0 0 0 0 3 3 3 6 6 6 34 34 34 73 73 73 105 105 105 134 134 134 150 150 150 160 160 160 168 168 168 175 175 175 181 181 181 185 185 185 189 189 189 191 191 191 193 193 193 194 194 194 200 186 151 210 173 78 219 174 57 228 184 72 232 191 78 233 194 79 232 190 58 229 182 22 228 180 4 229 182 1 230 185 0 230 188 0 231 191 0 232 194 0 233 196 0 233 197 0 234 199 0 234 200 1 234 201 1 234 203 1 235 205 10 237 210 25 239 215 49 241 222 81 243 228 108 245 233 132 247 237 151 248 239 166 249 241 176 249 242 182 250 243 187 250 244 193 250 246 199 251 247 204 251 248 209 251 248 214 252 249 219 252 249 224 252 250 229 253 251 233 253 252 237 253 252 240 253 251 239 252 249 231 246 236 188 233 210 99 214 187 59 186 169 89 166 158 117 160 157 141 157 157 157 161 161 161 163 163 163 166 166 166 168 168 168 171 171 171 172 172 172 172 172 172 162 162 162 135 135 135 104 104 104 68 68 68 38 38 38 19 19 19 5 5 5 2 2 2 0 0 0 0 0 0 0 0 0 0 0 0 0 0 0 0 0 0 0 0 0 0 0 0 0 0 0 0 0 0 0 0 0 0 0 0 0 0 0 0 0 0 0 0 0 0 0 0 0 0 0 0 0 0 0 0 0 0 0 0 0 0 0 0 0 0 0 0 0 0 0 0 0 0 0 0 0 0 0 0 0 0 0 0 0 0 0 0 0 0 0 0 0 2 2 2 19 19 19 89 89 89 155 155 155 210 210 210 253 253 253 254 254 254 255 255 255 255 255 255 255 255 255 255 255 255 255 255 255 255 255 255 255 255 255 255 255 255 255 255 255 255 255 255 255 255 255 255 255 255 255 255 255 255 255 255 255 255 255 255 255 255 255 255 255 255 255 255 255 255 255 255 255 255 255 255 255 255 255 255 255 255 255 255 255 255 255 255 255 255 255 255 255 255 255 255 255 255 255 255 255 255 255 255 255 255 255 255 255 255 255 255 255 255 255 255 255 255 255 255 255 255 255 255 255 255 255 255 255 255 255 255 255 255 255 255 255 255 255 255 255 255 255 255 255 255 255 255 255 255 255 255 255 255 255 255 255 255 255 255 255 
255 255 255 255 255 255 255 255 255 255 255 255 255 255 255 255 255 255 255 255 255 255 255 255 255 255 255 255 255 255 255 255 255 255 255 255 255 255 255 255 255 255 255 255 255 255 255 255 255 255 255 255 255 255 255 255 255 255 255 255 255 255 255 255 255 255 255 255 255 255 255 255 255 255 255 255 255 255 255 255 255 255 255 255 255 255 255 255 255 255 255 255 255 255 255 255 255 255 255 255 255 255 255 255 255 255 255 255 255 255 255 255 255 255 255 255 255 255 255 255 255 255 255 255 255 255 255 255 255 255 255 255 255 255 255 255 255 255 255 255 255 255 255 255 255 255 255 254 254 254 253 253 253 184 184 184 98 98 98 49 49 49 9 9 9 0 0 0 0 0 0 0 0 0 0 0 0 0 0 0 0 0 0 0 0 0 0 0 0 0 0 0 0 0 0 0 0 0 0 0 0 0 0 0 0 0 0 0 0 0 0 0 0 0 0 0 0 0 0 0 0 0 0 0 0 0 0 0 0 0 0 0 0 0 0 0 0 0 0 0 0 0 0 0 0 0 0 0 0 0 0 0 0 0 0 0 0 0 0 0 0 1 1 1 4 4 4 29 29 29 67 67 67 100 100 100 130 130 130 142 142 142 144 144 144 149 149 149 156 156 156 165 165 165 173 173 173 179 179 179 184 184 184 187 187 187 190 190 190 197 184 150 207 172 84 217 173 59 225 182 64 231 191 78 235 200 97 234 198 80 230 187 35 229 183 12 229 184 4 230 186 0 231 189 0 232 192 0 232 195 0 233 196 0 233 197 1 234 199 1 235 200 0 235 202 0 235 203 1 235 205 3 235 207 7 236 209 16 237 213 29 239 219 54 242 226 91 245 232 123 247 237 151 248 240 168 248 241 173 249 242 179 250 243 185 250 244 191 250 246 197 250 247 202 250 247 208 251 248 213 252 248 218 252 249 223 253 250 228 253 250 232 253 251 236 252 249 230 250 244 212 242 229 164 228 202 77 209 180 47 181 167 97 165 161 135 165 164 154 167 167 167 171 171 171 174 174 174 177 177 177 179 179 179 182 182 182 184 184 184 186 186 186 185 185 185 179 179 179 164 164 164 134 134 134 97 97 97 48 48 48 13 13 13 5 5 5 0 0 0 0 0 0 0 0 0 0 0 0 0 0 0 0 0 0 0 0 0 0 0 0 0 0 0 0 0 0 0 0 0 0 0 0 0 0 0 0 0 0 0 0 0 0 0 0 0 0 0 0 0 0 0 0 0 0 0 0 0 0 0 0 0 0 0 0 0 0 0 0 0 0 0 0 0 0 0 0 0 0 0 0 0 0 0 0 0 0 0 0 0 2 2 2 13 13 13 53 53 53 102 102 102 184 184 184 251 251 251 253 253 253 255 255 255 255 255 255 255 255 255 255 255 255 255 255 255 255 255 255 255 255 255 255 255 255 255 255 255 255 255 255 255 255 255 255 255 255 255 255 255 255 255 255 255 255 255 255 255 255 255 255 255 255 255 255 255 255 255 255 255 255 255 255 255 255 255 255 255 255 255 255 255 255 255 255 255 255 255 255 255 255 255 255 255 255 255 255 255 255 255 255 255 255 255 255 255 255 255 255 255 255 255 255 255 255 255 255 255 255 255 255 255 255 255 255 255 255 255 255 255 255 255 255 255 255 255 255 255 255 255 255 255 255 255 255 255 255 255 255 255 255 255 255 255 255 255 255 255 
255 255 255 255 255 255 255 255 255 255 255 255 255 255 255 255 255 255 255 255 255 255 255 255 255 255 255 255 255 255 255 255 255 255 255 255 255 255 255 255 255 255 255 255 255 255 255 255 255 255 255 255 255 255 255 255 255 255 255 255 255 255 255 255 255 255 255 255 255 255 255 255 255 255 255 255 255 255 255 255 255 255 255 255 255 255 255 255 255 255 255 255 255 255 255 255 255 255 255 255 255 255 255 255 255 255 255 255 255 255 255 255 255 255 255 255 255 255 255 255 255 255 255 255 255 255 255 255 255 255 255 255 255 255 255 255 255 255 255 255 255 255 255 255 255 255 255 246 246 246 235 235 235 157 157 157 63 63 63 27 27 27 5 5 5 0 0 0 0 0 0 0 0 0 0 0 0 0 0 0 0 0 0 0 0 0 0 0 0 0 0 0 0 0 0 0 0 0 0 0 0 0 0 0 0 0 0 0 0 0 0 0 0 0 0 0 0 0 0 0 0 0 0 0 0 0 0 0 0 0 0 0 0 0 0 0 0 0 0 0 0 0 0 0 0 0 0 0 0 0 0 0 0 0 0 1 1 1 3 3 3 16 16 16 35 35 35 63 63 63 96 96 96 120 120 120 140 140 140 145 145 145 142 142 142 143 143 143 147 147 147 152 152 152 158 158 158 163 163 163 167 167 167 170 170 170 172 172 172 179 169 143 190 162 93 204 165 65 219 173 52 229 186 66 235 200 99 236 202 93 233 194 60 231 189 34 230 186 13 230 186 3 231 189 1 232 192 0 232 194 0 233 196 0 234 197 1 234 199 1 235 200 0 235 202 0 235 203 1 235 204 1 234 205 0 234 207 2 235 209 6 237 213 23 240 219 53 242 225 84 244 231 118 246 236 144 247 239 160 248 241 171 249 242 177 250 243 183 250 244 189 250 245 195 250 246 201 250 246 206 251 247 211 252 248 217 252 249 222 252 249 226 252 249 229 250 244 213 245 234 174 235 217 126 219 192 68 200 175 57 178 167 113 167 165 151 172 171 166 176 176 176 181 181 181 184 184 184 187 187 187 190 190 190 192 192 192 194 194 194 197 197 197 199 199 199 202 202 202 197 197 197 178 178 178 149 149 149 103 103 103 62 62 62 32 32 32 10 10 10 4 4 4 0 0 0 0 0 0 0 0 0 0 0 0 0 0 0 0 0 0 0 0 0 0 0 0 0 0 0 0 0 0 0 0 0 0 0 0 0 0 0 0 0 0 0 0 0 0 0 0 0 0 0 0 0 0 0 0 0 0 0 0 0 0 0 0 0 0 0 0 0 0 0 0 0 0 0 0 0 0 0 0 0 0 0 0 0 0 0 2 2 2 8 8 8 32 32 32 69 69 69 154 154 154 226 226 226 242 242 242 255 255 255 255 255 255 255 255 255 255 255 255 255 255 255 255 255 255 255 255 255 255 255 255 255 255 255 255 255 255 255 255 255 255 255 255 255 255 255 255 255 255 255 255 255 255 255 255 255 255 255 255 255 255 255 255 255 255 255 255 255 255 255 255 255 255 255 255 255 255 255 255 255 255 255 255 255 255 255 255 255 255 255 255 255 255 255 255 255 255 255 255 255 255 255 255 255 255 255 255 255 255 255 255 255 255 255 255 255 255 255 255 255 255 255 255 255 255 255 255 255 255 255 255 255 255 255 255 255 255 255 255 255 255 255 255 255 255 255 255 255 255 255 255 255 255 255 
255 255 255 255 255 255 255 255 255 255 255 255 255 255 255 255 255 255 255 255 255 255 255 255 255 255 255 255 255 255 255 255 255 255 255 255 255 255 255 255 255 255 255 255 255 255 255 255 255 255 255 255 255 255 255 255 255 255 255 255 255 255 255 255 255 255 255 255 255 255 255 255 255 255 255 255 255 255 255 255 255 255 255 255 255 255 255 255 255 255 255 255 255 255 255 255 255 255 255 255 255 255 255 255 255 255 255 255 255 255 255 255 255 255 255 255 255 255 255 255 255 255 255 255 255 255 255 255 255 255 255 255 255 255 255 255 255 255 255 255 255 255 255 255 254 254 254 233 233 233 207 207 207 127 127 127 34 34 34 9 9 9 2 2 2 0 0 0 0 0 0 0 0 0 0 0 0 0 0 0 0 0 0 0 0 0 0 0 0 0 0 0 0 0 0 0 0 0 0 0 0 0 0 0 0 0 0 0 0 0 0 0 0 0 0 0 0 0 0 0 0 0 0 0 0 0 0 0 0 0 0 0 0 0 0 0 0 0 0 0 0 0 0 0 0 0 0 0 0 0 0 0 0 0 0 3 3 3 7 7 7 40 40 40 87 87 87 121 121 121 147 147 147 157 157 157 157 157 157 154 154 154 149 149 149 146 146 146 143 143 143 142 142 142 142 142 142 143 143 143 144 144 144 145 145 145 146 146 146 153 146 131 163 146 105 184 152 73 211 162 37 226 177 47 233 196 89 236 204 102 236 203 92 234 198 66 231 189 27 230 187 7 231 189 3 232 191 1 232 193 0 233 195 0 234 197 1 234 199 1 235 200 1 235 201 1 235 202 0 235 203 0 234 205 0 234 206 1 235 207 2 236 209 7 237 211 16 239 216 39 241 223 75 243 230 109 246 236 143 248 240 164 249 241 170 249 242 176 249 243 182 249 244 188 250 244 194 250 245 199 250 246 204 251 247 210 251 247 215 251 247 219 251 247 220 248 239 191 239 220 123 226 201 79 206 182 66 189 170 80 176 169 132 171 171 167 179 179 177 185 185 185 190 190 190 194 194 194 197 197 197 200 200 200 201 201 201 203 203 203 206 206 206 208 208 208 211 211 211 211 211 211 208 208 208 198 198 198 174 174 174 137 137 137 73 73 73 25 25 25 10 10 10 0 0 0 0 0 0 0 0 0 0 0 0 0 0 0 0 0 0 0 0 0 0 0 0 0 0 0 0 0 0 0 0 0 0 0 0 0 0 0 0 0 0 0 0 0 0 0 0 0 0 0 0 0 0 0 0 0 0 0 0 0 0 0 0 0 0 0 0 0 0 0 0 0 0 0 0 0 0 0 0 0 0 0 0 0 0 0 0 0 0 4 4 4 21 21 21 49 49 49 122 122 122 187 187 187 225 225 225 255 255 255 255 255 255 255 255 255 255 255 255 255 255 255 255 255 255 255 255 255 255 255 255 255 255 255 255 255 255 255 255 255 255 255 255 255 255 255 255 255 255 255 255 255 255 255 255 255 255 255 255 255 255 255 255 255 255 255 255 255 255 255 255 255 255 255 255 255 255 255 255 255 255 255 255 255 255 255 255 255 255 255 255 255 255 255 255 255 255 255 255 255 255 255 255 255 255 255 255 255 255 255 255 255 255 255 255 255 255 255 255 255 255 255 255 255 255 255 255 255 255 255 255 255 255 255 255 255 255 255 255 255 255 255 255 255 255 255 255 255 255 255 255 255 255 255 
255 255 255 255 255 255 255 255 255 255 255 255 255 255 255 255 255 255 255 255 255 255 255 255 255 255 255 255 255 255 255 255 255 255 255 255 255 255 255 255 255 255 255 255 255 255 255 255 255 255 255 255 255 255 255 255 255 255 255 255 255 255 255 255 255 255 255 255 255 255 255 255 255 255 255 255 255 255 255 255 255 255 255 255 255 255 255 255 255 255 255 255 255 255 255 255 255 255 255 255 255 255 255 255 255 255 255 255 255 255 255 255 255 255 255 255 255 255 255 255 255 255 255 255 255 255 255 255 255 255 255 255 255 255 255 255 255 255 255 255 255 253 253 253 252 252 252 210 210 210 160 160 160 91 91 91 18 18 18 2 2 2 0 0 0 0 0 0 0 0 0 0 0 0 0 0 0 0 0 0 0 0 0 0 0 0 0 0 0 0 0 0 0 0 0 0 0 0 0 0 0 0 0 0 0 0 0 0 0 0 0 0 0 0 0 0 0 0 0 0 0 0 0 0 0 0 0 0 0 0 0 0 0 0 0 0 0 0 0 0 0 0 0 0 0 0 0 0 0 2 2 2 5 5 5 23 23 23 49 49 49 88 88 88 135 135 135 161 161 161 175 175 175 176 176 176 170 170 170 164 164 164 158 158 158 152 152 152 147 147 147 144 144 144 141 141 141 139 139 139 138 138 138 136 136 136 135 135 135 137 133 125 141 132 111 160 137 81 190 147 40 211 163 39 226 185 68 234 198 87 236 204 101 236 203 87 233 195 52 232 191 27 231 189 10 231 190 2 232 192 1 233 194 0 233 196 1 234 198 1 234 200 1 235 201 1 235 201 0 235 202 0 235 204 0 235 205 0 235 206 0 235 207 1 236 208 2 237 211 15 239 217 40 241 223 73 243 231 113 246 236 141 247 238 157 248 240 168 249 241 174 249 242 180 249 243 186 250 243 192 250 244 197 250 245 202 250 245 208 250 243 204 248 238 188 241 227 151 229 205 86 214 187 59 193 173 81 179 167 110 176 172 150 178 179 178 187 187 187 194 194 194 199 199 199 203 203 203 206 206 206 208 208 208 210 210 210 212 212 212 214 214 214 216 216 216 218 218 218 221 221 221 224 224 224 222 222 222 212 212 212 187 187 187 130 130 130 80 80 80 43 43 43 15 15 15 6 6 6 0 0 0 0 0 0 0 0 0 0 0 0 0 0 0 0 0 0 0 0 0 0 0 0 0 0 0 0 0 0 0 0 0 0 0 0 0 0 0 0 0 0 0 0 0 0 0 0 0 0 0 0 0 0 0 0 0 0 0 0 0 0 0 0 0 0 0 0 0 0 0 0 0 0 0 0 0 0 0 0 0 0 0 0 3 3 3 17 17 17 39 39 39 89 89 89 141 141 141 200 200 200 249 249 249 252 252 252 255 255 255 255 255 255 255 255 255 255 255 255 255 255 255 255 255 255 255 255 255 255 255 255 255 255 255 255 255 255 255 255 255 255 255 255 255 255 255 255 255 255 255 255 255 255 255 255 255 255 255 255 255 255 255 255 255 255 255 255 255 255 255 255 255 255 255 255 255 255 255 255 255 255 255 255 255 255 255 255 255 255 255 255 255 255 255 255 255 255 255 255 255 255 255 255 255 255 255 255 255 255 255 255 255 255 255 255 255 255 255 255 255 255 255 255 255 255 255 255 255 255 255 255 255 255 255 255 255 255 255 255 255 255 255 255 255 255 255 255 255 
255 255 255 255 255 255 255 255 255 255 255 255 255 255 255 255 255 255 255 255 255 255 255 255 255 255 255 255 255 255 255 255 255 255 255 255 255 255 255 255 255 255 255 255 255 255 255 255 255 255 255 255 255 255 255 255 255 255 255 255 255 255 255 255 255 255 255 255 255 255 255 255 255 255 255 255 255 255 255 255 255 255 255 255 255 255 255 255 255 255 255 255 255 255 255 255 255 255 255 255 255 255 255 255 255 255 255 255 255 255 255 255 255 255 255 255 255 255 255 255 255 255 255 255 255 255 255 255 255 255 255 255 255 255 255 255 255 255 255 255 255 252 252 252 248 248 248 181 181 181 101 101 101 52 52 52 11 11 11 1 1 1 0 0 0 0 0 0 0 0 0 0 0 0 0 0 0 0 0 0 0 0 0 0 0 0 0 0 0 0 0 0 0 0 0 0 0 0 0 0 0 0 0 0 0 0 0 0 0 0 0 0 0 0 0 0 0 0 0 0 0 0 0 0 0 0 0 0 0 0 0 0 0 0 0 0 0 0 0 0 0 0 0 0 0 0 0 0 0 5 5 5 13 13 13 55 55 55 114 114 114 152 152 152 180 180 180 190 190 190 189 189 189 185 185 185 179 179 179 173 173 173 167 167 167 162 162 162 158 158 158 154 154 154 150 150 150 146 146 146 142 142 142 138 138 138 132 132 132 127 126 124 122 120 113 135 122 88 160 130 54 187 147 39 215 168 38 229 186 59 235 201 95 237 206 101 237 203 84 235 198 57 232 191 22 231 189 4 231 191 1 232 193 0 233 195 0 233 197 0 234 199 0 234 200 0 235 201 0 235 202 0 235 203 1 235 205 1 235 206 0 235 207 0 235 208 0 236 209 4 237 211 12 238 216 35 240 223 73 243 230 108 246 235 140 248 238 160 248 239 165 248 240 171 249 241 178 249 242 184 249 242 189 249 243 194 249 243 200 247 238 183 242 226 139 232 210 97 217 190 58 200 174 56 179 166 106 170 166 145 178 177 168 187 187 186 196 196 196 203 203 203 208 208 208 212 212 212 214 214 214 216 216 216 218 218 218 219 219 219 221 221 221 223 223 223 225 225 225 227 227 227 229 229 229 230 230 230 229 229 229 220 220 220 198 198 198 160 160 160 93 93 93 40 40 40 16 16 16 0 0 0 0 0 0 0 0 0 0 0 0 0 0 0 0 0 0 0 0 0 0 0 0 0 0 0 0 0 0 0 0 0 0 0 0 0 0 0 0 0 0 0 0 0 0 0 0 0 0 0 0 0 0 0 0 0 0 0 0 0 0 0 0 0 0 0 0 0 0 0 0 0 0 0 0 0 0 0 0 0 0 0 0 3 3 3 18 18 18 34 34 34 55 55 55 89 89 89 171 171 171 240 240 240 248 248 248 255 255 255 255 255 255 255 255 255 255 255 255 255 255 255 255 255 255 255 255 255 255 255 255 255 255 255 255 255 255 255 255 255 255 255 255 255 255 255 255 255 255 255 255 255 255 255 255 255 255 255 255 255 255 255 255 255 255 255 255 255 255 255 255 255 255 255 255 255 255 255 255 255 255 255 255 255 255 255 255 255 255 255 255 255 255 255 255 255 255 255 255 255 255 255 255 255 255 255 255 255 255 255 255 255 255 255 255 255 255 255 255 255 255 255 255 255 255 255 255 255 255 255 255 255 255 255 255 255 255 255 255 255 255 255 255 255 255 255 255 255 
255 255 255 255 255 255 255 255 255 255 255 255 255 255 255 255 255 255 255 255 255 255 255 255 255 255 255 255 255 255 255 255 255 255 255 255 255 255 255 255 255 255 255 255 255 255 255 255 255 255 255 255 255 255 255 255 255 255 255 255 255 255 255 255 255 255 255 255 255 255 255 255 255 255 255 255 255 255 255 255 255 255 255 255 255 255 255 255 255 255 255 255 255 255 255 255 255 255 255 255 255 255 255 255 255 255 255 255 255 255 255 255 255 255 255 255 255 255 255 255 255 255 255 255 255 255 255 255 255 255 255 255 255 255 255 255 255 255 255 255 255 237 237 237 216 216 216 144 144 144 61 61 61 27 27 27 6 6 6 1 1 1 0 0 0 0 0 0 0 0 0 0 0 0 0 0 0 0 0 0 0 0 0 0 0 0 0 0 0 0 0 0 0 0 0 0 0 0 0 0 0 0 0 0 0 0 0 0 0 0 0 0 0 0 0 0 0 0 0 0 0 0 0 0 0 0 0 0 0 0 0 0 0 0 0 0 0 0 0 0 0 0 0 3 3 3 7 7 7 29 29 29 60 60 60 108 108 108 164 164 164 191 191 191 204 204 204 205 205 205 199 199 199 194 194 194 188 188 188 182 182 182 177 177 177 172 172 172 168 168 168 164 164 164 160 160 160 155 155 155 150 150 150 144 144 144 138 138 138 130 130 130 121 121 121 126 119 102 139 121 76 162 133 54 194 151 34 215 171 43 228 190 75 235 201 92 237 206 98 237 203 81 234 196 46 232 192 22 231 191 8 231 191 1 232 193 0 233 195 0 234 197 0 234 199 0 234 200 0 235 201 0 235 203 1 236 204 1 235 205 0 235 206 0 235 207 0 235 208 0 236 208 1 237 211 14 238 217 41 240 223 74 243 230 115 246 235 142 247 237 154 248 238 163 248 239 170 248 240 176 248 240 181 248 239 182 246 237 177 242 228 150 234 211 97 220 194 65 200 175 60 183 165 79 173 165 130 172 171 166 185 185 182 196 196 196 205 205 205 212 212 212 216 216 216 220 220 220 222 222 222 223 223 223 225 225 225 226 226 226 227 227 227 229 229 229 231 231 231 232 232 232 234 234 234 236 236 236 238 238 238 237 237 237 231 231 231 208 208 208 150 150 150 97 97 97 53 53 53 19 19 19 8 8 8 0 0 0 0 0 0 0 0 0 0 0 0 0 0 0 0 0 0 0 0 0 0 0 0 0 0 0 0 0 0 0 0 0 0 0 0 0 0 0 0 0 0 0 0 0 0 0 0 0 0 0 0 0 0 0 0 0 0 0 0 0 0 0 0 0 0 0 0 0 0 0 0 0 0 0 0 0 0 2 2 2 14 14 14 26 26 26 42 42 42 69 69 69 137 137 137 198 198 198 229 229 229 254 254 254 255 255 255 255 255 255 255 255 255 255 255 255 255 255 255 255 255 255 255 255 255 255 255 255 255 255 255 255 255 255 255 255 255 255 255 255 255 255 255 255 255 255 255 255 255 255 255 255 255 255 255 255 255 255 255 255 255 255 255 255 255 255 255 255 255 255 255 255 255 255 255 255 255 255 255 255 255 255 255 255 255 255 255 255 255 255 255 255 255 255 255 255 255 255 255 255 255 255 255 255 255 255 255 255 255 255 255 255 255 255 255 255 255 255 255 255 255 255 255 255 255 255 255 255 255 255 255 255 255 255 255 255 255 255 255 255 255 255 
255 255 255 255 255 255 255 255 255 255 255 255 255 255 255 255 255 255 255 255 255 255 255 255 255 255 255 255 255 255 255 255 255 255 255 255 255 255 255 255 255 255 255 255 255 255 255 255 255 255 255 255 255 255 255 255 255 255 255 255 255 255 255 255 255 255 255 255 255 255 255 255 255 255 255 255 255 255 255 255 255 255 255 255 255 255 255 255 255 255 255 255 255 255 255 255 255 255 255 255 255 255 255 255 255 255 255 255 255 255 255 255 255 255 255 255 255 255 255 255 254 254 254 255 255 255 255 255 255 255 255 255 255 255 255 255 255 255 254 254 254 215 215 215 167 167 167 102 102 102 33 33 33 12 12 12 2 2 2 0 0 0 0 0 0 0 0 0 0 0 0 0 0 0 0 0 0 0 0 0 0 0 0 0 0 0 0 0 0 0 0 0 0 0 0 0 0 0 0 0 0 0 0 0 0 0 0 0 0 0 0 0 0 0 0 0 0 0 0 0 0 0 0 0 0 0 0 0 0 0 0 0 0 0 0 0 0 0 0 0 0 0 0 7 7 7 18 18 18 67 67 67 133 133 133 175 175 175 204 204 204 215 215 215 215 215 215 212 212 212 207 207 207 202 202 202 196 196 196 191 191 191 187 187 187 182 182 182 178 178 178 174 174 174 170 170 170 166 166 166 161 161 161 155 155 155 149 149 149 141 141 142 133 133 133 127 125 120 122 117 103 138 121 77 167 134 46 193 152 37 217 174 44 231 191 66 236 204 99 238 208 100 236 203 78 234 198 51 231 192 19 231 190 3 231 192 1 232 194 0 233 196 1 234 198 1 234 199 0 234 200 0 235 202 1 235 203 1 235 204 0 235 205 0 235 206 0 235 207 0 236 208 0 236 209 5 236 212 14 238 217 40 241 224 85 243 230 119 245 234 141 246 236 155 247 237 162 247 237 168 247 238 173 245 235 166 242 228 144 235 216 109 223 196 58 205 178 45 179 162 84 166 158 120 172 169 153 181 181 179 194 194 194 205 205 206 214 214 214 220 220 220 224 224 224 227 227 227 228 228 228 230 230 230 230 230 230 231 231 231 233 233 233 234 234 234 235 235 235 237 237 237 239 239 239 241 241 241 242 242 242 242 242 242 241 241 241 233 233 233 213 213 213 176 176 176 107 107 107 50 50 50 20 20 20 0 0 0 0 0 0 0 0 0 0 0 0 0 0 0 0 0 0 0 0 0 0 0 0 0 0 0 0 0 0 0 0 0 0 0 0 0 0 0 0 0 0 0 0 0 0 0 0 0 0 0 0 0 0 0 0 0 0 0 0 0 0 0 0 0 0 0 0 0 0 0 0 0 0 0 0 0 0 1 1 1 6 6 6 16 16 16 42 42 42 69 69 69 99 99 99 136 136 136 200 200 200 254 254 254 254 254 254 255 255 255 255 255 255 254 254 254 254 254 254 254 254 254 255 255 255 255 255 255 255 255 255 255 255 255 255 255 255 255 255 255 255 255 255 255 255 255 255 255 255 255 255 255 255 255 255 255 255 255 255 255 255 255 255 255 255 255 255 255 255 255 255 255 255 255 255 255 255 255 255 255 255 255 255 255 255 255 255 255 255 255 255 255 255 255 255 255 255 255 255 255 255 255 255 255 255 255 255 255 255 255 255 255 255 255 255 255 255 255 255 255 255 255 255 255 255 255 255 255 255 255 255 255 255 255 255 255 255 255 255 255 255 255 
255 255 255 255 255 255 255 255 255 255 255 255 255 255 255 255 255 255 255 255 255 255 255 255 255 255 255 255 255 255 255 255 255 255 255 255 255 255 255 255 255 255 255 255 255 255 255 255 255 255 255 255 255 255 255 255 255 255 255 255 255 255 255 255 255 255 255 255 255 255 255 255 255 255 255 255 255 255 255 255 255 255 255 255 255 255 255 255 255 255 255 255 255 255 255 255 255 255 255 255 255 255 255 255 255 255 255 255 255 255 255 255 255 255 255 255 255 255 255 255 254 254 254 254 254 254 255 255 255 255 255 255 255 255 255 248 248 248 239 239 239 182 182 182 115 115 115 67 67 67 23 23 23 9 9 9 2 2 2 0 0 0 0 0 0 0 0 0 0 0 0 0 0 0 0 0 0 0 0 0 0 0 0 0 0 0 0 0 0 0 0 0 0 0 0 0 0 0 0 0 0 0 0 0 0 0 0 0 0 0 0 0 0 0 0 0 0 0 0 0 0 0 0 0 0 0 0 0 0 0 0 0 0 0 0 0 0 2 2 2 5 5 5 30 30 30 65 65 65 120 120 120 184 184 184 213 213 213 225 225 225 226 226 226 223 223 223 218 218 218 214 214 214 209 209 209 204 204 204 200 200 200 196 196 196 191 191 191 187 187 187 184 184 184 180 180 180 176 176 176 172 172 172 167 167 167 161 161 161 154 154 154 146 146 146 136 135 136 124 123 123 129 121 99 145 125 69 169 138 48 199 157 35 219 176 48 230 194 80 236 204 94 237 206 94 236 203 76 233 196 42 231 192 19 231 192 7 231 193 1 233 195 1 233 196 1 233 198 0 233 199 0 234 201 1 235 202 1 235 203 0 235 204 0 235 205 0 235 206 0 236 207 0 235 208 1 235 208 2 236 212 20 238 217 55 241 223 90 244 229 123 245 233 145 246 234 153 245 234 157 244 232 156 241 227 140 236 215 104 224 200 74 206 180 51 187 165 59 168 158 110 164 161 148 178 177 172 191 191 191 204 204 204 215 215 215 222 222 222 227 227 227 231 231 231 233 233 233 234 234 234 235 235 235 236 236 236 236 236 236 238 238 238 239 239 239 240 240 240 241 241 241 242 242 242 243 243 243 244 244 244 245 245 245 246 246 246 245 245 245 241 241 241 219 219 219 161 161 161 106 106 106 56 56 56 18 18 18 7 7 7 0 0 0 0 0 0 0 0 0 0 0 0 0 0 0 0 0 0 0 0 0 0 0 0 0 0 0 0 0 0 0 0 0 0 0 0 0 0 0 0 0 0 0 0 0 0 0 0 0 0 0 0 0 0 0 0 0 0 0 0 0 0 0 0 0 0 0 0 0 0 0 0 0 0 0 2 2 2 10 10 10 39 39 39 66 66 66 76 76 76 98 98 98 166 166 166 225 225 225 241 241 241 255 255 255 254 254 254 254 254 254 254 254 254 254 254 254 255 255 255 255 255 255 255 255 255 255 255 255 255 255 255 255 255 255 255 255 255 255 255 255 255 255 255 255 255 255 255 255 255 255 255 255 255 255 255 255 255 255 255 255 255 255 255 255 255 255 255 255 255 255 255 255 255 255 255 255 255 255 255 255 255 255 255 255 255 255 255 255 255 255 255 255 255 255 255 255 255 255 255 255 255 255 255 255 255 255 255 255 255 255 255 255 255 255 255 255 255 255 255 255 255 255 255 255 255 255 255 255 255 255 255 255 255 255 255 255 
255 255 255 255 255 255 255 255 255 255 255 255 255 255 255 255 255 255 255 255 255 255 255 255 255 255 255 255 255 255 255 255 255 255 255 255 255 255 255 255 255 255 255 255 255 255 255 255 255 255 255 255 255 255 255 255 255 255 255 255 255 255 255 255 255 255 255 255 255 255 255 255 255 255 255 255 255 255 255 255 255 255 255 255 255 255 255 255 255 255 255 255 255 255 255 255 255 255 255 255 255 255 255 255 255 255 255 255 255 255 255 255 255 255 255 255 255 255 255 255 254 254 254 254 254 254 255 255 255 255 255 255 254 254 254 236 236 236 214 214 214 142 142 142 60 60 60 36 36 36 27 27 27 15 15 15 3 3 3 0 0 0 0 0 0 0 0 0 0 0 0 0 0 0 0 0 0 0 0 0 0 0 0 0 0 0 0 0 0 0 0 0 0 0 0 0 0 0 0 0 0 0 0 0 0 0 0 0 0 0 0 0 0 0 0 0 0 0 0 0 0 0 0 0 0 0 0 0 0 0 0 0 0 0 0 0 0 6 6 6 15 15 15 66 66 66 138 138 138 184 184 184 218 218 218 231 231 231 232 232 232 231 231 231 228 228 228 224 224 224 220 220 220 216 216 216 212 212 212 208 208 208 204 204 204 200 200 200 197 197 197 194 194 194 191 191 191 187 187 187 184 184 184 179 179 179 174 174 174 168 168 168 159 159 160 150 149 150 139 138 138 132 129 121 128 121 100 144 126 73 176 140 42 201 158 35 221 178 49 233 194 71 237 205 99 238 208 98 236 203 73 234 198 46 231 193 17 231 191 3 231 192 2 232 194 1 233 197 0 233 199 0 234 200 0 234 201 0 235 202 0 235 203 0 235 204 0 235 205 0 235 206 0 235 207 0 234 207 1 235 208 9 236 210 25 238 215 56 242 224 104 244 229 134 245 231 144 244 229 144 242 225 133 237 215 106 228 199 59 211 182 43 183 163 66 167 155 97 166 161 136 173 172 168 189 188 187 203 203 203 214 214 215 224 224 224 230 230 230 234 234 234 237 237 237 239 239 239 239 239 239 239 239 239 240 240 240 241 241 241 242 242 242 243 243 243 243 243 243 244 244 244 245 245 245 245 245 245 246 246 246 247 247 247 247 247 247 247 247 247 246 246 246 238 238 238 216 216 216 179 179 179 107 107 107 49 49 49 20 20 20 0 0 0 0 0 0 0 0 0 0 0 0 0 0 0 0 0 0 0 0 0 0 0 0 0 0 0 0 0 0 0 0 0 0 0 0 0 0 0 0 0 0 0 0 0 0 0 0 0 0 0 0 0 0 0 0 0 0 0 0 0 0 0 0 0 0 0 0 0 0 0 0 0 0 0 1 1 1 7 7 7 35 35 35 59 59 59 64 64 64 78 78 78 128 128 128 177 177 177 219 219 219 254 254 254 254 254 254 254 254 254 254 254 254 254 254 254 255 255 255 255 255 255 255 255 255 255 255 255 255 255 255 255 255 255 255 255 255 255 255 255 255 255 255 255 255 255 255 255 255 255 255 255 255 255 255 255 255 255 255 255 255 255 255 255 255 255 255 255 255 255 255 255 255 255 255 255 255 255 255 255 255 255 255 255 255 255 255 255 255 255 255 255 255 255 255 255 255 255 255 255 255 255 255 255 255 255 255 255 255 255 255 255 255 255 255 255 255 255 255 255 255 255 255 255 255 255 255 255 255 255 255 255 255 255 255 255 
255 255 255 255 255 255 255 255 255 255 255 255 255 255 255 255 255 255 255 255 255 255 255 255 255 255 255 255 255 255 255 255 255 255 255 255 255 255 255 255 255 255 255 255 255 255 255 255 255 255 255 255 255 255 255 255 255 255 255 255 255 255 255 255 255 255 255 255 255 255 255 255 255 255 255 255 255 255 255 255 255 255 255 255 255 255 255 255 255 255 255 255 255 255 255 255 255 255 255 255 255 255 255 255 255 255 255 255 255 255 255 255 255 255 255 255 255 255 255 255 254 254 254 254 254 254 255 255 255 251 251 251 246 246 246 207 207 207 160 160 160 104 104 104 47 47 47 31 31 31 25 25 25 14 14 14 2 2 2 0 0 0 0 0 0 0 0 0 0 0 0 0 0 0 0 0 0 0 0 0 0 0 0 0 0 0 0 0 0 0 0 0 0 0 0 0 0 0 0 0 0 0 0 0 0 0 0 0 0 0 0 0 0 0 0 0 0 0 0 0 0 0 0 0 0 0 0 0 0 0 0 1 1 1 3 3 3 26 26 26 59 59 59 117 117 117 188 188 188 221 221 221 236 236 236 239 239 239 237 237 237 234 234 234 232 232 232 229 229 229 226 226 226 222 222 222 219 219 219 215 215 215 212 212 212 209 209 209 206 206 206 203 203 203 200 200 200 197 197 197 194 194 194 190 190 190 186 186 186 180 180 181 173 173 174 164 163 164 153 153 153 141 141 139 129 128 124 134 125 98 154 129 64 178 142 46 204 161 38 222 179 52 232 196 83 236 205 95 237 206 91 236 203 72 233 197 39 232 193 18 231 192 7 231 193 1 232 195 0 233 197 0 233 199 0 234 200 0 234 201 0 234 202 0 234 203 0 235 204 0 235 204 0 235 205 0 234 205 0 234 205 3 234 205 9 236 209 34 239 218 81 241 223 113 243 225 128 241 223 124 237 214 99 227 200 73 209 179 44 188 162 45 162 148 84 152 147 120 163 161 151 176 176 176 193 193 193 207 207 207 216 216 216 225 225 225 231 231 231 236 236 236 240 240 240 242 242 242 242 242 242 243 243 243 244 244 244 245 245 245 245 245 245 245 245 245 246 246 246 246 246 246 246 246 246 246 246 246 247 247 247 247 247 247 248 248 248 248 248 248 248 248 248 246 246 246 242 242 242 219 219 219 160 160 160 103 103 103 52 52 52 14 14 14 6 6 6 0 0 0 0 0 0 0 0 0 0 0 0 0 0 0 0 0 0 0 0 0 0 0 0 0 0 0 0 0 0 0 0 0 0 0 0 0 0 0 0 0 0 0 0 0 0 0 0 0 0 0 0 0 0 0 0 0 0 0 0 0 0 0 0 0 0 0 0 0 0 0 0 4 4 4 25 25 25 46 46 46 65 65 65 84 84 84 102 102 102 128 128 128 186 186 186 236 236 236 246 246 246 254 254 254 254 254 254 254 254 254 255 255 255 255 255 255 255 255 255 255 255 255 255 255 255 255 255 255 255 255 255 255 255 255 255 255 255 255 255 255 255 255 255 255 255 255 255 255 255 255 255 255 255 255 255 255 255 255 255 255 255 255 255 255 255 255 255 255 255 255 255 255 255 255 255 255 255 255 255 255 255 255 255 255 255 255 255 255 255 255 255 255 255 255 255 255 255 255 255 255 255 255 255 255 255 255 255 255 255 255 255 255 255 255 255 255 255 255 255 255 255 255 255 255 255 255 255 255 255 255 
255 255 255 255 255 255 255 255 255 255 255 255 255 255 255 255 255 255 255 255 255 255 255 255 255 255 255 255 255 255 255 255 255 255 255 255 255 255 255 255 255 255 255 255 255 255 255 255 255 255 255 255 255 255 255 255 255 255 255 255 255 255 255 255 255 255 255 255 255 255 255 255 255 255 255 255 255 255 255 255 255 255 255 255 255 255 255 255 255 255 255 255 255 255 255 255 255 255 255 255 255 255 255 255 255 255 255 255 255 255 255 255 255 255 255 255 255 255 255 255 255 255 255 255 255 255 254 254 254 245 245 245 233 233 233 165 165 165 86 86 86 68 68 68 63 63 63 44 44 44 20 20 20 9 9 9 2 2 2 0 0 0 0 0 0 0 0 0 0 0 0 0 0 0 0 0 0 0 0 0 0 0 0 0 0 0 0 0 0 0 0 0 0 0 0 0 0 0 0 0 0 0 0 0 0 0 0 0 0 0 0 0 0 0 0 0 0 0 0 0 0 0 0 0 0 0 0 0 0 0 0 4 4 4 9 9 9 58 58 58 128 128 128 179 179 179 221 221 221 238 238 238 242 242 242 242 242 242 239 239 239 237 237 237 235 235 235 233 233 233 230 230 230 227 227 227 224 224 224 222 222 222 219 219 219 216 216 216 214 214 214 211 211 211 208 208 208 206 206 206 204 204 204 201 201 201 197 197 197 193 192 193 187 186 187 178 178 178 168 168 168 156 156 156 143 143 142 136 132 123 134 124 99 150 129 72 182 144 42 206 162 37 223 181 53 233 196 74 237 206 99 238 208 96 236 203 71 234 198 44 231 193 16 231 191 2 231 193 1 232 195 0 233 197 0 233 198 0 233 200 0 233 201 0 233 202 0 234 203 0 235 203 1 235 203 1 233 203 0 232 203 1 232 202 3 233 204 21 236 210 57 238 215 86 240 219 106 237 214 99 231 201 58 214 182 40 182 157 50 157 140 70 142 135 104 141 140 132 159 159 156 176 176 176 193 193 192 205 205 205 212 213 212 220 220 220 228 229 228 236 236 236 240 240 240 244 244 244 244 244 244 245 245 245 246 246 246 247 247 247 247 247 247 247 247 247 247 247 247 247 247 247 247 247 247 247 247 247 247 247 247 248 248 248 248 248 248 248 248 248 248 248 248 248 248 248 246 246 246 237 237 237 213 213 213 173 173 173 98 98 98 39 39 39 16 16 16 0 0 0 0 0 0 0 0 0 0 0 0 0 0 0 0 0 0 0 0 0 0 0 0 0 0 0 0 0 0 0 0 0 0 0 0 0 0 0 0 0 0 0 0 0 0 0 0 0 0 0 0 0 0 0 0 0 0 0 0 0 0 0 0 0 0 0 0 0 0 0 0 2 2 2 12 12 12 29 29 29 76 76 76 109 109 109 85 85 85 77 77 77 144 144 144 204 204 204 231 231 231 254 254 254 254 254 254 255 255 255 255 255 255 255 255 255 255 255 255 255 255 255 255 255 255 255 255 255 255 255 255 255 255 255 255 255 255 255 255 255 255 255 255 255 255 255 255 255 255 255 255 255 255 255 255 255 255 255 255 255 255 255 255 255 255 255 255 255 255 255 255 255 255 255 255 255 255 255 255 255 255 255 255 255 255 255 255 255 255 255 255 255 255 255 255 255 255 255 255 255 255 255 255 255 255 255 255 255 255 255 255 255 255 255 255 255 255 255 255 255 255 255 255 255 255 255 255 255 255 255 
255 255 255 255 255 255 255 255 255 255 255 255 255 255 255 255 255 255 255 255 255 255 255 255 255 255 255 255 255 255 255 255 255 255 255 255 255 255 255 255 255 255 255 255 255 255 255 255 255 255 255 255 255 255 255 255 255 255 255 255 255 255 255 255 255 255 255 255 255 255 255 255 255 255 255 255 255 255 255 255 255 255 255 255 255 255 255 255 255 255 255 255 255 255 255 255 255 255 255 255 255 255 255 255 255 255 255 255 255 255 255 255 255 255 255 255 255 255 255 255 255 255 255 253 253 253 251 251 251 220 220 220 185 185 185 125 125 125 59 59 59 60 60 60 76 76 76 51 51 51 16 16 16 5 5 5 1 1 1 0 0 0 0 0 0 0 0 0 0 0 0 0 0 0 0 0 0 0 0 0 0 0 0 0 0 0 0 0 0 0 0 0 0 0 0 0 0 0 0 0 0 0 0 0 0 0 0 0 0 0 0 0 0 0 0 0 0 0 0 0 0 0 0 0 0 0 0 0 1 1 1 19 19 19 44 44 44 104 104 104 178 178 178 217 217 217 238 238 238 245 245 245 244 244 244 243 243 243 241 241 241 240 240 240 238 238 238 236 236 236 234 234 234 231 231 231 229 229 229 227 227 227 225 225 225 222 222 222 220 220 220 218 218 218 216 216 216 214 214 214 212 212 212 210 210 210 207 207 207 203 203 203 198 197 198 191 190 191 182 182 182 170 171 171 157 158 158 145 144 142 132 129 125 139 127 98 159 133 63 182 147 45 208 165 40 224 182 55 232 198 86 237 205 96 238 206 90 236 203 70 233 197 38 231 193 17 231 192 6 231 193 1 232 195 0 233 197 0 233 198 0 233 199 0 233 200 0 234 201 0 235 201 1 234 201 1 233 201 0 231 200 0 231 199 0 231 200 12 233 203 36 234 206 58 235 208 75 228 200 69 211 178 34 183 153 25 142 124 49 117 108 72 111 108 95 115 116 116 131 131 132 146 146 146 159 159 158 168 168 167 172 173 172 178 179 178 185 186 185 192 192 192 197 197 197 201 201 201 204 204 204 208 208 208 214 214 214 218 218 218 220 220 220 223 223 223 229 229 229 235 235 235 241 241 241 246 246 246 247 247 247 248 248 248 248 248 248 248 248 248 248 248 248 248 248 248 248 248 248 246 246 246 239 239 239 214 214 214 148 148 148 88 88 88 41 41 41 7 7 7 3 3 3 0 0 0 0 0 0 0 0 0 0 0 0 0 0 0 0 0 0 0 0 0 0 0 0 0 0 0 0 0 0 0 0 0 0 0 0 0 0 0 0 0 0 0 0 0 0 0 0 0 0 0 0 0 0 0 0 0 0 0 0 0 0 0 0 0 0 1 1 1 4 4 4 17 17 17 69 69 69 108 108 108 88 88 88 79 79 79 114 114 114 152 152 152 200 200 200 242 242 242 249 249 249 255 255 255 255 255 255 255 255 255 255 255 255 255 255 255 255 255 255 255 255 255 255 255 255 255 255 255 255 255 255 255 255 255 255 255 255 255 255 255 255 255 255 255 255 255 255 255 255 255 255 255 255 255 255 255 255 255 255 255 255 255 255 255 255 255 255 255 255 255 255 255 255 255 255 255 255 255 255 255 255 255 255 255 255 255 255 255 255 255 255 255 255 255 255 255 255 255 255 255 255 255 255 255 255 255 255 255 255 255 255 255 255 255 255 255 255 255 255 255 255 255 255 255 
255 255 255 255 255 255 255 255 255 255 255 255 255 255 255 255 255 255 255 255 255 255 255 255 255 255 255 255 255 255 255 255 255 255 255 255 255 255 255 255 255 255 255 255 255 255 255 255 255 255 255 255 255 255 255 255 255 255 255 255 255 255 255 255 255 255 255 255 255 255 255 255 255 255 255 255 255 255 255 255 255 255 255 255 255 255 255 255 255 255 255 255 255 255 255 255 255 255 255 255 255 255 255 255 255 255 255 255 255 255 255 255 255 255 255 255 255 255 255 255 255 255 255 250 250 250 245 245 245 183 183 183 110 110 110 84 84 84 69 69 69 75 75 75 85 85 85 53 53 53 12 12 12 2 2 2 0 0 0 0 0 0 0 0 0 0 0 0 0 0 0 0 0 0 0 0 0 0 0 0 0 0 0 0 0 0 0 0 0 0 0 0 0 0 0 0 0 0 0 0 0 0 0 0 0 0 0 0 0 0 0 0 0 0 0 0 0 0 0 0 0 0 0 0 0 1 1 1 3 3 3 44 44 44 102 102 102 159 159 159 215 215 215 237 237 237 244 244 244 245 245 245 245 245 245 244 244 244 243 243 243 242 242 242 240 240 240 239 239 239 236 236 236 235 235 235 233 233 233 231 231 231 229 229 229 228 228 228 226 226 226 224 224 224 223 223 223 221 221 221 220 220 220 218 218 218 215 215 215 212 212 212 209 208 207 203 202 202 195 195 195 185 185 185 173 173 173 159 159 159 145 144 143 138 134 123 137 127 98 154 133 70 187 148 40 210 165 37 225 183 57 234 197 77 238 207 99 238 209 95 235 203 67 233 197 41 232 192 15 231 191 2 231 193 1 232 195 0 233 196 0 233 197 0 233 198 1 233 199 1 233 199 0 233 199 0 232 198 0 231 197 0 230 195 0 230 195 6 230 196 19 230 196 29 230 195 37 214 180 36 179 148 24 139 116 24 94 83 41 69 66 55 72 71 67 77 77 77 86 86 86 93 93 93 100 100 99 104 104 104 106 107 107 109 110 109 112 113 113 116 116 116 120 120 120 125 125 125 133 133 133 142 142 142 155 155 155 166 166 166 172 172 172 181 181 181 197 197 197 213 213 213 231 231 231 244 244 244 246 246 246 248 248 248 247 247 247 247 247 247 247 247 247 247 247 247 247 247 247 247 247 247 245 245 245 233 233 233 202 202 202 155 155 155 76 76 76 18 18 18 7 7 7 0 0 0 0 0 0 0 0 0 0 0 0 0 0 0 0 0 0 0 0 0 0 0 0 0 0 0 0 0 0 0 0 0 0 0 0 0 0 0 0 0 0 0 0 0 0 0 0 0 0 0 0 0 0 0 0 0 0 0 0 0 0 0 0 0 0 0 0 0 1 1 1 10 10 10 51 51 51 87 87 87 108 108 108 120 120 120 93 93 93 83 83 83 156 156 156 220 220 220 239 239 239 254 254 254 255 255 255 255 255 255 255 255 255 255 255 255 255 255 255 255 255 255 255 255 255 255 255 255 255 255 255 255 255 255 255 255 255 255 255 255 255 255 255 255 255 255 255 255 255 255 255 255 255 255 255 255 255 255 255 255 255 255 255 255 255 255 255 255 255 255 255 255 255 255 255 255 255 255 255 255 255 255 255 255 255 255 255 255 255 255 255 255 255 255 255 255 255 255 255 255 255 255 255 255 255 255 255 255 255 255 255 255 255 255 255 255 255 255 255 255 255 255 255 255 
255 255 255 255 255 255 255 255 255 255 255 255 255 255 255 255 255 255 255 255 255 255 255 255 255 255 255 255 255 255 255 255 255 255 255 255 255 255 255 255 255 255 255 255 255 255 255 255 255 255 255 255 255 255 255 255 255 255 255 255 255 255 255 255 255 255 255 255 255 255 255 255 255 255 255 255 255 255 255 255 255 255 255 255 255 255 255 255 255 255 255 255 255 255 255 255 255 255 255 255 255 255 255 255 255 255 255 255 255 255 255 255 255 255 255 255 255 254 254 254 252 252 252 229 229 229 201 201 201 140 140 140 72 72 72 76 76 76 96 96 96 90 90 90 78 78 78 45 45 45 8 8 8 0 0 0 0 0 0 0 0 0 0 0 0 0 0 0 0 0 0 0 0 0 0 0 0 0 0 0 0 0 0 0 0 0 0 0 0 0 0 0 0 0 0 0 0 0 0 0 0 0 0 0 0 0 0 0 0 0 0 0 0 0 0 0 0 0 0 0 0 0 0 0 0 12 12 12 29 29 29 83 83 83 154 154 154 200 200 200 235 235 235 246 246 246 246 246 246 246 246 246 245 245 245 245 245 245 244 244 244 243 243 243 242 242 242 240 240 240 239 239 239 237 237 237 236 236 236 235 235 235 233 233 233 232 232 232 231 231 231 229 229 229 228 228 228 227 227 227 226 226 226 225 225 225 223 223 223 220 220 220 218 217 216 213 212 212 206 206 206 197 197 197 186 186 186 173 173 173 159 159 159 146 145 142 133 132 123 141 129 96 164 136 61 187 149 44 210 167 43 225 184 58 233 199 87 237 206 95 237 206 87 235 203 66 233 196 35 232 193 15 231 192 5 231 193 0 232 194 0 232 195 0 232 196 1 232 197 1 232 197 0 232 197 0 231 196 0 230 194 0 230 192 0 229 191 3 228 189 8 223 185 12 213 175 16 185 151 17 134 111 17 91 77 21 57 52 31 40 40 39 45 44 44 49 49 49 53 53 53 57 57 57 59 59 59 61 62 62 62 63 63 64 64 64 66 66 66 69 69 69 73 73 73 78 78 78 86 86 86 95 95 95 108 108 108 118 118 118 124 124 124 134 134 134 149 149 149 166 166 166 184 184 184 205 205 205 231 231 231 248 248 248 247 247 247 247 247 247 247 247 247 247 247 247 247 247 247 247 247 247 247 247 247 243 243 243 231 231 231 199 199 199 123 123 123 60 60 60 27 27 27 2 2 2 1 1 1 0 0 0 0 0 0 0 0 0 0 0 0 0 0 0 0 0 0 0 0 0 0 0 0 0 0 0 0 0 0 0 0 0 0 0 0 0 0 0 0 0 0 0 0 0 0 0 0 0 0 0 0 0 0 0 0 0 0 0 0 0 0 0 0 0 0 5 5 5 33 33 33 64 64 64 111 111 111 142 142 142 100 100 100 73 73 73 120 120 120 166 166 166 208 208 208 244 244 244 250 250 250 255 255 255 255 255 255 255 255 255 255 255 255 255 255 255 255 255 255 255 255 255 255 255 255 255 255 255 255 255 255 255 255 255 255 255 255 255 255 255 255 255 255 255 255 255 255 255 255 255 255 255 255 255 255 255 255 255 255 255 255 255 255 255 255 255 255 255 255 255 255 255 255 255 255 255 255 255 255 255 255 255 255 255 255 255 255 255 255 255 255 255 255 255 255 255 255 255 255 255 255 255 255 255 255 255 255 255 255 255 255 255 255 255 255 255 255 255 
255 255 255 255 255 255 255 255 255 255 255 255 255 255 255 255 255 255 255 255 255 255 255 255 255 255 255 255 255 255 255 255 255 255 255 255 255 255 255 255 255 255 255 255 255 255 255 255 255 255 255 255 255 255 255 255 255 255 255 255 255 255 255 255 255 255 255 255 255 255 255 255 255 255 255 255 255 255 255 255 255 255 255 255 255 255 255 255 255 255 255 255 255 255 255 255 254 254 254 254 254 254 254 254 254 255 255 255 255 255 255 255 255 255 254 254 254 251 251 251 247 247 247 192 192 192 128 128 128 92 92 92 61 61 61 93 93 93 137 137 137 106 106 106 58 58 58 29 29 29 5 5 5 0 0 0 0 0 0 0 0 0 0 0 0 0 0 0 0 0 0 0 0 0 0 0 0 0 0 0 0 0 0 0 0 0 0 0 0 0 0 0 0 0 0 0 0 0 0 0 0 0 0 0 0 0 0 0 0 0 0 0 0 0 0 0 0 0 0 0 0 0 0 0 0 30 30 30 73 73 73 134 134 134 201 201 201 231 231 231 242 242 242 246 246 246 246 246 246 246 246 246 245 245 245 245 245 245 245 245 245 244 244 244 243 243 243 242 242 242 241 241 241 240 240 240 239 239 239 238 238 238 237 237 237 236 236 236 234 234 234 233 233 233 232 232 232 232 232 232 231 231 231 230 230 230 229 229 229 227 227 227 225 225 225 221 221 221 216 216 216 208 208 208 198 198 198 187 187 187 173 173 173 159 159 158 145 144 142 139 134 121 140 127 98 158 134 71 190 150 41 212 167 38 226 185 58 234 198 78 237 207 98 238 208 93 236 202 64 234 197 38 231 192 13 231 190 1 231 191 0 231 193 0 231 194 0 231 194 0 231 194 0 231 194 0 231 193 0 230 191 0 228 189 0 227 187 1 226 185 2 213 173 4 186 150 6 143 116 9 80 67 12 41 36 15 29 27 19 24 24 23 26 26 26 29 29 29 31 31 31 33 33 33 34 34 34 35 35 35 36 36 36 37 37 37 39 39 39 43 43 43 47 47 47 52 52 52 58 58 58 63 63 63 69 69 69 74 74 74 78 78 78 83 83 83 90 90 90 99 99 99 108 108 108 138 138 138 204 204 204 247 247 247 247 247 247 247 247 247 246 246 246 246 246 246 246 246 246 246 246 246 246 246 246 245 245 245 241 241 241 225 225 225 179 179 179 126 126 126 57 57 57 7 7 7 3 3 3 0 0 0 0 0 0 0 0 0 0 0 0 0 0 0 0 0 0 0 0 0 0 0 0 0 0 0 0 0 0 0 0 0 0 0 0 0 0 0 0 0 0 0 0 0 0 0 0 0 0 0 0 0 0 0 0 0 0 0 0 0 0 0 0 0 0 3 3 3 17 17 17 40 40 40 102 102 102 150 150 150 128 128 128 108 108 108 90 90 90 88 88 88 161 161 161 225 225 225 241 241 241 255 255 255 255 255 255 254 254 254 254 254 254 254 254 254 254 254 254 254 254 254 255 255 255 255 255 255 255 255 255 255 255 255 255 255 255 255 255 255 255 255 255 255 255 255 255 255 255 255 255 255 255 255 255 255 255 255 255 255 255 255 255 255 255 255 255 255 255 255 255 255 255 255 255 255 255 255 255 255 255 255 255 255 255 255 255 255 255 255 255 255 255 255 255 255 255 255 255 255 255 255 255 255 255 255 255 255 255 255 255 255 255 255 255 255 255 255 
255 255 255 255 255 255 255 255 255 255 255 255 255 255 255 255 255 255 255 255 255 255 255 255 255 255 255 255 255 255 255 255 255 255 255 255 255 255 255 255 255 255 255 255 255 255 255 255 255 255 255 255 255 255 255 255 255 255 255 255 255 255 255 255 255 255 255 255 255 255 255 255 255 255 255 255 255 255 255 255 255 255 255 255 255 255 255 255 255 255 255 255 255 255 255 255 254 254 254 254 254 254 254 254 254 255 255 255 255 255 255 254 254 254 252 252 252 231 231 231 206 206 206 148 148 148 84 84 84 79 79 79 85 85 85 115 115 115 150 150 150 104 104 104 40 40 40 17 17 17 3 3 3 0 0 0 0 0 0 0 0 0 0 0 0 0 0 0 0 0 0 0 0 0 0 0 0 0 0 0 0 0 0 0 0 0 0 0 0 0 0 0 0 0 0 0 0 0 0 0 0 0 0 0 0 0 0 0 0 0 0 0 0 0 0 0 0 0 0 5 5 5 13 13 13 61 61 61 124 124 124 178 178 178 228 228 228 244 244 244 245 245 245 246 246 246 246 246 246 245 245 245 245 245 245 245 245 245 245 245 245 244 244 244 244 244 244 243 243 243 242 242 242 242 242 242 241 241 241 240 240 240 239 239 239 238 238 238 237 237 237 236 236 236 236 236 236 236 236 236 235 235 235 234 234 234 234 234 234 232 232 232 231 231 231 228 228 228 224 224 224 217 217 217 209 209 209 199 199 199 186 186 186 172 172 172 157 157 157 145 143 141 134 130 124 141 128 95 162 134 57 185 147 40 208 166 40 224 183 56 233 199 87 237 206 96 237 205 85 235 201 63 233 194 32 231 191 13 230 190 5 230 190 0 230 191 0 230 191 0 230 191 0 230 190 0 229 189 0 228 188 0 227 185 0 223 181 0 217 174 0 192 153 2 145 116 4 97 78 7 46 39 11 17 17 14 17 17 15 17 17 17 19 19 19 20 20 20 21 21 21 22 22 22 23 23 23 23 23 23 24 24 24 25 25 25 27 27 27 29 29 29 33 33 33 36 36 36 39 39 39 42 42 42 44 44 44 46 46 46 48 48 48 50 50 50 53 53 53 58 58 58 66 66 66 103 103 103 190 190 190 247 247 247 247 247 247 247 247 247 246 246 246 246 246 246 246 246 246 246 246 246 246 246 246 246 246 246 246 246 246 239 239 239 215 215 215 175 175 175 97 97 97 36 36 36 15 15 15 0 0 0 0 0 0 0 0 0 0 0 0 0 0 0 0 0 0 0 0 0 0 0 0 0 0 0 0 0 0 0 0 0 0 0 0 0 0 0 0 0 0 0 0 0 0 0 0 0 0 0 0 0 0 0 0 0 0 0 0 0 0 0 0 0 0 1 1 1 7 7 7 23 23 23 86 86 86 138 138 138 141 141 141 136 136 136 96 96 96 70 70 70 122 122 122 172 172 172 211 211 211 246 246 246 250 250 250 254 254 254 254 254 254 254 254 254 254 254 254 254 254 254 255 255 255 255 255 255 255 255 255 255 255 255 255 255 255 255 255 255 255 255 255 255 255 255 255 255 255 255 255 255 255 255 255 255 255 255 255 255 255 255 255 255 255 255 255 255 255 255 255 255 255 255 255 255 255 255 255 255 255 255 255 255 255 255 255 255 255 255 255 255 255 255 255 255 255 255 255 255 255 255 255 255 255 255 255 255 255 255 255 255 255 255 255 255 255 255 
255 255 255 255 255 255 255 255 255 255 255 255 255 255 255 255 255 255 255 255 255 255 255 255 255 255 255 255 255 255 255 255 255 255 255 255 255 255 255 255 255 255 255 255 255 255 255 255 255 255 255 255 255 255 255 255 255 255 255 255 255 255 255 255 255 255 255 255 255 255 255 255 255 255 255 255 255 255 255 255 255 255 255 255 255 255 255 255 255 255 255 255 255 255 255 255 254 254 254 254 254 254 255 255 255 255 255 255 255 255 255 252 252 252 248 248 248 196 196 196 136 136 136 97 97 97 62 62 62 92 92 92 136 136 136 142 142 142 140 140 140 88 88 88 25 25 25 8 8 8 1 1 1 0 0 0 0 0 0 0 0 0 0 0 0 0 0 0 0 0 0 0 0 0 0 0 0 0 0 0 0 0 0 0 0 0 0 0 0 0 0 0 0 0 0 0 0 0 0 0 0 0 0 0 0 0 0 0 0 0 0 0 0 0 0 0 0 0 0 15 15 15 37 37 37 100 100 100 181 181 181 219 219 219 239 239 239 245 245 245 245 245 245 245 245 245 245 245 245 245 245 245 245 245 245 245 245 245 245 245 245 245 245 245 244 244 244 244 244 244 243 243 243 243 243 243 243 243 243 242 242 242 241 241 241 241 241 241 240 240 240 240 240 240 239 239 239 239 239 239 239 239 239 238 238 238 237 237 237 237 237 237 235 235 235 233 233 233 230 230 230 225 225 225 219 219 219 210 210 210 198 198 198 185 185 185 171 171 170 157 157 155 144 142 140 135 130 117 130 119 87 147 124 58 183 143 31 208 163 32 225 184 58 234 198 80 237 206 98 237 206 91 234 200 61 232 194 35 230 189 12 229 187 1 229 188 0 229 188 0 229 187 0 229 186 0 228 185 1 227 184 1 226 182 0 218 174 0 201 159 1 161 127 4 93 75 8 47 39 11 26 24 14 16 16 16 17 17 17 19 18 19 20 20 20 21 21 21 22 22 22 22 22 22 23 23 23 23 23 23 24 24 24 24 24 24 25 25 25 26 26 26 27 27 27 28 28 28 29 29 29 30 30 30 30 30 30 31 31 31 31 31 31 32 32 32 33 33 33 38 38 38 52 52 52 94 94 94 186 186 186 247 247 247 246 246 246 246 246 246 246 246 246 245 245 245 245 245 245 245 245 245 245 245 245 245 245 245 245 245 245 243 243 243 235 235 235 210 210 210 145 145 145 84 84 84 35 35 35 0 0 0 0 0 0 0 0 0 0 0 0 0 0 0 0 0 0 0 0 0 0 0 0 0 0 0 0 0 0 0 0 0 0 0 0 0 0 0 0 0 0 0 0 0 0 0 0 0 0 0 0 0 0 0 0 0 0 0 0 0 0 0 0 0 0 0 0 0 2 2 2 13 13 13 65 65 65 112 112 112 141 141 141 160 160 160 129 129 129 101 101 101 89 89 89 91 91 91 165 165 165 229 229 229 242 242 242 254 254 254 254 254 254 254 254 254 254 254 254 254 254 254 255 255 255 255 255 255 255 255 255 255 255 255 255 255 255 255 255 255 255 255 255 255 255 255 255 255 255 255 255 255 255 255 255 255 255 255 255 255 255 255 255 255 255 255 255 255 255 255 255 255 255 255 255 255 255 255 255 255 255 255 255 255 255 255 255 255 255 255 255 255 255 255 255 255 255 255 255 255 255 255 255 255 255 255 255 255 255 255 255 255 255 255 255 255 255 255 
255 255 255 255 255 255 255 255 255 255 255 255 255 255 255 255 255 255 255 255 255 255 255 255 255 255 255 255 255 255 255 255 255 255 255 255 255 255 255 255 255 255 255 255 255 255 255 255 255 255 255 255 255 255 255 255 255 255 255 255 255 255 255 255 255 255 255 255 255 255 255 255 255 255 255 255 255 255 255 255 255 255 255 255 255 255 255 255 255 255 255 255 255 255 255 255 254 254 254 254 254 254 255 255 255 254 254 254 252 252 252 232 232 232 207 207 207 151 151 151 89 89 89 80 80 80 81 81 81 117 117 117 162 162 162 147 147 147 120 120 120 70 70 70 15 15 15 3 3 3 0 0 0 0 0 0 0 0 0 0 0 0 0 0 0 0 0 0 0 0 0 0 0 0 0 0 0 0 0 0 0 0 0 0 0 0 0 0 0 0 0 0 0 0 0 0 0 0 0 0 0 0 0 0 0 0 0 0 0 0 0 0 0 1 1 1 3 3 3 35 35 35 80 80 80 143 143 143 215 215 215 239 239 239 244 244 244 245 245 245 245 245 245 245 245 245 245 245 245 245 245 245 245 245 245 245 245 245 245 245 245 244 244 244 244 244 244 244 244 244 244 244 244 244 244 244 243 243 243 243 243 243 242 242 242 242 242 242 242 242 242 242 242 242 242 242 242 241 241 241 241 241 241 241 241 241 240 240 240 240 240 240 239 239 239 237 237 237 235 235 235 231 231 231 226 226 226 218 218 218 208 208 208 192 192 192 172 172 171 151 151 151 131 131 131 113 112 109 97 94 86 106 94 58 137 108 27 170 131 20 204 161 35 224 183 58 233 198 88 236 205 96 236 203 83 234 199 61 231 192 32 229 187 13 229 185 5 228 184 0 228 183 0 227 182 0 226 181 1 223 179 1 220 174 0 201 158 1 165 129 3 117 92 6 57 46 10 22 20 13 17 17 15 16 16 17 18 18 18 19 19 20 21 21 21 21 21 21 22 22 22 22 22 22 23 23 23 23 23 23 24 24 24 24 24 24 24 24 24 24 24 24 24 24 24 24 24 24 24 24 24 24 24 24 24 24 24 24 24 24 24 24 24 24 24 24 23 23 23 29 29 29 47 47 47 92 92 92 186 186 186 247 247 247 246 246 246 246 246 246 245 245 245 245 245 245 245 245 245 245 245 245 245 245 245 245 245 245 245 245 245 245 245 245 244 244 244 231 231 231 186 186 186 134 134 134 63 63 63 11 11 11 5 5 5 0 0 0 0 0 0 0 0 0 0 0 0 0 0 0 0 0 0 0 0 0 0 0 0 0 0 0 0 0 0 0 0 0 0 0 0 0 0 0 0 0 0 0 0 0 0 0 0 0 0 0 0 0 0 0 0 0 0 0 0 0 0 0 0 0 0 7 7 7 43 43 43 81 81 81 129 129 129 166 166 166 150 150 150 130 130 130 93 93 93 70 70 70 124 124 124 176 176 176 212 212 212 244 244 244 249 249 249 254 254 254 254 254 254 254 254 254 255 255 255 255 255 255 255 255 255 255 255 255 255 255 255 255 255 255 255 255 255 255 255 255 255 255 255 255 255 255 255 255 255 255 255 255 255 255 255 255 255 255 255 255 255 255 255 255 255 255 255 255 255 255 255 255 255 255 255 255 255 255 255 255 255 255 255 255 255 255 255 255 255 255 255 255 255 255 255 255 255 255 255 255 255 255 255 255 255 255 255 255 255 255 255 255 
255 255 255 255 255 255 255 255 255 255 255 255 255 255 255 255 255 255 255 255 255 255 255 255 255 255 255 255 255 255 255 255 255 255 255 255 255 255 255 255 255 255 255 255 255 255 255 255 255 255 255 255 255 255 255 255 255 255 255 255 255 255 255 255 255 255 255 255 255 255 255 255 255 255 255 255 255 255 255 255 255 255 255 255 255 255 255 255 255 255 255 255 255 255 255 255 255 255 255 255 255 255 254 254 254 251 251 251 248 248 248 196 196 196 136 136 136 97 97 97 61 61 61 91 91 91 133 133 133 152 152 152 167 167 167 134 134 134 90 90 90 49 49 49 9 9 9 1 1 1 0 0 0 0 0 0 0 0 0 0 0 0 0 0 0 0 0 0 0 0 0 0 0 0 0 0 0 0 0 0 0 0 0 0 0 0 0 0 0 0 0 0 0 0 0 0 0 0 0 0 0 0 0 0 0 0 0 0 0 0 0 0 0 3 3 3 7 7 7 63 63 63 139 139 139 190 190 190 230 230 230 243 243 243 244 244 244 245 245 245 244 244 244 244 244 244 244 244 244 244 244 244 244 244 244 244 244 244 244 244 244 244 244 244 244 244 244 244 244 244 244 244 244 244 244 244 244 244 244 243 243 243 243 243 243 243 243 243 243 243 243 243 243 243 243 243 243 242 242 242 242 242 242 242 242 242 242 242 242 242 242 242 242 242 242 241 241 241 239 239 239 236 236 236 231 231 231 224 224 224 215 215 215 194 193 193 162 162 161 131 130 130 100 99 100 78 77 77 63 62 60 63 58 43 77 63 27 114 88 18 172 131 16 208 163 31 225 183 60 234 197 82 236 205 98 236 205 91 233 197 62 231 190 36 229 183 13 227 180 1 226 179 0 225 178 0 224 177 0 219 173 0 210 164 1 175 136 3 111 87 7 63 51 10 34 28 12 17 17 14 17 17 16 17 18 17 18 19 19 20 20 20 21 21 21 22 22 22 22 22 22 23 23 23 23 23 23 23 23 23 24 24 24 24 24 24 24 24 24 24 24 24 24 24 24 24 24 24 24 24 24 24 24 24 24 24 24 24 24 24 23 23 23 23 23 23 23 23 23 30 30 30 51 51 51 96 96 96 187 187 187 246 246 246 246 246 246 245 245 245 245 245 245 245 245 245 244 244 244 244 244 244 244 244 244 244 244 244 244 244 244 244 244 244 244 244 244 239 239 239 221 221 221 184 184 184 97 97 97 31 31 31 13 13 13 0 0 0 0 0 0 0 0 0 0 0 0 0 0 0 0 0 0 0 0 0 0 0 0 0 0 0 0 0 0 0 0 0 0 0 0 0 0 0 0 0 0 0 0 0 0 0 0 0 0 0 0 0 0 0 0 0 0 0 0 0 0 0 0 0 0 3 3 3 21 21 21 46 46 46 107 107 107 158 158 158 161 161 161 158 158 158 126 126 126 98 98 98 89 89 89 93 93 93 163 163 163 225 225 225 241 241 241 255 255 255 254 254 254 254 254 254 255 255 255 255 255 255 255 255 255 255 255 255 255 255 255 255 255 255 255 255 255 255 255 255 255 255 255 255 255 255 255 255 255 255 255 255 255 255 255 255 255 255 255 255 255 255 255 255 255 255 255 255 255 255 255 255 255 255 255 255 255 255 255 255 255 255 255 255 255 255 255 255 255 255 255 255 255 255 255 255 255 255 255 255 255 255 255 255 255 255 255 255 255 255 255 255 
255 255 255 255 255 255 255 255 255 255 255 255 255 255 255 255 255 255 255 255 255 255 255 255 255 255 255 255 255 255 255 255 255 255 255 255 255 255 255 255 255 255 255 255 255 255 255 255 255 255 255 255 255 255 255 255 255 255 255 255 255 255 255 255 255 255 255 255 255 255 255 255 255 255 255 255 255 255 255 255 255 255 255 255 255 255 255 255 255 255 255 255 255 255 255 255 255 255 255 253 253 253 250 250 250 228 228 228 204 204 204 149 149 149 89 89 89 79 79 79 78 78 78 116 116 116 161 161 161 163 163 163 156 156 156 112 112 112 59 59 59 30 30 30 5 5 5 0 0 0 0 0 0 0 0 0 0 0 0 0 0 0 0 0 0 0 0 0 0 0 0 0 0 0 0 0 0 0 0 0 0 0 0 0 0 0 0 0 0 0 0 0 0 0 0 0 0 0 0 0 0 0 0 0 0 0 0 0 0 0 0 0 0 14 14 14 34 34 34 99 99 99 182 182 182 219 219 219 238 238 238 244 244 244 244 244 244 244 244 244 244 244 244 244 244 244 244 244 244 244 244 244 244 244 244 244 244 244 244 244 244 244 244 244 244 244 244 244 244 244 244 244 244 244 244 244 244 244 244 243 243 243 243 243 243 243 243 243 243 243 243 243 243 243 243 243 243 243 243 243 243 243 243 243 243 243 243 243 243 243 243 243 243 243 243 242 242 242 241 241 241 234 234 234 223 223 223 207 207 207 188 188 188 163 163 162 132 132 131 103 102 102 74 74 74 54 54 54 41 41 41 37 35 31 40 35 24 70 55 16 124 94 9 168 128 15 204 160 35 224 182 59 232 196 87 235 201 94 234 199 81 233 194 61 230 187 36 228 181 18 226 178 8 223 174 3 220 171 1 205 159 1 177 137 3 133 103 5 70 56 10 32 28 13 22 20 15 18 17 17 19 19 19 21 22 21 24 24 24 25 26 26 27 27 27 28 28 28 28 28 28 28 28 28 26 26 26 25 25 25 25 25 25 25 25 25 24 24 24 24 24 24 24 24 24 24 24 24 24 24 24 24 24 24 24 24 24 24 24 24 23 23 23 23 23 23 23 23 23 32 32 32 57 57 57 103 103 103 189 189 189 246 246 246 245 245 245 245 245 245 245 245 245 244 244 244 244 244 244 244 244 244 244 244 244 244 244 244 244 244 244 244 244 244 244 244 244 243 243 243 239 239 239 214 214 214 137 137 137 70 70 70 30 30 30 1 1 1 0 0 0 0 0 0 0 0 0 0 0 0 0 0 0 0 0 0 0 0 0 0 0 0 0 0 0 0 0 0 0 0 0 0 0 0 0 0 0 0 0 0 0 0 0 0 0 0 0 0 0 0 0 0 0 0 0 0 0 0 0 0 0 1 1 1 8 8 8 23 23 23 78 78 78 128 128 128 151 151 151 168 168 168 149 149 149 127 127 127 92 92 92 70 70 70 121 121 121 170 170 170 206 206 206 238 238 238 247 247 247 254 254 254 255 255 255 255 255 255 255 255 255 255 255 255 255 255 255 255 255 255 255 255 255 255 255 255 255 255 255 255 255 255 255 255 255 255 255 255 255 255 255 255 255 255 255 255 255 255 255 255 255 255 255 255 255 255 255 255 255 255 255 255 255 255 255 255 255 255 255 255 255 255 255 255 255 255 255 255 255 255 255 255 255 255 255 255 255 255 255 255 255 255 255 255 255 255 255 255 
255 255 255 255 255 255 255 255 255 255 255 255 255 255 255 255 255 255 255 255 255 255 255 255 255 255 255 255 255 255 255 255 255 255 255 255 255 255 255 255 255 255 255 255 255 255 255 255 255 255 255 255 255 255 255 255 255 255 255 255 255 255 255 255 255 255 255 255 255 255 255 255 255 255 255 255 255 255 255 255 255 255 255 255 255 255 255 255 255 255 255 255 255 255 255 255 255 255 255 249 249 249 242 242 242 188 188 188 127 127 127 93 93 93 63 63 63 92 92 92 132 132 132 152 152 152 167 167 167 153 153 153 132 132 132 83 83 83 28 28 28 11 11 11 2 2 2 0 0 0 0 0 0 0 0 0 0 0 0 0 0 0 0 0 0 0 0 0 0 0 0 0 0 0 0 0 0 0 0 0 0 0 0 0 0 0 0 0 0 0 0 0 0 0 0 0 0 0 0 0 0 0 0 0 0 0 0 0 0 0 0 0 0 33 33 33 78 78 78 141 141 141 210 210 210 235 235 235 241 241 241 243 243 243 243 243 243 243 243 243 243 243 243 243 243 243 243 243 243 243 243 243 243 243 243 243 243 243 243 243 243 243 243 243 243 243 243 243 243 243 243 243 243 243 243 243 243 243 243 243 243 243 243 243 243 243 243 243 243 243 243 243 243 243 243 243 243 243 243 243 244 244 244 244 244 244 244 244 244 244 244 244 244 244 244 243 243 243 241 241 241 226 226 226 203 203 203 171 171 171 132 132 132 105 105 105 85 85 85 68 68 67 52 52 52 40 39 39 29 29 29 24 23 22 23 21 18 37 30 14 63 49 10 108 83 10 171 129 14 209 161 29 223 179 54 232 191 74 234 198 89 234 200 88 233 195 71 230 188 50 226 178 23 220 170 7 213 163 3 182 138 2 124 96 6 76 61 9 41 34 12 22 20 15 21 20 19 22 21 22 25 24 25 28 28 28 33 33 33 36 36 36 37 37 37 38 38 38 39 39 39 37 37 37 33 33 33 29 29 29 28 28 28 26 26 26 25 25 25 24 24 24 24 24 24 24 24 24 24 24 24 24 24 24 24 24 24 24 24 24 24 24 24 24 24 24 23 23 23 34 34 34 65 65 65 113 113 113 193 193 193 245 245 245 245 245 245 244 244 244 244 244 244 243 243 243 243 243 243 243 243 243 243 243 243 243 243 243 243 243 243 243 243 243 243 243 243 243 243 243 242 242 242 227 227 227 180 180 180 126 126 126 55 55 55 3 3 3 1 1 1 0 0 0 0 0 0 0 0 0 0 0 0 0 0 0 0 0 0 0 0 0 0 0 0 0 0 0 0 0 0 0 0 0 0 0 0 0 0 0 0 0 0 0 0 0 0 0 0 0 0 0 0 0 0 0 0 0 0 0 0 0 0 0 2 2 2 10 10 10 44 44 44 80 80 80 125 125 125 162 162 162 162 162 162 157 157 157 127 127 127 99 99 99 87 87 87 85 85 85 148 148 148 206 206 206 232 232 232 255 255 255 255 255 255 255 255 255 255 255 255 255 255 255 255 255 255 255 255 255 255 255 255 255 255 255 255 255 255 255 255 255 255 255 255 255 255 255 255 255 255 255 255 255 255 255 255 255 255 255 255 255 255 255 255 255 255 255 255 255 255 255 255 255 255 255 255 255 255 255 255 255 255 255 255 255 255 255 255 255 255 255 255 255 255 255 255 255 255 255 255 255 255 255 255 255 255 255 
255 255 255 255 255 255 255 255 255 255 255 255 255 255 255 255 255 255 255 255 255 255 255 255 255 255 255 255 255 255 255 255 255 255 255 255 255 255 255 255 255 255 255 255 255 255 255 255 255 255 255 255 255 255 255 255 255 255 255 255 255 255 255 255 255 255 255 255 255 255 255 255 255 255 255 255 255 255 255 255 255 255 255 255 255 255 255 255 255 255 255 255 255 251 251 251 246 246 246 220 220 220 191 191 191 139 139 139 83 83 83 77 77 77 80 80 80 118 118 118 161 161 161 164 164 164 159 159 159 129 129 129 94 94 94 53 53 53 11 11 11 2 2 2 0 0 0 0 0 0 0 0 0 0 0 0 0 0 0 0 0 0 0 0 0 0 0 0 0 0 0 0 0 0 0 0 0 0 0 0 0 0 0 0 0 0 0 0 0 0 0 0 0 0 0 0 0 0 0 0 0 0 0 0 0 0 0 3 3 3 7 7 7 57 57 57 125 125 125 179 179 179 227 227 227 242 242 242 242 242 242 242 242 242 242 242 242 242 242 242 242 242 242 242 242 242 242 242 242 242 242 242 242 242 242 242 242 242 242 242 242 242 242 242 242 242 242 242 242 242 242 242 242 242 242 242 242 242 242 243 243 243 243 243 243 243 243 243 243 243 243 243 243 243 243 243 243 243 243 243 244 244 244 244 244 244 244 244 244 240 240 240 235 235 235 223 223 223 208 208 208 186 186 186 161 161 161 129 129 129 91 91 91 68 68 68 54 54 54 44 44 44 37 37 36 29 29 29 22 22 22 17 17 17 15 15 15 20 18 14 29 25 12 65 50 10 123 91 7 166 125 14 196 151 30 216 171 49 226 185 70 231 192 76 231 190 68 227 184 51 221 173 27 210 162 17 194 151 21 160 127 27 106 88 35 71 64 42 59 56 49 55 55 55 63 63 63 69 69 69 75 74 75 81 80 80 88 87 87 92 92 92 94 94 93 95 95 95 96 96 96 95 95 95 90 90 90 86 86 86 84 84 84 80 80 80 76 76 76 72 72 72 67 67 67 62 62 62 54 54 54 46 46 46 35 35 35 28 28 28 26 26 26 24 24 24 23 23 23 37 37 37 73 73 73 123 123 123 197 197 197 244 244 244 244 244 244 243 243 243 243 243 243 243 243 243 243 243 243 242 242 242 242 242 242 242 242 242 242 242 242 242 242 242 242 242 242 242 242 242 242 242 242 235 235 235 210 210 210 169 169 169 84 84 84 20 20 20 8 8 8 0 0 0 0 0 0 0 0 0 0 0 0 0 0 0 0 0 0 0 0 0 0 0 0 0 0 0 0 0 0 0 0 0 0 0 0 0 0 0 0 0 0 0 0 0 0 0 0 0 0 0 0 0 0 0 0 0 0 0 0 0 0 0 0 0 0 3 3 3 21 21 21 43 43 43 91 91 91 134 134 134 155 155 155 169 169 169 150 150 150 129 129 129 91 91 91 65 65 65 107 107 107 149 149 149 190 190 190 228 228 228 242 242 242 254 254 254 255 255 255 255 255 255 255 255 255 255 255 255 255 255 255 255 255 255 255 255 255 255 255 255 255 255 255 255 255 255 255 255 255 255 255 255 255 255 255 255 255 255 255 255 255 255 255 255 255 255 255 255 255 255 255 255 255 255 255 255 255 255 255 255 255 255 255 255 255 255 255 255 255 255 255 255 255 255 255 255 255 255 255 255 255 255 255 255 255 255 
255 255 255 255 255 255 255 255 255 255 255 255 255 255 255 255 255 255 255 255 255 255 255 255 255 255 255 255 255 255 255 255 255 255 255 255 255 255 255 255 255 255 255 255 255 255 255 255 255 255 255 255 255 255 255 255 255 255 255 255 255 255 255 255 255 255 255 255 255 255 255 255 255 255 255 255 255 255 255 255 255 255 255 255 255 255 255 255 255 255 255 255 255 243 243 243 228 228 228 170 170 170 104 104 104 83 83 83 68 68 68 98 98 98 136 136 136 154 154 154 169 169 169 155 155 155 136 136 136 92 92 92 43 43 43 21 21 21 4 4 4 1 1 1 0 0 0 0 0 0 0 0 0 0 0 0 0 0 0 0 0 0 0 0 0 0 0 0 0 0 0 0 0 0 0 0 0 0 0 0 0 0 0 0 0 0 0 0 0 0 0 0 0 0 0 0 0 0 0 0 0 0 0 0 0 0 0 8 8 8 20 20 20 86 86 86 174 174 174 214 214 214 235 235 235 241 241 241 241 241 241 241 241 241 241 241 241 241 241 241 241 241 241 241 241 241 241 241 241 241 241 241 241 241 241 241 241 241 241 241 241 241 241 241 241 241 241 241 241 241 241 241 241 241 241 241 241 241 241 242 242 242 242 242 242 242 242 242 242 242 242 242 242 242 242 242 242 243 243 243 243 243 243 243 243 243 243 243 243 233 233 233 217 217 217 186 186 186 145 145 145 118 118 118 100 100 100 82 82 82 63 63 63 48 48 48 37 37 37 30 30 30 26 26 26 22 22 22 19 19 19 17 17 17 16 16 16 17 16 15 19 18 14 35 29 12 61 47 11 101 76 11 152 113 14 189 142 19 212 161 27 224 172 31 225 173 30 221 171 28 212 163 23 193 152 32 164 136 54 139 122 73 118 110 87 110 108 101 117 117 114 128 128 128 142 142 142 154 154 154 163 163 163 172 172 172 181 181 181 187 187 187 191 191 191 193 193 193 195 195 195 194 194 194 191 191 191 188 188 188 185 185 185 180 180 180 171 171 171 161 161 161 149 149 149 132 132 132 111 111 111 86 86 86 57 57 57 36 36 36 29 29 29 24 24 24 24 24 24 39 39 39 83 83 83 134 134 134 200 200 200 243 243 243 243 243 243 242 242 242 242 242 242 242 242 242 242 242 242 241 241 241 241 241 241 241 241 241 241 241 241 241 241 241 241 241 241 241 241 241 241 241 241 239 239 239 230 230 230 200 200 200 118 118 118 51 51 51 22 22 22 0 0 0 0 0 0 0 0 0 0 0 0 0 0 0 0 0 0 0 0 0 0 0 0 0 0 0 0 0 0 0 0 0 0 0 0 0 0 0 0 0 0 0 0 0 0 0 0 0 0 0 0 0 0 0 0 0 0 0 0 0 0 0 0 0 0 1 1 1 7 7 7 17 17 17 51 51 51 87 87 87 129 129 129 164 164 164 164 164 164 159 159 159 130 130 130 103 103 103 81 81 81 70 70 70 125 125 125 177 177 177 218 218 218 254 254 254 254 254 254 254 254 254 254 254 254 254 254 254 254 254 254 254 254 254 255 255 255 255 255 255 255 255 255 255 255 255 255 255 255 255 255 255 255 255 255 255 255 255 255 255 255 255 255 255 255 255 255 255 255 255 255 255 255 255 255 255 255 255 255 255 255 255 255 255 255 255 255 255 255 255 255 255 255 255 255 255 255 255 255 255 255 255 255 255 255 255 
255 255 255 255 255 255 255 255 255 255 255 255 255 255 255 255 255 255 255 255 255 255 255 255 255 255 255 255 255 255 255 255 255 255 255 255 255 255 255 255 255 255 255 255 255 255 255 255 255 255 255 255 255 255 255 255 255 255 255 255 255 255 255 255 255 255 255 255 255 255 255 255 255 255 255 255 255 255 255 255 255 255 255 255 255 255 255 245 245 245 234 234 234 204 204 204 170 170 170 121 121 121 69 69 69 75 75 75 89 89 89 125 125 125 165 165 165 166 166 166 159 159 159 131 131 131 98 98 98 57 57 57 15 15 15 4 4 4 1 1 1 0 0 0 0 0 0 0 0 0 0 0 0 0 0 0 0 0 0 0 0 0 0 0 0 0 0 0 0 0 0 0 0 0 0 0 0 0 0 0 0 0 0 0 0 0 0 0 0 0 0 0 0 0 0 0 0 0 0 0 0 0 0 0 0 0 0 21 21 21 49 49 49 119 119 119 204 204 204 233 233 233 239 239 239 241 241 241 241 241 241 241 241 241 241 241 241 241 241 241 241 241 241 241 241 241 241 241 241 241 241 241 241 241 241 241 241 241 241 241 241 241 241 241 241 241 241 241 241 241 241 241 241 241 241 241 241 241 241 241 241 241 242 242 242 242 242 242 242 242 242 242 242 242 242 242 242 241 241 241 239 239 239 230 230 230 217 217 217 197 197 197 173 173 173 139 139 139 99 99 99 74 74 74 61 61 61 50 50 50 43 43 43 35 35 35 28 28 28 23 23 23 21 21 21 20 20 20 18 18 18 17 17 17 17 17 17 17 18 18 19 20 19 28 27 23 42 38 28 75 62 31 125 99 33 163 127 34 189 146 36 203 158 38 206 161 40 203 161 45 195 157 52 178 149 68 152 137 93 137 131 112 136 134 127 142 142 141 156 156 156 171 171 171 186 186 186 199 199 199 209 209 209 219 219 219 227 227 227 233 233 233 237 237 237 238 238 238 235 235 235 230 230 230 226 226 226 224 224 224 226 226 226 225 225 225 220 220 220 213 213 213 202 202 202 186 186 186 165 165 165 141 141 141 112 112 112 89 89 89 76 76 76 62 62 62 49 49 49 56 56 56 100 100 100 148 148 148 205 205 205 243 243 243 242 242 242 242 242 242 242 242 242 241 241 241 241 241 241 241 241 241 241 241 241 241 241 241 241 241 241 241 241 241 241 241 241 241 241 241 241 241 241 240 240 240 239 239 239 219 219 219 152 152 152 90 90 90 40 40 40 3 3 3 1 1 1 0 0 0 0 0 0 0 0 0 0 0 0 0 0 0 0 0 0 0 0 0 0 0 0 0 0 0 0 0 0 0 0 0 0 0 0 0 0 0 0 0 0 0 0 0 0 0 0 0 0 0 0 0 0 0 0 0 0 0 0 0 0 0 0 0 0 4 4 4 24 24 24 49 49 49 94 94 94 136 136 136 156 156 156 170 170 170 155 155 155 135 135 135 93 93 93 61 61 61 90 90 90 122 122 122 169 169 169 213 213 213 232 232 232 250 250 250 252 252 252 254 254 254 254 254 254 254 254 254 255 255 255 255 255 255 255 255 255 255 255 255 255 255 255 255 255 255 255 255 255 255 255 255 255 255 255 255 255 255 255 255 255 255 255 255 255 255 255 255 255 255 255 255 255 255 255 255 255 255 255 255 255 255 255 255 255 255 255 255 255 255 255 255 255 255 255 255 255 255 255 255 
255 255 255 255 255 255 255 255 255 255 255 255 255 255 255 255 255 255 255 255 255 255 255 255 255 255 255 255 255 255 255 255 255 255 255 255 255 255 255 255 255 255 255 255 255 255 255 255 255 255 255 255 255 255 255 255 255 255 255 255 255 255 255 255 255 255 255 255 255 255 255 255 255 255 255 255 255 255 255 255 255 254 254 254 254 254 254 226 226 226 195 195 195 137 137 137 76 76 76 73 73 73 79 79 79 110 110 110 144 144 144 159 159 159 171 171 171 155 155 155 136 136 136 93 93 93 46 46 46 23 23 23 5 5 5 1 1 1 0 0 0 0 0 0 0 0 0 0 0 0 0 0 0 0 0 0 0 0 0 0 0 0 0 0 0 0 0 0 0 0 0 0 0 0 0 0 0 0 0 0 0 0 0 0 0 0 0 0 0 0 0 0 0 0 0 0 0 0 0 0 0 1 1 1 1 1 1 40 40 40 94 94 94 154 154 154 218 218 218 238 238 238 240 240 240 240 240 240 240 240 240 240 240 240 240 240 240 240 240 240 240 240 240 240 240 240 240 240 240 240 240 240 240 240 240 240 240 240 240 240 240 240 240 240 240 240 240 240 240 240 240 240 240 240 240 240 240 240 240 241 241 241 241 241 241 241 241 241 242 242 242 242 242 242 242 242 242 238 238 238 231 231 231 205 205 205 168 168 168 136 136 136 107 107 107 85 85 85 67 67 67 52 52 52 41 41 41 34 34 34 30 30 30 27 27 27 24 24 24 22 22 22 21 21 21 20 20 20 19 19 19 18 18 18 18 18 18 21 21 21 28 28 29 42 41 41 61 60 57 85 81 71 114 105 83 138 125 89 158 139 90 171 149 91 176 153 92 175 155 99 169 154 111 163 153 124 156 151 136 154 152 147 158 158 156 166 166 166 176 176 177 187 187 187 199 199 199 209 209 209 218 218 218 225 225 225 231 231 231 236 236 236 239 239 239 235 235 235 222 222 222 210 210 210 200 200 200 199 199 199 212 212 212 222 222 222 228 228 228 231 231 231 229 229 229 225 225 225 219 219 219 210 210 210 197 197 197 182 182 182 162 162 162 135 135 135 96 96 96 85 85 85 124 124 124 166 166 166 212 212 212 242 242 242 242 242 242 241 241 241 241 241 241 240 240 240 240 240 240 240 240 240 240 240 240 240 240 240 240 240 240 240 240 240 240 240 240 240 240 240 240 240 240 240 240 240 240 240 240 228 228 228 186 186 186 135 135 135 63 63 63 9 9 9 4 4 4 0 0 0 0 0 0 0 0 0 0 0 0 0 0 0 0 0 0 0 0 0 0 0 0 0 0 0 0 0 0 0 0 0 0 0 0 0 0 0 0 0 0 0 0 0 0 0 0 0 0 0 0 0 0 0 0 0 0 0 0 0 0 0 0 0 0 1 1 1 8 8 8 19 19 19 53 53 53 87 87 87 129 129 129 165 165 165 166 166 166 163 163 163 139 139 139 115 115 115 84 84 84 62 62 62 98 98 98 137 137 137 192 192 192 242 242 242 248 248 248 254 254 254 254 254 254 255 255 255 255 255 255 255 255 255 255 255 255 255 255 255 255 255 255 255 255 255 255 255 255 255 255 255 255 255 255 255 255 255 255 255 255 255 255 255 255 255 255 255 255 255 255 255 255 255 255 255 255 255 255 255 255 255 255 255 255 255 255 255 255 255 255 255 255 255 255 255 255 255 255 255 
255 255 255 255 255 255 255 255 255 255 255 255 255 255 255 255 255 255 255 255 255 255 255 255 255 255 255 255 255 255 255 255 255 255 255 255 255 255 255 255 255 255 255 255 255 255 255 255 255 255 255 255 255 255 255 255 255 255 255 255 255 255 255 255 255 255 255 255 255 255 255 255 255 255 255 253 253 253 252 252 252 236 236 236 219 219 219 179 179 179 137 137 137 96 96 96 54 54 54 77 77 77 109 109 109 140 140 140 172 172 172 168 168 168 158 158 158 129 129 129 97 97 97 57 57 57 16 16 16 5 5 5 1 1 1 0 0 0 0 0 0 0 0 0 0 0 0 0 0 0 0 0 0 0 0 0 0 0 0 0 0 0 0 0 0 0 0 0 0 0 0 0 0 0 0 0 0 0 0 0 0 0 0 0 0 0 0 0 0 0 0 0 0 0 0 0 0 0 0 0 0 4 4 4 10 10 10 63 63 63 133 133 133 184 184 184 227 227 227 240 240 240 240 240 240 240 240 240 240 240 240 240 240 240 240 240 240 240 240 240 240 240 240 240 240 240 240 240 240 240 240 240 240 240 240 240 240 240 240 240 240 240 240 240 240 240 240 240 240 240 240 240 240 240 240 240 240 240 240 240 240 240 241 241 241 241 241 241 241 241 241 236 236 236 226 226 226 211 211 211 191 191 191 161 161 161 122 122 122 92 92 92 66 66 66 51 51 51 44 44 44 37 37 37 29 29 29 25 25 25 24 24 24 23 23 23 22 22 22 24 24 24 27 27 27 32 32 32 39 39 39 45 45 45 52 52 52 60 60 60 70 70 71 83 82 83 97 98 98 111 111 111 124 123 123 137 134 129 149 143 128 157 149 128 162 153 129 162 155 135 159 156 146 159 158 155 162 161 161 166 166 167 173 173 174 181 181 182 190 190 190 199 199 199 208 208 208 216 216 216 223 223 223 229 229 229 234 234 234 237 237 237 240 240 240 228 228 228 200 200 200 176 176 176 159 159 159 155 155 155 171 171 171 184 184 184 194 194 194 203 203 203 210 210 210 216 216 216 220 220 220 225 225 225 228 228 228 225 225 225 212 212 212 189 189 189 150 150 150 136 136 136 163 163 163 192 192 192 222 222 222 242 242 242 241 241 241 241 241 241 240 240 240 240 240 240 240 240 240 240 240 240 240 240 240 240 240 240 240 240 240 240 240 240 240 240 240 240 240 240 240 240 240 240 240 240 240 240 240 233 233 233 208 208 208 169 169 169 90 90 90 29 29 29 12 12 12 0 0 0 0 0 0 0 0 0 0 0 0 0 0 0 0 0 0 0 0 0 0 0 0 0 0 0 0 0 0 0 0 0 0 0 0 0 0 0 0 0 0 0 0 0 0 0 0 0 0 0 0 0 0 0 0 0 0 0 0 0 0 0 0 0 0 0 0 0 0 0 0 3 3 3 24 24 24 49 49 49 94 94 94 135 135 135 155 155 155 171 171 171 163 163 163 151 151 151 106 106 106 68 68 68 77 77 77 91 91 91 142 142 142 190 190 190 217 217 217 242 242 242 249 249 249 255 255 255 255 255 255 255 255 255 255 255 255 255 255 255 255 255 255 255 255 255 255 255 255 255 255 255 255 255 255 255 255 255 255 255 255 255 255 255 255 255 255 255 255 255 255 255 255 255 255 255 255 255 255 255 255 255 255 255 255 255 255 255 255 255 255 255 255 255 255 255 255 255 255 255 
255 255 255 255 255 255 255 255 255 255 255 255 255 255 255 255 255 255 255 255 255 255 255 255 255 255 255 255 255 255 255 255 255 255 255 255 255 255 255 255 255 255 255 255 255 255 255 255 255 255 255 255 255 255 255 255 255 255 255 255 255 255 255 255 255 255 255 255 255 255 255 255 254 254 254 250 250 250 246 246 246 201 201 201 152 152 152 107 107 107 62 62 62 77 77 77 101 101 101 128 128 128 157 157 157 167 167 167 173 173 173 153 153 153 129 129 129 88 88 88 44 44 44 23 23 23 6 6 6 2 2 2 0 0 0 0 0 0 0 0 0 0 0 0 0 0 0 0 0 0 0 0 0 0 0 0 0 0 0 0 0 0 0 0 0 0 0 0 0 0 0 0 0 0 0 0 0 0 0 0 0 0 0 0 0 0 0 0 0 0 0 0 0 0 0 0 0 0 0 0 0 11 11 11 25 25 25 88 88 88 169 169 169 209 209 209 232 232 232 239 239 239 239 239 239 239 239 239 239 239 239 239 239 239 239 239 239 239 239 239 239 239 239 239 239 239 239 239 239 239 239 239 239 239 239 239 239 239 239 239 239 239 239 239 239 239 239 239 239 239 240 240 240 240 240 240 240 240 240 240 240 240 241 241 241 241 241 241 241 241 241 224 224 224 196 196 196 162 162 162 123 123 123 97 97 97 80 80 80 63 63 63 47 47 47 37 37 37 31 31 31 28 28 28 25 25 25 24 24 24 23 23 23 23 23 23 22 22 22 27 27 27 37 37 37 54 54 54 76 76 76 97 97 97 117 117 117 132 132 132 142 143 143 149 149 149 151 150 151 153 151 152 154 153 153 156 154 153 159 156 151 161 158 150 163 160 150 163 161 153 163 162 159 165 165 164 169 169 169 174 174 175 181 181 182 189 189 189 197 197 197 205 205 205 213 213 213 220 220 220 226 226 226 231 231 231 235 235 235 238 238 238 240 240 240 219 219 219 168 168 168 128 128 128 104 104 104 94 94 94 104 104 104 114 114 114 121 121 121 131 131 131 146 146 146 161 161 161 175 175 175 190 190 190 208 208 208 221 221 221 227 227 227 225 225 225 213 213 213 208 208 208 216 216 216 225 225 225 235 235 235 241 241 241 241 241 241 240 240 240 240 240 240 240 240 240 239 239 239 239 239 239 239 239 239 239 239 239 239 239 239 239 239 239 239 239 239 239 239 239 239 239 239 239 239 239 239 239 239 235 235 235 220 220 220 190 190 190 121 121 121 61 61 61 26 26 26 0 0 0 0 0 0 0 0 0 0 0 0 0 0 0 0 0 0 0 0 0 0 0 0 0 0 0 0 0 0 0 0 0 0 0 0 0 0 0 0 0 0 0 0 0 0 0 0 0 0 0 0 0 0 0 0 0 0 0 0 0 0 0 0 0 0 0 0 0 0 0 0 1 1 1 8 8 8 19 19 19 50 50 50 83 83 83 125 125 125 162 162 162 167 167 167 170 170 170 154 154 154 135 135 135 101 101 101 71 71 71 82 82 82 98 98 98 160 160 160 218 218 218 237 237 237 254 254 254 254 254 254 254 254 254 254 254 254 254 254 254 255 255 255 255 255 255 255 255 255 255 255 255 255 255 255 255 255 255 255 255 255 255 255 255 255 255 255 255 255 255 255 255 255 255 255 255 255 255 255 255 255 255 255 255 255 255 255 255 255 255 255 255 255 255 255 255 255 255 255 255 
255 255 255 255 255 255 255 255 255 255 255 255 255 255 255 255 255 255 255 255 255 255 255 255 255 255 255 255 255 255 255 255 255 255 255 255 255 255 255 255 255 255 255 255 255 255 255 255 255 255 255 255 255 255 255 255 255 255 255 255 255 255 255 255 255 255 255 255 255 250 250 250 245 245 245 222 222 222 197 197 197 150 150 150 101 101 101 78 78 78 59 59 59 95 95 95 139 139 139 160 160 160 178 178 178 168 168 168 153 153 153 122 122 122 89 89 89 51 51 51 13 13 13 4 4 4 1 1 1 0 0 0 0 0 0 0 0 0 0 0 0 0 0 0 0 0 0 0 0 0 0 0 0 0 0 0 0 0 0 0 0 0 0 0 0 0 0 0 0 0 0 0 0 0 0 0 0 0 0 0 0 0 0 0 0 0 0 0 0 0 0 0 0 0 0 0 0 0 1 1 1 22 22 22 51 51 51 116 116 116 193 193 193 223 223 223 235 235 235 238 238 238 238 238 238 238 238 238 238 238 238 238 238 238 238 238 238 238 238 238 238 238 238 238 238 238 238 238 238 239 239 239 239 239 239 239 239 239 239 239 239 239 239 239 239 239 239 239 239 239 240 240 240 240 240 240 240 240 240 239 239 239 238 238 238 229 229 229 215 215 215 188 188 188 154 154 154 117 117 117 79 79 79 59 59 59 51 51 51 43 43 43 34 34 34 28 28 28 25 25 25 23 23 23 23 23 23 25 25 25 30 30 30 38 38 38 51 51 51 66 66 66 85 85 85 105 105 105 127 127 127 147 147 147 166 166 166 178 178 178 184 185 184 185 185 185 180 179 180 176 174 176 172 171 171 169 168 168 167 166 166 167 166 165 166 166 165 167 167 166 169 169 169 172 172 172 176 176 177 182 182 182 189 189 189 196 196 196 204 204 204 211 211 211 218 218 218 224 224 224 229 229 229 233 233 233 236 236 236 238 238 238 240 240 240 214 214 214 153 153 153 104 104 104 70 70 70 59 59 59 78 78 78 97 97 97 113 113 113 124 124 124 125 125 125 128 128 128 134 134 134 146 146 146 165 165 165 184 184 184 200 200 200 214 214 214 225 225 225 234 234 234 238 238 238 241 241 241 241 241 241 241 241 241 240 240 240 240 240 240 240 240 240 239 239 239 239 239 239 239 239 239 239 239 239 238 238 238 238 238 238 238 238 238 238 238 238 238 238 238 238 238 238 238 238 238 238 238 238 236 236 236 227 227 227 205 205 205 150 150 150 95 95 95 43 43 43 4 4 4 2 2 2 0 0 0 0 0 0 0 0 0 0 0 0 0 0 0 0 0 0 0 0 0 0 0 0 0 0 0 0 0 0 0 0 0 0 0 0 0 0 0 0 0 0 0 0 0 0 0 0 0 0 0 0 0 0 0 0 0 0 0 0 0 0 0 0 0 0 0 0 0 0 0 0 3 3 3 21 21 21 44 44 44 87 87 87 128 128 128 151 151 151 171 171 171 174 174 174 171 171 171 130 130 130 93 93 93 76 76 76 66 66 66 114 114 114 161 161 161 197 197 197 230 230 230 242 242 242 253 253 253 254 254 254 254 254 254 255 255 255 255 255 255 255 255 255 255 255 255 255 255 255 255 255 255 255 255 255 255 255 255 255 255 255 255 255 255 255 255 255 255 255 255 255 255 255 255 255 255 255 255 255 255 255 255 255 255 255 255 255 255 255 255 255 255 255 255 
255 255 255 255 255 255 255 255 255 255 255 255 255 255 255 255 255 255 255 255 255 255 255 255 255 255 255 255 255 255 255 255 255 255 255 255 255 255 255 255 255 255 255 255 255 255 255 255 255 255 255 255 255 255 255 255 255 255 255 255 255 255 255 255 255 255 255 255 255 242 242 242 228 228 228 171 171 171 109 109 109 84 84 84 63 63 63 91 91 91 125 125 125 148 148 148 169 169 169 173 173 173 175 175 175 147 147 147 114 114 114 76 76 76 37 37 37 19 19 19 5 5 5 1 1 1 0 0 0 0 0 0 0 0 0 0 0 0 0 0 0 0 0 0 0 0 0 0 0 0 0 0 0 0 0 0 0 0 0 0 0 0 0 0 0 0 0 0 0 0 0 0 0 0 0 0 0 0 0 0 0 0 0 0 0 0 0 0 0 0 0 0 0 0 0 1 1 1 2 2 2 39 39 39 89 89 89 146 146 146 206 206 206 228 228 228 235 235 235 237 237 237 237 237 237 237 237 237 237 237 237 237 237 237 237 237 237 237 237 237 237 237 237 237 237 237 237 237 237 238 238 238 238 238 238 238 238 238 238 238 238 238 238 238 238 238 238 239 239 239 239 239 239 240 240 240 240 240 240 238 238 238 233 233 233 205 205 205 164 164 164 130 130 130 99 99 99 75 75 75 57 57 57 44 44 44 35 35 35 30 30 30 27 27 27 25 25 25 24 24 24 23 23 23 23 23 23 30 30 30 42 42 42 69 69 69 106 106 106 139 139 139 168 168 168 185 185 185 193 193 193 197 197 197 199 199 199 199 199 199 197 196 196 193 192 192 187 186 188 182 181 183 178 177 178 175 175 175 174 173 173 173 173 172 173 173 173 174 174 174 176 176 176 179 179 179 184 183 184 189 189 190 196 196 196 203 203 203 209 209 209 215 215 215 222 222 222 227 227 227 231 231 231 234 234 234 237 237 237 238 238 238 240 240 240 214 214 214 154 154 154 101 101 101 57 57 57 49 49 49 90 90 90 130 130 130 169 169 169 178 178 178 143 143 143 115 115 115 98 98 98 91 91 91 101 101 101 114 114 114 133 133 133 157 157 157 190 190 190 216 216 216 231 231 231 240 240 240 240 240 240 240 240 240 240 240 240 239 239 239 239 239 239 238 238 238 238 238 238 238 238 238 238 238 238 237 237 237 237 237 237 237 237 237 237 237 237 237 237 237 237 237 237 237 237 237 237 237 237 236 236 236 229 229 229 214 214 214 178 178 178 133 133 133 63 63 63 10 10 10 4 4 4 0 0 0 0 0 0 0 0 0 0 0 0 0 0 0 0 0 0 0 0 0 0 0 0 0 0 0 0 0 0 0 0 0 0 0 0 0 0 0 0 0 0 0 0 0 0 0 0 0 0 0 0 0 0 0 0 0 0 0 0 0 0 0 0 0 0 0 0 0 0 0 0 1 1 1 7 7 7 16 16 16 42 42 42 70 70 70 115 115 115 155 155 155 168 168 168 177 177 177 166 166 166 153 153 153 121 121 121 91 91 91 79 79 79 73 73 73 129 129 129 182 182 182 219 219 219 252 252 252 253 253 253 254 254 254 255 255 255 255 255 255 255 255 255 255 255 255 255 255 255 255 255 255 255 255 255 255 255 255 255 255 255 255 255 255 255 255 255 255 255 255 255 255 255 255 255 255 255 255 255 255 255 255 255 255 255 255 255 255 255 255 255 255 255 255 
255 255 255 255 255 255 255 255 255 255 255 255 255 255 255 255 255 255 255 255 255 255 255 255 255 255 255 255 255 255 255 255 255 255 255 255 255 255 255 255 255 255 255 255 255 255 255 255 255 255 255 255 255 255 255 255 255 255 255 255 255 255 255 247 247 247 239 239 239 208 208 208 174 174 174 123 123 123 70 70 70 71 71 71 78 78 78 119 119 119 165 165 165 174 174 174 178 178 178 163 163 163 145 145 145 109 109 109 71 71 71 40 40 40 9 9 9 3 3 3 0 0 0 0 0 0 0 0 0 0 0 0 0 0 0 0 0 0 0 0 0 0 0 0 0 0 0 0 0 0 0 0 0 0 0 0 0 0 0 0 0 0 0 0 0 0 0 0 0 0 0 0 0 0 0 0 0 0 0 0 0 0 0 0 0 0 0 0 0 0 0 0 0 0 0 4 4 4 9 9 9 58 58 58 123 123 123 172 172 172 216 216 216 231 231 231 236 236 236 237 237 237 237 237 237 237 237 237 237 237 237 237 237 237 237 237 237 237 237 237 237 237 237 237 237 237 237 237 237 237 237 237 238 238 238 238 238 238 238 238 238 238 238 238 238 238 238 238 238 238 239 239 239 237 237 237 232 232 232 218 218 218 197 197 197 163 163 163 119 119 119 87 87 87 62 62 62 48 48 48 40 40 40 33 33 33 26 26 26 24 24 24 23 23 23 26 26 26 30 30 30 41 41 41 56 56 56 73 73 73 93 93 93 123 123 123 160 160 160 191 191 191 216 216 216 227 227 227 227 227 227 223 223 223 218 218 218 212 212 212 206 205 205 200 199 199 194 193 194 189 188 190 185 184 185 182 182 182 181 180 180 180 179 179 179 180 180 180 181 181 183 183 182 186 186 186 191 190 191 196 196 197 202 202 203 208 208 208 214 214 214 220 220 220 225 225 225 229 229 229 233 233 233 235 235 235 237 237 237 238 238 238 239 239 239 215 215 215 157 157 157 103 103 103 52 52 52 46 46 46 100 100 100 147 147 147 183 183 183 189 189 189 149 149 149 111 111 111 75 75 75 54 54 54 58 58 58 68 68 68 86 86 86 111 111 111 145 145 145 174 174 174 194 194 194 211 211 211 224 224 224 234 234 234 237 237 237 239 239 239 238 238 238 238 238 238 238 238 238 238 238 238 237 237 237 237 237 237 237 237 237 237 237 237 237 237 237 237 237 237 237 237 237 237 237 237 237 237 237 235 235 235 231 231 231 221 221 221 196 196 196 159 159 159 87 87 87 29 29 29 12 12 12 0 0 0 0 0 0 0 0 0 0 0 0 0 0 0 0 0 0 0 0 0 0 0 0 0 0 0 0 0 0 0 0 0 0 0 0 0 0 0 0 0 0 0 0 0 0 0 0 0 0 0 0 0 0 0 0 0 0 0 0 0 0 0 0 0 0 0 0 0 0 0 0 0 0 0 0 0 0 2 2 2 14 14 14 31 31 31 74 74 74 115 115 115 141 141 141 165 165 165 176 176 176 182 182 182 154 154 154 125 125 125 88 88 88 58 58 58 92 92 92 128 128 128 174 174 174 219 219 219 236 236 236 253 253 253 254 254 254 255 255 255 255 255 255 255 255 255 255 255 255 255 255 255 255 255 255 255 255 255 255 255 255 255 255 255 255 255 255 255 255 255 255 255 255 255 255 255 255 255 255 255 255 255 255 255 255 255 255 255 255 255 255 255 255 255 
255 255 255 255 255 255 255 255 255 255 255 255 255 255 255 255 255 255 255 255 255 255 255 255 255 255 255 255 255 255 255 255 255 255 255 255 255 255 255 255 255 255 255 255 255 255 255 255 255 255 255 255 255 255 254 254 254 255 255 255 255 255 255 232 232 232 208 208 208 147 147 147 83 83 83 78 78 78 79 79 79 110 110 110 145 145 145 163 163 163 178 178 178 174 174 174 168 168 168 130 130 130 88 88 88 57 57 57 26 26 26 13 13 13 3 3 3 1 1 1 0 0 0 0 0 0 0 0 0 0 0 0 0 0 0 0 0 0 0 0 0 0 0 0 0 0 0 0 0 0 0 0 0 0 0 0 0 0 0 0 0 0 0 0 0 0 0 0 0 0 0 0 0 0 0 0 0 0 0 0 0 0 0 0 0 0 0 0 0 0 0 0 0 0 0 10 10 10 23 23 23 80 80 80 153 153 153 193 193 193 223 223 223 233 233 233 235 235 235 236 236 236 236 236 236 236 236 236 236 236 236 236 236 236 236 236 236 236 236 236 236 236 236 236 236 236 236 236 236 237 237 237 237 237 237 237 237 237 237 237 237 237 237 237 238 238 238 239 239 239 239 239 239 230 230 230 216 216 216 180 180 180 132 132 132 101 101 101 79 79 79 61 61 61 45 45 45 35 35 35 29 29 29 26 26 26 24 24 24 23 23 23 23 23 23 31 31 31 44 44 44 76 76 76 120 120 120 154 154 154 181 181 181 200 200 200 212 212 212 222 222 222 229 229 229 231 231 231 230 230 230 226 226 226 221 221 221 216 216 216 211 211 211 205 205 205 200 200 200 196 195 196 191 191 192 189 189 189 187 187 187 186 186 186 186 186 186 187 187 187 189 189 189 192 192 192 197 197 197 202 202 203 208 208 208 214 214 214 219 219 219 224 224 224 228 228 228 231 231 231 233 233 233 235 235 235 237 237 237 238 238 238 239 239 239 216 216 216 163 163 163 109 109 109 55 55 55 48 48 48 108 108 108 147 147 147 156 156 156 157 157 157 143 143 143 114 114 114 64 64 64 34 34 34 38 38 38 46 46 46 59 59 59 74 74 74 91 91 91 108 108 108 127 127 127 154 154 154 194 194 194 223 223 223 233 233 233 239 239 239 238 238 238 238 238 238 238 238 238 238 238 238 237 237 237 237 237 237 237 237 237 236 236 236 236 236 236 236 236 236 236 236 236 236 236 236 236 236 236 235 235 235 233 233 233 225 225 225 205 205 205 174 174 174 113 113 113 58 58 58 25 25 25 0 0 0 0 0 0 0 0 0 0 0 0 0 0 0 0 0 0 0 0 0 0 0 0 0 0 0 0 0 0 0 0 0 0 0 0 0 0 0 0 0 0 0 0 0 0 0 0 0 0 0 0 0 0 0 0 0 0 0 0 0 0 0 0 0 0 0 0 0 0 0 0 0 0 0 0 0 0 1 1 1 5 5 5 11 11 11 29 29 29 51 51 51 93 93 93 134 134 134 159 159 159 181 181 181 175 175 175 167 167 167 141 141 141 115 115 115 87 87 87 66 66 66 110 110 110 154 154 154 204 204 204 250 250 250 252 252 252 255 255 255 255 255 255 254 254 254 255 255 255 255 255 255 255 255 255 255 255 255 255 255 255 255 255 255 255 255 255 255 255 255 255 255 255 255 255 255 255 255 255 255 255 255 255 255 255 255 255 255 255 255 255 255 255 255 
255 255 255 255 255 255 255 255 255 255 255 255 255 255 255 255 255 255 255 255 255 255 255 255 255 255 255 255 255 255 255 255 255 255 255 255 255 255 255 255 255 255 255 255 255 255 255 255 255 255 255 255 255 255 254 254 254 245 245 245 235 235 235 195 195 195 152 152 152 104 104 104 56 56 56 79 79 79 110 110 110 145 145 145 180 180 180 179 179 179 174 174 174 153 153 153 130 130 130 89 89 89 46 46 46 23 23 23 3 3 3 0 0 0 0 0 0 0 0 0 0 0 0 0 0 0 0 0 0 0 0 0 0 0 0 0 0 0 0 0 0 0 0 0 0 0 0 0 0 0 0 0 0 0 0 0 0 0 0 0 0 0 0 0 0 0 0 0 0 0 0 0 0 0 0 0 0 0 0 0 0 0 0 0 0 0 0 0 0 0 0 0 0 0 0 20 20 20 46 46 46 104 104 104 173 173 173 207 207 207 227 227 227 234 234 234 235 235 235 236 236 236 236 236 236 236 236 236 236 236 236 236 236 236 236 236 236 236 236 236 236 236 236 236 236 236 236 236 236 236 236 236 236 236 236 237 237 237 237 237 237 237 237 237 238 238 238 233 233 233 225 225 225 204 204 204 176 176 176 135 135 135 87 87 87 62 62 62 51 51 51 42 42 42 32 32 32 27 27 27 23 23 23 24 24 24 27 27 27 36 36 36 50 50 50 69 69 69 92 92 92 129 129 129 174 174 174 206 206 206 228 228 228 238 238 238 238 238 238 237 237 237 236 236 236 234 234 234 231 231 231 228 228 228 224 224 224 220 220 220 215 215 215 210 210 210 205 205 205 201 201 201 197 197 197 195 195 195 193 193 193 192 192 192 192 192 192 193 193 193 195 195 195 198 198 198 203 203 203 208 208 208 213 213 213 218 218 218 223 223 223 227 227 227 230 230 230 232 232 232 234 234 234 236 236 236 237 237 237 238 238 238 239 239 239 217 217 217 165 165 165 112 112 112 56 56 56 46 46 46 98 98 98 132 132 132 140 140 140 139 139 139 126 126 126 99 99 99 52 52 52 24 24 24 26 26 26 31 31 31 40 40 40 48 48 48 54 54 54 65 65 65 82 82 82 108 108 108 150 150 150 185 185 185 208 208 208 226 226 226 233 233 233 238 238 238 238 238 238 238 238 238 237 237 237 236 236 236 236 236 236 236 236 236 236 236 236 236 236 236 236 236 236 236 236 236 236 236 236 235 235 235 234 234 234 228 228 228 211 211 211 186 186 186 138 138 138 90 90 90 40 40 40 2 2 2 1 1 1 0 0 0 0 0 0 0 0 0 0 0 0 0 0 0 0 0 0 0 0 0 0 0 0 0 0 0 0 0 0 0 0 0 0 0 0 0 0 0 0 0 0 0 0 0 0 0 0 0 0 0 0 0 0 0 0 0 0 0 0 0 0 0 0 0 0 0 0 0 0 0 0 0 0 0 0 0 0 1 1 1 5 5 5 14 14 14 53 53 53 91 91 91 125 125 125 156 156 156 172 172 172 184 184 184 171 171 171 155 155 155 108 108 108 68 68 68 84 84 84 105 105 105 160 160 160 213 213 213 234 234 234 253 253 253 254 254 254 254 254 254 255 255 255 255 255 255 255 255 255 255 255 255 255 255 255 255 255 255 255 255 255 255 255 255 255 255 255 255 255 255 255 255 255 255 255 255 255 255 255 255 255 255 255 255 255 255 255 255 
255 255 255 255 255 255 255 255 255 255 255 255 255 255 255 255 255 255 255 255 255 255 255 255 255 255 255 255 255 255 255 255 255 255 255 255 255 255 255 255 255 255 255 255 255 255 255 255 255 255 255 255 255 255 254 254 254 226 226 226 195 195 195 134 134 134 71 71 71 79 79 79 93 93 93 127 127 127 162 162 162 174 174 174 184 184 184 169 169 169 151 151 151 109 109 109 64 64 64 39 39 39 16 16 16 8 8 8 1 1 1 0 0 0 0 0 0 0 0 0 0 0 0 0 0 0 0 0 0 0 0 0 0 0 0 0 0 0 0 0 0 0 0 0 0 0 0 0 0 0 0 0 0 0 0 0 0 0 0 0 0 0 0 0 0 0 0 0 0 0 0 0 0 0 0 0 0 0 0 0 0 0 0 0 0 0 0 0 0 0 0 0 0 0 0 33 33 33 78 78 78 130 130 130 184 184 184 211 211 211 229 229 229 234 234 234 234 234 234 235 235 235 235 235 235 235 235 235 235 235 235 235 235 235 235 235 235 235 235 235 235 235 235 235 235 235 235 235 235 235 235 235 235 235 235 236 236 236 236 236 236 237 237 237 238 238 238 221 221 221 196 196 196 158 158 158 114 114 114 84 84 84 63 63 63 48 48 48 36 36 36 30 30 30 26 26 26 24 24 24 22 22 22 27 27 27 34 34 34 62 62 62 103 103 103 140 140 140 175 175 175 199 199 199 216 216 216 227 227 227 234 234 234 237 237 237 237 237 237 237 237 237 235 235 235 233 233 233 232 232 232 229 229 229 227 227 227 223 223 223 218 218 218 214 214 214 210 210 210 206 206 206 202 202 202 200 200 200 198 198 198 197 197 197 197 197 197 198 198 198 201 201 201 204 204 204 208 208 208 213 213 213 217 217 217 221 221 221 225 225 225 229 229 229 231 231 231 233 233 233 235 235 235 236 236 236 237 237 237 238 238 238 239 239 239 216 216 216 164 164 164 110 110 110 55 55 55 37 37 37 71 71 71 104 104 104 134 134 134 136 136 136 98 98 98 65 65 65 39 39 39 23 23 23 24 24 24 25 25 25 29 29 29 32 32 32 36 36 36 44 44 44 57 57 57 73 73 73 93 93 93 121 121 121 164 164 164 200 200 200 223 223 223 238 238 238 238 238 238 237 237 237 236 236 236 235 235 235 235 235 235 235 235 235 235 235 235 235 235 235 235 235 235 235 235 235 235 235 235 234 234 234 234 234 234 229 229 229 213 213 213 193 193 193 164 164 164 125 125 125 58 58 58 7 7 7 3 3 3 0 0 0 0 0 0 0 0 0 0 0 0 0 0 0 0 0 0 0 0 0 0 0 0 0 0 0 0 0 0 0 0 0 0 0 0 0 0 0 0 0 0 0 0 0 0 0 0 0 0 0 0 0 0 0 0 0 0 0 0 0 0 0 0 0 0 0 0 0 0 0 0 0 0 0 0 0 0 0 0 0 2 2 2 5 5 5 19 19 19 35 35 35 71 71 71 108 108 108 144 144 144 177 177 177 178 178 178 178 178 178 156 156 156 134 134 134 99 99 99 70 70 70 106 106 106 143 143 143 197 197 197 249 249 249 252 252 252 255 255 255 255 255 255 255 255 255 255 255 255 255 255 255 255 255 255 255 255 255 255 255 255 255 255 255 255 255 255 255 255 255 255 255 255 255 255 255 255 255 255 255 255 255 255 255 255 255 255 255 
255 255 255 255 255 255 255 255 255 255 255 255 255 255 255 255 255 255 255 255 255 255 255 255 255 255 255 255 255 255 255 255 255 255 255 255 255 255 255 255 255 255 255 255 255 255 255 255 255 255 255 245 245 245 235 235 235 188 188 188 139 139 139 96 96 96 54 54 54 89 89 89 131 131 131 160 160 160 188 188 188 179 179 179 165 165 165 138 138 138 108 108 108 66 66 66 23 23 23 10 10 10 1 1 1 0 0 0 0 0 0 0 0 0 0 0 0 0 0 0 0 0 0 0 0 0 0 0 0 0 0 0 0 0 0 0 0 0 0 0 0 0 0 0 0 0 0 0 0 0 0 0 0 0 0 0 0 0 0 0 0 0 0 0 0 0 0 0 0 0 0 0 0 0 0 0 0 0 0 0 0 0 0 0 0 0 0 0 0 1 1 1 3 3 3 49 49 49 109 109 109 153 153 153 193 193 193 214 214 214 230 230 230 234 234 234 234 234 234 234 234 234 234 234 234 234 234 234 234 234 234 234 234 234 234 234 234 234 234 234 235 235 235 235 235 235 235 235 235 235 235 235 235 235 235 236 236 236 236 236 236 232 232 232 225 225 225 196 196 196 155 155 155 114 114 114 72 72 72 52 52 52 45 45 45 36 36 36 27 27 27 23 23 23 22 22 22 28 28 28 38 38 38 54 54 54 76 76 76 111 111 111 155 155 155 191 191 191 222 222 222 235 235 235 237 237 237 237 237 237 236 236 236 236 236 236 236 236 236 236 236 236 234 234 234 233 233 233 232 232 232 230 230 230 228 228 228 225 225 225 222 222 222 218 218 218 214 214 214 210 210 210 207 207 207 205 205 205 203 203 203 203 203 203 203 203 203 204 204 204 206 206 206 209 209 209 213 213 213 217 217 217 220 220 220 221 221 221 218 218 218 219 219 219 226 226 226 231 231 231 234 234 234 236 236 236 237 237 237 235 235 235 229 229 229 209 209 209 171 171 171 128 128 128 80 80 80 58 58 58 75 75 75 96 96 96 123 123 123 120 120 120 75 75 75 43 43 43 30 30 30 23 23 23 22 22 22 22 22 22 23 23 23 24 24 24 26 26 26 31 31 31 39 39 39 48 48 48 57 57 57 77 77 77 119 119 119 160 160 160 196 196 196 224 224 224 231 231 231 236 236 236 236 236 236 235 235 235 235 235 235 235 235 235 234 234 234 234 234 234 234 234 234 234 234 234 234 234 234 234 234 234 234 234 234 230 230 230 214 214 214 199 199 199 182 182 182 151 151 151 77 77 77 19 19 19 8 8 8 0 0 0 0 0 0 0 0 0 0 0 0 0 0 0 0 0 0 0 0 0 0 0 0 0 0 0 0 0 0 0 0 0 0 0 0 0 0 0 0 0 0 0 0 0 0 0 0 0 0 0 0 0 0 0 0 0 0 0 0 0 0 0 0 0 0 0 0 0 0 0 0 0 0 0 0 0 0 0 0 0 0 0 0 0 0 0 1 1 1 5 5 5 33 33 33 63 63 63 103 103 103 142 142 142 163 163 163 182 182 182 179 179 179 173 173 173 126 126 126 83 83 83 87 87 87 96 96 96 156 156 156 212 212 212 234 234 234 254 254 254 254 254 254 255 255 255 255 255 255 255 255 255 255 255 255 255 255 255 255 255 255 255 255 255 255 255 255 255 255 255 255 255 255 255 255 255 255 255 255 255 255 255 255 255 255 255 255 255 
255 255 255 255 255 255 255 255 255 255 255 255 255 255 255 255 255 255 255 255 255 255 255 255 255 255 255 255 255 255 255 255 255 255 255 255 255 255 255 255 255 255 255 255 255 255 255 255 255 255 255 226 226 226 195 195 195 132 132 132 66 66 66 82 82 82 106 106 106 137 137 137 170 170 170 179 179 179 186 186 186 157 157 157 124 124 124 85 85 85 46 46 46 26 26 26 8 8 8 3 3 3 0 0 0 0 0 0 0 0 0 0 0 0 0 0 0 0 0 0 0 0 0 0 0 0 0 0 0 0 0 0 0 0 0 0 0 0 0 0 0 0 0 0 0 0 0 0 0 0 0 0 0 0 0 0 0 0 0 0 0 0 0 0 0 0 0 0 0 0 0 0 0 0 0 0 0 0 0 0 0 0 0 0 0 0 0 0 0 4 4 4 10 10 10 66 66 66 138 138 138 174 174 174 198 198 198 215 215 215 230 230 230 233 233 233 233 233 233 233 233 233 233 233 233 233 233 233 233 233 233 233 233 233 233 233 233 234 234 234 234 234 234 234 234 234 234 234 234 235 235 235 235 235 235 236 236 236 237 237 237 221 221 221 198 198 198 155 155 155 101 101 101 70 70 70 52 52 52 40 40 40 33 33 33 28 28 28 25 25 25 23 23 23 22 22 22 40 40 40 70 70 70 109 109 109 154 154 154 185 185 185 206 206 206 221 221 221 231 231 231 236 236 236 236 236 236 235 235 235 235 235 235 235 235 235 235 235 235 234 234 234 234 234 234 233 233 233 232 232 232 231 231 231 229 229 229 227 227 227 224 224 224 221 221 221 218 218 218 215 215 215 212 212 212 210 210 210 209 209 209 208 208 208 208 208 208 209 209 209 211 211 211 214 214 214 217 217 217 220 220 220 224 224 224 217 217 217 200 200 200 198 198 198 213 213 213 225 225 225 232 232 232 237 237 237 237 237 237 229 229 229 210 210 210 195 195 195 187 187 187 167 167 167 131 131 131 110 110 110 111 111 111 111 111 111 107 107 107 91 91 91 57 57 57 33 33 33 27 27 27 23 23 23 22 22 22 22 22 22 23 23 23 23 23 23 24 24 24 25 25 25 29 29 29 34 34 34 43 43 43 55 55 55 74 74 74 103 103 103 153 153 153 194 194 194 219 219 219 236 236 236 235 235 235 235 235 235 235 235 235 234 234 234 234 234 234 233 233 233 233 233 233 233 233 233 233 233 233 233 233 233 233 233 233 229 229 229 215 215 215 202 202 202 193 193 193 168 168 168 98 98 98 40 40 40 17 17 17 0 0 0 0 0 0 0 0 0 0 0 0 0 0 0 0 0 0 0 0 0 0 0 0 0 0 0 0 0 0 0 0 0 0 0 0 0 0 0 0 0 0 0 0 0 0 0 0 0 0 0 0 0 0 0 0 0 0 0 0 0 0 0 0 0 0 0 0 0 0 0 0 0 0 0 0 0 0 0 0 0 0 0 0 0 0 0 0 0 0 2 2 2 11 11 11 23 23 23 49 49 49 78 78 78 124 124 124 166 166 166 177 177 177 185 185 185 166 166 166 145 145 145 108 108 108 75 75 75 109 109 109 143 143 143 199 199 199 251 251 251 253 253 253 254 254 254 255 255 255 255 255 255 255 255 255 255 255 255 255 255 255 255 255 255 255 255 255 255 255 255 255 255 255 255 255 255 255 255 255 255 255 255 255 255 255 255 255 255 
255 255 255 255 255 255 255 255 255 255 255 255 255 255 255 255 255 255 255 255 255 255 255 255 255 255 255 255 255 255 255 255 255 255 255 255 255 255 255 255 255 255 255 255 255 247 247 247 239 239 239 191 191 191 140 140 140 97 97 97 54 54 54 96 96 96 146 146 146 168 168 168 188 188 188 175 175 175 159 159 159 120 120 120 79 79 79 44 44 44 10 10 10 3 3 3 0 0 0 0 0 0 0 0 0 0 0 0 0 0 0 0 0 0 0 0 0 0 0 0 0 0 0 0 0 0 0 0 0 0 0 0 0 0 0 0 0 0 0 0 0 0 0 0 0 0 0 0 0 0 0 0 0 0 0 0 0 0 0 0 0 0 0 0 0 0 0 0 0 0 0 0 0 0 0 0 0 0 0 0 0 0 0 0 0 0 0 0 0 10 10 10 24 24 24 84 84 84 159 159 159 189 189 189 203 203 203 216 216 216 229 229 229 233 233 233 233 233 233 233 233 233 233 233 233 233 233 233 233 233 233 233 233 233 233 233 233 233 233 233 233 233 233 234 234 234 234 234 234 235 235 235 235 235 235 232 232 232 225 225 225 197 197 197 157 157 157 112 112 112 66 66 66 45 45 45 38 38 38 31 31 31 26 26 26 24 24 24 24 24 24 33 33 33 47 47 47 78 78 78 118 118 118 160 160 160 204 204 204 226 226 226 233 233 233 236 236 236 235 235 235 235 235 235 234 234 234 234 234 234 234 234 234 233 233 233 233 233 233 233 233 233 233 233 233 232 232 232 232 232 232 231 231 231 230 230 230 228 228 228 227 227 227 224 224 224 222 222 222 219 219 219 216 216 216 214 214 214 213 213 213 213 213 213 213 213 213 214 214 214 216 216 216 218 218 218 220 220 220 219 219 219 213 213 213 196 196 196 165 165 165 157 157 157 174 174 174 195 195 195 219 219 219 230 230 230 225 225 225 208 208 208 174 174 174 158 158 158 167 167 167 169 169 169 165 165 165 161 161 161 155 155 155 146 146 146 132 132 132 114 114 114 91 91 91 73 73 73 63 63 63 53 53 53 43 43 43 35 35 35 29 29 29 24 24 24 23 23 23 22 22 22 23 23 23 26 26 26 33 33 33 40 40 40 46 46 46 65 65 65 110 110 110 153 153 153 194 194 194 224 224 224 231 231 231 235 235 235 234 234 234 234 234 234 233 233 233 233 233 233 233 233 233 233 233 233 233 233 233 233 233 233 233 233 233 229 229 229 216 216 216 205 205 205 199 199 199 179 179 179 119 119 119 65 65 65 28 28 28 0 0 0 0 0 0 0 0 0 0 0 0 0 0 0 0 0 0 0 0 0 0 0 0 0 0 0 0 0 0 0 0 0 0 0 0 0 0 0 0 0 0 0 0 0 0 0 0 0 0 0 0 0 0 0 0 0 0 0 0 0 0 0 0 0 0 0 0 0 0 0 0 0 0 0 0 0 0 0 0 0 0 0 0 0 0 0 0 0 0 0 0 0 0 0 0 2 2 2 16 16 16 34 34 34 81 81 81 126 126 126 153 153 153 178 178 178 182 182 182 181 181 181 135 135 135 92 92 92 92 92 92 96 96 96 159 159 159 219 219 219 237 237 237 254 254 254 254 254 254 255 255 255 255 255 255 255 255 255 255 255 255 255 255 255 255 255 255 255 255 255 255 255 255 255 255 255 255 255 255 255 255 255 255 255 255 255 255 255 
255 255 255 255 255 255 255 255 255 255 255 255 255 255 255 255 255 255 255 255 255 255 255 255 255 255 255 255 255 255 255 255 255 255 255 255 255 255 255 255 255 255 255 255 255 230 230 230 204 204 204 137 137 137 67 67 67 83 83 83 105 105 105 140 140 140 175 175 175 180 180 180 182 182 182 146 146 146 106 106 106 68 68 68 30 30 30 15 15 15 3 3 3 1 1 1 0 0 0 0 0 0 0 0 0 0 0 0 0 0 0 0 0 0 0 0 0 0 0 0 0 0 0 0 0 0 0 0 0 0 0 0 0 0 0 0 0 0 0 0 0 0 0 0 0 0 0 0 0 0 0 0 0 0 0 0 0 0 0 0 0 0 0 0 0 0 0 0 0 0 0 0 0 0 0 0 0 0 0 0 0 0 0 0 0 0 0 0 0 20 20 20 46 46 46 103 103 103 172 172 172 197 197 197 206 206 206 217 217 217 228 228 228 232 232 232 232 232 232 232 232 232 232 232 232 232 232 232 232 232 232 232 232 232 232 232 232 232 232 232 232 232 232 233 233 233 234 234 234 234 234 234 235 235 235 222 222 222 202 202 202 157 157 157 100 100 100 68 68 68 50 50 50 38 38 38 30 30 30 26 26 26 23 23 23 24 24 24 27 27 27 56 56 56 100 100 100 143 143 143 184 184 184 210 210 210 224 224 224 232 232 232 234 234 234 234 234 234 234 234 234 233 233 233 233 233 233 233 233 233 233 233 233 232 232 232 232 232 232 232 232 232 232 232 232 232 232 232 232 232 232 231 231 231 230 230 230 229 229 229 228 228 228 226 226 226 224 224 224 222 222 222 220 220 220 218 218 218 217 217 217 217 217 217 217 217 217 218 218 218 220 220 220 222 222 222 224 224 224 213 213 213 188 188 188 154 154 154 111 111 111 94 94 94 107 107 107 139 139 139 193 193 193 216 216 216 201 201 201 170 170 170 120 120 120 97 97 97 107 107 107 134 134 134 183 183 183 210 210 210 208 208 208 205 205 205 200 200 200 193 193 193 181 181 181 165 165 165 141 141 141 116 116 116 87 87 87 61 61 61 41 41 41 27 27 27 24 24 24 22 22 22 22 22 22 23 23 23 26 26 26 30 30 30 38 38 38 49 49 49 68 68 68 99 99 99 155 155 155 199 199 199 221 221 221 235 235 235 234 234 234 233 233 233 233 233 233 232 232 232 232 232 232 232 232 232 232 232 232 232 232 232 232 232 232 228 228 228 217 217 217 207 207 207 200 200 200 184 184 184 141 141 141 95 95 95 41 41 41 1 1 1 0 0 0 0 0 0 0 0 0 0 0 0 0 0 0 0 0 0 0 0 0 0 0 0 0 0 0 0 0 0 0 0 0 0 0 0 0 0 0 0 0 0 0 0 0 0 0 0 0 0 0 0 0 0 0 0 0 0 0 0 0 0 0 0 0 0 0 0 0 0 0 0 0 0 0 0 0 0 0 0 0 0 0 0 0 0 0 0 0 0 0 0 0 1 1 1 6 6 6 12 12 12 34 34 34 59 59 59 107 107 107 153 153 153 172 172 172 187 187 187 169 169 169 149 149 149 109 109 109 74 74 74 116 116 116 158 158 158 207 207 207 253 253 253 254 254 254 254 254 254 255 255 255 255 255 255 255 255 255 255 255 255 255 255 255 255 255 255 255 255 255 255 255 255 255 255 255 255 255 255 255 255 255 255 255 255 
255 255 255 255 255 255 255 255 255 255 255 255 255 255 255 255 255 255 255 255 255 255 255 255 255 255 255 255 255 255 255 255 255 255 255 255 255 255 255 249 249 249 243 243 243 198 198 198 151 151 151 101 101 101 50 50 50 95 95 95 146 146 146 168 168 168 188 188 188 171 171 171 151 151 151 107 107 107 60 60 60 30 30 30 3 3 3 0 0 0 0 0 0 0 0 0 0 0 0 0 0 0 0 0 0 0 0 0 0 0 0 0 0 0 0 0 0 0 0 0 0 0 0 0 0 0 0 0 0 0 0 0 0 0 0 0 0 0 0 0 0 0 0 0 0 0 0 0 0 0 0 0 0 0 0 0 0 0 0 0 0 0 0 0 0 0 0 0 0 0 0 0 0 0 0 0 0 0 0 0 0 0 0 0 0 0 0 0 0 31 31 31 71 71 71 124 124 124 181 181 181 201 201 201 208 208 208 217 217 217 228 228 228 231 231 231 231 231 231 231 231 231 231 231 231 231 231 231 231 231 231 231 231 231 232 232 232 232 232 232 232 232 232 233 233 233 233 233 233 230 230 230 225 225 225 199 199 199 162 162 162 115 115 115 63 63 63 42 42 42 37 37 37 32 32 32 25 25 25 24 24 24 26 26 26 40 40 40 60 60 60 99 99 99 151 151 151 190 190 190 223 223 223 235 235 235 234 234 234 234 234 234 233 233 233 233 233 233 233 233 233 232 232 232 232 232 232 232 232 232 232 232 232 231 231 231 231 231 231 231 231 231 231 231 231 231 231 231 232 232 232 231 231 231 231 231 231 230 230 230 228 228 228 227 227 227 225 225 225 224 224 224 223 223 223 222 222 222 221 221 221 221 221 221 221 221 221 221 221 221 223 223 223 225 225 225 227 227 227 213 213 213 182 182 182 139 139 139 82 82 82 55 55 55 65 65 65 97 97 97 156 156 156 181 181 181 164 164 164 132 132 132 81 81 81 61 61 61 79 79 79 120 120 120 193 193 193 236 236 236 236 236 236 235 235 235 235 235 235 234 234 234 230 230 230 218 218 218 195 195 195 169 169 169 139 139 139 112 112 112 88 88 88 66 66 66 49 49 49 35 35 35 27 27 27 22 22 22 23 23 23 25 25 25 30 30 30 36 36 36 43 43 43 63 63 63 112 112 112 158 158 158 200 200 200 230 230 230 232 232 232 233 233 233 232 232 232 232 232 232 231 231 231 231 231 231 231 231 231 231 231 231 231 231 231 228 228 228 217 217 217 208 208 208 201 201 201 188 188 188 159 159 159 121 121 121 56 56 56 5 5 5 2 2 2 0 0 0 0 0 0 0 0 0 0 0 0 0 0 0 0 0 0 0 0 0 0 0 0 0 0 0 0 0 0 0 0 0 0 0 0 0 0 0 0 0 0 0 0 0 0 0 0 0 0 0 0 0 0 0 0 0 0 0 0 0 0 0 0 0 0 0 0 0 0 0 0 0 0 0 0 0 0 0 0 0 0 0 0 0 0 0 0 0 0 0 0 0 0 0 0 1 1 1 8 8 8 19 19 19 65 65 65 110 110 110 144 144 144 176 176 176 181 181 181 182 182 182 133 133 133 89 89 89 97 97 97 108 108 108 170 170 170 230 230 230 242 242 242 254 254 254 255 255 255 255 255 255 255 255 255 255 255 255 255 255 255 255 255 255 255 255 255 255 255 255 255 255 255 255 255 255 255 255 255 255 255 255 
255 255 255 255 255 255 255 255 255 255 255 255 255 255 255 255 255 255 255 255 255 255 255 255 255 255 255 255 255 255 255 255 255 255 255 255 255 255 255 237 237 237 219 219 219 148 148 148 75 75 75 83 83 83 96 96 96 135 135 135 175 175 175 180 180 180 181 181 181 138 138 138 90 90 90 56 56 56 23 23 23 11 11 11 1 1 1 0 0 0 0 0 0 0 0 0 0 0 0 0 0 0 0 0 0 0 0 0 0 0 0 0 0 0 0 0 0 0 0 0 0 0 0 0 0 0 0 0 0 0 0 0 0 0 0 0 0 0 0 0 0 0 0 0 0 0 0 0 0 0 0 0 0 0 0 0 0 0 0 0 0 0 0 0 0 0 0 0 0 0 0 0 0 0 0 0 0 0 0 0 0 0 0 0 0 0 0 0 0 44 44 44 101 101 101 146 146 146 186 186 186 202 202 202 210 210 210 218 218 218 227 227 227 230 230 230 230 230 230 230 230 230 230 230 230 230 230 230 230 230 230 231 231 231 231 231 231 232 232 232 232 232 232 232 232 232 233 233 233 222 222 222 205 205 205 160 160 160 103 103 103 70 70 70 50 50 50 37 37 37 30 30 30 25 25 25 23 23 23 27 27 27 35 35 35 72 72 72 126 126 126 166 166 166 199 199 199 219 219 219 229 229 229 233 233 233 233 233 233 233 233 233 232 232 232 232 232 232 231 231 231 231 231 231 231 231 231 231 231 231 231 231 231 230 230 230 230 230 230 230 230 230 231 231 231 231 231 231 231 231 231 231 231 231 231 231 231 230 230 230 228 228 228 226 226 226 224 224 224 223 223 223 225 225 225 225 225 225 224 224 224 224 224 224 224 224 224 225 225 225 225 225 225 227 227 227 228 228 228 219 219 219 199 199 199 154 154 154 81 81 81 45 45 45 50 50 50 69 69 69 107 107 107 123 123 123 114 114 114 93 93 93 59 59 59 53 53 53 84 84 84 130 130 130 196 196 196 235 235 235 235 235 235 234 234 234 234 234 234 233 233 233 232 232 232 228 228 228 220 220 220 211 211 211 201 201 201 189 189 189 173 173 173 146 146 146 100 100 100 62 62 62 38 38 38 22 22 22 22 22 22 23 23 23 25 25 25 29 29 29 37 37 37 47 47 47 65 65 65 99 99 99 168 168 168 219 219 219 227 227 227 233 233 233 232 232 232 231 231 231 231 231 231 230 230 230 230 230 230 230 230 230 230 230 230 227 227 227 218 218 218 210 210 210 202 202 202 192 192 192 175 175 175 144 144 144 71 71 71 14 14 14 6 6 6 0 0 0 0 0 0 0 0 0 0 0 0 0 0 0 0 0 0 0 0 0 0 0 0 0 0 0 0 0 0 0 0 0 0 0 0 0 0 0 0 0 0 0 0 0 0 0 0 0 0 0 0 0 0 0 0 0 0 0 0 0 0 0 0 0 0 0 0 0 0 0 0 0 0 0 0 0 0 0 0 0 0 0 0 0 0 0 0 0 0 0 0 0 0 0 0 0 0 0 3 3 3 7 7 7 26 26 26 48 48 48 97 97 97 145 145 145 168 168 168 188 188 188 167 167 167 145 145 145 106 106 106 73 73 73 127 127 127 180 180 180 218 218 218 254 254 254 255 255 255 255 255 255 255 255 255 255 255 255 255 255 255 255 255 255 255 255 255 255 255 255 255 255 255 255 255 255 255 255 255 255 255 255 
255 255 255 255 255 255 255 255 255 255 255 255 255 255 255 255 255 255 255 255 255 255 255 255 255 255 255 255 255 255 255 255 255 252 252 252 248 248 248 209 209 209 168 168 168 109 109 109 50 50 50 90 90 90 136 136 136 163 163 163 188 188 188 170 170 170 149 149 149 99 99 99 45 45 45 22 22 22 2 2 2 0 0 0 0 0 0 0 0 0 0 0 0 0 0 0 0 0 0 0 0 0 0 0 0 0 0 0 0 0 0 0 0 0 0 0 0 0 0 0 0 0 0 0 0 0 0 0 0 0 0 0 0 0 0 0 0 0 0 0 0 0 0 0 0 0 0 0 0 0 0 0 0 0 0 0 0 0 0 0 0 0 0 0 0 0 0 0 0 0 0 0 0 0 0 0 0 0 0 0 0 0 0 2 2 2 4 4 4 57 57 57 127 127 127 164 164 164 190 190 190 203 203 203 211 211 211 219 219 219 227 227 227 229 229 229 229 229 229 229 229 229 229 229 229 229 229 229 230 230 230 230 230 230 231 231 231 231 231 231 232 232 232 230 230 230 228 228 228 204 204 204 169 169 169 121 121 121 65 65 65 43 43 43 38 38 38 32 32 32 25 25 25 24 24 24 27 27 27 45 45 45 72 72 72 118 118 118 176 176 176 209 209 209 227 227 227 233 233 233 233 233 233 232 232 232 232 232 232 231 231 231 231 231 231 230 230 230 230 230 230 230 230 230 230 230 230 230 230 230 230 230 230 230 230 230 230 230 230 230 230 230 231 231 231 231 231 231 231 231 231 231 231 231 231 231 231 221 221 221 203 203 203 193 193 193 189 189 189 195 195 195 210 210 210 219 219 219 224 224 224 223 223 223 215 215 215 207 207 207 200 200 200 198 198 198 203 203 203 206 206 206 207 207 207 176 176 176 109 109 109 65 65 65 48 48 48 49 49 49 70 70 70 80 80 80 76 76 76 64 64 64 42 42 42 51 51 51 99 99 99 150 150 150 203 203 203 234 234 234 233 233 233 233 233 233 233 233 233 232 232 232 232 232 232 232 232 232 233 233 233 233 233 233 233 233 233 230 230 230 221 221 221 198 198 198 152 152 152 109 109 109 75 75 75 48 48 48 34 34 34 25 25 25 23 23 23 24 24 24 31 31 31 36 36 36 39 39 39 63 63 63 132 132 132 188 188 188 214 214 214 232 232 232 232 232 232 231 231 231 230 230 230 230 230 230 229 229 229 229 229 229 229 229 229 227 227 227 219 219 219 211 211 211 202 202 202 194 194 194 186 186 186 162 162 162 88 88 88 29 29 29 13 13 13 0 0 0 0 0 0 0 0 0 0 0 0 0 0 0 0 0 0 0 0 0 0 0 0 0 0 0 0 0 0 0 0 0 0 0 0 0 0 0 0 0 0 0 0 0 0 0 0 0 0 0 0 0 0 0 0 0 0 0 0 0 0 0 0 0 0 0 0 0 0 0 0 0 0 0 0 0 0 0 0 0 0 0 0 0 0 0 0 0 0 0 0 0 0 0 0 0 0 0 0 0 0 0 0 0 4 4 4 11 11 11 57 57 57 101 101 101 140 140 140 176 176 176 180 180 180 179 179 179 127 127 127 80 80 80 103 103 103 128 128 128 184 184 184 238 238 238 247 247 247 255 255 255 255 255 255 255 255 255 255 255 255 255 255 255 255 255 255 255 255 255 255 255 255 255 255 255 255 255 255 255 255 255 
255 255 255 255 255 255 255 255 255 255 255 255 255 255 255 255 255 255 255 255 255 255 255 255 255 255 255 255 255 255 254 254 254 244 244 244 234 234 234 162 162 162 88 88 88 83 83 83 83 83 83 125 125 125 170 170 170 178 178 178 182 182 182 137 137 137 89 89 89 52 52 52 17 17 17 8 8 8 1 1 1 0 0 0 0 0 0 0 0 0 0 0 0 0 0 0 0 0 0 0 0 0 0 0 0 0 0 0 0 0 0 0 0 0 0 0 0 0 0 0 0 0 0 0 0 0 0 0 0 0 0 0 0 0 0 0 0 0 0 0 0 0 0 0 0 0 0 0 0 0 0 0 0 0 0 0 0 0 0 0 0 0 0 0 0 0 0 0 0 0 0 0 0 0 0 0 0 0 0 0 0 0 0 6 6 6 13 13 13 72 72 72 148 148 148 178 178 178 192 192 192 203 203 203 213 213 213 220 220 220 226 226 226 228 228 228 228 228 228 228 228 228 228 228 228 228 228 228 229 229 229 230 230 230 230 230 230 231 231 231 232 232 232 226 226 226 218 218 218 176 176 176 117 117 117 79 79 79 53 53 53 38 38 38 30 30 30 25 25 25 23 23 23 29 29 29 39 39 39 80 80 80 139 139 139 180 180 180 210 210 210 224 224 224 230 230 230 232 232 232 231 231 231 231 231 231 231 231 231 230 230 230 230 230 230 230 230 230 230 230 230 230 230 230 229 229 229 229 229 229 229 229 229 229 229 229 229 229 229 230 230 230 230 230 230 230 230 230 231 231 231 231 231 231 230 230 230 203 203 203 151 151 151 123 123 123 115 115 115 133 133 133 175 175 175 203 203 203 220 220 220 216 216 216 192 192 192 167 167 167 141 141 141 134 134 134 146 146 146 170 170 170 205 205 205 206 206 206 167 167 167 120 120 120 62 62 62 36 36 36 47 47 47 54 54 54 53 53 53 47 47 47 33 33 33 55 55 55 125 125 125 180 180 180 214 214 214 233 233 233 232 232 232 232 232 232 231 231 231 231 231 231 231 231 231 231 231 231 231 231 231 231 231 231 232 232 232 231 231 231 228 228 228 220 220 220 204 204 204 181 181 181 145 145 145 105 105 105 61 61 61 30 30 30 25 25 25 23 23 23 25 25 25 29 29 29 37 37 37 54 54 54 91 91 91 134 134 134 192 192 192 231 231 231 231 231 231 231 231 231 230 230 230 229 229 229 229 229 229 228 228 228 228 228 228 226 226 226 220 220 220 213 213 213 203 203 203 194 194 194 191 191 191 172 172 172 106 106 106 50 50 50 22 22 22 0 0 0 0 0 0 0 0 0 0 0 0 0 0 0 0 0 0 0 0 0 0 0 0 0 0 0 0 0 0 0 0 0 0 0 0 0 0 0 0 0 0 0 0 0 0 0 0 0 0 0 0 0 0 0 0 0 0 0 0 0 0 0 0 0 0 0 0 0 0 0 0 0 0 0 0 0 0 0 0 0 0 0 0 0 0 0 0 0 0 0 0 0 0 0 0 0 0 0 0 0 0 0 0 0 1 1 1 4 4 4 23 23 23 44 44 44 96 96 96 145 145 145 168 168 168 187 187 187 162 162 162 136 136 136 101 101 101 72 72 72 139 139 139 204 204 204 230 230 230 254 254 254 255 255 255 255 255 255 255 255 255 255 255 255 255 255 255 255 255 255 255 255 255 255 255 255 255 255 255 255 255 255 
255 255 255 255 255 255 255 255 255 255 255 255 255 255 255 255 255 255 255 255 255 255 255 255 255 255 255 253 253 253 252 252 252 221 221 221 190 190 190 122 122 122 52 52 52 83 83 83 121 121 121 154 154 154 187 187 187 172 172 172 152 152 152 99 99 99 43 43 43 21 21 21 2 2 2 0 0 0 0 0 0 0 0 0 0 0 0 0 0 0 0 0 0 0 0 0 0 0 0 0 0 0 0 0 0 0 0 0 0 0 0 0 0 0 0 0 0 2 2 2 3 3 3 3 3 3 2 2 2 1 1 1 0 0 0 0 0 0 0 0 0 0 0 0 0 0 0 0 0 0 0 0 0 0 0 0 0 0 0 0 0 0 0 0 0 0 0 0 0 0 0 0 0 0 0 0 0 0 0 0 0 0 0 12 12 12 27 27 27 88 88 88 163 163 163 187 187 187 193 193 193 203 203 203 213 213 213 220 220 220 226 226 226 227 227 227 227 227 227 227 227 227 227 227 227 228 228 228 229 229 229 229 229 229 230 230 230 230 230 230 231 231 231 215 215 215 190 190 190 141 141 141 80 80 80 52 52 52 42 42 42 33 33 33 25 25 25 24 24 24 27 27 27 46 46 46 74 74 74 124 124 124 188 188 188 218 218 218 229 229 229 232 232 232 232 232 232 231 231 231 230 230 230 230 230 230 230 230 230 230 230 230 229 229 229 229 229 229 230 230 230 230 230 230 229 229 229 229 229 229 229 229 229 229 229 229 229 229 229 229 229 229 230 230 230 230 230 230 231 231 231 231 231 231 230 230 230 189 189 189 113 113 113 73 73 73 66 66 66 91 91 91 146 146 146 187 187 187 216 216 216 211 211 211 173 173 173 135 135 135 97 97 97 85 85 85 102 102 102 140 140 140 201 201 201 225 225 225 207 207 207 165 165 165 94 94 94 51 51 51 41 41 41 35 35 35 36 36 36 33 33 33 26 26 26 58 58 58 142 142 142 199 199 199 220 220 220 232 232 232 231 231 231 231 231 231 230 230 230 229 229 229 229 229 229 229 229 229 229 229 229 230 230 230 230 230 230 231 231 231 231 231 231 232 232 232 232 232 232 222 222 222 193 193 193 157 157 157 106 106 106 65 65 65 44 44 44 29 29 29 25 25 25 25 25 25 33 33 33 44 44 44 60 60 60 93 93 93 164 164 164 216 216 216 225 225 225 231 231 231 230 230 230 229 229 229 228 228 228 228 228 228 228 228 228 226 226 226 220 220 220 214 214 214 203 203 203 195 195 195 194 194 194 180 180 180 125 125 125 73 73 73 32 32 32 0 0 0 0 0 0 0 0 0 0 0 0 0 0 0 0 0 0 0 0 0 0 0 0 0 0 0 0 0 0 0 0 0 0 0 0 0 0 0 0 0 0 0 0 0 0 0 0 0 0 0 1 1 1 1 1 1 3 3 3 5 5 5 3 3 3 1 1 1 1 1 1 0 0 0 0 0 0 0 0 0 0 0 0 0 0 0 0 0 0 0 0 0 0 0 0 0 0 0 0 0 0 0 0 0 0 0 0 0 0 0 3 3 3 10 10 10 56 56 56 102 102 102 142 142 142 179 179 179 177 177 177 173 173 173 117 117 117 68 68 68 111 111 111 154 154 154 201 201 201 247 247 247 251 251 251 255 255 255 255 255 255 255 255 255 255 255 255 255 255 255 255 255 255 255 255 255 255 255 255 255 255 255 
255 255 255 255 255 255 255 255 255 255 255 255 255 255 255 255 255 255 255 255 255 255 255 255 254 254 254 250 250 250 246 246 246 180 180 180 112 112 112 89 89 89 68 68 68 114 114 114 164 164 164 175 175 175 183 183 183 141 141 141 95 95 95 56 56 56 17 17 17 7 7 7 1 1 1 0 0 0 0 0 0 0 0 0 0 0 0 0 0 0 0 0 0 0 0 0 0 0 0 0 0 0 0 0 0 0 0 0 0 0 0 0 0 0 1 1 1 5 5 5 10 10 10 9 9 9 8 8 8 4 4 4 1 1 1 0 0 0 0 0 0 0 0 0 0 0 0 0 0 0 0 0 0 0 0 0 0 0 0 0 0 0 0 0 0 0 0 0 0 0 0 0 0 0 0 0 0 0 0 0 0 0 0 20 20 20 46 46 46 104 104 104 173 173 173 192 192 192 194 194 194 203 203 203 214 214 214 220 220 220 225 225 225 226 226 226 226 226 226 227 227 227 227 227 227 227 227 227 228 228 228 229 229 229 229 229 229 230 230 230 231 231 231 195 195 195 141 141 141 99 99 99 61 61 61 42 42 42 32 32 32 26 26 26 23 23 23 28 28 28 39 39 39 80 80 80 138 138 138 180 180 180 212 212 212 227 227 227 230 230 230 231 231 231 231 231 231 230 230 230 230 230 230 229 229 229 229 229 229 229 229 229 230 230 230 230 230 230 229 229 229 229 229 229 230 230 230 230 230 230 230 230 230 230 230 230 230 230 230 230 230 230 230 230 230 230 230 230 231 231 231 231 231 231 230 230 230 181 181 181 91 91 91 47 47 47 44 44 44 70 70 70 124 124 124 170 170 170 211 211 211 207 207 207 160 160 160 114 114 114 70 70 70 55 55 55 73 73 73 119 119 119 193 193 193 230 230 230 224 224 224 197 197 197 148 148 148 100 100 100 53 53 53 27 27 27 27 27 27 26 26 26 23 23 23 59 59 59 146 146 146 203 203 203 222 222 222 232 232 232 231 231 231 230 230 230 229 229 229 228 228 228 228 228 228 228 228 228 228 228 228 228 228 228 229 229 229 229 229 229 230 230 230 230 230 230 231 231 231 227 227 227 218 218 218 201 201 201 172 172 172 135 135 135 83 83 83 44 44 44 31 31 31 23 23 23 28 28 28 34 34 34 43 43 43 69 69 69 131 131 131 183 183 183 211 211 211 231 231 231 229 229 229 228 228 228 228 228 228 228 228 228 227 227 227 225 225 225 221 221 221 214 214 214 203 203 203 195 195 195 195 195 195 184 184 184 144 144 144 99 99 99 43 43 43 1 1 1 0 0 0 0 0 0 0 0 0 0 0 0 0 0 0 0 0 0 0 0 0 0 0 0 0 0 0 0 0 0 0 0 0 0 0 0 0 0 0 0 0 0 0 0 0 0 0 0 2 2 2 4 4 4 11 11 11 16 16 16 10 10 10 5 5 5 2 2 2 0 0 0 0 0 0 0 0 0 0 0 0 0 0 0 0 0 0 0 0 0 0 0 0 0 0 0 0 0 0 0 0 0 0 0 0 0 0 0 1 1 1 4 4 4 23 23 23 45 45 45 99 99 99 151 151 151 170 170 170 185 185 185 154 154 154 124 124 124 102 102 102 84 84 84 160 160 160 233 233 233 244 244 244 254 254 254 255 255 255 255 255 255 255 255 255 255 255 255 255 255 255 255 255 255 255 255 255 255 255 255 
255 255 255 255 255 255 255 255 255 255 255 255 255 255 255 255 255 255 255 255 255 254 254 254 254 254 254 235 235 235 215 215 215 140 140 140 63 63 63 79 79 79 100 100 100 143 143 143 188 188 188 175 175 175 158 158 158 106 106 106 50 50 50 25 25 25 2 2 2 0 0 0 0 0 0 0 0 0 0 0 0 0 0 0 0 0 0 0 0 0 0 0 0 0 0 0 1 1 1 3 3 3 5 5 5 9 9 9 13 13 13 18 18 18 22 22 22 27 27 27 33 33 33 25 25 25 15 15 15 8 8 8 1 1 1 0 0 0 0 0 0 0 0 0 0 0 0 0 0 0 0 0 0 0 0 0 0 0 0 0 0 0 0 0 0 0 0 0 0 0 0 0 0 0 0 0 0 0 0 0 0 0 0 29 29 29 68 68 68 121 121 121 179 179 179 194 194 194 195 195 195 203 203 203 214 214 214 220 220 220 224 224 224 226 226 226 226 226 226 226 226 226 226 226 226 227 227 227 228 228 228 228 228 228 229 229 229 225 225 225 219 219 219 170 170 170 102 102 102 66 66 66 46 46 46 34 34 34 26 26 26 23 23 23 23 23 23 42 42 42 71 71 71 122 122 122 185 185 185 215 215 215 227 227 227 231 231 231 231 231 231 230 230 230 230 230 230 229 229 229 229 229 229 229 229 229 229 229 229 229 229 229 228 228 228 222 222 222 214 214 214 210 210 210 210 210 210 212 212 212 217 217 217 222 222 222 227 227 227 228 228 228 226 226 226 227 227 227 230 230 230 231 231 231 230 230 230 177 177 177 80 80 80 33 33 33 31 31 31 56 56 56 106 106 106 157 157 157 207 207 207 206 206 206 153 153 153 103 103 103 54 54 54 37 37 37 54 54 54 104 104 104 188 188 188 233 233 233 233 233 233 217 217 217 182 182 182 131 131 131 61 61 61 22 22 22 22 22 22 22 22 22 23 23 23 59 59 59 138 138 138 194 194 194 218 218 218 231 231 231 230 230 230 229 229 229 228 228 228 227 227 227 227 227 227 227 227 227 227 227 227 227 227 227 227 227 227 227 227 227 228 228 228 228 228 228 229 229 229 229 229 229 230 230 230 226 226 226 213 213 213 185 185 185 129 129 129 81 81 81 48 48 48 26 26 26 26 26 26 27 27 27 33 33 33 51 51 51 99 99 99 147 147 147 195 195 195 229 229 229 229 229 229 228 228 228 228 228 228 227 227 227 226 226 226 225 225 225 221 221 221 215 215 215 203 203 203 195 195 195 195 195 195 188 188 188 159 159 159 121 121 121 55 55 55 4 4 4 2 2 2 0 0 0 0 0 0 0 0 0 0 0 0 0 0 0 0 0 0 0 0 0 0 0 0 0 0 0 0 0 0 0 0 0 0 0 0 0 0 0 0 0 0 0 0 0 3 3 3 7 7 7 23 23 23 36 36 36 33 33 33 29 29 29 23 23 23 18 18 18 13 13 13 9 9 9 5 5 5 2 2 2 1 1 1 0 0 0 0 0 0 0 0 0 0 0 0 0 0 0 0 0 0 0 0 0 0 0 0 0 0 0 4 4 4 11 11 11 61 61 61 110 110 110 148 148 148 183 183 183 174 174 174 163 163 163 110 110 110 63 63 63 128 128 128 192 192 192 223 223 223 253 253 253 254 254 254 255 255 255 255 255 255 255 255 255 255 255 255 255 255 255 255 255 255 255 255 255 
255 255 255 255 255 255 255 255 255 255 255 255 255 255 255 255 255 255 255 255 255 254 254 254 253 253 253 203 203 203 153 153 153 102 102 102 51 51 51 98 98 98 150 150 150 169 169 169 187 187 187 149 149 149 107 107 107 63 63 63 20 20 20 9 9 9 1 1 1 0 0 0 0 0 0 0 0 0 0 0 0 0 0 0 0 0 0 0 0 0 0 0 0 1 1 1 2 2 2 9 9 9 16 16 16 29 29 29 43 43 43 56 56 56 68 68 68 72 72 72 75 75 75 52 52 52 24 24 24 11 11 11 2 2 2 0 0 0 0 0 0 0 0 0 0 0 0 0 0 0 0 0 0 0 0 0 0 0 0 0 0 0 0 0 0 0 0 0 0 0 0 0 0 0 0 0 0 0 0 0 0 0 0 40 40 40 91 91 91 138 138 138 183 183 183 194 194 194 194 194 194 203 203 203 215 215 215 220 220 220 224 224 224 225 225 225 225 225 225 225 225 225 225 225 225 226 226 226 227 227 227 228 228 228 229 229 229 214 214 214 193 193 193 140 140 140 73 73 73 45 45 45 35 35 35 29 29 29 24 24 24 23 23 23 25 25 25 67 67 67 131 131 131 176 176 176 210 210 210 225 225 225 229 229 229 230 230 230 230 230 230 229 229 229 229 229 229 229 229 229 229 229 229 229 229 229 229 229 229 227 227 227 223 223 223 206 206 206 179 179 179 167 167 167 165 165 165 173 173 173 189 189 189 205 205 205 220 220 220 223 223 223 217 217 217 219 219 219 227 227 227 231 231 231 230 230 230 178 178 178 80 80 80 32 32 32 28 28 28 49 49 49 95 95 95 147 147 147 204 204 204 206 206 206 153 153 153 102 102 102 51 51 51 32 32 32 48 48 48 98 98 98 185 185 185 232 232 232 232 232 232 220 220 220 192 192 192 142 142 142 65 65 65 22 22 22 22 22 22 23 23 23 28 28 28 57 57 57 115 115 115 166 166 166 207 207 207 230 230 230 229 229 229 228 228 228 227 227 227 226 226 226 226 226 226 226 226 226 226 226 226 226 226 226 226 226 226 226 226 226 226 226 226 226 226 226 227 227 227 227 227 227 228 228 228 228 228 228 224 224 224 211 211 211 183 183 183 144 144 144 80 80 80 35 35 35 28 28 28 25 25 25 31 31 31 43 43 43 68 68 68 106 106 106 177 177 177 227 227 227 228 228 228 228 228 228 227 227 227 226 226 226 226 226 226 224 224 224 221 221 221 215 215 215 203 203 203 194 194 194 194 194 194 190 190 190 171 171 171 139 139 139 67 67 67 10 10 10 4 4 4 0 0 0 0 0 0 0 0 0 0 0 0 0 0 0 0 0 0 0 0 0 0 0 0 0 0 0 0 0 0 0 0 0 0 0 0 0 0 0 0 0 0 1 1 1 4 4 4 11 11 11 41 41 41 68 68 68 74 74 74 78 78 78 68 68 68 58 58 58 43 43 43 29 29 29 17 17 17 7 7 7 4 4 4 1 1 1 0 0 0 0 0 0 0 0 0 0 0 0 0 0 0 0 0 0 0 0 0 0 0 0 1 1 1 4 4 4 27 27 27 53 53 53 109 109 109 162 162 162 173 173 173 181 181 181 140 140 140 101 101 101 109 109 109 119 119 119 185 185 185 250 250 250 252 252 252 255 255 255 255 255 255 255 255 255 255 255 255 255 255 255 255 255 255 255 255 255 
255 255 255 255 255 255 255 255 255 255 255 255 255 255 255 255 255 255 255 255 255 247 247 247 238 238 238 169 169 169 97 97 97 82 82 82 69 69 69 123 123 123 181 181 181 176 176 176 167 167 167 116 116 116 62 62 62 31 31 31 2 2 2 0 0 0 0 0 0 0 0 0 0 0 0 0 0 0 0 0 0 1 1 1 2 2 2 6 6 6 10 10 10 16 16 16 22 22 22 31 31 31 41 41 41 53 53 53 66 66 66 80 80 80 93 93 93 98 98 98 101 101 101 70 70 70 34 34 34 16 16 16 2 2 2 0 0 0 0 0 0 0 0 0 0 0 0 0 0 0 0 0 0 0 0 0 0 0 0 0 0 0 0 0 0 0 0 0 0 0 0 0 0 0 0 0 0 1 1 1 1 1 1 49 49 49 112 112 112 153 153 153 186 186 186 194 194 194 194 194 194 203 203 203 215 215 215 220 220 220 223 223 223 224 224 224 224 224 224 224 224 224 225 225 225 225 225 225 226 226 226 227 227 227 228 228 228 200 200 200 160 160 160 109 109 109 54 54 54 33 33 33 28 28 28 25 25 25 22 22 22 33 33 33 52 52 52 105 105 105 176 176 176 211 211 211 225 225 225 230 230 230 230 230 230 229 229 229 229 229 229 228 228 228 227 227 227 220 220 220 209 209 209 209 209 209 215 215 215 215 215 215 212 212 212 184 184 184 138 138 138 120 120 120 120 120 120 133 133 133 154 154 154 174 174 174 192 192 192 194 194 194 183 183 183 188 188 188 207 207 207 219 219 219 226 226 226 178 178 178 80 80 80 31 31 31 26 26 26 43 43 43 82 82 82 134 134 134 199 199 199 205 205 205 153 153 153 101 101 101 50 50 50 29 29 29 42 42 42 92 92 92 183 183 183 231 231 231 231 231 231 218 218 218 188 188 188 138 138 138 65 65 65 23 23 23 22 22 22 24 24 24 30 30 30 50 50 50 89 89 89 133 133 133 183 183 183 216 216 216 223 223 223 227 227 227 227 227 227 226 226 226 225 225 225 225 225 225 225 225 225 225 225 225 225 225 225 225 225 225 225 225 225 225 225 225 225 225 225 226 226 226 227 227 227 227 227 227 228 228 228 226 226 226 217 217 217 188 188 188 121 121 121 67 67 67 40 40 40 24 24 24 29 29 29 36 36 36 46 46 46 76 76 76 153 153 153 210 210 210 220 220 220 227 227 227 226 226 226 226 226 226 225 225 225 224 224 224 220 220 220 215 215 215 203 203 203 194 194 194 194 194 194 191 191 191 180 180 180 154 154 154 79 79 79 19 19 19 8 8 8 0 0 0 0 0 0 0 0 0 0 0 0 0 0 0 0 0 0 0 0 0 0 0 0 0 0 0 0 0 0 0 0 0 0 0 0 0 0 0 0 0 0 1 1 1 5 5 5 17 17 17 63 63 63 104 104 104 113 113 113 118 118 118 104 104 104 88 88 88 71 71 71 54 54 54 42 42 42 30 30 30 23 23 23 16 16 16 11 11 11 5 5 5 3 3 3 0 0 0 0 0 0 0 0 0 0 0 0 0 0 0 0 0 0 0 0 0 7 7 7 16 16 16 71 71 71 124 124 124 156 156 156 186 186 186 162 162 162 137 137 137 107 107 107 80 80 80 154 154 154 227 227 227 241 241 241 255 255 255 255 255 255 255 255 255 255 255 255 255 255 255 255 255 255 255 255 255 
255 255 255 255 255 255 254 254 254 254 254 254 254 254 254 254 254 254 254 254 254 231 231 231 207 207 207 130 130 130 51 51 51 87 87 87 128 128 128 157 157 157 186 186 186 157 157 157 123 123 123 75 75 75 26 26 26 12 12 12 1 1 1 0 0 0 0 0 0 0 0 0 0 0 0 0 0 0 0 0 0 3 3 3 6 6 6 19 19 19 33 33 33 49 49 49 66 66 66 75 75 75 83 83 83 82 82 82 79 79 79 84 84 84 91 91 91 99 99 99 107 107 107 79 79 79 44 44 44 22 22 22 3 3 3 0 0 0 0 0 0 0 0 0 0 0 0 0 0 0 0 0 0 0 0 0 0 0 0 0 0 0 0 0 0 0 0 0 0 0 0 0 0 0 0 0 0 2 2 2 4 4 4 59 59 59 130 130 130 165 165 165 188 188 188 194 194 194 194 194 194 203 203 203 215 215 215 220 220 220 222 222 222 223 223 223 223 223 223 223 223 223 224 224 224 225 225 225 226 226 226 227 227 227 228 228 228 183 183 183 117 117 117 76 76 76 45 45 45 31 31 31 26 26 26 23 23 23 22 22 22 56 56 56 108 108 108 157 157 157 204 204 204 223 223 223 226 226 226 228 228 228 228 228 228 228 228 228 228 228 228 226 226 226 224 224 224 201 201 201 165 165 165 162 162 162 182 182 182 190 190 190 191 191 191 154 154 154 90 90 90 68 68 68 76 76 76 91 91 91 110 110 110 126 126 126 138 138 138 134 134 134 116 116 116 128 128 128 163 163 163 192 192 192 218 218 218 177 177 177 80 80 80 31 31 31 26 26 26 38 38 38 65 65 65 118 118 118 194 194 194 205 205 205 153 153 153 101 101 101 50 50 50 29 29 29 39 39 39 89 89 89 181 181 181 230 230 230 231 231 231 211 211 211 167 167 167 116 116 116 58 58 58 25 25 25 23 23 23 23 23 23 27 27 27 38 38 38 58 58 58 92 92 92 143 143 143 184 184 184 211 211 211 227 227 227 226 226 226 226 226 226 225 225 225 225 225 225 225 225 225 224 224 224 224 224 224 224 224 224 224 224 224 224 224 224 224 224 224 224 224 224 225 225 225 225 225 225 226 226 226 226 226 226 224 224 224 210 210 210 174 174 174 129 129 129 65 65 65 23 23 23 25 25 25 29 29 29 36 36 36 60 60 60 123 123 123 176 176 176 206 206 206 226 226 226 226 226 226 225 225 225 224 224 224 223 223 223 220 220 220 215 215 215 203 203 203 194 194 194 194 194 194 192 192 192 186 186 186 164 164 164 92 92 92 32 32 32 14 14 14 0 0 0 0 0 0 0 0 0 0 0 0 0 0 0 0 0 0 0 0 0 0 0 0 0 0 0 0 0 0 0 0 0 0 0 0 0 0 0 0 0 0 1 1 1 8 8 8 25 25 25 89 89 89 144 144 144 147 147 147 146 146 146 126 126 126 107 107 107 97 97 97 87 87 87 83 83 83 77 77 77 64 64 64 51 51 51 33 33 33 17 17 17 9 9 9 1 1 1 1 1 1 0 0 0 0 0 0 0 0 0 0 0 0 0 0 0 2 2 2 7 7 7 34 34 34 64 64 64 120 120 120 173 173 173 173 173 173 171 171 171 125 125 125 83 83 83 131 131 131 179 179 179 217 217 217 255 255 255 255 255 255 254 254 254 255 255 255 255 255 255 255 255 255 254 254 254 
255 255 255 255 255 255 254 254 254 254 254 254 254 254 254 253 253 253 252 252 252 206 206 206 160 160 160 101 101 101 42 42 42 102 102 102 167 167 167 173 173 173 176 176 176 129 129 129 79 79 79 41 41 41 4 4 4 1 1 1 0 0 0 0 0 0 0 0 0 1 1 1 2 2 2 6 6 6 11 11 11 20 20 20 28 28 28 42 42 42 57 57 57 73 73 73 89 89 89 101 101 101 113 113 113 113 113 113 111 111 111 117 117 117 124 124 124 130 130 130 136 136 136 100 100 100 56 56 56 28 28 28 4 4 4 0 0 0 0 0 0 0 0 0 0 0 0 0 0 0 0 0 0 0 0 0 0 0 0 0 0 0 0 0 0 0 0 0 0 0 0 0 0 0 0 0 0 5 5 5 11 11 11 69 69 69 145 145 145 175 175 175 190 190 190 194 194 194 194 194 194 203 203 203 215 215 215 219 219 219 221 221 221 222 222 222 222 222 222 223 223 223 224 224 224 224 224 224 225 225 225 223 223 223 220 220 220 164 164 164 85 85 85 51 51 51 37 37 37 29 29 29 24 24 24 28 28 28 38 38 38 83 83 83 148 148 148 179 179 179 193 193 193 197 197 197 196 196 196 198 198 198 201 201 201 210 210 210 222 222 222 219 219 219 205 205 205 170 170 170 122 122 122 115 115 115 135 135 135 152 152 152 167 167 167 131 131 131 60 60 60 36 36 36 45 45 45 59 59 59 76 76 76 87 87 87 94 94 94 88 88 88 70 70 70 82 82 82 117 117 117 157 157 157 200 200 200 172 172 172 82 82 82 35 35 35 28 28 28 33 33 33 51 51 51 103 103 103 188 188 188 203 203 203 150 150 150 99 99 99 49 49 49 28 28 28 36 36 36 85 85 85 179 179 179 228 228 228 228 228 228 200 200 200 139 139 139 88 88 88 49 49 49 31 31 31 40 40 40 44 44 44 43 43 43 42 42 42 42 42 42 60 60 60 100 100 100 144 144 144 190 190 190 219 219 219 223 223 223 226 226 226 225 225 225 225 225 225 224 224 224 224 224 224 223 223 223 223 223 223 223 223 223 223 223 223 223 223 223 223 223 223 223 223 223 224 224 224 225 225 225 226 226 226 227 227 227 223 223 223 209 209 209 174 174 174 96 96 96 39 39 39 30 30 30 25 25 25 29 29 29 47 47 47 96 96 96 144 144 144 192 192 192 226 226 226 225 225 225 225 225 225 224 224 224 222 222 222 220 220 220 215 215 215 203 203 203 194 194 194 194 194 194 193 193 193 190 190 190 172 172 172 105 105 105 47 47 47 21 21 21 0 0 0 0 0 0 0 0 0 0 0 0 0 0 0 0 0 0 0 0 0 0 0 0 0 0 0 0 0 0 0 0 0 0 0 0 0 0 0 0 0 0 1 1 1 10 10 10 30 30 30 109 109 109 175 175 175 180 180 180 182 182 182 164 164 164 147 147 147 137 137 137 127 127 127 120 120 120 112 112 112 94 94 94 76 76 76 59 59 59 42 42 42 30 30 30 19 19 19 12 12 12 6 6 6 3 3 3 0 0 0 0 0 0 0 0 0 0 0 0 1 1 1 11 11 11 24 24 24 83 83 83 141 141 141 165 165 165 187 187 187 145 145 145 105 105 105 117 117 117 132 132 132 192 192 192 251 251 251 253 253 253 254 254 254 255 255 255 255 255 255 254 254 254 254 254 254 
255 255 255 255 255 255 255 255 255 254 254 254 254 254 254 251 251 251 247 247 247 171 171 171 93 93 93 86 86 86 81 81 81 130 130 130 181 181 181 164 164 164 145 145 145 91 91 91 35 35 35 17 17 17 2 2 2 0 0 0 0 0 0 0 0 0 0 0 0 3 3 3 6 6 6 21 21 21 38 38 38 55 55 55 73 73 73 79 79 79 83 83 83 85 85 85 87 87 87 105 105 105 125 125 125 147 147 147 170 170 170 187 187 187 203 203 203 200 200 200 194 194 194 136 136 136 69 69 69 34 34 34 5 5 5 0 0 0 0 0 0 0 0 0 0 0 0 0 0 0 0 0 0 0 0 0 0 0 0 0 0 0 0 0 0 0 0 0 0 0 0 0 0 0 0 0 0 9 9 9 21 21 21 81 81 81 157 157 157 182 182 182 191 191 191 193 193 193 193 193 193 202 202 202 215 215 215 219 219 219 221 221 221 222 222 222 222 222 222 222 222 222 223 223 223 224 224 224 225 225 225 216 216 216 202 202 202 143 143 143 65 65 65 36 36 36 30 30 30 26 26 26 22 22 22 42 42 42 74 74 74 117 117 117 166 166 166 163 163 163 133 133 133 123 123 123 125 125 125 130 130 130 138 138 138 168 168 168 211 211 211 203 203 203 163 163 163 121 121 121 79 79 79 65 65 65 71 71 71 98 98 98 139 139 139 118 118 118 52 52 52 28 28 28 33 33 33 42 42 42 54 54 54 60 60 60 63 63 63 60 60 60 51 51 51 56 56 56 70 70 70 109 109 109 170 170 170 159 159 159 87 87 87 46 46 46 32 32 32 31 31 31 40 40 40 91 91 91 181 181 181 198 198 198 144 144 144 93 93 93 48 48 48 27 27 27 33 33 33 82 82 82 177 177 177 226 226 226 222 222 222 183 183 183 104 104 104 53 53 53 36 36 36 43 43 43 79 79 79 94 94 94 83 83 83 67 67 67 45 45 45 40 40 40 56 56 56 92 92 92 156 156 156 200 200 200 216 216 216 225 225 225 225 225 225 225 225 225 224 224 224 223 223 223 223 223 223 223 223 223 223 223 223 222 222 222 222 222 222 222 222 222 222 222 222 223 223 223 223 223 223 224 224 224 226 226 226 225 225 225 220 220 220 196 196 196 133 133 133 79 79 79 45 45 45 23 23 23 27 27 27 40 40 40 72 72 72 115 115 115 180 180 180 226 226 226 225 225 225 224 224 224 223 223 223 222 222 222 220 220 220 215 215 215 202 202 202 193 193 193 193 193 193 193 193 193 192 192 192 177 177 177 118 118 118 65 65 65 28 28 28 0 0 0 0 0 0 0 0 0 0 0 0 0 0 0 0 0 0 0 0 0 0 0 0 0 0 0 0 0 0 0 0 0 0 0 0 0 0 0 0 0 0 2 2 2 10 10 10 32 32 32 119 119 119 195 195 195 213 213 213 228 228 228 221 221 221 213 213 213 196 196 196 178 178 178 154 154 154 130 130 130 109 109 109 90 90 90 87 87 87 83 83 83 71 71 71 58 58 58 38 38 38 20 20 20 10 10 10 1 1 1 1 1 1 0 0 0 0 0 0 0 0 0 4 4 4 10 10 10 46 46 46 83 83 83 134 134 134 181 181 181 166 166 166 149 149 149 116 116 116 86 86 86 165 165 165 242 242 242 249 249 249 255 255 255 254 254 254 254 254 254 255 255 255 255 255 255 
255 255 255 255 255 255 255 255 255 255 255 255 254 254 254 242 242 242 230 230 230 140 140 140 49 49 49 82 82 82 120 120 120 151 151 151 182 182 182 145 145 145 104 104 104 56 56 56 7 7 7 2 2 2 0 0 0 0 0 0 1 1 1 5 5 5 10 10 10 18 18 18 28 28 28 44 44 44 62 62 62 80 80 80 98 98 98 106 106 106 113 113 113 116 116 116 118 118 118 137 137 137 158 158 158 186 186 186 214 214 214 233 233 233 250 250 250 241 241 241 228 228 228 159 159 159 79 79 79 38 38 38 6 6 6 0 0 0 0 0 0 0 0 0 0 0 0 0 0 0 0 0 0 0 0 0 0 0 0 0 0 0 0 0 0 0 0 0 0 0 0 0 0 0 0 0 0 14 14 14 32 32 32 92 92 92 166 166 166 187 187 187 192 192 192 193 193 193 193 193 193 202 202 202 214 214 214 219 219 219 220 220 220 221 221 221 221 221 221 222 222 222 223 223 223 224 224 224 225 225 225 204 204 204 175 175 175 119 119 119 51 51 51 28 28 28 25 25 25 26 26 26 28 28 28 64 64 64 116 116 116 152 152 152 179 179 179 149 149 149 88 88 88 69 69 69 73 73 73 79 79 79 87 87 87 132 132 132 200 200 200 198 198 198 153 153 153 108 108 108 63 63 63 47 47 47 48 48 48 82 82 82 137 137 137 119 119 119 50 50 50 23 23 23 24 24 24 29 29 29 37 37 37 42 42 42 47 47 47 45 45 45 38 38 38 37 37 37 39 39 39 75 75 75 139 139 139 141 141 141 89 89 89 54 54 54 35 35 35 28 28 28 31 31 31 80 80 80 174 174 174 190 190 190 129 129 129 80 80 80 44 44 44 27 27 27 30 30 30 78 78 78 174 174 174 219 219 219 207 207 207 161 161 161 78 78 78 31 31 31 29 29 29 55 55 55 115 115 115 143 143 143 130 130 130 105 105 105 63 63 63 38 38 38 35 35 35 64 64 64 138 138 138 188 188 188 202 202 202 211 211 211 210 210 210 212 212 212 217 217 217 220 220 220 222 222 222 223 223 223 222 222 222 222 222 222 222 222 222 222 222 222 222 222 222 222 222 222 223 223 223 223 223 223 225 225 225 226 226 226 226 226 226 212 212 212 168 168 168 120 120 120 63 63 63 25 25 25 27 27 27 34 34 34 52 52 52 88 88 88 167 167 167 223 223 223 224 224 224 224 224 224 223 223 223 221 221 221 219 219 219 215 215 215 202 202 202 193 193 193 193 193 193 193 193 193 193 193 193 181 181 181 131 131 131 82 82 82 36 36 36 0 0 0 0 0 0 0 0 0 0 0 0 0 0 0 0 0 0 0 0 0 0 0 0 0 0 0 0 0 0 0 0 0 0 0 0 0 0 0 0 0 0 2 2 2 11 11 11 34 34 34 126 126 126 207 207 207 233 233 233 255 255 255 254 254 254 252 252 252 235 235 235 217 217 217 190 190 190 164 164 164 144 144 144 126 126 126 122 122 122 116 116 116 100 100 100 84 84 84 64 64 64 44 44 44 31 31 31 18 18 18 11 11 11 4 4 4 2 2 2 0 0 0 0 0 0 1 1 1 19 19 19 40 40 40 100 100 100 158 158 158 169 169 169 177 177 177 122 122 122 72 72 72 145 145 145 218 218 218 236 236 236 255 255 255 254 254 254 254 254 254 255 255 255 255 255 255 
254 254 254 255 255 255 255 255 255 255 255 255 255 255 255 225 225 225 196 196 196 117 117 117 37 37 37 95 95 95 157 157 157 162 162 162 165 165 165 110 110 110 52 52 52 26 26 26 3 3 3 1 1 1 0 0 0 2 2 2 3 3 3 18 18 18 33 33 33 52 52 52 72 72 72 78 78 78 83 83 83 89 89 89 96 96 96 121 121 121 148 148 148 172 172 172 195 195 195 208 208 208 219 219 219 229 229 229 239 239 239 246 246 246 252 252 252 243 243 243 230 230 230 161 161 161 82 82 82 40 40 40 6 6 6 0 0 0 0 0 0 0 0 0 0 0 0 0 0 0 0 0 0 0 0 0 0 0 0 0 0 0 0 0 0 0 0 0 0 0 0 0 0 0 0 0 0 19 19 19 43 43 43 102 102 102 171 171 171 189 189 189 192 192 192 193 193 193 193 193 193 202 202 202 214 214 214 218 218 218 219 219 219 220 220 220 220 220 220 221 221 221 223 223 223 223 223 223 224 224 224 188 188 188 136 136 136 89 89 89 45 45 45 28 28 28 24 24 24 30 30 30 43 43 43 95 95 95 166 166 166 189 189 189 187 187 187 138 138 138 64 64 64 42 42 42 49 49 49 51 51 51 51 51 51 104 104 104 189 189 189 208 208 208 187 187 187 143 143 143 84 84 84 70 70 70 84 84 84 119 119 119 169 169 169 140 140 140 56 56 56 22 22 22 22 22 22 24 24 24 27 27 27 36 36 36 50 50 50 48 48 48 33 33 33 28 28 28 31 31 31 59 59 59 109 109 109 117 117 117 88 88 88 62 62 62 36 36 36 25 25 25 25 25 25 74 74 74 168 168 168 177 177 177 104 104 104 57 57 57 39 39 39 29 29 29 28 28 28 73 73 73 169 169 169 206 206 206 177 177 177 131 131 131 64 64 64 28 28 28 30 30 30 67 67 67 149 149 149 193 193 193 189 189 189 160 160 160 100 100 100 59 59 59 45 45 45 68 68 68 142 142 142 185 185 185 181 181 181 178 178 178 176 176 176 183 183 183 201 201 201 214 214 214 220 220 220 223 223 223 223 223 223 223 223 223 223 223 223 223 223 223 222 222 222 222 222 222 223 223 223 223 223 223 224 224 224 225 225 225 225 225 225 219 219 219 200 200 200 162 162 162 85 85 85 32 32 32 29 29 29 29 29 29 35 35 35 65 65 65 153 153 153 216 216 216 221 221 221 224 224 224 223 223 223 221 221 221 219 219 219 215 215 215 202 202 202 192 192 192 192 192 192 192 192 192 193 193 193 183 183 183 142 142 142 98 98 98 42 42 42 0 0 0 0 0 0 0 0 0 0 0 0 0 0 0 0 0 0 0 0 0 0 0 0 0 0 0 0 0 0 0 0 0 0 0 0 0 0 0 0 0 0 2 2 2 12 12 12 35 35 35 128 128 128 209 209 209 234 234 234 254 254 254 255 255 255 254 254 254 248 248 248 241 241 241 231 231 231 221 221 221 208 208 208 193 193 193 166 166 166 139 139 139 115 115 115 92 92 92 88 88 88 82 82 82 69 69 69 55 55 55 34 34 34 15 15 15 7 7 7 0 0 0 0 0 0 0 0 0 7 7 7 16 16 16 64 64 64 111 111 111 148 148 148 182 182 182 139 139 139 99 99 99 135 135 135 171 171 171 213 213 213 254 254 254 254 254 254 254 254 254 255 255 255 255 255 255 
254 254 254 254 254 254 255 255 255 255 255 255 255 255 255 207 207 207 159 159 159 102 102 102 44 44 44 109 109 109 178 178 178 158 158 158 135 135 135 77 77 77 17 17 17 7 7 7 1 1 1 4 4 4 8 8 8 16 16 16 23 23 23 40 40 40 57 57 57 77 77 77 98 98 98 105 105 105 112 112 112 119 119 119 126 126 126 155 155 155 187 187 187 215 215 215 243 243 243 250 250 250 254 254 254 255 255 255 254 254 254 254 254 254 254 254 254 244 244 244 232 232 232 164 164 164 87 87 87 43 43 43 6 6 6 0 0 0 0 0 0 0 0 0 0 0 0 0 0 0 0 0 0 0 0 0 0 0 0 0 0 0 0 0 0 0 0 0 0 0 0 0 0 0 0 0 0 25 25 25 57 57 57 112 112 112 175 175 175 191 191 191 192 192 192 192 192 192 193 193 193 202 202 202 214 214 214 217 217 217 218 218 218 219 219 219 220 220 220 221 221 221 222 222 222 223 223 223 223 223 223 173 173 173 102 102 102 63 63 63 38 38 38 27 27 27 23 23 23 40 40 40 68 68 68 127 127 127 200 200 200 211 211 211 190 190 190 131 131 131 50 50 50 25 25 25 31 31 31 32 32 32 28 28 28 87 87 87 181 181 181 214 214 214 208 208 208 171 171 171 114 114 114 103 103 103 123 123 123 153 153 153 191 191 191 152 152 152 60 60 60 21 21 21 21 21 21 23 23 23 25 25 25 45 45 45 77 77 77 71 71 71 37 37 37 23 23 23 25 25 25 48 48 48 87 87 87 100 100 100 91 91 91 70 70 70 38 38 38 24 24 24 26 26 26 67 67 67 146 146 146 151 151 151 83 83 83 44 44 44 35 35 35 28 28 28 25 25 25 69 69 69 164 164 164 195 195 195 154 154 154 107 107 107 53 53 53 30 30 30 44 44 44 89 89 89 174 174 174 222 222 222 223 223 223 198 198 198 142 142 142 102 102 102 86 86 86 100 100 100 158 158 158 180 180 180 151 151 151 134 134 134 134 134 134 144 144 144 167 167 167 190 190 190 210 210 210 223 223 223 223 223 223 223 223 223 223 223 223 223 223 223 222 222 222 222 222 222 223 223 223 223 223 223 223 223 223 224 224 224 224 224 224 223 223 223 220 220 220 191 191 191 109 109 109 48 48 48 35 35 35 26 26 26 25 25 25 51 51 51 138 138 138 204 204 204 215 215 215 223 223 223 222 222 222 221 221 221 219 219 219 214 214 214 202 202 202 192 192 192 192 192 192 192 192 192 192 192 192 185 185 185 152 152 152 112 112 112 50 50 50 1 1 1 1 1 1 0 0 0 0 0 0 0 0 0 0 0 0 0 0 0 0 0 0 0 0 0 0 0 0 0 0 0 0 0 0 0 0 0 0 0 0 2 2 2 13 13 13 38 38 38 130 130 130 212 212 212 235 235 235 254 254 254 255 255 255 255 255 255 255 255 255 255 255 255 255 255 255 254 254 254 247 247 247 237 237 237 205 205 205 174 174 174 148 148 148 125 125 125 120 120 120 114 114 114 97 97 97 80 80 80 59 59 59 39 39 39 26 26 26 14 14 14 9 9 9 3 3 3 1 1 1 2 2 2 34 34 34 68 68 68 122 122 122 174 174 174 150 150 150 127 127 127 129 129 129 132 132 132 193 193 193 254 254 254 254 254 254 254 254 254 255 255 255 255 255 255 
254 254 254 254 254 254 254 254 254 254 254 254 254 254 254 187 187 187 119 119 119 97 97 97 75 75 75 125 125 125 177 177 177 133 133 133 85 85 85 46 46 46 7 7 7 4 4 4 2 2 2 14 14 14 27 27 27 47 47 47 68 68 68 76 76 76 83 83 83 89 89 89 95 95 95 122 122 122 151 151 151 176 176 176 200 200 200 215 215 215 230 230 230 240 240 240 250 250 250 253 253 253 255 255 255 255 255 255 254 254 254 254 254 254 255 255 255 245 245 245 234 234 234 168 168 168 93 93 93 47 47 47 7 7 7 0 0 0 0 0 0 0 0 0 0 0 0 0 0 0 0 0 0 0 0 0 0 0 0 0 0 0 0 0 0 0 0 0 0 0 0 0 0 0 1 1 1 32 32 32 72 72 72 123 123 123 177 177 177 191 191 191 192 192 192 192 192 192 192 192 192 201 201 201 213 213 213 217 217 217 217 217 217 218 218 218 219 219 219 220 220 220 221 221 221 221 221 221 221 221 221 161 161 161 75 75 75 42 42 42 33 33 33 27 27 27 22 22 22 57 57 57 110 110 110 160 160 160 210 210 210 212 212 212 190 190 190 130 130 130 49 49 49 23 23 23 25 25 25 26 26 26 25 25 25 84 84 84 178 178 178 213 213 213 211 211 211 190 190 190 157 157 157 153 153 153 167 167 167 182 182 182 198 198 198 151 151 151 60 60 60 22 22 22 21 21 21 26 26 26 35 35 35 74 74 74 135 135 135 123 123 123 53 53 53 22 22 22 23 23 23 42 42 42 78 78 78 96 96 96 99 99 99 80 80 80 40 40 40 25 25 25 34 34 34 61 61 61 105 105 105 107 107 107 68 68 68 42 42 42 31 31 31 24 24 24 23 23 23 67 67 67 160 160 160 186 186 186 139 139 139 92 92 92 47 47 47 39 39 39 76 76 76 125 125 125 188 188 188 223 223 223 223 223 223 213 213 213 191 191 191 176 176 176 170 170 170 173 173 173 189 189 189 172 172 172 108 108 108 72 72 72 81 81 81 93 93 93 109 109 109 138 138 138 191 191 191 223 223 223 223 223 223 222 222 222 222 222 222 222 222 222 222 222 222 222 222 222 222 222 222 222 222 222 222 222 222 223 223 223 223 223 223 223 223 223 223 223 223 201 201 201 135 135 135 79 79 79 46 46 46 23 23 23 24 24 24 48 48 48 124 124 124 185 185 185 207 207 207 222 222 222 221 221 221 220 220 220 218 218 218 214 214 214 201 201 201 192 192 192 192 192 192 192 192 192 192 192 192 185 185 185 161 161 161 125 125 125 58 58 58 5 5 5 2 2 2 0 0 0 0 0 0 0 0 0 0 0 0 0 0 0 0 0 0 0 0 0 0 0 0 0 0 0 0 0 0 0 0 0 0 0 0 2 2 2 15 15 15 41 41 41 134 134 134 216 216 216 237 237 237 255 255 255 255 255 255 255 255 255 255 255 255 255 255 255 255 255 255 254 254 254 252 252 252 248 248 248 236 236 236 224 224 224 209 209 209 193 193 193 164 164 164 136 136 136 112 112 112 90 90 90 86 86 86 81 81 81 65 65 65 49 49 49 29 29 29 10 10 10 5 5 5 1 1 1 14 14 14 30 30 30 90 90 90 149 149 149 152 152 152 154 154 154 126 126 126 101 101 101 178 178 178 255 255 255 255 255 255 255 255 255 255 255 255 255 255 255 
254 254 254 254 254 254 254 254 254 254 254 254 254 254 254 172 172 172 89 89 89 93 93 93 100 100 100 131 131 131 164 164 164 106 106 106 45 45 45 26 26 26 9 9 9 14 14 14 20 20 20 35 35 35 51 51 51 72 72 72 93 93 93 103 103 103 111 111 111 118 118 118 124 124 124 156 156 156 191 191 191 219 219 219 246 246 246 252 252 252 254 254 254 255 255 255 255 255 255 255 255 255 255 255 255 255 255 255 254 254 254 255 255 255 255 255 255 246 246 246 236 236 236 173 173 173 99 99 99 51 51 51 8 8 8 0 0 0 0 0 0 0 0 0 0 0 0 0 0 0 0 0 0 0 0 0 0 0 0 0 0 0 0 0 0 0 0 0 0 0 0 1 1 1 1 1 1 39 39 39 87 87 87 134 134 134 180 180 180 191 191 191 192 192 192 192 192 192 192 192 192 201 201 201 212 212 212 216 216 216 217 217 217 218 218 218 219 219 219 220 220 220 221 221 221 217 217 217 212 212 212 147 147 147 57 57 57 28 28 28 28 28 28 28 28 28 29 29 29 77 77 77 147 147 147 189 189 189 217 217 217 213 213 213 193 193 193 132 132 132 50 50 50 21 21 21 21 21 21 22 22 22 23 23 23 83 83 83 176 176 176 206 206 206 198 198 198 182 182 182 160 160 160 156 156 156 163 163 163 175 175 175 190 190 190 145 145 145 59 59 59 23 23 23 21 21 21 32 32 32 52 52 52 102 102 102 176 176 176 157 157 157 65 65 65 23 23 23 22 22 22 37 37 37 67 67 67 93 93 93 115 115 115 98 98 98 46 46 46 26 26 26 36 36 36 50 50 50 69 69 69 69 69 69 51 51 51 37 37 37 27 27 27 22 22 22 21 21 21 64 64 64 153 153 153 182 182 182 145 145 145 108 108 108 72 72 72 73 73 73 119 119 119 161 161 161 201 201 201 223 223 223 223 223 223 222 222 222 221 221 221 220 220 220 220 220 220 216 216 216 207 207 207 167 167 167 80 80 80 33 33 33 44 44 44 56 56 56 71 71 71 107 107 107 179 179 179 223 223 223 223 223 223 219 219 219 211 211 211 205 205 205 203 203 203 201 201 201 202 202 202 205 205 205 212 212 212 218 218 218 221 221 221 222 222 222 224 224 224 209 209 209 161 161 161 111 111 111 58 58 58 22 22 22 23 23 23 44 44 44 111 111 111 167 167 167 199 199 199 221 221 221 220 220 220 219 219 219 218 218 218 213 213 213 201 201 201 192 192 192 192 192 192 192 192 192 191 191 191 187 187 187 168 168 168 137 137 137 66 66 66 9 9 9 4 4 4 0 0 0 0 0 0 0 0 0 0 0 0 0 0 0 0 0 0 0 0 0 0 0 0 0 0 0 0 0 0 0 0 0 0 0 0 2 2 2 17 17 17 44 44 44 138 138 138 220 220 220 239 239 239 255 255 255 255 255 255 255 255 255 255 255 255 255 255 255 255 255 255 254 254 254 255 255 255 255 255 255 255 255 255 254 254 254 248 248 248 238 238 238 203 203 203 170 170 170 145 145 145 122 122 122 118 118 118 112 112 112 94 94 94 75 75 75 54 54 54 33 33 33 23 23 23 13 13 13 10 10 10 9 9 9 62 62 62 114 114 114 143 143 143 170 170 170 127 127 127 86 86 86 171 171 171 255 255 255 255 255 255 255 255 255 255 255 255 255 255 255 
255 255 255 255 255 255 255 255 255 254 254 254 254 254 254 164 164 164 73 73 73 92 92 92 114 114 114 123 123 123 133 133 133 78 78 78 21 21 21 22 22 22 26 26 26 44 44 44 63 63 63 73 73 73 83 83 83 87 87 87 90 90 90 115 115 115 142 142 142 169 169 169 197 197 197 214 214 214 230 230 230 241 241 241 251 251 251 253 253 253 254 254 254 255 255 255 255 255 255 255 255 255 255 255 255 255 255 255 255 255 255 255 255 255 255 255 255 247 247 247 239 239 239 178 178 178 107 107 107 56 56 56 8 8 8 0 0 0 0 0 0 0 0 0 0 0 0 0 0 0 0 0 0 0 0 0 0 0 0 0 0 0 0 0 0 0 0 0 0 0 0 1 1 1 2 2 2 46 46 46 102 102 102 144 144 144 182 182 182 191 191 191 192 192 192 192 192 192 191 191 191 200 200 200 211 211 211 215 215 215 216 216 216 217 217 217 218 218 218 219 219 219 220 220 220 208 208 208 191 191 191 130 130 130 50 50 50 25 25 25 24 24 24 33 33 33 46 46 46 102 102 102 179 179 179 211 211 211 222 222 222 216 216 216 202 202 202 140 140 140 52 52 52 21 21 21 21 21 21 22 22 22 23 23 23 82 82 82 175 175 175 193 193 193 165 165 165 135 135 135 104 104 104 92 92 92 92 92 92 117 117 117 158 158 158 132 132 132 58 58 58 25 25 25 22 22 22 41 41 41 78 78 78 129 129 129 190 190 190 166 166 166 73 73 73 29 29 29 23 23 23 33 33 33 55 55 55 91 91 91 141 141 141 128 128 128 59 59 59 26 26 26 28 28 28 32 32 32 39 39 39 39 39 39 32 32 32 27 27 27 23 23 23 21 21 21 21 21 21 60 60 60 143 143 143 185 185 185 181 181 181 168 168 168 144 144 144 144 144 144 174 174 174 198 198 198 213 213 213 221 221 221 221 221 221 221 221 221 220 220 220 220 220 220 221 221 221 216 216 216 205 205 205 163 163 163 76 76 76 26 26 26 30 30 30 41 41 41 62 62 62 104 104 104 178 178 178 224 224 224 223 223 223 212 212 212 184 184 184 163 163 163 155 155 155 150 150 150 152 152 152 162 162 162 189 189 189 210 210 210 217 217 217 222 222 222 223 223 223 215 215 215 188 188 188 146 146 146 72 72 72 21 21 21 23 23 23 41 41 41 99 99 99 151 151 151 192 192 192 220 220 220 219 219 219 218 218 218 217 217 217 213 213 213 201 201 201 191 191 191 191 191 191 191 191 191 191 191 191 188 188 188 175 175 175 148 148 148 73 73 73 13 13 13 6 6 6 0 0 0 0 0 0 0 0 0 0 0 0 0 0 0 0 0 0 0 0 0 0 0 0 0 0 0 0 0 0 0 0 0 0 0 0 3 3 3 19 19 19 48 48 48 142 142 142 225 225 225 241 241 241 255 255 255 255 255 255 255 255 255 255 255 255 255 255 255 255 255 255 255 255 255 255 255 255 255 255 255 255 255 255 255 255 255 252 252 252 249 249 249 236 236 236 222 222 222 204 204 204 185 185 185 156 156 156 127 127 127 107 107 107 89 89 89 84 84 84 78 78 78 61 61 61 44 44 44 28 28 28 14 14 14 39 39 39 65 65 65 118 118 118 169 169 169 130 130 130 94 94 94 175 175 175 255 255 255 255 255 255 255 255 255 255 255 255 255 255 255 
255 255 255 255 255 255 255 255 255 254 254 254 254 254 254 164 164 164 73 73 73 89 89 89 108 108 108 103 103 103 97 97 97 58 58 58 18 18 18 32 32 32 49 49 49 68 68 68 88 88 88 99 99 99 110 110 110 114 114 114 118 118 118 147 147 147 179 179 179 211 211 211 243 243 243 250 250 250 254 254 254 254 254 254 254 254 254 254 254 254 254 254 254 255 255 255 255 255 255 255 255 255 255 255 255 255 255 255 255 255 255 255 255 255 255 255 255 249 249 249 242 242 242 184 184 184 117 117 117 62 62 62 9 9 9 0 0 0 0 0 0 0 0 0 0 0 0 0 0 0 0 0 0 0 0 0 0 0 0 0 0 0 0 0 0 0 0 0 0 0 0 2 2 2 6 6 6 54 54 54 115 115 115 153 153 153 183 183 183 191 191 191 191 191 191 191 191 191 191 191 191 199 199 199 211 211 211 214 214 214 215 215 215 216 216 216 217 217 217 219 219 219 220 220 220 200 200 200 171 171 171 114 114 114 46 46 46 23 23 23 22 22 22 41 41 41 69 69 69 128 128 128 200 200 200 224 224 224 224 224 224 219 219 219 210 210 210 147 147 147 56 56 56 23 23 23 21 21 21 22 22 22 23 23 23 82 82 82 175 175 175 185 185 185 145 145 145 105 105 105 65 65 65 48 48 48 44 44 44 78 78 78 137 137 137 122 122 122 57 57 57 27 27 27 22 22 22 47 47 47 93 93 93 144 144 144 199 199 199 173 173 173 83 83 83 37 37 37 26 26 26 30 30 30 46 46 46 92 92 92 162 162 162 158 158 158 87 87 87 45 45 45 29 29 29 25 25 25 32 32 32 33 33 33 30 30 30 27 27 27 23 23 23 21 21 21 20 20 20 58 58 58 136 136 136 186 186 186 204 204 204 207 207 207 193 193 193 192 192 192 205 205 205 213 213 213 217 217 217 219 219 219 220 220 220 220 220 220 220 220 220 220 220 220 221 221 221 217 217 217 207 207 207 164 164 164 74 74 74 21 21 21 21 21 21 32 32 32 60 60 60 105 105 105 178 178 178 219 219 219 207 207 207 185 185 185 148 148 148 121 121 121 112 112 112 106 106 106 107 107 107 120 120 120 153 153 153 183 183 183 206 206 206 222 222 222 222 222 222 219 219 219 207 207 207 171 171 171 84 84 84 24 24 24 23 23 23 38 38 38 91 91 91 142 142 142 187 187 187 219 219 219 218 218 218 217 217 217 216 216 216 212 212 212 200 200 200 191 191 191 191 191 191 191 191 191 191 191 191 189 189 189 181 181 181 156 156 156 81 81 81 20 20 20 9 9 9 0 0 0 0 0 0 0 0 0 0 0 0 0 0 0 0 0 0 0 0 0 0 0 0 0 0 0 0 0 0 0 0 0 0 0 0 3 3 3 22 22 22 53 53 53 148 148 148 230 230 230 244 244 244 255 255 255 255 255 255 255 255 255 255 255 255 255 255 255 255 255 255 255 255 255 255 255 255 255 255 255 255 255 255 255 255 255 255 255 255 255 255 255 255 255 255 254 254 254 243 243 243 229 229 229 193 193 193 159 159 159 139 139 139 121 121 121 116 116 116 111 111 111 91 91 91 71 71 71 52 52 52 34 34 34 31 31 31 31 31 31 93 93 93 152 152 152 132 132 132 114 114 114 185 185 185 255 255 255 255 255 255 255 255 255 255 255 255 255 255 255 
255 255 255 255 255 255 254 254 254 254 254 254 254 254 254 176 176 176 97 97 97 85 85 85 74 74 74 64 64 64 55 55 55 50 50 50 45 45 45 61 61 61 79 79 79 83 83 83 86 86 86 108 108 108 131 131 131 160 160 160 190 190 190 208 208 208 226 226 226 238 238 238 250 250 250 252 252 252 254 254 254 254 254 254 255 255 255 255 255 255 255 255 255 255 255 255 255 255 255 255 255 255 255 255 255 255 255 255 255 255 255 255 255 255 255 255 255 251 251 251 246 246 246 192 192 192 129 129 129 69 69 69 10 10 10 0 0 0 0 0 0 0 0 0 0 0 0 0 0 0 0 0 0 0 0 0 0 0 0 0 0 0 0 0 0 0 0 0 0 0 0 6 6 6 13 13 13 64 64 64 127 127 127 161 161 161 184 184 184 190 190 190 191 191 191 191 191 191 191 191 191 199 199 199 210 210 210 214 214 214 214 214 214 216 216 216 217 217 217 218 218 218 219 219 219 191 191 191 152 152 152 100 100 100 43 43 43 24 24 24 22 22 22 54 54 54 102 102 102 153 153 153 205 205 205 223 223 223 223 223 223 220 220 220 215 215 215 153 153 153 62 62 62 27 27 27 23 23 23 22 22 22 23 23 23 82 82 82 175 175 175 186 186 186 146 146 146 101 101 101 51 51 51 31 31 31 30 30 30 67 67 67 130 130 130 119 119 119 57 57 57 28 28 28 22 22 22 46 46 46 92 92 92 143 143 143 200 200 200 179 179 179 97 97 97 50 50 50 30 30 30 29 29 29 44 44 44 94 94 94 175 175 175 188 188 188 139 139 139 91 91 91 44 44 44 34 34 34 59 59 59 66 66 66 54 54 54 41 41 41 28 28 28 21 21 21 21 21 21 58 58 58 135 135 135 186 186 186 207 207 207 216 216 216 211 211 211 204 204 204 197 197 197 198 198 198 210 210 210 217 217 217 219 219 219 220 220 220 220 220 220 220 220 220 221 221 221 219 219 219 213 213 213 171 171 171 77 77 77 21 21 21 21 21 21 33 33 33 66 66 66 113 113 113 181 181 181 207 207 207 165 165 165 128 128 128 99 99 99 80 80 80 75 75 75 72 72 72 72 72 72 79 79 79 98 98 98 129 129 129 184 184 184 221 221 221 221 221 221 220 220 220 214 214 214 182 182 182 93 93 93 29 29 29 25 25 25 38 38 38 91 91 91 141 141 141 186 186 186 218 218 218 218 218 218 217 217 217 216 216 216 211 211 211 199 199 199 190 190 190 191 191 191 191 191 191 191 191 191 190 190 190 184 184 184 162 162 162 89 89 89 29 29 29 13 13 13 0 0 0 0 0 0 0 0 0 0 0 0 0 0 0 0 0 0 0 0 0 0 0 0 0 0 0 0 0 0 0 0 0 0 0 0 4 4 4 26 26 26 60 60 60 156 156 156 238 238 238 247 247 247 255 255 255 255 255 255 255 255 255 255 255 255 255 255 255 255 255 255 255 255 255 255 255 255 255 255 255 255 255 255 255 255 255 255 255 255 255 255 255 255 255 255 255 255 255 250 250 250 245 245 245 231 231 231 217 217 217 199 199 199 180 180 180 152 152 152 125 125 125 107 107 107 90 90 90 83 83 83 74 74 74 46 46 46 21 21 21 67 67 67 112 112 112 132 132 132 152 152 152 204 204 204 255 255 255 255 255 255 255 255 255 255 255 255 254 254 254 
255 255 255 254 254 254 254 254 254 254 254 254 254 254 254 195 195 195 135 135 135 97 97 97 60 60 60 45 45 45 31 31 31 48 48 48 66 66 66 87 87 87 108 108 108 112 112 112 114 114 114 139 139 139 165 165 165 201 201 201 238 238 238 247 247 247 254 254 254 254 254 254 254 254 254 254 254 254 254 254 254 255 255 255 255 255 255 255 255 255 255 255 255 255 255 255 255 255 255 255 255 255 255 255 255 255 255 255 255 255 255 255 255 255 255 255 255 253 253 253 250 250 250 201 201 201 144 144 144 79 79 79 12 12 12 0 0 0 0 0 0 0 0 0 0 0 0 0 0 0 0 0 0 0 0 0 0 0 0 0 0 0 0 0 0 0 0 0 0 0 0 9 9 9 21 21 21 73 73 73 137 137 137 167 167 167 185 185 185 190 190 190 190 190 190 190 190 190 191 191 191 199 199 199 210 210 210 213 213 213 213 213 213 215 215 215 216 216 216 217 217 217 218 218 218 184 184 184 136 136 136 88 88 88 40 40 40 24 24 24 22 22 22 66 66 66 131 131 131 176 176 176 210 210 210 221 221 221 221 221 221 220 220 220 218 218 218 159 159 159 70 70 70 33 33 33 24 24 24 22 22 22 23 23 23 82 82 82 174 174 174 186 186 186 148 148 148 99 99 99 43 43 43 21 21 21 21 21 21 60 60 60 125 125 125 118 118 118 59 59 59 31 31 31 23 23 23 46 46 46 91 91 91 142 142 142 199 199 199 183 183 183 109 109 109 60 60 60 33 33 33 29 29 29 43 43 43 96 96 96 182 182 182 209 209 209 181 181 181 138 138 138 83 83 83 71 71 71 103 103 103 109 109 109 91 91 91 72 72 72 53 53 53 43 43 43 44 44 44 77 77 77 145 145 145 191 191 191 211 211 211 219 219 219 212 212 212 197 197 197 172 172 172 165 165 165 179 179 179 193 193 193 206 206 206 215 215 215 218 218 218 220 220 220 221 221 221 219 219 219 216 216 216 174 174 174 78 78 78 21 21 21 20 20 20 34 34 34 70 70 70 115 115 115 177 177 177 191 191 191 127 127 127 81 81 81 62 62 62 51 51 51 55 55 55 55 55 55 49 49 49 48 48 48 60 60 60 94 94 94 169 169 169 220 220 220 220 220 220 220 220 220 219 219 219 190 190 190 101 101 101 37 37 37 28 28 28 37 37 37 90 90 90 141 141 141 186 186 186 218 218 218 217 217 217 216 216 216 215 215 215 210 210 210 199 199 199 190 190 190 191 191 191 191 191 191 191 191 191 190 190 190 186 186 186 167 167 167 97 97 97 38 38 38 16 16 16 0 0 0 0 0 0 0 0 0 0 0 0 0 0 0 0 0 0 0 0 0 0 0 0 0 0 0 0 0 0 0 0 0 0 0 0 5 5 5 32 32 32 71 71 71 165 165 165 245 245 245 250 250 250 255 255 255 255 255 255 255 255 255 255 255 255 255 255 255 255 255 255 255 255 255 255 255 255 255 255 255 255 255 255 255 255 255 255 255 255 255 255 255 255 255 255 255 255 255 254 254 254 254 254 254 254 254 254 253 253 253 239 239 239 223 223 223 189 189 189 157 157 157 141 141 141 126 126 126 122 122 122 116 116 116 79 79 79 45 45 45 78 78 78 110 110 110 150 150 150 190 190 190 223 223 223 255 255 255 255 255 255 255 255 255 254 254 254 254 254 254 
254 254 254 254 254 254 254 254 254 254 254 254 254 254 254 224 224 224 194 194 194 137 137 137 79 79 79 56 56 56 34 34 34 55 55 55 78 78 78 107 107 107 137 137 137 162 162 162 186 186 186 203 203 203 220 220 220 234 234 234 248 248 248 252 252 252 254 254 254 254 254 254 254 254 254 254 254 254 255 255 255 255 255 255 255 255 255 255 255 255 254 254 254 255 255 255 255 255 255 255 255 255 255 255 255 255 255 255 255 255 255 255 255 255 255 255 255 254 254 254 253 253 253 211 211 211 162 162 162 91 91 91 15 15 15 1 1 1 0 0 0 0 0 0 0 0 0 0 0 0 0 0 0 0 0 0 0 0 0 0 0 0 0 0 0 0 0 0 0 0 0 13 13 13 29 29 29 81 81 81 144 144 144 171 171 171 186 186 186 190 190 190 190 190 190 190 190 190 190 190 190 198 198 198 208 208 208 212 212 212 212 212 212 214 214 214 215 215 215 217 217 217 218 218 218 180 180 180 125 125 125 79 79 79 36 36 36 22 22 22 22 22 22 76 76 76 155 155 155 194 194 194 213 213 213 220 220 220 220 220 220 220 220 220 219 219 219 164 164 164 81 81 81 41 41 41 26 26 26 21 21 21 23 23 23 81 81 81 174 174 174 186 186 186 150 150 150 100 100 100 43 43 43 21 21 21 21 21 21 60 60 60 125 125 125 120 120 120 66 66 66 37 37 37 25 25 25 46 46 46 91 91 91 142 142 142 199 199 199 185 185 185 116 116 116 68 68 68 36 36 36 29 29 29 43 43 43 95 95 95 181 181 181 216 216 216 206 206 206 186 186 186 157 157 157 152 152 152 170 170 170 168 168 168 148 148 148 128 128 128 108 108 108 99 99 99 101 101 101 125 125 125 174 174 174 204 204 204 215 215 215 210 210 210 188 188 188 158 158 158 119 119 119 102 102 102 112 112 112 136 136 136 177 177 177 205 205 205 215 215 215 220 220 220 221 221 221 219 219 219 215 215 215 173 173 173 78 78 78 21 21 21 21 21 21 35 35 35 70 70 70 111 111 111 162 162 162 167 167 167 96 96 96 48 48 48 41 41 41 43 43 43 62 62 62 66 66 66 44 44 44 35 35 35 49 49 49 85 85 85 165 165 165 219 219 219 219 219 219 220 220 220 220 220 220 194 194 194 110 110 110 48 48 48 32 32 32 37 37 37 90 90 90 140 140 140 185 185 185 217 217 217 216 216 216 215 215 215 214 214 214 210 210 210 198 198 198 190 190 190 190 190 190 190 190 190 190 190 190 189 189 189 187 187 187 169 169 169 102 102 102 45 45 45 20 20 20 0 0 0 0 0 0 0 0 0 0 0 0 0 0 0 0 0 0 0 0 0 0 0 0 0 0 0 0 0 0 0 0 0 0 0 0 6 6 6 42 42 42 86 86 86 175 175 175 251 251 251 253 253 253 255 255 255 255 255 255 255 255 255 255 255 255 255 255 255 255 255 255 255 255 255 255 255 255 255 255 255 255 255 255 255 255 255 255 255 255 255 255 255 255 255 255 255 255 255 254 254 254 254 254 254 254 254 254 254 254 254 248 248 248 242 242 242 229 229 229 217 217 217 201 201 201 186 186 186 173 173 173 160 160 160 141 141 141 123 123 123 144 144 144 166 166 166 198 198 198 229 229 229 242 242 242 254 254 254 254 254 254 254 254 254 255 255 255 255 255 255 
254 254 254 254 254 254 254 254 254 254 254 254 254 254 254 245 245 245 235 235 235 179 179 179 123 123 123 100 100 100 78 78 78 97 97 97 118 118 118 146 146 146 173 173 173 204 204 204 235 235 235 245 245 245 253 253 253 254 254 254 255 255 255 255 255 255 254 254 254 254 254 254 254 254 254 254 254 254 255 255 255 255 255 255 255 255 255 255 255 255 254 254 254 255 255 255 255 255 255 255 255 255 255 255 255 255 255 255 255 255 255 255 255 255 255 255 255 255 255 255 255 255 255 220 220 220 178 178 178 102 102 102 18 18 18 2 2 2 0 0 0 0 0 0 0 0 0 0 0 0 0 0 0 0 0 0 0 0 0 0 0 0 0 0 0 0 0 0 0 0 0 16 16 16 36 36 36 89 89 89 151 151 151 175 175 175 187 187 187 190 190 190 190 190 190 190 190 190 190 190 190 197 197 197 207 207 207 210 210 210 212 212 212 213 213 213 214 214 214 216 216 216 217 217 217 175 175 175 114 114 114 70 70 70 32 32 32 24 24 24 29 29 29 89 89 89 174 174 174 207 207 207 216 216 216 219 219 219 218 218 218 219 219 219 219 219 219 167 167 167 87 87 87 46 46 46 27 27 27 21 21 21 22 22 22 81 81 81 173 173 173 187 187 187 152 152 152 103 103 103 43 43 43 20 20 20 21 21 21 60 60 60 125 125 125 122 122 122 72 72 72 43 43 43 27 27 27 46 46 46 90 90 90 142 142 142 198 198 198 187 187 187 124 124 124 75 75 75 38 38 38 28 28 28 42 42 42 95 95 95 180 180 180 220 220 220 220 220 220 215 215 215 205 205 205 204 204 204 212 212 212 207 207 207 189 189 189 172 172 172 156 156 156 149 149 149 152 152 152 167 167 167 196 196 196 214 214 214 218 218 218 204 204 204 169 169 169 127 127 127 79 79 79 56 56 56 63 63 63 95 95 95 157 157 157 199 199 199 212 212 212 219 219 219 216 216 216 210 210 210 197 197 197 156 156 156 75 75 75 25 25 25 23 23 23 35 35 35 70 70 70 106 106 106 145 145 145 142 142 142 72 72 72 28 28 28 28 28 28 40 40 40 74 74 74 83 83 83 45 45 45 28 28 28 50 50 50 90 90 90 167 167 167 218 218 218 219 219 219 219 219 219 220 220 220 196 196 196 117 117 117 56 56 56 35 35 35 37 37 37 89 89 89 140 140 140 185 185 185 216 216 216 215 215 215 214 214 214 213 213 213 209 209 209 198 198 198 190 190 190 190 190 190 190 190 190 189 189 189 189 189 189 187 187 187 171 171 171 108 108 108 52 52 52 23 23 23 0 0 0 0 0 0 0 0 0 0 0 0 0 0 0 0 0 0 0 0 0 0 0 0 0 0 0 0 0 0 0 0 0 0 0 0 8 8 8 51 51 51 101 101 101 184 184 184 254 254 254 255 255 255 255 255 255 255 255 255 255 255 255 255 255 255 255 255 255 255 255 255 255 255 255 255 255 255 255 255 255 255 255 255 255 255 255 255 255 255 255 255 255 255 255 255 255 255 255 255 255 255 254 254 254 255 255 255 255 255 255 254 254 254 254 254 254 254 254 254 253 253 253 241 241 241 229 229 229 214 214 214 200 200 200 193 193 193 187 187 187 199 199 199 210 210 210 232 232 232 253 253 253 254 254 254 254 254 254 254 254 254 254 254 254 254 254 254 255 255 255 
255 255 255 255 255 255 255 255 255 255 255 255 255 255 255 251 251 251 247 247 247 226 226 226 204 204 204 196 196 196 187 187 187 194 194 194 202 202 202 212 212 212 223 223 223 235 235 235 247 247 247 251 251 251 254 254 254 254 254 254 255 255 255 255 255 255 254 254 254 254 254 254 254 254 254 254 254 254 255 255 255 255 255 255 254 254 254 254 254 254 255 255 255 255 255 255 255 255 255 255 255 255 255 255 255 255 255 255 255 255 255 255 255 255 255 255 255 255 255 255 255 255 255 226 226 226 191 191 191 111 111 111 22 22 22 4 4 4 1 1 1 0 0 0 0 0 0 0 0 0 0 0 0 0 0 0 0 0 0 0 0 0 0 0 0 0 0 0 0 0 0 19 19 19 43 43 43 96 96 96 156 156 156 178 178 178 187 187 187 189 189 189 189 189 189 190 190 190 190 190 190 197 197 197 206 206 206 210 210 210 211 211 211 212 212 212 213 213 213 215 215 215 217 217 217 170 170 170 104 104 104 62 62 62 30 30 30 30 30 30 44 44 44 104 104 104 186 186 186 214 214 214 217 217 217 217 217 217 217 217 217 217 217 217 218 218 218 167 167 167 87 87 87 46 46 46 27 27 27 21 21 21 22 22 22 81 81 81 173 173 173 188 188 188 157 157 157 107 107 107 45 45 45 20 20 20 20 20 20 59 59 59 124 124 124 124 124 124 79 79 79 49 49 49 29 29 29 46 46 46 90 90 90 141 141 141 197 197 197 190 190 190 132 132 132 83 83 83 40 40 40 28 28 28 42 42 42 94 94 94 178 178 178 218 218 218 218 218 218 215 215 215 211 211 211 211 211 211 214 214 214 212 212 212 206 206 206 200 200 200 194 194 194 192 192 192 193 193 193 199 199 199 210 210 210 217 217 217 219 219 219 200 200 200 156 156 156 110 110 110 60 60 60 36 36 36 43 43 43 79 79 79 152 152 152 199 199 199 213 213 213 216 216 216 205 205 205 185 185 185 152 152 152 113 113 113 65 65 65 33 33 33 26 26 26 35 35 35 71 71 71 101 101 101 124 124 124 117 117 117 62 62 62 27 27 27 25 25 25 43 43 43 95 95 95 110 110 110 56 56 56 34 34 34 72 72 72 117 117 117 178 178 178 218 218 218 218 218 218 218 218 218 219 219 219 195 195 195 120 120 120 61 61 61 38 38 38 37 37 37 89 89 89 139 139 139 184 184 184 215 215 215 214 214 214 213 213 213 212 212 212 208 208 208 197 197 197 189 189 189 190 190 190 190 190 190 189 189 189 189 189 189 188 188 188 173 173 173 112 112 112 58 58 58 25 25 25 0 0 0 0 0 0 0 0 0 0 0 0 0 0 0 0 0 0 0 0 0 0 0 0 0 0 0 0 0 0 0 0 0 0 0 0 9 9 9 60 60 60 116 116 116 191 191 191 254 254 254 255 255 255 255 255 255 255 255 255 255 255 255 255 255 255 255 255 255 255 255 255 255 255 255 255 255 255 255 255 255 255 255 255 255 255 255 255 255 255 255 255 255 255 255 255 255 255 255 255 255 255 255 255 255 254 254 254 254 254 254 254 254 254 254 254 254 254 254 254 254 254 254 249 249 249 244 244 244 239 239 239 233 233 233 231 231 231 228 228 228 233 233 233 238 238 238 246 246 246 254 254 254 254 254 254 255 255 255 254 254 254 254 254 254 254 254 254 254 254 254 
255 255 255 255 255 255 255 255 255 255 255 255 255 255 255 255 255 255 255 255 255 255 255 255 255 255 255 255 255 255 255 255 255 255 255 255 254 254 254 254 254 254 254 254 254 255 255 255 255 255 255 255 255 255 254 254 254 255 255 255 255 255 255 255 255 255 254 254 254 254 254 254 254 254 254 255 255 255 255 255 255 255 255 255 254 254 254 255 255 255 255 255 255 255 255 255 255 255 255 255 255 255 255 255 255 255 255 255 255 255 255 255 255 255 255 255 255 255 255 255 255 255 255 232 232 232 204 204 204 121 121 121 27 27 27 6 6 6 1 1 1 0 0 0 0 0 0 0 0 0 0 0 0 0 0 0 0 0 0 0 0 0 0 0 0 0 0 0 0 0 0 22 22 22 50 50 50 102 102 102 162 162 162 181 181 181 187 187 187 189 189 189 189 189 189 189 189 189 190 190 190 196 196 196 205 205 205 209 209 209 210 210 210 212 212 212 213 213 213 214 214 214 216 216 216 166 166 166 94 94 94 54 54 54 28 28 28 36 36 36 60 60 60 118 118 118 193 193 193 217 217 217 217 217 217 216 216 216 216 216 216 216 216 216 217 217 217 167 167 167 89 89 89 48 48 48 27 27 27 21 21 21 22 22 22 81 81 81 172 172 172 190 190 190 162 162 162 111 111 111 46 46 46 20 20 20 20 20 20 59 59 59 124 124 124 128 128 128 90 90 90 60 60 60 34 34 34 51 51 51 98 98 98 147 147 147 198 198 198 194 194 194 146 146 146 96 96 96 44 44 44 30 30 30 46 46 46 97 97 97 178 178 178 216 216 216 216 216 216 215 215 215 215 215 215 214 214 214 214 214 214 215 215 215 215 215 215 216 216 216 217 217 217 216 216 216 214 214 214 210 210 210 205 205 205 205 205 205 212 212 212 197 197 197 158 158 158 115 115 115 69 69 69 48 48 48 57 57 57 92 92 92 160 160 160 201 201 201 206 206 206 200 200 200 177 177 177 148 148 148 111 111 111 79 79 79 54 54 54 36 36 36 27 27 27 35 35 35 71 71 71 97 97 97 106 106 106 96 96 96 53 53 53 25 25 25 22 22 22 40 40 40 92 92 92 107 107 107 56 56 56 42 42 42 97 97 97 147 147 147 189 189 189 218 218 218 218 218 218 218 218 218 218 218 218 194 194 194 119 119 119 60 60 60 37 37 37 37 37 37 89 89 89 139 139 139 183 183 183 214 214 214 213 213 213 212 212 212 210 210 210 207 207 207 196 196 196 189 189 189 189 189 189 190 190 190 189 189 189 189 189 189 188 188 188 175 175 175 117 117 117 64 64 64 28 28 28 0 0 0 0 0 0 0 0 0 0 0 0 0 0 0 0 0 0 0 0 0 0 0 0 0 0 0 0 0 0 0 0 0 0 0 0 11 11 11 71 71 71 132 132 132 198 198 198 254 254 254 255 255 255 255 255 255 255 255 255 255 255 255 255 255 255 255 255 255 255 255 255 255 255 255 255 255 255 255 255 255 255 255 255 255 255 255 255 255 255 255 255 255 255 255 255 255 255 255 255 255 255 255 255 255 255 255 255 254 254 254 254 254 254 254 254 254 255 255 255 255 255 255 255 255 255 254 254 254 254 254 254 254 254 254 254 254 254 254 254 254 255 255 255 255 255 255 255 255 255 254 254 254 255 255 255 255 255 255 255 255 255 254 254 254 254 254 254 254 254 254 
255 255 255 255 255 255 255 255 255 255 255 255 255 255 255 255 255 255 255 255 255 255 255 255 255 255 255 255 255 255 255 255 255 255 255 255 255 255 255 255 255 255 255 255 255 255 255 255 255 255 255 255 255 255 255 255 255 255 255 255 255 255 255 255 255 255 255 255 255 255 255 255 255 255 255 255 255 255 255 255 255 255 255 255 255 255 255 255 255 255 255 255 255 255 255 255 255 255 255 255 255 255 255 255 255 255 255 255 255 255 255 255 255 255 255 255 255 255 255 255 255 255 255 238 238 238 219 219 219 133 133 133 34 34 34 10 10 10 2 2 2 0 0 0 0 0 0 0 0 0 0 0 0 0 0 0 0 0 0 0 0 0 0 0 0 0 0 0 0 0 0 24 24 24 55 55 55 108 108 108 166 166 166 183 183 183 187 187 187 189 189 189 189 189 189 189 189 189 189 189 189 195 195 195 204 204 204 208 208 208 210 210 210 211 211 211 212 212 212 213 213 213 215 215 215 162 162 162 87 87 87 49 49 49 26 26 26 42 42 42 76 76 76 131 131 131 196 196 196 216 216 216 215 215 215 215 215 215 215 215 215 215 215 215 216 216 216 168 168 168 94 94 94 53 53 53 29 29 29 21 21 21 22 22 22 81 81 81 172 172 172 191 191 191 166 166 166 115 115 115 47 47 47 20 20 20 19 19 19 59 59 59 124 124 124 135 135 135 108 108 108 78 78 78 47 47 47 65 65 65 121 121 121 165 165 165 203 203 203 201 201 201 170 170 170 119 119 119 53 53 53 35 35 35 58 58 58 107 107 107 180 180 180 214 214 214 214 214 214 214 214 214 213 213 213 213 213 213 213 213 213 213 213 213 214 214 214 215 215 215 216 216 216 212 212 212 202 202 202 188 188 188 169 169 169 169 169 169 191 191 191 196 196 196 181 181 181 158 158 158 124 124 124 112 112 112 129 129 129 154 154 154 191 191 191 205 205 205 188 188 188 162 162 162 121 121 121 90 90 90 74 74 74 58 58 58 41 41 41 29 29 29 24 24 24 35 35 35 71 71 71 93 93 93 94 94 94 81 81 81 45 45 45 22 22 22 21 21 21 28 28 28 48 48 48 56 56 56 41 41 41 56 56 56 128 128 128 183 183 183 203 203 203 217 217 217 217 217 217 217 217 217 217 217 217 191 191 191 110 110 110 49 49 49 34 34 34 38 38 38 89 89 89 138 138 138 182 182 182 213 213 213 212 212 212 211 211 211 209 209 209 205 205 205 196 196 196 189 189 189 189 189 189 189 189 189 188 188 188 188 188 188 189 189 189 176 176 176 121 121 121 69 69 69 30 30 30 0 0 0 0 0 0 0 0 0 0 0 0 0 0 0 0 0 0 0 0 0 0 0 0 0 0 0 0 0 0 0 0 0 1 1 1 14 14 14 85 85 85 152 152 152 208 208 208 255 255 255 255 255 255 255 255 255 255 255 255 255 255 255 255 255 255 255 255 255 255 255 255 255 255 255 255 255 255 255 255 255 255 255 255 255 255 255 255 255 255 255 255 255 255 255 255 255 255 255 255 255 255 255 255 255 255 255 255 255 255 255 255 255 255 255 255 255 255 255 255 255 255 255 255 255 255 255 255 255 255 255 255 255 255 255 255 255 255 255 255 255 255 255 255 255 255 255 255 255 255 255 255 255 255 255 255 255 255 255 255 255 255 255 255 255 255 255 255 255 255 255 
255 255 255 255 255 255 255 255 255 255 255 255 255 255 255 255 255 255 255 255 255 255 255 255 255 255 255 255 255 255 255 255 255 255 255 255 255 255 255 255 255 255 255 255 255 255 255 255 255 255 255 255 255 255 255 255 255 255 255 255 255 255 255 255 255 255 255 255 255 255 255 255 255 255 255 255 255 255 255 255 255 255 255 255 255 255 255 255 255 255 255 255 255 255 255 255 255 255 255 255 255 255 255 255 255 255 255 255 255 255 255 255 255 255 255 255 255 255 255 255 255 255 255 244 244 244 231 231 231 145 145 145 44 44 44 16 16 16 2 2 2 0 0 0 0 0 0 0 0 0 0 0 0 0 0 0 0 0 0 0 0 0 0 0 0 0 0 0 0 0 0 26 26 26 60 60 60 112 112 112 170 170 170 185 185 185 187 187 187 188 188 188 189 189 189 189 189 189 188 188 188 194 194 194 202 202 202 206 206 206 209 209 209 210 210 210 211 211 211 213 213 213 214 214 214 160 160 160 83 83 83 46 46 46 25 25 25 47 47 47 87 87 87 139 139 139 197 197 197 215 215 215 214 214 214 214 214 214 214 214 214 214 214 214 215 215 215 169 169 169 97 97 97 55 55 55 29 29 29 21 21 21 22 22 22 80 80 80 171 171 171 192 192 192 171 171 171 119 119 119 48 48 48 20 20 20 19 19 19 60 60 60 129 129 129 149 149 149 135 135 135 113 113 113 85 85 85 101 101 101 150 150 150 184 184 184 207 207 207 207 207 207 190 190 190 148 148 148 86 86 86 70 70 70 92 92 92 132 132 132 187 187 187 213 213 213 212 212 212 212 212 212 212 212 212 212 212 212 212 212 212 212 212 212 213 213 213 211 211 211 206 206 206 194 194 194 174 174 174 152 152 152 128 128 128 130 130 130 161 161 161 178 178 178 178 178 178 167 167 167 143 143 143 137 137 137 153 153 153 173 173 173 201 201 201 200 200 200 161 161 161 120 120 120 77 77 77 50 50 50 47 47 47 41 41 41 31 31 31 24 24 24 22 22 22 34 34 34 70 70 70 90 90 90 85 85 85 70 70 70 39 39 39 20 20 20 20 20 20 22 22 22 27 27 27 37 37 37 53 53 53 88 88 88 159 159 159 207 207 207 212 212 212 216 216 216 216 216 216 216 216 216 215 215 215 188 188 188 102 102 102 40 40 40 30 30 30 39 39 39 90 90 90 138 138 138 182 182 182 212 212 212 211 211 211 210 210 210 207 207 207 203 203 203 195 195 195 189 189 189 188 188 188 188 188 188 188 188 188 188 188 188 189 189 189 176 176 176 124 124 124 74 74 74 32 32 32 0 0 0 0 0 0 0 0 0 0 0 0 0 0 0 0 0 0 0 0 0 0 0 0 0 0 0 0 0 0 0 0 0 3 3 3 19 19 19 98 98 98 173 173 173 217 217 217 255 255 255 255 255 255 255 255 255 255 255 255 255 255 255 255 255 255 255 255 255 255 255 255 255 255 255 255 255 255 255 255 255 255 255 255 255 255 255 255 255 255 255 255 255 255 255 255 255 255 255 255 255 255 255 255 255 255 255 255 255 255 255 255 255 255 255 255 255 255 255 255 255 255 255 255 255 255 255 255 255 255 255 255 255 255 255 255 255 255 255 255 255 255 255 255 255 255 255 255 255 255 255 255 255 255 255 255 255 255 255 255 255 255 255 255 255 255 255 255 255 255 255 
255 255 255 255 255 255 255 255 255 255 255 255 255 255 255 255 255 255 255 255 255 255 255 255 255 255 255 255 255 255 255 255 255 255 255 255 255 255 255 255 255 255 255 255 255 255 255 255 255 255 255 255 255 255 255 255 255 255 255 255 255 255 255 255 255 255 255 255 255 255 255 255 255 255 255 255 255 255 255 255 255 255 255 255 255 255 255 255 255 255 255 255 255 255 255 255 255 255 255 255 255 255 255 255 255 255 255 255 255 255 255 255 255 255 255 255 255 255 255 255 255 255 255 248 248 248 241 241 241 158 158 158 60 60 60 25 25 25 4 4 4 0 0 0 0 0 0 0 0 0 0 0 0 0 0 0 0 0 0 0 0 0 0 0 0 0 0 0 0 0 0 28 28 28 64 64 64 116 116 116 172 172 172 186 186 186 188 188 188 188 188 188 188 188 188 188 188 188 188 188 188 194 194 194 202 202 202 205 205 205 208 208 208 209 209 209 210 210 210 212 212 212 213 213 213 159 159 159 82 82 82 45 45 45 26 26 26 49 49 49 91 91 91 142 142 142 197 197 197 214 214 214 213 213 213 213 213 213 213 213 213 213 213 213 214 214 214 168 168 168 97 97 97 55 55 55 29 29 29 20 20 20 22 22 22 80 80 80 170 170 170 194 194 194 177 177 177 124 124 124 49 49 49 19 19 19 20 20 20 64 64 64 139 139 139 173 173 173 181 181 181 177 177 177 165 165 165 171 171 171 190 190 190 203 203 203 211 211 211 211 211 211 205 205 205 187 187 187 161 161 161 154 154 154 164 164 164 180 180 180 201 201 201 211 211 211 211 211 211 211 211 211 211 211 211 211 211 211 211 211 211 212 212 212 213 213 213 203 203 203 182 182 182 154 154 154 119 119 119 95 95 95 82 82 82 88 88 88 116 116 116 129 129 129 126 126 126 117 117 117 101 101 101 93 93 93 96 96 96 121 121 121 176 176 176 180 180 180 116 116 116 71 71 71 52 52 52 40 40 40 35 35 35 31 31 31 26 26 26 22 22 22 21 21 21 34 34 34 70 70 70 89 89 89 81 81 81 66 66 66 38 38 38 20 20 20 21 21 21 28 28 28 47 47 47 74 74 74 114 114 114 152 152 152 189 189 189 213 213 213 214 214 214 215 215 215 215 215 215 215 215 215 213 213 213 184 184 184 96 96 96 32 32 32 26 26 26 38 38 38 90 90 90 140 140 140 182 182 182 211 211 211 210 210 210 209 209 209 206 206 206 202 202 202 194 194 194 188 188 188 188 188 188 188 188 188 188 188 188 188 188 188 188 188 188 176 176 176 126 126 126 78 78 78 34 34 34 0 0 0 0 0 0 0 0 0 0 0 0 0 0 0 0 0 0 0 0 0 0 0 0 0 0 0 0 0 0 1 1 1 6 6 6 25 25 25 113 113 113 193 193 193 226 226 226 255 255 255 255 255 255 255 255 255 255 255 255 255 255 255 255 255 255 255 255 255 255 255 255 255 255 255 255 255 255 255 255 255 255 255 255 255 255 255 255 255 255 255 255 255 255 255 255 255 255 255 255 255 255 255 255 255 255 255 255 255 255 255 255 255 255 255 255 255 255 255 255 255 255 255 255 255 255 255 255 255 255 255 255 255 255 255 255 255 255 255 255 255 255 255 255 255 255 255 255 255 255 255 255 255 255 255 255 255 255 255 255 255 255 255 255 255 255 255 255 255 255 255 
255 255 255 255 255 255 255 255 255 255 255 255 255 255 255 255 255 255 255 255 255 255 255 255 255 255 255 255 255 255 255 255 255 255 255 255 255 255 255 255 255 255 255 255 255 255 255 255 255 255 255 255 255 255 255 255 255 255 255 255 255 255 255 255 255 255 255 255 255 255 255 255 255 255 255 255 255 255 255 255 255 255 255 255 255 255 255 255 255 255 255 255 255 255 255 255 255 255 255 255 255 255 255 255 255 255 255 255 255 255 255 255 255 255 255 255 255 255 255 255 255 255 255 252 252 252 248 248 248 171 171 171 79 79 79 37 37 37 6 6 6 0 0 0 0 0 0 0 0 0 0 0 0 0 0 0 0 0 0 0 0 0 0 0 0 0 0 0 0 0 0 30 30 30 68 68 68 119 119 119 173 173 173 187 187 187 188 188 188 188 188 188 188 188 188 188 188 188 188 188 188 193 193 193 201 201 201 204 204 204 207 207 207 208 208 208 209 209 209 211 211 211 212 212 212 159 159 159 84 84 84 47 47 47 26 26 26 50 50 50 94 94 94 144 144 144 197 197 197 213 213 213 212 212 212 212 212 212 212 212 212 212 212 212 213 213 213 168 168 168 98 98 98 56 56 56 29 29 29 20 20 20 22 22 22 80 80 80 170 170 170 195 195 195 182 182 182 129 129 129 50 50 50 19 19 19 20 20 20 66 66 66 144 144 144 188 188 188 209 209 209 215 215 215 212 212 212 210 210 210 211 211 211 212 212 212 213 213 213 214 214 214 214 214 214 212 212 212 209 209 209 209 209 209 210 210 210 211 211 211 211 211 211 211 211 211 210 210 210 210 210 210 210 210 210 210 210 210 211 211 211 210 210 210 208 208 208 188 188 188 150 150 150 112 112 112 75 75 75 53 53 53 47 47 47 59 59 59 91 91 91 104 104 104 94 94 94 82 82 82 67 67 67 57 57 57 52 52 52 81 81 81 151 151 151 158 158 158 83 83 83 38 38 38 34 34 34 35 35 35 41 41 41 40 40 40 29 29 29 22 22 22 21 21 21 34 34 34 69 69 69 88 88 88 79 79 79 64 64 64 37 37 37 23 23 23 31 31 31 49 49 49 82 82 82 116 116 116 152 152 152 180 180 180 190 190 190 199 199 199 207 207 207 213 213 213 214 214 214 214 214 214 209 209 209 178 178 178 89 89 89 26 26 26 23 23 23 38 38 38 94 94 94 145 145 145 183 183 183 210 210 210 209 209 209 208 208 208 205 205 205 201 201 201 193 193 193 188 188 188 188 188 188 188 188 188 188 188 188 188 188 188 188 188 188 176 176 176 128 128 128 80 80 80 35 35 35 0 0 0 0 0 0 0 0 0 0 0 0 0 0 0 0 0 0 0 0 0 0 0 0 0 0 0 0 0 0 2 2 2 11 11 11 34 34 34 129 129 129 211 211 211 235 235 235 255 255 255 255 255 255 255 255 255 255 255 255 255 255 255 255 255 255 255 255 255 255 255 255 255 255 255 255 255 255 255 255 255 255 255 255 255 255 255 255 255 255 255 255 255 255 255 255 255 255 255 255 255 255 255 255 255 255 255 255 255 255 255 255 255 255 255 255 255 255 255 255 255 255 255 255 255 255 255 255 255 255 255 255 255 255 255 255 255 255 255 255 255 255 255 255 255 255 255 255 255 255 255 255 255 255 255 255 255 255 255 255 255 255 255 255 255 255 255 255 255 255 255 
255 255 255 255 255 255 255 255 255 255 255 255 255 255 255 255 255 255 255 255 255 255 255 255 255 255 255 255 255 255 255 255 255 255 255 255 255 255 255 255 255 255 255 255 255 255 255 255 255 255 255 255 255 255 255 255 255 255 255 255 255 255 255 255 255 255 255 255 255 255 255 255 255 255 255 255 255 255 255 255 255 255 255 255 255 255 255 255 255 255 255 255 255 255 255 255 255 255 255 255 255 255 255 255 255 255 255 255 255 255 255 255 255 255 255 255 255 255 255 255 255 255 255 254 254 254 252 252 252 184 184 184 103 103 103 52 52 52 8 8 8 0 0 0 0 0 0 0 0 0 0 0 0 0 0 0 0 0 0 0 0 0 0 0 0 0 0 0 0 0 0 31 31 31 71 71 71 121 121 121 174 174 174 187 187 187 187 187 187 187 187 187 187 187 187 187 187 187 187 187 187 192 192 192 199 199 199 203 203 203 206 206 206 207 207 207 208 208 208 210 210 210 211 211 211 160 160 160 88 88 88 50 50 50 27 27 27 50 50 50 93 93 93 143 143 143 196 196 196 212 212 212 211 211 211 211 211 211 211 211 211 211 211 211 212 212 212 169 169 169 101 101 101 59 59 59 30 30 30 21 21 21 22 22 22 79 79 79 169 169 169 197 197 197 186 186 186 132 132 132 51 51 51 20 20 20 19 19 19 65 65 65 142 142 142 186 186 186 207 207 207 209 209 209 198 198 198 196 196 196 199 199 199 204 204 204 211 211 211 214 214 214 214 214 214 213 213 213 212 212 212 211 211 211 211 211 211 211 211 211 212 212 212 211 211 211 210 210 210 210 210 210 211 211 211 211 211 211 212 212 212 207 207 207 195 195 195 161 161 161 104 104 104 67 67 67 51 51 51 39 39 39 33 33 33 53 53 53 102 102 102 118 118 118 94 94 94 70 70 70 48 48 48 35 35 35 33 33 33 60 60 60 124 124 124 133 133 133 69 69 69 30 30 30 27 27 27 40 40 40 76 76 76 83 83 83 48 48 48 26 26 26 22 22 22 33 33 33 69 69 69 88 88 88 79 79 79 63 63 63 36 36 36 30 30 30 59 59 59 95 95 95 141 141 141 167 167 167 153 153 153 143 143 143 140 140 140 150 150 150 183 183 183 206 206 206 212 212 212 212 212 212 203 203 203 169 169 169 83 83 83 23 23 23 21 21 21 39 39 39 102 102 102 156 156 156 187 187 187 209 209 209 208 208 208 207 207 207 204 204 204 200 200 200 193 193 193 187 187 187 187 187 187 187 187 187 187 187 187 187 187 187 187 187 187 176 176 176 129 129 129 82 82 82 36 36 36 0 0 0 0 0 0 0 0 0 0 0 0 0 0 0 0 0 0 0 0 0 0 0 0 0 0 0 0 0 0 3 3 3 19 19 19 49 49 49 145 145 145 228 228 228 242 242 242 254 254 254 255 255 255 255 255 255 255 255 255 255 255 255 255 255 255 255 255 255 255 255 255 255 255 255 255 255 255 255 255 255 255 255 255 255 255 255 255 255 255 255 255 255 255 255 255 255 255 255 255 255 255 255 255 255 255 255 255 255 255 255 255 255 255 255 255 255 255 255 255 255 255 255 255 255 255 255 255 255 255 255 255 255 255 255 255 255 255 255 255 255 255 255 255 255 255 255 255 255 255 255 255 255 255 255 255 255 255 255 255 255 255 255 255 255 255 255 255 255 255 255 
255 255 255 255 255 255 255 255 255 255 255 255 255 255 255 255 255 255 255 255 255 255 255 255 255 255 255 255 255 255 255 255 255 255 255 255 255 255 255 255 255 255 255 255 255 255 255 255 255 255 255 255 255 255 255 255 255 255 255 255 255 255 255 255 255 255 255 255 255 255 255 255 255 255 255 255 255 255 255 255 255 255 255 255 255 255 255 255 255 255 255 255 255 255 255 255 255 255 255 255 255 255 255 255 255 255 255 255 255 255 255 255 255 255 255 255 255 255 255 255 255 255 255 255 255 255 254 254 254 197 197 197 128 128 128 69 69 69 11 11 11 0 0 0 0 0 0 0 0 0 0 0 0 0 0 0 0 0 0 0 0 0 0 0 0 0 0 0 0 0 0 32 32 32 73 73 73 123 123 123 175 175 175 187 187 187 187 187 187 187 187 187 187 187 187 187 187 187 187 187 187 192 192 192 198 198 198 202 202 202 205 205 205 206 206 206 207 207 207 209 209 209 210 210 210 163 163 163 95 95 95 56 56 56 28 28 28 48 48 48 89 89 89 139 139 139 194 194 194 211 211 211 210 210 210 210 210 210 210 210 210 210 210 210 211 211 211 170 170 170 105 105 105 62 62 62 31 31 31 21 21 21 22 22 22 79 79 79 169 169 169 198 198 198 190 190 190 136 136 136 54 54 54 21 21 21 22 22 22 68 68 68 144 144 144 186 186 186 205 205 205 197 197 197 171 171 171 163 163 163 168 168 168 180 180 180 197 197 197 205 205 205 207 207 207 206 206 206 203 203 203 202 202 202 203 203 203 206 206 206 210 210 210 212 212 212 211 211 211 210 210 210 211 211 211 212 212 212 212 212 212 199 199 199 171 171 171 128 128 128 69 69 69 37 37 37 33 33 33 31 31 31 30 30 30 59 59 59 121 121 121 137 137 137 99 99 99 65 65 65 36 36 36 20 20 20 20 20 20 45 45 45 101 101 101 110 110 110 57 57 57 25 25 25 22 22 22 47 47 47 110 110 110 123 123 123 65 65 65 28 28 28 22 22 22 33 33 33 69 69 69 88 88 88 81 81 81 66 66 66 38 38 38 35 35 35 74 74 74 117 117 117 167 167 167 184 184 184 139 139 139 105 105 105 94 94 94 106 106 106 161 161 161 201 201 201 209 209 209 209 209 209 191 191 191 154 154 154 76 76 76 21 21 21 20 20 20 41 41 41 112 112 112 170 170 170 192 192 192 208 208 208 207 207 207 206 206 206 203 203 203 199 199 199 192 192 192 187 187 187 187 187 187 187 187 187 187 187 187 187 187 187 187 187 187 176 176 176 129 129 129 82 82 82 36 36 36 0 0 0 0 0 0 0 0 0 0 0 0 0 0 0 0 0 0 0 0 0 0 0 0 0 0 0 0 0 0 4 4 4 29 29 29 66 66 66 161 161 161 241 241 241 248 248 248 254 254 254 255 255 255 255 255 255 255 255 255 255 255 255 255 255 255 255 255 255 255 255 255 255 255 255 255 255 255 255 255 255 255 255 255 255 255 255 255 255 255 255 255 255 255 255 255 255 255 255 255 255 255 255 255 255 255 255 255 255 255 255 255 255 255 255 255 255 255 255 255 255 255 255 255 255 255 255 255 255 255 255 255 255 255 255 255 255 255 255 255 255 255 255 255 255 255 255 255 255 255 255 255 255 255 255 255 255 255 255 255 255 255 255 255 255 255 255 255 255 255 255 
255 255 255 255 255 255 255 255 255 255 255 255 255 255 255 255 255 255 255 255 255 255 255 255 255 255 255 255 255 255 255 255 255 255 255 255 255 255 255 255 255 255 255 255 255 255 255 255 255 255 255 255 255 255 255 255 255 255 255 255 255 255 255 255 255 255 255 255 255 255 255 255 255 255 255 255 255 255 255 255 255 255 255 255 255 255 255 255 255 255 255 255 255 255 255 255 255 255 255 255 255 255 255 255 255 255 255 255 255 255 255 255 255 255 255 255 255 255 255 255 255 255 255 255 255 255 255 255 255 209 209 209 155 155 155 86 86 86 14 14 14 1 1 1 0 0 0 0 0 0 0 0 0 0 0 0 0 0 0 0 0 0 0 0 0 0 0 0 0 0 0 33 33 33 74 74 74 124 124 124 175 175 175 187 187 187 187 187 187 187 187 187 187 187 187 187 187 187 187 187 187 191 191 191 197 197 197 200 200 200 203 203 203 205 205 205 206 206 206 208 208 208 209 209 209 167 167 167 107 107 107 65 65 65 31 31 31 44 44 44 79 79 79 131 131 131 192 192 192 211 211 211 210 210 210 209 209 209 209 209 209 209 209 209 210 210 210 171 171 171 110 110 110 66 66 66 32 32 32 20 20 20 22 22 22 78 78 78 168 168 168 199 199 199 194 194 194 141 141 141 58 58 58 26 26 26 28 28 28 76 76 76 154 154 154 191 191 191 201 201 201 173 173 173 118 118 118 97 97 97 101 101 101 124 124 124 162 162 162 181 181 181 187 187 187 184 184 184 174 174 174 173 173 173 178 178 178 189 189 189 205 205 205 212 212 212 211 211 211 211 211 211 211 211 211 212 212 212 212 212 212 184 184 184 128 128 128 84 84 84 53 53 53 34 34 34 27 27 27 32 32 32 49 49 49 89 89 89 155 155 155 165 165 165 112 112 112 68 68 68 37 37 37 20 20 20 20 20 20 40 40 40 85 85 85 91 91 91 49 49 49 23 23 23 21 21 21 55 55 55 140 140 140 157 157 157 77 77 77 27 27 27 22 22 22 34 34 34 69 69 69 90 90 90 87 87 87 74 74 74 43 43 43 35 35 35 66 66 66 98 98 98 132 132 132 139 139 139 97 97 97 66 66 66 55 55 55 72 72 72 145 145 145 197 197 197 207 207 207 203 203 203 170 170 170 127 127 127 66 66 66 23 23 23 21 21 21 45 45 45 126 126 126 187 187 187 199 199 199 207 207 207 206 206 206 204 204 204 201 201 201 197 197 197 191 191 191 187 187 187 187 187 187 187 187 187 187 187 187 187 187 187 187 187 187 176 176 176 129 129 129 82 82 82 36 36 36 0 0 0 0 0 0 0 0 0 0 0 0 0 0 0 0 0 0 0 0 0 0 0 0 0 0 0 0 0 0 7 7 7 43 43 43 88 88 88 175 175 175 248 248 248 252 252 252 255 255 255 255 255 255 255 255 255 255 255 255 255 255 255 255 255 255 255 255 255 255 255 255 255 255 255 255 255 255 255 255 255 255 255 255 255 255 255 255 255 255 255 255 255 255 255 255 255 255 255 255 255 255 255 255 255 255 255 255 255 255 255 255 255 255 255 255 255 255 255 255 255 255 255 255 255 255 255 255 255 255 255 255 255 255 255 255 255 255 255 255 255 255 255 255 255 255 255 255 255 255 255 255 255 255 255 255 255 255 255 255 255 255 255 255 255 255 255 255 255 255 255 
255 255 255 255 255 255 255 255 255 255 255 255 255 255 255 255 255 255 255 255 255 255 255 255 255 255 255 255 255 255 255 255 255 255 255 255 255 255 255 255 255 255 255 255 255 255 255 255 255 255 255 255 255 255 255 255 255 255 255 255 255 255 255 255 255 255 255 255 255 255 255 255 255 255 255 255 255 255 255 255 255 255 255 255 255 255 255 255 255 255 255 255 255 255 255 255 255 255 255 255 255 255 255 255 255 255 255 255 255 255 255 255 255 255 255 255 255 255 255 255 255 255 255 255 255 255 255 255 255 222 222 222 182 182 182 105 105 105 21 21 21 3 3 3 0 0 0 0 0 0 0 0 0 0 0 0 0 0 0 0 0 0 0 0 0 0 0 0 0 0 0 33 33 33 75 75 75 124 124 124 175 175 175 187 187 187 187 187 187 187 187 187 187 187 187 187 187 187 187 187 187 190 190 190 195 195 195 199 199 199 202 202 202 204 204 204 205 205 205 207 207 207 208 208 208 171 171 171 118 118 118 74 74 74 33 33 33 39 39 39 66 66 66 121 121 121 189 189 189 210 210 210 209 209 209 208 208 208 208 208 208 208 208 208 209 209 209 172 172 172 115 115 115 71 71 71 33 33 33 20 20 20 21 21 21 78 78 78 167 167 167 200 200 200 199 199 199 154 154 154 81 81 81 55 55 55 60 60 60 101 101 101 168 168 168 195 195 195 196 196 196 153 153 153 79 79 79 49 49 49 51 51 51 83 83 83 137 137 137 159 159 159 157 157 157 150 150 150 139 139 139 137 137 137 142 142 142 161 161 161 191 191 191 200 200 200 192 192 192 188 188 188 189 189 189 193 193 193 201 201 201 167 167 167 92 92 92 49 49 49 39 39 39 32 32 32 26 26 26 41 41 41 79 79 79 125 125 125 183 183 183 185 185 185 123 123 123 74 74 74 39 39 39 20 20 20 20 20 20 36 36 36 71 71 71 77 77 77 42 42 42 22 22 22 22 22 22 64 64 64 162 162 162 181 181 181 85 85 85 26 26 26 22 22 22 34 34 34 69 69 69 93 93 93 101 101 101 90 90 90 50 50 50 33 33 33 56 56 56 77 77 77 98 98 98 98 98 98 63 63 63 39 39 39 37 37 37 62 62 62 141 141 141 198 198 198 207 207 207 198 198 198 149 149 149 101 101 101 56 56 56 25 25 25 28 28 28 55 55 55 139 139 139 200 200 200 203 203 203 206 206 206 204 204 204 203 203 203 200 200 200 196 196 196 191 191 191 187 187 187 187 187 187 187 187 187 187 187 187 187 187 187 187 187 187 176 176 176 129 129 129 82 82 82 36 36 36 0 0 0 0 0 0 0 0 0 0 0 0 0 0 0 0 0 0 0 0 0 0 0 0 0 0 0 1 1 1 10 10 10 59 59 59 113 113 113 190 190 190 253 253 253 254 254 254 255 255 255 255 255 255 255 255 255 255 255 255 255 255 255 255 255 255 255 255 255 255 255 255 255 255 255 255 255 255 255 255 255 255 255 255 255 255 255 255 255 255 255 255 255 255 255 255 255 255 255 255 255 255 255 255 255 255 255 255 255 255 255 255 255 255 255 255 255 255 255 255 255 255 255 255 255 255 255 255 255 255 255 255 255 255 255 255 255 255 255 255 255 255 255 255 255 255 255 255 255 255 255 255 255 255 255 255 255 255 255 255 255 255 255 255 255 255 255 255 255 255 255 
255 255 255 255 255 255 255 255 255 255 255 255 255 255 255 255 255 255 255 255 255 255 255 255 255 255 255 255 255 255 255 255 255 255 255 255 255 255 255 255 255 255 255 255 255 255 255 255 255 255 255 255 255 255 255 255 255 255 255 255 255 255 255 255 255 255 255 255 255 255 255 255 255 255 255 255 255 255 255 255 255 255 255 255 255 255 255 255 255 255 255 255 255 255 255 255 255 255 255 255 255 255 255 255 255 255 255 255 255 255 255 255 255 255 255 255 255 255 255 255 255 255 255 255 255 255 255 255 255 233 233 233 207 207 207 125 125 125 32 32 32 9 9 9 1 1 1 0 0 0 0 0 0 0 0 0 0 0 0 0 0 0 0 0 0 0 0 0 0 0 0 33 33 33 75 75 75 124 124 124 174 174 174 186 186 186 186 186 186 186 186 186 186 186 186 186 186 186 186 186 186 190 190 190 194 194 194 197 197 197 201 201 201 203 203 203 204 204 204 206 206 206 207 207 207 175 175 175 129 129 129 82 82 82 35 35 35 32 32 32 49 49 49 107 107 107 184 184 184 209 209 209 208 208 208 208 208 208 207 207 207 208 208 208 209 209 209 174 174 174 120 120 120 74 74 74 34 34 34 20 20 20 22 22 22 78 78 78 166 166 166 201 201 201 204 204 204 181 181 181 142 142 142 130 130 130 137 137 137 159 159 159 190 190 190 198 198 198 190 190 190 142 142 142 68 68 68 35 35 35 33 33 33 68 68 68 131 131 131 141 141 141 109 109 109 93 93 93 90 90 90 88 88 88 86 86 86 111 111 111 161 161 161 168 168 168 136 136 136 121 121 121 122 122 122 138 138 138 170 170 170 148 148 148 72 72 72 32 32 32 28 28 28 29 29 29 34 34 34 66 66 66 127 127 127 172 172 172 199 199 199 188 188 188 131 131 131 82 82 82 42 42 42 20 20 20 20 20 20 34 34 34 64 64 64 69 69 69 38 38 38 23 23 23 27 27 27 71 71 71 172 172 172 189 189 189 88 88 88 25 25 25 22 22 22 34 34 34 68 68 68 100 100 100 126 126 126 120 120 120 60 60 60 27 27 27 42 42 42 56 56 56 66 66 66 65 65 65 42 42 42 36 36 36 58 58 58 95 95 95 161 161 161 206 206 206 211 211 211 192 192 192 128 128 128 74 74 74 46 46 46 30 30 30 44 44 44 76 76 76 151 151 151 205 205 205 205 205 205 205 205 205 204 204 204 202 202 202 198 198 198 195 195 195 190 190 190 186 186 186 186 186 186 186 186 186 186 186 186 186 186 186 186 186 186 175 175 175 129 129 129 82 82 82 36 36 36 0 0 0 0 0 0 0 0 0 0 0 0 0 0 0 0 0 0 0 0 0 0 0 0 0 0 0 2 2 2 15 15 15 81 81 81 146 146 146 205 205 205 254 254 254 255 255 255 255 255 255 255 255 255 255 255 255 255 255 255 255 255 255 255 255 255 255 255 255 255 255 255 255 255 255 255 255 255 255 255 255 255 255 255 255 255 255 255 255 255 255 255 255 255 255 255 255 255 255 255 255 255 255 255 255 255 255 255 255 255 255 255 255 255 255 255 255 255 255 255 255 255 255 255 255 255 255 255 255 255 255 255 255 255 255 255 255 255 255 255 255 255 255 255 255 255 255 255 255 255 255 255 255 255 255 255 255 255 255 255 255 255 255 255 255 255 255 255 255 255 255 
255 255 255 255 255 255 255 255 255 255 255 255 255 255 255 255 255 255 255 255 255 255 255 255 255 255 255 255 255 255 255 255 255 255 255 255 255 255 255 255 255 255 255 255 255 255 255 255 255 255 255 255 255 255 255 255 255 255 255 255 255 255 255 255 255 255 255 255 255 255 255 255 255 255 255 255 255 255 255 255 255 255 255 255 255 255 255 255 255 255 255 255 255 255 255 255 255 255 255 255 255 255 255 255 255 255 255 255 255 255 255 255 255 255 255 255 255 255 255 255 255 255 255 255 255 255 255 255 255 243 243 243 228 228 228 145 145 145 47 47 47 17 17 17 3 3 3 0 0 0 0 0 0 0 0 0 0 0 0 0 0 0 0 0 0 0 0 0 0 0 0 32 32 32 74 74 74 123 123 123 174 174 174 186 186 186 186 186 186 186 186 186 186 186 186 186 186 186 186 186 186 189 189 189 192 192 192 196 196 196 200 200 200 202 202 202 203 203 203 205 205 205 206 206 206 180 180 180 142 142 142 92 92 92 38 38 38 27 27 27 35 35 35 94 94 94 177 177 177 205 205 205 207 207 207 207 207 207 207 207 207 207 207 207 208 208 208 177 177 177 127 127 127 81 81 81 36 36 36 21 21 21 22 22 22 77 77 77 165 165 165 202 202 202 207 207 207 200 200 200 186 186 186 184 184 184 191 191 191 198 198 198 206 206 206 201 201 201 189 189 189 145 145 145 78 78 78 47 47 47 42 42 42 76 76 76 139 139 139 135 135 135 78 78 78 53 53 53 52 52 52 50 50 50 47 47 47 74 74 74 128 128 128 132 132 132 91 91 91 71 71 71 71 71 71 93 93 93 138 138 138 129 129 129 65 65 65 30 30 30 24 24 24 27 27 27 41 41 41 83 83 83 157 157 157 201 201 201 209 209 209 189 189 189 136 136 136 88 88 88 44 44 44 20 20 20 20 20 20 32 32 32 59 59 59 63 63 63 35 35 35 24 24 24 33 33 33 76 76 76 168 168 168 182 182 182 84 84 84 24 24 24 21 21 21 33 33 33 67 67 67 105 105 105 148 148 148 150 150 150 85 85 85 44 44 44 45 45 45 46 46 46 48 48 48 47 47 47 42 42 42 52 52 52 91 91 91 133 133 133 180 180 180 211 211 211 207 207 207 181 181 181 107 107 107 52 52 52 37 37 37 34 34 34 59 59 59 96 96 96 161 161 161 207 207 207 206 206 206 204 204 204 203 203 203 201 201 201 197 197 197 193 193 193 189 189 189 186 186 186 186 186 186 186 186 186 186 186 186 186 186 186 186 186 186 175 175 175 129 129 129 82 82 82 36 36 36 0 0 0 0 0 0 0 0 0 0 0 0 0 0 0 0 0 0 0 0 0 2 2 2 3 3 3 6 6 6 23 23 23 103 103 103 177 177 177 219 219 219 255 255 255 255 255 255 255 255 255 255 255 255 255 255 255 255 255 255 255 255 255 255 255 255 255 255 255 255 255 255 255 255 255 255 255 255 255 255 255 255 255 255 255 255 255 255 255 255 255 255 255 255 255 255 255 255 255 255 255 255 255 255 255 255 255 255 255 255 255 255 255 255 255 255 255 255 255 255 255 255 255 255 255 255 255 255 255 255 255 255 255 255 255 255 255 255 255 255 255 255 255 255 255 255 255 255 255 255 255 255 255 255 255 255 255 255 255 255 255 255 255 255 255 255 255 255 255 255 255 
255 255 255 255 255 255 255 255 255 255 255 255 255 255 255 255 255 255 255 255 255 255 255 255 255 255 255 255 255 255 255 255 255 255 255 255 255 255 255 255 255 255 255 255 255 255 255 255 255 255 255 255 255 255 255 255 255 255 255 255 255 255 255 255 255 255 255 255 255 255 255 255 255 255 255 255 255 255 255 255 255 255 255 255 255 255 255 255 255 255 255 255 255 255 255 255 255 255 255 255 255 255 255 255 255 255 255 255 255 255 255 255 255 255 255 255 255 255 255 255 255 255 255 255 255 255 255 255 255 249 249 249 242 242 242 163 163 163 71 71 71 32 32 32 6 6 6 0 0 0 0 0 0 0 0 0 0 0 0 0 0 0 0 0 0 0 0 0 0 0 0 32 32 32 72 72 72 121 121 121 173 173 173 185 185 185 185 185 185 185 185 185 185 185 185 185 185 185 185 185 185 188 188 188 191 191 191 194 194 194 199 199 199 201 201 201 202 202 202 203 203 203 205 205 205 186 186 186 159 159 159 105 105 105 40 40 40 22 22 22 26 26 26 83 83 83 164 164 164 196 196 196 204 204 204 207 207 207 206 206 206 206 206 206 207 207 207 182 182 182 142 142 142 93 93 93 39 39 39 20 20 20 22 22 22 77 77 77 164 164 164 200 200 200 205 205 205 203 203 203 197 197 197 196 196 196 199 199 199 202 202 202 206 206 206 204 204 204 199 199 199 173 173 173 133 133 133 112 112 112 106 106 106 129 129 129 174 174 174 154 154 154 83 83 83 46 46 46 37 37 37 36 36 36 43 43 43 60 60 60 88 88 88 89 89 89 65 65 65 53 53 53 50 50 50 67 67 67 105 105 105 111 111 111 84 84 84 58 58 58 33 33 33 28 28 28 44 44 44 85 85 85 151 151 151 192 192 192 206 206 206 189 189 189 136 136 136 87 87 87 43 43 43 19 19 19 20 20 20 32 32 32 59 59 59 62 62 62 34 34 34 25 25 25 40 40 40 76 76 76 139 139 139 144 144 144 67 67 67 20 20 20 19 19 19 32 32 32 66 66 66 108 108 108 163 163 163 181 181 181 140 140 140 104 104 104 78 78 78 61 61 61 57 57 57 61 61 61 80 80 80 106 106 106 145 145 145 178 178 178 198 198 198 206 206 206 192 192 192 159 159 159 89 89 89 38 38 38 29 29 29 35 35 35 72 72 72 115 115 115 169 169 169 206 206 206 204 204 204 203 203 203 202 202 202 200 200 200 195 195 195 191 191 191 188 188 188 185 185 185 185 185 185 185 185 185 185 185 185 185 185 185 185 185 185 174 174 174 128 128 128 82 82 82 36 36 36 0 0 0 0 0 0 0 0 0 0 0 0 0 0 0 0 0 0 1 1 1 7 7 7 12 12 12 16 16 16 35 35 35 125 125 125 204 204 204 232 232 232 254 254 254 254 254 254 254 254 254 255 255 255 255 255 255 255 255 255 255 255 255 255 255 255 255 255 255 255 255 255 255 255 255 255 255 255 255 255 255 255 255 255 255 255 255 255 255 255 255 255 255 255 255 255 255 255 255 255 255 255 255 255 255 255 255 255 255 255 255 255 255 255 255 255 255 255 255 255 255 255 255 255 255 255 255 255 255 255 255 255 255 255 255 255 255 255 255 255 255 255 255 255 255 255 255 255 255 255 255 255 255 255 255 255 255 255 255 255 255 255 255 255 255 255 255 255 255 255 255 
255 255 255 255 255 255 255 255 255 255 255 255 255 255 255 255 255 255 255 255 255 255 255 255 255 255 255 255 255 255 255 255 255 255 255 255 255 255 255 255 255 255 255 255 255 255 255 255 255 255 255 255 255 255 255 255 255 255 255 255 255 255 255 255 255 255 255 255 255 255 255 255 255 255 255 255 255 255 255 255 255 255 255 255 255 255 255 255 255 255 255 255 255 255 255 255 255 255 255 255 255 255 255 255 255 255 255 255 255 255 255 255 255 255 255 255 255 255 255 255 255 255 255 255 255 255 255 255 255 253 253 253 251 251 251 182 182 182 98 98 98 50 50 50 10 10 10 2 2 2 1 1 1 0 0 0 0 0 0 0 0 0 0 0 0 0 0 0 0 0 0 31 31 31 70 70 70 119 119 119 172 172 172 185 185 185 185 185 185 185 185 185 185 185 185 185 185 185 185 185 185 187 187 187 189 189 189 193 193 193 197 197 197 199 199 199 200 200 200 202 202 202 204 204 204 193 193 193 176 176 176 118 118 118 43 43 43 20 20 20 21 21 21 73 73 73 148 148 148 184 184 184 201 201 201 206 206 206 205 205 205 205 205 205 206 206 206 185 185 185 153 153 153 102 102 102 41 41 41 20 20 20 22 22 22 77 77 77 162 162 162 198 198 198 203 203 203 205 205 205 204 204 204 203 203 203 203 203 203 204 204 204 205 205 205 203 203 203 199 199 199 181 181 181 153 153 153 138 138 138 133 133 133 150 150 150 186 186 186 159 159 159 83 83 83 41 41 41 26 26 26 25 25 25 36 36 36 46 46 46 54 54 54 53 53 53 44 44 44 37 37 37 33 33 33 47 47 47 77 77 77 97 97 97 108 108 108 93 93 93 50 50 50 34 34 34 46 46 46 77 77 77 131 131 131 170 170 170 192 192 192 183 183 183 135 135 135 89 89 89 44 44 44 19 19 19 20 20 20 33 33 33 62 62 62 65 65 65 35 35 35 25 25 25 41 41 41 66 66 66 103 103 103 103 103 103 50 50 50 18 18 18 18 18 18 32 32 32 66 66 66 111 111 111 173 173 173 203 203 203 181 181 181 154 154 154 118 118 118 92 92 92 86 86 86 93 93 93 122 122 122 153 153 153 186 186 186 208 208 208 210 210 210 201 201 201 170 170 170 131 131 131 71 71 71 29 29 29 24 24 24 36 36 36 88 88 88 136 136 136 177 177 177 205 205 205 203 203 203 201 201 201 200 200 200 198 198 198 194 194 194 190 190 190 187 187 187 185 185 185 185 185 185 185 185 185 185 185 185 185 185 185 185 185 185 174 174 174 127 127 127 81 81 81 35 35 35 0 0 0 0 0 0 0 0 0 0 0 0 0 0 0 3 3 3 6 6 6 14 14 14 22 22 22 29 29 29 51 51 51 146 146 146 228 228 228 242 242 242 254 254 254 254 254 254 254 254 254 255 255 255 255 255 255 255 255 255 255 255 255 255 255 255 255 255 255 255 255 255 255 255 255 255 255 255 255 255 255 255 255 255 255 255 255 255 255 255 255 255 255 255 255 255 255 255 255 255 255 255 255 255 255 255 255 255 255 255 255 255 255 255 255 255 255 255 255 255 255 255 255 255 255 255 255 255 255 255 255 255 255 255 255 255 255 255 255 255 255 255 255 255 255 255 255 255 255 255 255 255 255 255 255 255 255 255 255 255 255 255 255 255 255 255 255 255 255 255 255 
255 255 255 255 255 255 255 255 255 255 255 255 255 255 255 255 255 255 255 255 255 255 255 255 255 255 255 255 255 255 255 255 255 255 255 255 255 255 255 255 255 255 255 255 255 255 255 255 255 255 255 255 255 255 255 255 255 255 255 255 255 255 255 255 255 255 255 255 255 255 255 255 255 255 255 255 255 255 255 255 255 255 255 255 255 255 255 255 255 255 255 255 255 255 255 255 255 255 255 255 255 255 255 255 255 255 255 255 255 255 255 255 255 255 255 255 255 255 255 255 254 254 254 255 255 255 255 255 255 254 254 254 253 253 253 199 199 199 133 133 133 75 75 75 20 20 20 7 7 7 4 4 4 2 2 2 0 0 0 0 0 0 0 0 0 0 0 0 0 0 0 29 29 29 66 66 66 117 117 117 171 171 171 184 184 184 185 185 185 185 185 185 185 185 185 185 185 185 185 185 185 186 186 186 188 188 188 192 192 192 196 196 196 198 198 198 199 199 199 201 201 201 203 203 203 198 198 198 191 191 191 131 131 131 48 48 48 22 22 22 22 22 22 64 64 64 126 126 126 166 166 166 196 196 196 206 206 206 205 205 205 205 205 205 205 205 205 187 187 187 159 159 159 107 107 107 42 42 42 20 20 20 23 23 23 77 77 77 163 163 163 197 197 197 201 201 201 202 202 202 202 202 202 202 202 202 202 202 202 203 203 203 204 204 204 195 195 195 180 180 180 148 148 148 104 104 104 86 86 86 85 85 85 109 109 109 151 151 151 136 136 136 77 77 77 42 42 42 26 26 26 21 21 21 26 26 26 30 30 30 33 33 33 32 32 32 29 29 29 27 27 27 28 28 28 38 38 38 58 58 58 92 92 92 141 141 141 140 140 140 86 86 86 53 53 53 43 43 43 52 52 52 82 82 82 117 117 117 158 158 158 165 165 165 135 135 135 96 96 96 46 46 46 20 20 20 22 22 22 38 38 38 73 73 73 77 77 77 40 40 40 21 21 21 28 28 28 38 38 38 53 53 53 53 53 53 31 31 31 18 18 18 18 18 18 33 33 33 70 70 70 115 115 115 174 174 174 206 206 206 197 197 197 185 185 185 170 170 170 160 160 160 157 157 157 160 160 160 172 172 172 185 185 185 199 199 199 208 208 208 209 209 209 192 192 192 138 138 138 90 90 90 56 56 56 30 30 30 24 24 24 40 40 40 107 107 107 162 162 162 187 187 187 204 204 204 202 202 202 200 200 200 199 199 199 196 196 196 192 192 192 188 188 188 186 186 186 184 184 184 185 185 185 185 185 185 185 185 185 185 185 185 185 185 185 173 173 173 125 125 125 79 79 79 34 34 34 0 0 0 0 0 0 0 0 0 0 0 0 2 2 2 12 12 12 21 21 21 27 27 27 35 35 35 47 47 47 74 74 74 165 165 165 242 242 242 249 249 249 255 255 255 255 255 255 255 255 255 255 255 255 255 255 255 255 255 255 255 255 255 255 255 255 255 255 255 255 255 255 255 255 255 255 255 255 255 255 255 255 255 255 255 255 255 255 255 255 255 255 255 255 255 255 255 255 255 255 255 255 255 255 255 255 255 255 255 255 255 255 255 255 255 255 255 255 255 255 255 255 255 255 255 255 255 255 255 255 255 255 255 255 255 255 255 255 255 255 255 255 255 255 255 255 255 255 255 255 255 255 255 255 255 255 255 255 255 255 255 255 255 255 255 255 255 255 255 255 255 
255 255 255 255 255 255 255 255 255 255 255 255 255 255 255 255 255 255 255 255 255 255 255 255 255 255 255 255 255 255 255 255 255 255 255 255 255 255 255 255 255 255 255 255 255 255 255 255 255 255 255 255 255 255 255 255 255 255 255 255 255 255 255 255 255 255 255 255 255 255 255 255 255 255 255 255 255 255 255 255 255 255 255 255 255 255 255 255 255 255 255 255 255 255 255 255 255 255 255 255 255 255 255 255 255 255 255 255 255 255 255 255 255 255 255 255 255 255 255 255 254 254 254 255 255 255 255 255 255 255 255 255 255 255 255 215 215 215 167 167 167 100 100 100 29 29 29 14 14 14 13 13 13 8 8 8 3 3 3 1 1 1 0 0 0 0 0 0 0 0 0 27 27 27 62 62 62 113 113 113 169 169 169 183 183 183 184 184 184 185 185 185 185 185 185 185 185 185 185 185 185 186 186 186 187 187 187 191 191 191 195 195 195 197 197 197 198 198 198 200 200 200 201 201 201 202 202 202 201 201 201 142 142 142 57 57 57 28 28 28 24 24 24 55 55 55 103 103 103 148 148 148 192 192 192 205 205 205 204 204 204 204 204 204 204 204 204 189 189 189 168 168 168 116 116 116 47 47 47 25 25 25 31 31 31 84 84 84 165 165 165 197 197 197 200 200 200 200 200 200 200 200 200 200 200 200 200 200 200 201 201 201 202 202 202 189 189 189 165 165 165 122 122 122 67 67 67 45 45 45 48 48 48 76 76 76 122 122 122 118 118 118 74 74 74 45 45 45 27 27 27 19 19 19 19 19 19 24 24 24 32 32 32 34 34 34 29 29 29 26 26 26 25 25 25 30 30 30 41 41 41 85 85 85 162 162 162 176 176 176 125 125 125 83 83 83 50 50 50 38 38 38 47 47 47 74 74 74 120 120 120 141 141 141 131 131 131 102 102 102 48 48 48 20 20 20 23 23 23 43 43 43 87 87 87 92 92 92 45 45 45 19 19 19 19 19 19 20 20 20 21 21 21 23 23 23 26 26 26 26 26 26 22 22 22 35 35 35 74 74 74 119 119 119 174 174 174 208 208 208 207 207 207 206 206 206 205 205 205 204 204 204 204 204 204 205 205 205 205 205 205 206 206 206 207 207 207 207 207 207 203 203 203 178 178 178 109 109 109 57 57 57 42 42 42 31 31 31 30 30 30 52 52 52 127 127 127 183 183 183 194 194 194 202 202 202 201 201 201 199 199 199 197 197 197 195 195 195 191 191 191 187 187 187 185 185 185 184 184 184 185 185 185 185 185 185 185 185 185 185 185 185 184 184 184 172 172 172 123 123 123 76 76 76 33 33 33 0 0 0 0 0 0 1 1 1 4 4 4 9 9 9 25 25 25 37 37 37 38 38 38 43 43 43 67 67 67 102 102 102 184 184 184 253 253 253 254 254 254 255 255 255 255 255 255 255 255 255 255 255 255 255 255 255 255 255 255 255 255 255 255 255 255 255 255 255 255 255 255 255 255 255 255 255 255 255 255 255 255 255 255 255 255 255 255 255 255 255 255 255 255 255 255 255 255 255 255 255 255 255 255 255 255 255 255 255 255 255 255 255 255 255 255 255 255 255 255 255 255 255 255 255 255 255 255 255 255 255 255 255 255 255 255 255 255 255 255 255 255 255 255 255 255 255 255 255 255 255 255 255 255 255 255 255 255 255 255 255 255 255 255 255 255 255 255 255 255 255 
255 255 255 255 255 255 255 255 255 255 255 255 255 255 255 255 255 255 255 255 255 255 255 255 255 255 255 255 255 255 255 255 255 255 255 255 255 255 255 255 255 255 255 255 255 255 255 255 255 255 255 255 255 255 255 255 255 255 255 255 255 255 255 255 255 255 255 255 255 255 255 255 255 255 255 255 255 255 255 255 255 255 255 255 255 255 255 255 255 255 255 255 255 255 255 255 255 255 255 255 255 255 255 255 255 255 255 255 255 255 255 255 255 255 255 255 255 255 255 255 255 255 255 255 255 255 255 255 255 255 255 255 255 255 255 230 230 230 199 199 199 124 124 124 38 38 38 27 27 27 35 35 35 24 24 24 9 9 9 4 4 4 1 1 1 0 0 0 0 0 0 25 25 25 58 58 58 109 109 109 166 166 166 181 181 181 184 184 184 184 184 184 184 184 184 184 184 184 184 184 184 185 185 185 186 186 186 189 189 189 194 194 194 196 196 196 197 197 197 198 198 198 200 200 200 201 201 201 203 203 203 150 150 150 75 75 75 43 43 43 29 29 29 46 46 46 78 78 78 128 128 128 187 187 187 205 205 205 204 204 204 204 204 204 203 203 203 195 195 195 183 183 183 131 131 131 57 57 57 40 40 40 55 55 55 104 104 104 172 172 172 198 198 198 199 199 199 199 199 199 198 198 198 198 198 198 199 199 199 200 200 200 202 202 202 186 186 186 159 159 159 113 113 113 53 53 53 29 29 29 31 31 31 59 59 59 106 106 106 110 110 110 78 78 78 51 51 51 29 29 29 18 18 18 18 18 18 38 38 38 76 76 76 83 83 83 61 61 61 44 44 44 30 30 30 25 25 25 30 30 30 74 74 74 157 157 157 190 190 190 172 172 172 135 135 135 78 78 78 46 46 46 42 42 42 52 52 52 78 78 78 101 101 101 119 119 119 104 104 104 49 49 49 20 20 20 23 23 23 50 50 50 106 106 106 112 112 112 53 53 53 19 19 19 19 19 19 21 21 21 26 26 26 34 34 34 49 49 49 50 50 50 31 31 31 35 35 35 77 77 77 122 122 122 174 174 174 205 205 205 204 204 204 203 203 203 202 202 202 202 202 202 202 202 202 203 203 203 204 204 204 205 205 205 206 206 206 202 202 202 185 185 185 153 153 153 88 88 88 41 41 41 32 32 32 31 31 31 49 49 49 81 81 81 148 148 148 195 195 195 198 198 198 200 200 200 199 199 199 198 198 198 196 196 196 194 194 194 189 189 189 186 186 186 185 185 185 184 184 184 184 184 184 184 184 184 184 184 184 184 184 184 184 184 184 172 172 172 120 120 120 71 71 71 31 31 31 0 0 0 0 0 0 3 3 3 15 15 15 28 28 28 47 47 47 59 59 59 42 42 42 38 38 38 89 89 89 141 141 141 203 203 203 254 254 254 255 255 255 255 255 255 255 255 255 255 255 255 255 255 255 255 255 255 255 255 255 255 255 255 255 255 255 255 255 255 255 255 255 255 255 255 255 255 255 255 255 255 255 255 255 255 255 255 255 255 255 255 255 255 255 255 255 255 255 255 255 255 255 255 255 255 255 255 255 255 255 255 255 255 255 255 255 255 255 255 255 255 255 255 255 255 255 255 255 255 255 255 255 255 255 255 255 255 255 255 255 255 255 255 255 255 255 255 255 255 255 255 255 255 255 255 255 255 255 255 255 255 255 255 255 255 255 255 255 255 255 255 
255 255 255 255 255 255 255 255 255 255 255 255 255 255 255 255 255 255 255 255 255 255 255 255 255 255 255 255 255 255 255 255 255 255 255 255 255 255 255 255 255 255 255 255 255 255 255 255 255 255 255 255 255 255 255 255 255 255 255 255 255 255 255 255 255 255 255 255 255 255 255 255 255 255 255 255 255 255 255 255 255 255 255 255 255 255 255 255 255 255 255 255 255 255 255 255 255 255 255 255 255 255 255 255 255 255 255 255 255 255 255 255 255 255 255 255 255 255 255 255 255 255 255 255 255 255 255 255 255 255 255 255 255 255 255 242 242 242 226 226 226 147 147 147 53 53 53 42 42 42 49 49 49 38 38 38 23 23 23 13 13 13 5 5 5 2 2 2 0 0 0 23 23 23 53 53 53 104 104 104 162 162 162 179 179 179 183 183 183 184 184 184 184 184 184 184 184 184 184 184 184 184 184 184 185 185 185 188 188 188 192 192 192 194 194 194 195 195 195 197 197 197 198 198 198 200 200 200 203 203 203 159 159 159 96 96 96 59 59 59 33 33 33 38 38 38 56 56 56 108 108 108 174 174 174 199 199 199 203 203 203 203 203 203 202 202 202 199 199 199 194 194 194 150 150 150 85 85 85 73 73 73 91 91 91 130 130 130 180 180 180 198 198 198 198 198 198 197 197 197 197 197 197 197 197 197 197 197 197 199 199 199 201 201 201 185 185 185 158 158 158 109 109 109 45 45 45 19 19 19 19 19 19 47 47 47 96 96 96 104 104 104 82 82 82 57 57 57 30 30 30 18 18 18 19 19 19 53 53 53 115 115 115 125 125 125 89 89 89 59 59 59 34 34 34 22 22 22 22 22 22 66 66 66 153 153 153 199 199 199 204 204 204 171 171 171 99 99 99 54 54 54 38 38 38 34 34 34 45 45 45 69 69 69 109 109 109 106 106 106 50 50 50 21 21 21 24 24 24 56 56 56 125 125 125 136 136 136 71 71 71 31 31 31 25 25 25 29 29 29 45 45 45 62 62 62 79 79 79 75 75 75 40 40 40 36 36 36 80 80 80 126 126 126 173 173 173 203 203 203 202 202 202 201 201 201 200 200 200 200 200 200 200 200 200 201 201 201 203 203 203 204 204 204 204 204 204 193 193 193 160 160 160 121 121 121 68 68 68 30 30 30 25 25 25 32 32 32 70 70 70 112 112 112 166 166 166 203 203 203 200 200 200 198 198 198 197 197 197 196 196 196 195 195 195 193 193 193 188 188 188 185 185 185 184 184 184 184 184 184 184 184 184 184 184 184 184 184 184 184 184 184 184 184 184 171 171 171 117 117 117 66 66 66 29 29 29 1 1 1 5 5 5 12 12 12 31 31 31 49 49 49 65 65 65 72 72 72 45 45 45 38 38 38 111 111 111 179 179 179 220 220 220 255 255 255 255 255 255 255 255 255 255 255 255 255 255 255 255 255 255 255 255 255 255 255 255 255 255 255 255 255 255 255 255 255 255 255 255 255 255 255 255 255 255 255 255 255 255 255 255 255 255 255 255 255 255 255 255 255 255 255 255 255 255 255 255 255 255 255 255 255 255 255 255 255 255 255 255 255 255 255 255 255 255 255 255 255 255 255 255 255 255 255 255 255 255 255 255 255 255 255 255 255 255 255 255 255 255 255 255 255 255 255 255 255 255 255 255 255 255 255 255 255 255 255 255 255 255 255 255 255 255 255 255 255 255 255 
255 255 255 255 255 255 255 255 255 255 255 255 255 255 255 255 255 255 255 255 255 255 255 255 255 255 255 255 255 255 255 255 255 255 255 255 255 255 255 255 255 255 255 255 255 255 255 255 255 255 255 255 255 255 255 255 255 255 255 255 255 255 255 255 255 255 255 255 255 255 255 255 255 255 255 255 255 255 255 255 255 255 255 255 255 255 255 255 255 255 255 255 255 255 255 255 255 255 255 255 255 255 255 255 255 255 255 255 255 255 255 255 255 255 255 255 255 255 255 255 255 255 255 255 255 255 255 255 255 255 255 255 255 255 255 248 248 248 240 240 240 168 168 168 82 82 82 58 58 58 49 49 49 50 50 50 54 54 54 38 38 38 16 16 16 7 7 7 1 1 1 21 21 21 47 47 47 98 98 98 156 156 156 175 175 175 182 182 182 184 184 184 184 184 184 184 184 184 183 183 183 184 184 184 184 184 184 187 187 187 192 192 192 193 193 193 194 194 194 196 196 196 197 197 197 199 199 199 201 201 201 169 169 169 121 121 121 77 77 77 34 34 34 29 29 29 41 41 41 85 85 85 144 144 144 178 178 178 198 198 198 204 204 204 202 202 202 200 200 200 197 197 197 178 178 178 149 149 149 144 144 144 153 153 153 169 169 169 190 190 190 197 197 197 196 196 196 196 196 196 195 195 195 196 196 196 196 196 196 198 198 198 200 200 200 188 188 188 167 167 167 118 118 118 48 48 48 19 19 19 19 19 19 47 47 47 97 97 97 106 106 106 85 85 85 60 60 60 32 32 32 20 20 20 23 23 23 66 66 66 143 143 143 155 155 155 108 108 108 69 69 69 36 36 36 19 19 19 20 20 20 63 63 63 149 149 149 196 196 196 204 204 204 174 174 174 107 107 107 61 61 61 39 39 39 28 28 28 30 30 30 55 55 55 105 105 105 107 107 107 50 50 50 21 21 21 26 26 26 64 64 64 143 143 143 166 166 166 112 112 112 71 71 71 46 46 46 50 50 50 95 95 95 123 123 123 125 125 125 105 105 105 51 51 51 38 38 38 85 85 85 131 131 131 174 174 174 200 200 200 199 199 199 199 199 199 198 198 198 198 198 198 199 199 199 200 200 200 202 202 202 202 202 202 197 197 197 176 176 176 120 120 120 74 74 74 49 49 49 31 31 31 24 24 24 38 38 38 96 96 96 147 147 147 179 179 179 201 201 201 199 199 199 197 197 197 196 196 196 195 195 195 194 194 194 192 192 192 188 188 188 184 184 184 184 184 184 183 183 183 183 183 183 183 183 183 183 183 183 183 183 183 183 183 183 169 169 169 112 112 112 61 61 61 28 28 28 5 5 5 20 20 20 36 36 36 56 56 56 72 72 72 72 72 72 68 68 68 46 46 46 46 46 46 134 134 134 210 210 210 235 235 235 255 255 255 255 255 255 255 255 255 255 255 255 254 254 254 255 255 255 255 255 255 255 255 255 255 255 255 255 255 255 255 255 255 255 255 255 255 255 255 255 255 255 255 255 255 255 255 255 255 255 255 255 255 255 255 255 255 255 255 255 255 255 255 255 255 255 255 255 255 255 255 255 255 255 255 255 255 255 255 255 255 255 255 255 255 255 255 255 255 255 255 255 255 255 255 255 255 255 255 255 255 255 255 255 255 255 255 255 255 255 255 255 255 255 255 255 255 255 255 255 255 255 255 255 255 255 255 255 255 255 255 255 255 255 255 
255 255 255 255 255 255 255 255 255 255 255 255 255 255 255 255 255 255 255 255 255 255 255 255 255 255 255 255 255 255 255 255 255 255 255 255 255 255 255 255 255 255 255 255 255 255 255 255 255 255 255 255 255 255 255 255 255 255 255 255 255 255 255 255 255 255 255 255 255 255 255 255 255 255 255 255 255 255 255 255 255 255 255 255 255 255 255 255 255 255 255 255 255 255 255 255 255 255 255 255 255 255 255 255 255 255 255 255 255 255 255 255 255 255 255 255 255 255 255 255 255 255 255 255 255 255 255 255 255 255 255 255 255 255 255 253 253 253 251 251 251 190 190 190 116 116 116 77 77 77 47 47 47 56 56 56 76 76 76 60 60 60 34 34 34 20 20 20 8 8 8 21 21 21 41 41 41 91 91 91 150 150 150 171 171 171 181 181 181 183 183 183 184 184 184 184 184 184 183 183 183 183 183 183 184 184 184 187 187 187 190 190 190 192 192 192 193 193 193 195 195 195 196 196 196 198 198 198 200 200 200 178 178 178 147 147 147 97 97 97 38 38 38 24 24 24 31 31 31 65 65 65 112 112 112 153 153 153 191 191 191 203 203 203 201 201 201 200 200 200 199 199 199 197 197 197 194 194 194 193 193 193 195 195 195 196 196 196 196 196 196 196 196 196 195 195 195 194 194 194 194 194 194 194 194 194 195 195 195 197 197 197 199 199 199 190 190 190 174 174 174 124 124 124 50 50 50 19 19 19 19 19 19 47 47 47 97 97 97 109 109 109 89 89 89 64 64 64 33 33 33 22 22 22 27 27 27 76 76 76 164 164 164 177 177 177 124 124 124 78 78 78 38 38 38 18 18 18 18 18 18 61 61 61 147 147 147 193 193 193 198 198 198 169 169 169 105 105 105 60 60 60 37 37 37 25 25 25 24 24 24 51 51 51 109 109 109 114 114 114 54 54 54 24 24 24 30 30 30 72 72 72 157 157 157 189 189 189 150 150 150 114 114 114 81 81 81 85 85 85 141 141 141 171 171 171 164 164 164 136 136 136 77 77 77 59 59 59 103 103 103 143 143 143 177 177 177 198 198 198 197 197 197 197 197 197 197 197 197 197 197 197 198 198 198 200 200 200 201 201 201 197 197 197 181 181 181 149 149 149 85 85 85 40 40 40 35 35 35 31 31 31 31 31 31 52 52 52 122 122 122 175 175 175 189 189 189 199 199 199 197 197 197 196 196 196 195 195 195 193 193 193 192 192 192 190 190 190 187 187 187 184 184 184 183 183 183 183 183 183 183 183 183 183 183 183 183 183 183 183 183 183 182 182 182 167 167 167 109 109 109 57 57 57 32 32 32 18 18 18 39 39 39 60 60 60 78 78 78 89 89 89 74 74 74 61 61 61 52 52 52 63 63 63 157 157 157 236 236 236 246 246 246 255 255 255 255 255 255 255 255 255 255 255 255 254 254 254 255 255 255 255 255 255 255 255 255 255 255 255 255 255 255 255 255 255 255 255 255 255 255 255 255 255 255 255 255 255 255 255 255 255 255 255 255 255 255 255 255 255 255 255 255 255 255 255 255 255 255 255 255 255 255 255 255 255 255 255 255 255 255 255 255 255 255 255 255 255 255 255 255 255 255 255 255 255 255 255 255 255 255 255 255 255 255 255 255 255 255 255 255 255 255 255 255 255 255 255 255 255 255 255 255 255 255 255 255 255 255 255 255 255 255 255 255 255 255 255 
255 255 255 255 255 255 255 255 255 255 255 255 255 255 255 255 255 255 255 255 255 255 255 255 255 255 255 255 255 255 255 255 255 255 255 255 255 255 255 255 255 255 255 255 255 255 255 255 255 255 255 255 255 255 255 255 255 255 255 255 255 255 255 255 255 255 255 255 255 255 255 255 255 255 255 255 255 255 255 255 255 255 255 255 255 255 255 255 255 255 255 255 255 255 255 255 255 255 255 255 255 255 255 255 255 255 255 255 255 255 255 255 255 255 255 255 255 255 255 255 255 255 255 255 255 255 255 255 255 255 255 255 255 255 255 254 254 254 253 253 253 211 211 211 159 159 159 101 101 101 41 41 41 51 51 51 79 79 79 77 77 77 67 67 67 48 48 48 27 27 27 28 28 28 36 36 36 84 84 84 143 143 143 167 167 167 180 180 180 183 183 183 183 183 183 183 183 183 183 183 183 183 183 183 183 183 183 186 186 186 189 189 189 190 190 190 192 192 192 193 193 193 195 195 195 196 196 196 198 198 198 188 188 188 174 174 174 120 120 120 49 49 49 28 28 28 30 30 30 48 48 48 73 73 73 121 121 121 179 179 179 200 200 200 200 200 200 199 199 199 198 198 198 196 196 196 195 195 195 194 194 194 195 195 195 194 194 194 194 194 194 193 193 193 193 193 193 193 193 193 193 193 193 194 194 194 194 194 194 196 196 196 198 198 198 190 190 190 174 174 174 125 125 125 50 50 50 19 19 19 18 18 18 47 47 47 98 98 98 112 112 112 96 96 96 70 70 70 34 34 34 24 24 24 34 34 34 83 83 83 166 166 166 180 180 180 132 132 132 86 86 86 41 41 41 18 18 18 18 18 18 61 61 61 146 146 146 186 186 186 180 180 180 146 146 146 81 81 81 42 42 42 30 30 30 28 28 28 36 36 36 69 69 69 132 132 132 135 135 135 67 67 67 33 33 33 42 42 42 81 81 81 159 159 159 196 196 196 180 180 180 165 165 165 151 151 151 153 153 153 176 176 176 188 188 188 185 185 185 170 170 170 137 137 137 127 127 127 152 152 152 173 173 173 187 187 187 196 196 196 195 195 195 195 195 195 196 196 196 197 197 197 198 198 198 199 199 199 200 200 200 186 186 186 143 143 143 101 101 101 65 65 65 38 38 38 29 29 29 30 30 30 53 53 53 87 87 87 146 146 146 189 189 189 194 194 194 197 197 197 195 195 195 194 194 194 193 193 193 192 192 192 190 190 190 189 189 189 186 186 186 183 183 183 183 183 183 183 183 183 183 183 183 183 183 183 183 183 183 183 183 183 181 181 181 165 165 165 106 106 106 58 58 58 51 51 51 49 49 49 66 66 66 82 82 82 88 88 88 89 89 89 65 65 65 50 50 50 70 70 70 101 101 101 180 180 180 246 246 246 251 251 251 254 254 254 255 255 255 255 255 255 255 255 255 255 255 255 255 255 255 255 255 255 255 255 255 255 255 255 255 255 255 255 255 255 255 255 255 255 255 255 255 255 255 255 255 255 255 255 255 255 255 255 255 255 255 255 255 255 255 255 255 255 255 255 255 255 255 255 255 255 255 255 255 255 255 255 255 255 255 255 255 255 255 255 255 255 255 255 255 255 255 255 255 255 255 255 255 255 255 255 255 255 255 255 255 255 255 255 255 255 255 255 255 255 255 255 255 255 255 255 255 255 255 255 255 255 255 255 255 255 255 255 255 255 255 255 
255 255 255 255 255 255 255 255 255 255 255 255 255 255 255 255 255 255 255 255 255 255 255 255 255 255 255 255 255 255 255 255 255 255 255 255 255 255 255 255 255 255 255 255 255 255 255 255 255 255 255 255 255 255 255 255 255 255 255 255 255 255 255 255 255 255 255 255 255 255 255 255 255 255 255 255 255 255 255 255 255 255 255 255 255 255 255 255 255 255 255 255 255 255 255 255 255 255 255 255 255 255 255 255 255 255 255 255 255 255 255 255 255 255 255 255 255 255 255 255 255 255 255 255 255 255 255 255 255 255 255 255 255 255 255 255 255 255 255 255 255 229 229 229 197 197 197 125 125 125 44 44 44 50 50 50 77 77 77 86 86 86 91 91 91 73 73 73 49 49 49 42 42 42 38 38 38 81 81 81 138 138 138 163 163 163 179 179 179 183 183 183 183 183 183 183 183 183 183 183 183 183 183 183 183 183 183 184 184 184 187 187 187 189 189 189 190 190 190 192 192 192 193 193 193 194 194 194 196 196 196 195 195 195 193 193 193 140 140 140 65 65 65 37 37 37 30 30 30 35 35 35 44 44 44 91 91 91 157 157 157 186 186 186 196 196 196 199 199 199 198 198 198 196 196 196 195 195 195 194 194 194 194 194 194 193 193 193 192 192 192 191 191 191 191 191 191 191 191 191 192 192 192 193 193 193 193 193 193 195 195 195 197 197 197 189 189 189 174 174 174 125 125 125 50 50 50 19 19 19 18 18 18 47 47 47 98 98 98 114 114 114 101 101 101 74 74 74 36 36 36 25 25 25 39 39 39 88 88 88 168 168 168 184 184 184 141 141 141 95 95 95 44 44 44 19 19 19 18 18 18 61 61 61 146 146 146 177 177 177 155 155 155 116 116 116 60 60 60 29 29 29 25 25 25 33 33 33 53 53 53 92 92 92 153 153 153 157 157 157 94 94 94 63 63 63 72 72 72 104 104 104 166 166 166 201 201 201 200 200 200 200 200 200 199 199 199 199 199 199 199 199 199 199 199 199 198 198 198 193 193 193 181 181 181 177 177 177 187 187 187 193 193 193 194 194 194 194 194 194 194 194 194 195 195 195 196 196 196 197 197 197 198 198 198 196 196 196 189 189 189 165 165 165 107 107 107 64 64 64 47 47 47 34 34 34 26 26 26 34 34 34 78 78 78 122 122 122 168 168 168 199 199 199 197 197 197 195 195 195 193 193 193 192 192 192 191 191 191 190 190 190 189 189 189 187 187 187 185 185 185 183 183 183 183 183 183 183 183 183 183 183 183 183 183 183 183 183 183 182 182 182 180 180 180 164 164 164 108 108 108 66 66 66 70 70 70 75 75 75 88 88 88 97 97 97 95 95 95 87 87 87 57 57 57 43 43 43 90 90 90 140 140 140 203 203 203 254 254 254 254 254 254 254 254 254 254 254 254 255 255 255 255 255 255 255 255 255 255 255 255 255 255 255 255 255 255 255 255 255 255 255 255 255 255 255 255 255 255 255 255 255 255 255 255 255 255 255 255 255 255 255 255 255 255 255 255 255 255 255 255 255 255 255 255 255 255 255 255 255 255 255 255 255 255 255 255 255 255 255 255 255 255 255 255 255 255 255 255 255 255 255 255 255 255 255 255 255 255 255 255 255 255 255 255 255 255 255 255 255 255 255 255 255 255 255 255 255 255 255 255 255 255 255 255 255 255 255 255 255 255 255 255 255 255 255 255 255 
255 255 255 255 255 255 255 255 255 255 255 255 255 255 255 255 255 255 255 255 255 255 255 255 255 255 255 255 255 255 255 255 255 255 255 255 255 255 255 255 255 255 255 255 255 255 255 255 255 255 255 255 255 255 255 255 255 255 255 255 255 255 255 255 255 255 255 255 255 255 255 255 255 255 255 255 255 255 255 255 255 255 255 255 255 255 255 255 255 255 255 255 255 255 255 255 255 255 255 255 255 255 255 255 255 255 255 255 255 255 255 255 255 255 255 255 255 255 255 255 255 255 255 255 255 255 255 255 255 255 255 255 254 254 254 254 254 254 254 254 254 241 241 241 224 224 224 151 151 151 66 66 66 56 56 56 65 65 65 79 79 79 95 95 95 90 90 90 80 80 80 69 69 69 58 58 58 90 90 90 135 135 135 159 159 159 178 178 178 182 182 182 182 182 182 182 182 182 182 182 182 182 182 182 182 182 182 183 183 183 185 185 185 187 187 187 189 189 189 190 190 190 191 191 191 192 192 192 194 194 194 195 195 195 195 195 195 155 155 155 97 97 97 59 59 59 31 31 31 29 29 29 40 40 40 69 69 69 108 108 108 147 147 147 186 186 186 199 199 199 198 198 198 196 196 196 194 194 194 193 193 193 192 192 192 192 192 192 191 191 191 190 190 190 189 189 189 189 189 189 190 190 190 191 191 191 192 192 192 194 194 194 196 196 196 189 189 189 175 175 175 125 125 125 50 50 50 18 18 18 18 18 18 47 47 47 99 99 99 114 114 114 101 101 101 74 74 74 36 36 36 26 26 26 41 41 41 91 91 91 169 169 169 187 187 187 152 152 152 105 105 105 47 47 47 18 18 18 18 18 18 60 60 60 145 145 145 162 162 162 111 111 111 73 73 73 46 46 46 30 30 30 23 23 23 40 40 40 83 83 83 127 127 127 171 171 171 183 183 183 155 155 155 141 141 141 144 144 144 157 157 157 183 183 183 197 197 197 197 197 197 196 196 196 196 196 196 196 196 196 196 196 196 195 195 195 195 195 195 193 193 193 188 188 188 186 186 186 190 190 190 193 193 193 193 193 193 194 194 194 194 194 194 195 195 195 196 196 196 197 197 197 198 198 198 187 187 187 154 154 154 119 119 119 80 80 80 50 50 50 37 37 37 28 28 28 28 28 28 48 48 48 111 111 111 160 160 160 182 182 182 197 197 197 195 195 195 193 193 193 191 191 191 190 190 190 189 189 189 188 188 188 187 187 187 186 186 186 184 184 184 182 182 182 182 182 182 182 182 182 182 182 182 182 182 182 182 182 182 182 182 182 179 179 179 166 166 166 123 123 123 90 90 90 90 90 90 91 91 91 97 97 97 99 99 99 92 92 92 81 81 81 52 52 52 43 43 43 117 117 117 184 184 184 223 223 223 255 255 255 254 254 254 254 254 254 254 254 254 254 254 254 255 255 255 255 255 255 255 255 255 255 255 255 255 255 255 255 255 255 255 255 255 255 255 255 255 255 255 255 255 255 255 255 255 255 255 255 255 255 255 255 255 255 255 255 255 255 255 255 255 255 255 255 255 255 255 255 255 255 255 255 255 255 255 255 255 255 255 255 255 255 255 255 255 255 255 255 255 255 255 255 255 255 255 255 255 255 255 255 255 255 255 255 255 255 255 255 255 255 255 255 255 255 255 255 255 255 255 255 255 255 255 255 255 255 255 255 255 255 255 255 255 255 255 255 255 255 
255 255 255 255 255 255 255 255 255 255 255 255 255 255 255 255 255 255 255 255 255 255 255 255 255 255 255 255 255 255 255 255 255 255 255 255 255 255 255 255 255 255 255 255 255 255 255 255 255 255 255 255 255 255 255 255 255 255 255 255 255 255 255 255 255 255 255 255 255 255 255 255 255 255 255 255 255 255 255 255 255 255 255 255 255 255 255 255 255 255 255 255 255 255 255 255 255 255 255 255 255 255 255 255 255 255 255 255 255 255 255 255 255 255 255 255 255 255 255 255 255 255 255 255 255 255 255 255 255 255 255 255 254 254 254 254 254 254 254 254 254 250 250 250 245 245 245 177 177 177 96 96 96 68 68 68 54 54 54 71 71 71 96 96 96 102 102 102 103 103 103 92 92 92 78 78 78 101 101 101 134 134 134 157 157 157 177 177 177 182 182 182 182 182 182 182 182 182 182 182 182 182 182 182 181 181 181 182 182 182 184 184 184 186 186 186 187 187 187 188 188 188 189 189 189 191 191 191 192 192 192 194 194 194 197 197 197 169 169 169 129 129 129 84 84 84 36 36 36 26 26 26 35 35 35 50 50 50 69 69 69 112 112 112 168 168 168 190 190 190 195 195 195 196 196 196 194 194 194 192 192 192 191 191 191 190 190 190 190 190 190 189 189 189 188 188 188 188 188 188 189 189 189 190 190 190 191 191 191 193 193 193 196 196 196 189 189 189 175 175 175 126 126 126 50 50 50 18 18 18 18 18 18 48 48 48 102 102 102 118 118 118 104 104 104 76 76 76 36 36 36 27 27 27 43 43 43 92 92 92 169 169 169 191 191 191 163 163 163 116 116 116 50 50 50 18 18 18 18 18 18 59 59 59 141 141 141 147 147 147 76 76 76 38 38 38 34 34 34 31 31 31 29 29 29 55 55 55 114 114 114 158 158 158 186 186 186 200 200 200 197 197 197 195 195 195 194 194 194 194 194 194 194 194 194 194 194 194 194 194 194 193 193 193 193 193 193 193 193 193 193 193 193 192 192 192 193 193 193 192 192 192 192 192 192 192 192 192 192 192 192 192 192 192 193 193 193 194 194 194 195 195 195 196 196 196 196 196 196 194 194 194 187 187 187 165 165 165 119 119 119 80 80 80 57 57 57 38 38 38 28 28 28 27 27 27 41 41 41 72 72 72 141 141 141 189 189 189 192 192 192 195 195 195 193 193 193 191 191 191 189 189 189 188 188 188 187 187 187 186 186 186 185 185 185 184 184 184 183 183 183 182 182 182 182 182 182 182 182 182 182 182 182 182 182 182 182 182 182 181 181 181 178 178 178 167 167 167 134 134 134 108 108 108 105 105 105 104 104 104 104 104 104 101 101 101 87 87 87 72 72 72 52 52 52 54 54 54 143 143 143 220 220 220 239 239 239 255 255 255 254 254 254 254 254 254 254 254 254 254 254 254 255 255 255 255 255 255 255 255 255 255 255 255 255 255 255 255 255 255 255 255 255 255 255 255 255 255 255 255 255 255 255 255 255 255 255 255 255 255 255 255 255 255 255 255 255 255 255 255 255 255 255 255 255 255 255 255 255 255 255 255 255 255 255 255 255 255 255 255 255 255 255 255 255 255 255 255 255 255 255 255 255 255 255 255 255 255 255 255 255 255 255 255 255 255 255 255 255 255 255 255 255 255 255 255 255 255 255 255 255 255 255 255 255 255 255 255 255 255 255 255 255 255 255 255 255 255 
255 255 255 255 255 255 255 255 255 255 255 255 255 255 255 255 255 255 255 255 255 255 255 255 255 255 255 255 255 255 255 255 255 255 255 255 255 255 255 255 255 255 255 255 255 255 255 255 255 255 255 255 255 255 255 255 255 255 255 255 255 255 255 255 255 255 255 255 255 255 255 255 255 255 255 255 255 255 255 255 255 255 255 255 255 255 255 255 255 255 255 255 255 255 255 255 255 255 255 255 255 255 255 255 255 255 255 255 255 255 255 255 255 255 255 255 255 255 255 255 254 254 254 255 255 255 255 255 255 255 255 255 255 255 255 255 255 255 255 255 255 253 253 253 250 250 250 202 202 202 144 144 144 93 93 93 44 44 44 59 59 59 91 91 91 101 101 101 105 105 105 102 102 102 96 96 96 114 114 114 140 140 140 159 159 159 177 177 177 181 181 181 181 181 181 181 181 181 181 181 181 181 181 181 181 181 181 182 182 182 183 183 183 184 184 184 186 186 186 187 187 187 188 188 188 189 189 189 190 190 190 192 192 192 194 194 194 183 183 183 165 165 165 115 115 115 50 50 50 29 29 29 29 29 29 38 38 38 51 51 51 85 85 85 128 128 128 161 161 161 188 188 188 196 196 196 194 194 194 193 193 193 191 191 191 190 190 190 189 189 189 188 188 188 188 188 188 187 187 187 188 188 188 189 189 189 190 190 190 192 192 192 194 194 194 188 188 188 177 177 177 127 127 127 51 51 51 18 18 18 17 17 17 52 52 52 114 114 114 130 130 130 111 111 111 79 79 79 37 37 37 27 27 27 42 42 42 91 91 91 168 168 168 194 194 194 176 176 176 128 128 128 54 54 54 18 18 18 18 18 18 56 56 56 131 131 131 134 134 134 63 63 63 26 26 26 24 24 24 33 33 33 51 51 51 88 88 88 145 145 145 181 181 181 192 192 192 197 197 197 195 195 195 194 194 194 193 193 193 193 193 193 193 193 193 192 192 192 191 191 191 191 191 191 191 191 191 191 191 191 191 191 191 191 191 191 191 191 191 191 191 191 191 191 191 191 191 191 191 191 191 192 192 192 193 193 193 194 194 194 195 195 195 196 196 196 194 194 194 181 181 181 147 147 147 115 115 115 84 84 84 59 59 59 42 42 42 30 30 30 25 25 25 36 36 36 80 80 80 122 122 122 164 164 164 192 192 192 192 192 192 192 192 192 190 190 190 189 189 189 187 187 187 186 186 186 186 186 186 185 185 185 184 184 184 183 183 183 182 182 182 181 181 181 181 181 181 181 181 181 181 181 181 181 181 181 181 181 181 180 180 180 176 176 176 166 166 166 135 135 135 111 111 111 108 108 108 106 106 106 105 105 105 100 100 100 74 74 74 56 56 56 66 66 66 90 90 90 172 172 172 239 239 239 248 248 248 255 255 255 254 254 254 254 254 254 254 254 254 254 254 254 255 255 255 255 255 255 255 255 255 255 255 255 255 255 255 255 255 255 255 255 255 255 255 255 255 255 255 255 255 255 255 255 255 255 255 255 255 255 255 255 255 255 255 255 255 255 255 255 255 255 255 255 255 255 255 255 255 255 255 255 255 255 255 255 255 255 255 255 255 255 255 255 255 255 255 255 255 255 255 255 255 255 255 255 255 255 255 255 255 255 255 255 255 255 255 255 255 255 255 255 255 255 255 255 255 255 255 255 255 255 255 255 255 255 255 255 255 255 255 255 255 255 255 255 255 255 
255 255 255 255 255 255 255 255 255 255 255 255 255 255 255 255 255 255 255 255 255 255 255 255 255 255 255 255 255 255 255 255 255 255 255 255 255 255 255 255 255 255 255 255 255 255 255 255 255 255 255 255 255 255 255 255 255 255 255 255 255 255 255 255 255 255 255 255 255 255 255 255 255 255 255 255 255 255 255 255 255 255 255 255 255 255 255 255 255 255 255 255 255 255 255 255 255 255 255 255 255 255 255 255 255 255 255 255 255 255 255 255 255 255 255 255 255 255 255 255 254 254 254 255 255 255 255 255 255 255 255 255 255 255 255 255 255 255 255 255 255 255 255 255 254 254 254 225 225 225 189 189 189 120 120 120 44 44 44 53 53 53 84 84 84 98 98 98 107 107 107 109 109 109 109 109 109 124 124 124 142 142 142 160 160 160 177 177 177 181 181 181 181 181 181 181 181 181 181 181 181 181 181 181 181 181 181 181 181 181 181 181 181 183 183 183 184 184 184 185 185 185 186 186 186 187 187 187 188 188 188 190 190 190 192 192 192 192 192 192 191 191 191 142 142 142 70 70 70 39 39 39 26 26 26 28 28 28 37 37 37 61 61 61 92 92 92 130 130 130 171 171 171 188 188 188 193 193 193 193 193 193 191 191 191 190 190 190 188 188 188 188 188 188 187 187 187 187 187 187 187 187 187 188 188 188 189 189 189 191 191 191 193 193 193 188 188 188 178 178 178 129 129 129 51 51 51 18 18 18 17 17 17 55 55 55 121 121 121 139 139 139 118 118 118 84 84 84 39 39 39 26 26 26 41 41 41 89 89 89 166 166 166 197 197 197 186 186 186 140 140 140 59 59 59 19 19 19 18 18 18 54 54 54 126 126 126 129 129 129 63 63 63 29 29 29 30 30 30 47 47 47 82 82 82 123 123 123 171 171 171 197 197 197 196 196 196 195 195 195 193 193 193 192 192 192 192 192 192 191 191 191 191 191 191 190 190 190 189 189 189 189 189 189 189 189 189 189 189 189 189 189 189 189 189 189 189 189 189 190 190 190 190 190 190 190 190 190 191 191 191 192 192 192 193 193 193 194 194 194 194 194 194 189 189 189 179 179 179 156 156 156 110 110 110 74 74 74 56 56 56 41 41 41 30 30 30 25 25 25 31 31 31 55 55 55 116 116 116 163 163 163 181 181 181 193 193 193 191 191 191 189 189 189 188 188 188 187 187 187 186 186 186 185 185 185 185 185 185 184 184 184 183 183 183 181 181 181 181 181 181 181 181 181 180 180 180 180 180 180 180 180 180 181 181 181 181 181 181 180 180 180 174 174 174 163 163 163 136 136 136 114 114 114 111 111 111 108 108 108 105 105 105 96 96 96 63 63 63 45 45 45 85 85 85 130 130 130 198 198 198 253 253 253 254 254 254 255 255 255 254 254 254 254 254 254 254 254 254 254 254 254 255 255 255 255 255 255 255 255 255 255 255 255 255 255 255 255 255 255 255 255 255 255 255 255 255 255 255 255 255 255 255 255 255 255 255 255 255 255 255 255 255 255 255 255 255 255 255 255 255 255 255 255 255 255 255 255 255 255 255 255 255 255 255 255 255 255 255 255 255 255 255 255 255 255 255 255 255 255 255 255 255 255 255 255 255 255 255 255 255 255 255 255 255 255 255 255 255 255 255 255 255 255 255 255 255 255 255 255 255 255 255 255 255 255 255 255 255 255 255 255 255 255 255 255 255 255 
255 255 255 255 255 255 255 255 255 255 255 255 255 255 255 255 255 255 255 255 255 255 255 255 255 255 255 255 255 255 255 255 255 255 255 255 255 255 255 255 255 255 255 255 255 255 255 255 255 255 255 255 255 255 255 255 255 255 255 255 255 255 255 255 255 255 255 255 255 255 255 255 255 255 255 255 255 255 255 255 255 255 255 255 255 255 255 255 255 255 255 255 255 255 255 255 255 255 255 255 255 255 255 255 255 255 255 255 255 255 255 255 255 255 255 255 255 255 255 255 255 255 255 255 255 255 255 255 255 255 255 255 255 255 255 255 255 255 255 255 255 255 255 255 254 254 254 240 240 240 222 222 222 152 152 152 69 69 69 59 59 59 68 68 68 86 86 86 107 107 107 111 111 111 112 112 112 124 124 124 139 139 139 157 157 157 176 176 176 180 180 180 180 180 180 180 180 180 180 180 180 180 180 180 180 180 180 180 180 180 180 180 180 181 181 181 183 183 183 184 184 184 184 184 184 185 185 185 186 186 186 188 188 188 189 189 189 191 191 191 192 192 192 156 156 156 105 105 105 65 65 65 30 30 30 24 24 24 31 31 31 45 45 45 63 63 63 94 94 94 132 132 132 161 161 161 186 186 186 194 194 194 192 192 192 190 190 190 189 189 189 187 187 187 187 187 187 186 186 186 186 186 186 187 187 187 188 188 188 190 190 190 191 191 191 187 187 187 179 179 179 130 130 130 51 51 51 17 17 17 18 18 18 55 55 55 121 121 121 141 141 141 126 126 126 91 91 91 40 40 40 25 25 25 39 39 39 86 86 86 163 163 163 197 197 197 192 192 192 148 148 148 66 66 66 24 24 24 20 20 20 57 57 57 135 135 135 149 149 149 98 98 98 72 72 72 72 72 72 91 91 91 131 131 131 163 163 163 184 184 184 194 194 194 193 193 193 192 192 192 190 190 190 190 190 190 189 189 189 189 189 189 188 188 188 188 188 188 187 187 187 187 187 187 187 187 187 187 187 187 188 188 188 188 188 188 188 188 188 189 189 189 190 190 190 190 190 190 191 191 191 192 192 192 194 194 194 192 192 192 185 185 185 167 167 167 134 134 134 103 103 103 78 78 78 56 56 56 41 41 41 29 29 29 24 24 24 31 31 31 62 62 62 98 98 98 145 145 145 179 179 179 186 186 186 190 190 190 188 188 188 186 186 186 186 186 186 185 185 185 184 184 184 183 183 183 183 183 183 183 183 183 181 181 181 180 180 180 180 180 180 180 180 180 179 179 179 179 179 179 180 180 180 180 180 180 180 180 180 179 179 179 171 171 171 159 159 159 134 134 134 114 114 114 113 113 113 110 110 110 101 101 101 87 87 87 56 56 56 45 45 45 116 116 116 181 181 181 221 221 221 254 254 254 254 254 254 255 255 255 255 255 255 255 255 255 255 255 255 255 255 255 255 255 255 255 255 255 255 255 255 255 255 255 255 255 255 255 255 255 255 255 255 255 255 255 255 255 255 255 255 255 255 255 255 255 255 255 255 255 255 255 255 255 255 255 255 255 255 255 255 255 255 255 255 255 255 255 255 255 255 255 255 255 255 255 255 255 255 255 255 255 255 255 255 255 255 255 255 255 255 255 255 255 255 255 255 255 255 255 255 255 255 255 255 255 255 255 255 255 255 255 255 255 255 255 255 255 255 255 255 255 255 255 255 255 255 255 255 255 255 255 255 255 255 255 255 255 
255 255 255 255 255 255 255 255 255 255 255 255 255 255 255 255 255 255 255 255 255 255 255 255 255 255 255 255 255 255 255 255 255 255 255 255 255 255 255 255 255 255 255 255 255 255 255 255 255 255 255 255 255 255 255 255 255 255 255 255 255 255 255 255 255 255 255 255 255 255 255 255 255 255 255 255 255 255 255 255 255 255 255 255 255 255 255 255 255 255 255 255 255 255 255 255 255 255 255 255 255 255 255 255 255 255 255 255 255 255 255 255 255 255 255 255 255 255 255 255 255 255 255 255 255 255 255 255 255 255 255 255 255 255 255 255 255 255 255 255 255 255 255 255 254 254 254 251 251 251 247 247 247 182 182 182 102 102 102 72 72 72 55 55 55 75 75 75 104 104 104 112 112 112 113 113 113 123 123 123 136 136 136 154 154 154 175 175 175 179 179 179 179 179 179 179 179 179 179 179 179 179 179 179 179 179 179 179 179 179 179 179 179 180 180 180 182 182 182 182 182 182 182 182 182 183 183 183 184 184 184 185 185 185 187 187 187 189 189 189 191 191 191 170 170 170 137 137 137 91 91 91 39 39 39 24 24 24 26 26 26 32 32 32 40 40 40 64 64 64 95 95 95 131 131 131 169 169 169 186 186 186 190 190 190 190 190 190 189 189 189 188 188 188 187 187 187 186 186 186 186 186 186 186 186 186 187 187 187 189 189 189 190 190 190 187 187 187 181 181 181 131 131 131 51 51 51 17 17 17 18 18 18 55 55 55 120 120 120 145 145 145 139 139 139 108 108 108 57 57 57 41 41 41 54 54 54 97 97 97 165 165 165 197 197 197 196 196 196 158 158 158 85 85 85 46 46 46 39 39 39 72 72 72 146 146 146 167 167 167 134 134 134 116 116 116 115 115 115 133 133 133 171 171 171 191 191 191 192 192 192 192 192 192 190 190 190 189 189 189 188 188 188 187 187 187 187 187 187 186 186 186 186 186 186 186 186 186 186 186 186 186 186 186 186 186 186 186 186 186 187 187 187 187 187 187 188 188 188 189 189 189 190 190 190 190 190 190 191 191 191 190 190 190 187 187 187 180 180 180 164 164 164 138 138 138 94 94 94 61 61 61 51 51 51 40 40 40 29 29 29 23 23 23 28 28 28 47 47 47 95 95 95 138 138 138 169 169 169 190 190 190 188 188 188 187 187 187 185 185 185 184 184 184 183 183 183 182 182 182 182 182 182 181 181 181 181 181 181 181 181 181 180 180 180 179 179 179 179 179 179 179 179 179 179 179 179 179 179 179 179 179 179 180 180 180 180 180 180 177 177 177 168 168 168 155 155 155 133 133 133 115 115 115 114 114 114 110 110 110 93 93 93 75 75 75 55 55 55 57 57 57 147 147 147 223 223 223 240 240 240 254 254 254 255 255 255 255 255 255 255 255 255 255 255 255 255 255 255 255 255 255 255 255 255 255 255 255 255 255 255 255 255 255 255 255 255 255 255 255 255 255 255 255 255 255 255 255 255 255 255 255 255 255 255 255 255 255 255 255 255 255 255 255 255 255 255 255 255 255 255 255 255 255 255 255 255 255 255 255 255 255 255 255 255 255 255 255 255 255 255 255 255 255 255 255 255 255 255 255 255 255 255 255 255 255 255 255 255 255 255 255 255 255 255 255 255 255 255 255 255 255 255 255 255 255 255 255 255 255 255 255 255 255 255 255 255 255 255 255 255 255 255 255 255 255 255 255 
255 255 255 255 255 255 255 255 255 255 255 255 255 255 255 255 255 255 255 255 255 255 255 255 255 255 255 255 255 255 255 255 255 255 255 255 255 255 255 255 255 255 255 255 255 255 255 255 255 255 255 255 255 255 255 255 255 255 255 255 255 255 255 255 255 255 255 255 255 255 255 255 255 255 255 255 255 255 255 255 255 255 255 255 255 255 255 255 255 255 255 255 255 255 255 255 255 255 255 255 255 255 255 255 255 255 255 255 255 255 255 255 255 255 255 255 255 255 255 255 255 255 255 255 255 255 255 255 255 255 255 255 255 255 255 255 255 255 255 255 255 255 255 255 254 254 254 253 253 253 251 251 251 208 208 208 155 155 155 101 101 101 47 47 47 62 62 62 95 95 95 108 108 108 114 114 114 123 123 123 133 133 133 151 151 151 173 173 173 178 178 178 178 178 178 178 178 178 178 178 178 178 178 178 177 177 177 177 177 177 177 177 177 178 178 178 179 179 179 180 180 180 180 180 180 181 181 181 182 182 182 183 183 183 184 184 184 186 186 186 188 188 188 180 180 180 166 166 166 121 121 121 61 61 61 34 34 34 24 24 24 26 26 26 32 32 32 47 47 47 66 66 66 94 94 94 127 127 127 155 155 155 180 180 180 189 189 189 189 189 189 188 188 188 187 187 187 186 186 186 186 186 186 186 186 186 186 186 186 187 187 187 189 189 189 187 187 187 183 183 183 134 134 134 52 52 52 18 18 18 18 18 18 55 55 55 121 121 121 156 156 156 166 166 166 149 149 149 111 111 111 101 101 101 115 115 115 141 141 141 177 177 177 195 195 195 194 194 194 174 174 174 134 134 134 110 110 110 101 101 101 120 120 120 166 166 166 183 183 183 168 168 168 161 161 161 159 159 159 166 166 166 182 182 182 190 190 190 190 190 190 189 189 189 188 188 188 187 187 187 186 186 186 186 186 186 185 185 185 185 185 185 185 185 185 185 185 185 185 185 185 185 185 185 185 185 185 186 186 186 186 186 186 187 187 187 188 188 188 189 189 189 190 190 190 191 191 191 189 189 189 180 180 180 161 161 161 140 140 140 115 115 115 90 90 90 67 67 67 48 48 48 37 37 37 28 28 28 22 22 22 28 28 28 58 58 58 92 92 92 135 135 135 167 167 167 179 179 179 187 187 187 185 185 185 184 184 184 182 182 182 181 181 181 181 181 181 180 180 180 180 180 180 179 179 179 179 179 179 179 179 179 178 178 178 177 177 177 177 177 177 178 178 178 178 178 178 178 178 178 178 178 178 179 179 179 179 179 179 176 176 176 164 164 164 151 151 151 131 131 131 116 116 116 114 114 114 106 106 106 77 77 77 57 57 57 72 72 72 99 99 99 177 177 177 241 241 241 248 248 248 254 254 254 255 255 255 255 255 255 255 255 255 255 255 255 255 255 255 255 255 255 255 255 255 255 255 255 255 255 255 255 255 255 255 255 255 255 255 255 255 255 255 255 255 255 255 255 255 255 255 255 255 255 255 255 255 255 255 255 255 255 255 255 255 255 255 255 255 255 255 255 255 255 255 255 255 255 255 255 255 255 255 255 255 255 255 255 255 255 255 255 255 255 255 255 255 255 255 255 255 255 255 255 255 255 255 255 255 255 255 255 255 255 255 255 255 255 255 255 255 255 255 255 255 255 255 255 255 255 255 255 255 255 255 255 255 255 255 255 255 255 255 255 255 255 255 255 
255 255 255 255 255 255 255 255 255 255 255 255 255 255 255 255 255 255 255 255 255 255 255 255 255 255 255 255 255 255 255 255 255 255 255 255 255 255 255 255 255 255 255 255 255 255 255 255 255 255 255 255 255 255 255 255 255 255 255 255 255 255 255 255 255 255 255 255 255 255 255 255 255 255 255 255 255 255 255 255 255 255 255 255 255 255 255 255 255 255 255 255 255 255 255 255 255 255 255 255 255 255 255 255 255 255 255 255 255 255 255 255 255 255 255 255 255 255 255 255 255 255 255 255 255 255 255 255 255 255 255 255 255 255 255 255 255 255 255 255 255 255 255 255 254 254 254 254 254 254 254 254 254 231 231 231 202 202 202 132 132 132 51 51 51 55 55 55 83 83 83 100 100 100 114 114 114 123 123 123 130 130 130 148 148 148 171 171 171 177 177 177 178 178 178 178 178 178 178 178 178 177 177 177 176 176 176 176 176 176 176 176 176 176 176 176 177 177 177 177 177 177 177 177 177 178 178 178 179 179 179 180 180 180 181 181 181 182 182 182 184 184 184 186 186 186 187 187 187 148 148 148 89 89 89 53 53 53 27 27 27 22 22 22 26 26 26 33 33 33 42 42 42 62 62 62 89 89 89 123 123 123 160 160 160 178 178 178 185 185 185 188 188 188 187 187 187 187 187 187 186 186 186 185 185 185 185 185 185 186 186 186 188 188 188 187 187 187 185 185 185 137 137 137 56 56 56 21 21 21 19 19 19 57 57 57 124 124 124 165 165 165 186 186 186 181 181 181 156 156 156 151 151 151 163 163 163 175 175 175 187 187 187 192 192 192 192 192 192 186 186 186 173 173 173 162 162 162 153 153 153 159 159 159 182 182 182 193 193 193 193 193 193 193 193 193 191 191 191 190 190 190 189 189 189 188 188 188 188 188 188 187 187 187 186 186 186 186 186 186 185 185 185 185 185 185 184 184 184 184 184 184 184 184 184 184 184 184 185 185 185 185 185 185 185 185 185 186 186 186 186 186 186 187 187 187 188 188 188 188 188 188 186 186 186 182 182 182 175 175 175 160 160 160 131 131 131 102 102 102 73 73 73 51 51 51 43 43 43 35 35 35 25 25 25 21 21 21 26 26 26 45 45 45 91 91 91 133 133 133 167 167 167 188 188 188 186 186 186 183 183 183 182 182 182 181 181 181 179 179 179 178 178 178 178 178 178 178 178 178 178 178 178 177 177 177 177 177 177 177 177 177 176 176 176 176 176 176 176 176 176 177 177 177 177 177 177 177 177 177 177 177 177 178 178 178 178 178 178 174 174 174 161 161 161 147 147 147 130 130 130 116 116 116 111 111 111 99 99 99 64 64 64 46 46 46 93 93 93 143 143 143 205 205 205 255 255 255 254 254 254 254 254 254 255 255 255 255 255 255 255 255 255 255 255 255 255 255 255 255 255 255 255 255 255 255 255 255 255 255 255 255 255 255 255 255 255 255 255 255 255 255 255 255 255 255 255 255 255 255 255 255 255 255 255 255 255 255 255 255 255 255 255 255 255 255 255 255 255 255 255 255 255 255 255 255 255 255 255 255 255 255 255 255 255 255 255 255 255 255 255 255 255 255 255 255 255 255 255 255 255 255 255 255 255 255 255 255 255 255 255 255 255 255 255 255 255 255 255 255 255 255 255 255 255 255 255 255 255 255 255 255 255 255 255 255 255 255 255 255 255 255 255 255 255 255 255 255 
255 255 255 255 255 255 255 255 255 255 255 255 255 255 255 255 255 255 255 255 255 255 255 255 255 255 255 255 255 255 255 255 255 255 255 255 255 255 255 255 255 255 255 255 255 255 255 255 255 255 255 255 255 255 255 255 255 255 255 255 255 255 255 255 255 255 255 255 255 255 255 255 255 255 255 255 255 255 255 255 255 255 255 255 255 255 255 255 255 255 255 255 255 255 255 255 255 255 255 255 255 255 255 255 255 255 255 255 255 255 255 255 255 255 255 255 255 255 255 255 255 255 255 255 255 255 255 255 255 255 255 255 255 255 255 255 255 255 255 255 255 255 255 255 254 254 254 254 254 254 254 254 254 244 244 244 230 230 230 166 166 166 88 88 88 68 68 68 63 63 63 84 84 84 111 111 111 122 122 122 127 127 127 145 145 145 168 168 168 175 175 175 176 176 176 177 177 177 176 176 176 176 176 176 175 175 175 175 175 175 174 174 174 175 175 175 175 175 175 175 175 175 175 175 175 176 176 176 177 177 177 177 177 177 178 178 178 179 179 179 181 181 181 182 182 182 184 184 184 164 164 164 133 133 133 91 91 91 43 43 43 25 25 25 22 22 22 26 26 26 32 32 32 46 46 46 64 64 64 87 87 87 112 112 112 140 140 140 168 168 168 182 182 182 187 187 187 187 187 187 186 186 186 186 186 186 186 186 186 186 186 186 187 187 187 187 187 187 186 186 186 142 142 142 69 69 69 33 33 33 24 24 24 60 60 60 132 132 132 171 171 171 186 186 186 187 187 187 175 175 175 173 173 173 178 178 178 182 182 182 187 187 187 189 189 189 189 189 189 187 187 187 181 181 181 177 177 177 173 173 173 176 176 176 185 185 185 190 190 190 190 190 190 190 190 190 189 189 189 188 188 188 187 187 187 186 186 186 186 186 186 186 186 186 185 185 185 185 185 185 184 184 184 184 184 184 184 184 184 184 184 184 184 184 184 184 184 184 185 185 185 185 185 185 186 186 186 187 187 187 188 188 188 188 188 188 190 190 190 184 184 184 169 169 169 151 151 151 131 131 131 110 110 110 91 91 91 71 71 71 52 52 52 37 37 37 30 30 30 24 24 24 20 20 20 29 29 29 60 60 60 93 93 93 132 132 132 163 163 163 176 176 176 184 184 184 182 182 182 179 179 179 178 178 178 177 177 177 176 176 176 176 176 176 175 175 175 175 175 175 175 175 175 175 175 175 175 175 175 175 175 175 175 175 175 174 174 174 175 175 175 175 175 175 176 176 176 176 176 176 176 176 176 176 176 176 176 176 176 173 173 173 157 157 157 142 142 142 129 129 129 116 116 116 101 101 101 84 84 84 59 59 59 55 55 55 128 128 128 192 192 192 227 227 227 254 254 254 254 254 254 254 254 254 255 255 255 255 255 255 255 255 255 255 255 255 255 255 255 255 255 255 255 255 255 255 255 255 255 255 255 255 255 255 255 255 255 255 255 255 255 255 255 255 255 255 255 255 255 255 255 255 255 255 255 255 255 255 255 255 255 255 255 255 255 255 255 255 255 255 255 255 255 255 255 255 255 255 255 255 255 255 255 255 255 255 255 255 255 255 255 255 255 255 255 255 255 255 255 255 255 255 255 255 255 255 255 255 255 255 255 255 255 255 255 255 255 255 255 255 255 255 255 255 255 255 255 255 255 255 255 255 255 255 255 255 255 255 255 255 255 255 255 255 255 255 255 255 
255 255 255 255 255 255 255 255 255 255 255 255 255 255 255 255 255 255 255 255 255 255 255 255 255 255 255 255 255 255 255 255 255 255 255 255 255 255 255 255 255 255 255 255 255 255 255 255 255 255 255 255 255 255 255 255 255 255 255 255 255 255 255 255 255 255 255 255 255 255 255 255 255 255 255 255 255 255 255 255 255 255 255 255 255 255 255 255 255 255 255 255 255 255 255 255 255 255 255 255 255 255 255 255 255 255 255 255 255 255 255 255 255 255 255 255 255 255 255 255 255 255 255 255 255 255 255 255 255 255 255 255 255 255 255 255 255 255 255 255 255 255 255 255 254 254 254 254 254 254 254 254 254 253 253 253 252 252 252 198 198 198 130 130 130 87 87 87 49 49 49 69 69 69 105 105 105 118 118 118 124 124 124 143 143 143 164 164 164 172 172 172 175 175 175 175 175 175 175 175 175 174 174 174 174 174 174 173 173 173 173 173 173 173 173 173 173 173 173 173 173 173 173 173 173 174 174 174 174 174 174 175 175 175 175 175 175 176 176 176 177 177 177 179 179 179 181 181 181 176 176 176 167 167 167 125 125 125 67 67 67 38 38 38 24 24 24 21 21 21 24 24 24 32 32 32 42 42 42 56 56 56 72 72 72 103 103 103 143 143 143 166 166 166 177 177 177 183 183 183 185 185 185 186 186 186 186 186 186 186 186 186 187 187 187 187 187 187 186 186 186 151 151 151 92 92 92 59 59 59 46 46 46 78 78 78 143 143 143 177 177 177 186 186 186 190 190 190 189 189 189 188 188 188 188 188 188 187 187 187 187 187 187 187 187 187 187 187 187 187 187 187 187 187 187 188 188 188 188 188 188 188 188 188 188 188 188 188 188 188 188 188 188 187 187 187 187 187 187 186 186 186 185 185 185 185 185 185 185 185 185 185 185 185 184 184 184 184 184 184 184 184 184 184 184 184 184 184 184 184 184 184 184 184 184 185 185 185 185 185 185 186 186 186 187 187 187 187 187 187 186 186 186 184 184 184 180 180 180 168 168 168 144 144 144 118 118 118 91 91 91 69 69 69 56 56 56 45 45 45 34 34 34 26 26 26 21 21 21 21 21 21 28 28 28 49 49 49 95 95 95 136 136 136 165 165 165 183 183 183 182 182 182 180 180 180 178 178 178 176 176 176 174 174 174 173 173 173 173 173 173 173 173 173 173 173 173 173 173 173 173 173 173 173 173 173 173 173 173 173 173 173 173 173 173 173 173 173 173 173 173 174 174 174 174 174 174 175 175 175 175 175 175 175 175 175 175 175 175 171 171 171 153 153 153 137 137 137 127 127 127 114 114 114 89 89 89 68 68 68 62 62 62 75 75 75 161 161 161 232 232 232 244 244 244 254 254 254 254 254 254 254 254 254 255 255 255 255 255 255 255 255 255 255 255 255 255 255 255 255 255 255 255 255 255 255 255 255 255 255 255 255 255 255 255 255 255 255 255 255 255 255 255 255 255 255 255 255 255 255 255 255 255 255 255 255 255 255 255 255 255 255 255 255 255 255 255 255 255 255 255 255 255 255 255 255 255 255 255 255 255 255 255 255 255 255 255 255 255 255 255 255 255 255 255 255 255 255 255 255 255 255 255 255 255 255 255 255 255 255 255 255 255 255 255 255 255 255 255 255 255 255 255 255 255 255 255 255 255 255 255 255 255 255 255 255 255 255 255 255 255 255 255 255 255 255 255 255 
255 255 255 255 255 255 255 255 255 255 255 255 255 255 255 255 255 255 255 255 255 255 255 255 255 255 255 255 255 255 255 255 255 255 255 255 255 255 255 255 255 255 255 255 255 255 255 255 255 255 255 255 255 255 255 255 255 255 255 255 255 255 255 255 255 255 255 255 255 255 255 255 255 255 255 255 255 255 255 255 255 255 255 255 255 255 255 255 255 255 255 255 255 255 255 255 255 255 255 255 255 255 255 255 255 255 255 255 255 255 255 255 255 255 255 255 255 255 255 255 255 255 255 255 255 255 255 255 255 255 255 255 255 255 255 255 255 255 255 255 255 255 255 255 255 255 255 255 255 255 255 255 255 254 254 254 253 253 253 223 223 223 185 185 185 122 122 122 53 53 53 60 60 60 88 88 88 106 106 106 122 122 122 141 141 141 160 160 160 169 169 169 174 174 174 174 174 174 173 173 173 173 173 173 172 172 172 172 172 172 171 171 171 171 171 171 171 171 171 171 171 171 171 171 171 171 171 171 171 171 171 172 172 172 172 172 172 173 173 173 173 173 173 175 175 175 177 177 177 177 177 177 175 175 175 152 152 152 119 119 119 80 80 80 40 40 40 24 24 24 21 21 21 23 23 23 29 29 29 40 40 40 53 53 53 72 72 72 94 94 94 119 119 119 144 144 144 164 164 164 179 179 179 186 186 186 186 186 186 187 187 187 187 187 187 187 187 187 187 187 187 171 171 171 144 144 144 128 128 128 120 120 120 135 135 135 167 167 167 183 183 183 187 187 187 188 188 188 187 187 187 186 186 186 186 186 186 186 186 186 186 186 186 186 186 186 185 185 185 185 185 185 186 186 186 186 186 186 186 186 186 186 186 186 187 187 187 187 187 187 186 186 186 186 186 186 185 185 185 185 185 185 185 185 185 184 184 184 184 184 184 184 184 184 184 184 184 184 184 184 184 184 184 184 184 184 184 184 184 185 185 185 186 186 186 186 186 186 187 187 187 187 187 187 187 187 187 184 184 184 175 175 175 161 161 161 139 139 139 119 119 119 99 99 99 81 81 81 64 64 64 49 49 49 38 38 38 30 30 30 24 24 24 22 22 22 25 25 25 38 38 38 71 71 71 103 103 103 136 136 136 162 162 162 173 173 173 179 179 179 178 178 178 176 176 176 174 174 174 173 173 173 171 171 171 170 170 170 170 170 170 170 170 170 170 170 170 170 170 170 171 171 171 171 171 171 171 171 171 171 171 171 171 171 171 171 171 171 171 171 171 172 172 172 173 173 173 173 173 173 173 173 173 173 173 173 173 173 173 168 168 168 150 150 150 133 133 133 121 121 121 105 105 105 70 70 70 51 51 51 87 87 87 129 129 129 193 193 193 245 245 245 250 250 250 255 255 255 255 255 255 255 255 255 255 255 255 255 255 255 255 255 255 255 255 255 255 255 255 255 255 255 255 255 255 255 255 255 255 255 255 255 255 255 255 255 255 255 255 255 255 255 255 255 255 255 255 255 255 255 255 255 255 255 255 255 255 255 255 255 255 255 255 255 255 255 255 255 255 255 255 255 255 255 255 255 255 255 255 255 255 255 255 255 255 255 255 255 255 255 255 255 255 255 255 255 255 255 255 255 255 255 255 255 255 255 255 255 255 255 255 255 255 255 255 255 255 255 255 255 255 255 255 255 255 255 255 255 255 255 255 255 255 255 255 255 255 255 255 255 255 255 255 255 255 255 255 255 
255 255 255 255 255 255 255 255 255 255 255 255 255 255 255 255 255 255 255 255 255 255 255 255 255 255 255 255 255 255 255 255 255 255 255 255 255 255 255 255 255 255 255 255 255 255 255 255 255 255 255 255 255 255 255 255 255 255 255 255 255 255 255 255 255 255 255 255 255 255 255 255 255 255 255 255 255 255 255 255 255 255 255 255 255 255 255 255 255 255 255 255 255 255 255 255 255 255 255 255 255 255 255 255 255 255 255 255 255 255 255 255 255 255 255 255 255 255 255 255 255 255 255 255 255 255 255 255 255 255 255 255 255 255 255 255 255 255 255 255 255 255 255 255 255 255 255 255 255 255 255 255 255 255 255 255 254 254 254 243 243 243 229 229 229 158 158 158 71 71 71 60 60 60 70 70 70 92 92 92 117 117 117 137 137 137 156 156 156 165 165 165 172 172 172 173 173 173 172 172 172 171 171 171 171 171 171 170 170 170 170 170 170 169 169 169 169 169 169 169 168 168 168 168 168 168 168 168 168 168 168 169 169 169 169 169 169 170 170 169 170 170 170 171 171 171 173 173 173 176 176 176 179 179 179 172 171 172 159 159 159 119 119 119 65 65 65 37 37 37 23 23 23 18 18 18 19 19 19 26 26 26 37 37 37 46 46 46 54 54 54 78 78 78 111 111 111 138 138 138 161 161 161 174 174 174 178 178 178 182 182 182 185 185 185 187 187 187 188 188 188 187 187 187 184 184 184 181 181 181 177 177 177 179 179 179 185 185 185 187 187 187 187 187 187 186 186 186 185 185 185 185 185 185 184 184 184 184 184 184 185 185 185 185 185 185 184 184 184 184 184 184 185 185 185 185 185 185 185 185 185 185 185 185 186 186 186 186 186 186 185 185 185 185 185 185 184 184 184 184 184 184 184 184 184 184 184 184 184 184 184 184 184 184 184 184 184 184 184 184 184 184 184 185 185 185 185 185 185 186 186 186 186 186 186 185 185 185 184 184 184 181 181 181 177 177 177 168 168 168 155 155 155 134 134 134 102 102 102 76 76 76 61 61 61 48 48 48 40 40 40 32 32 32 24 24 24 19 19 19 20 20 20 26 26 26 41 41 41 66 66 66 112 112 112 148 148 148 168 168 168 180 180 180 177 177 177 175 175 175 173 173 173 172 172 172 171 171 171 170 170 170 168 168 168 167 167 167 167 167 167 167 167 167 167 167 167 168 168 168 168 168 168 168 168 168 168 168 168 168 168 168 168 169 168 169 169 169 169 169 169 170 170 170 171 171 171 171 172 171 172 172 171 171 171 171 171 171 171 165 165 165 146 146 146 127 127 127 112 112 112 92 92 92 58 58 58 46 46 46 115 115 115 179 179 179 221 221 221 255 255 255 255 255 255 255 255 255 255 255 255 255 255 255 255 255 255 255 255 255 255 255 255 255 255 255 255 255 255 255 255 255 255 255 255 255 255 255 255 255 255 255 255 255 255 255 255 255 255 255 255 255 255 255 255 255 255 255 255 255 255 255 255 255 255 255 255 255 255 255 255 255 255 255 255 255 255 255 255 255 255 255 255 255 255 255 255 255 255 255 255 255 255 255 255 255 255 255 255 255 255 255 255 255 255 255 255 255 255 255 255 255 255 255 255 255 255 255 255 255 255 255 255 255 255 255 255 255 255 255 255 255 255 255 255 255 255 255 255 255 255 255 255 255 255 255 255 255 255 255 255 255 255 255 255 255 255 255 
255 255 255 255 255 255 255 255 255 255 255 255 255 255 255 255 255 255 255 255 255 255 255 255 255 255 255 255 255 255 255 255 255 255 255 255 255 255 255 255 255 255 255 255 255 255 255 255 255 255 255 255 255 255 255 255 255 255 255 255 255 255 255 255 255 255 255 255 255 255 255 255 255 255 255 255 255 255 255 255 255 255 255 255 255 255 255 255 255 255 255 255 255 255 255 255 255 255 255 255 255 255 255 255 255 255 255 255 255 255 255 255 255 255 255 255 255 255 255 255 255 255 255 255 255 255 255 255 255 255 255 255 255 255 255 255 255 255 255 255 255 255 255 255 255 255 255 255 255 255 255 255 255 255 255 255 255 255 255 250 250 250 244 244 244 192 192 192 127 127 127 86 86 86 52 52 52 71 71 71 106 106 106 129 129 129 150 150 150 161 161 161 169 169 169 171 171 171 170 170 170 169 170 169 169 169 168 168 168 168 168 168 168 167 167 167 167 167 166 167 166 166 166 165 166 166 165 166 165 165 165 166 166 165 166 166 166 166 166 166 166 167 166 167 168 168 169 169 169 172 171 171 174 173 174 172 172 172 168 168 168 147 147 147 118 118 118 80 80 80 39 39 38 22 22 22 18 18 19 20 20 20 25 25 25 32 32 32 40 40 40 56 56 56 77 77 76 94 93 93 109 108 108 126 126 126 146 146 145 163 163 163 179 179 179 186 186 186 188 188 188 188 188 188 186 186 186 185 185 185 183 183 183 183 183 183 186 186 186 186 186 186 186 186 186 186 186 186 185 185 185 185 185 185 184 184 184 184 184 184 184 184 184 184 184 184 185 185 185 185 185 185 185 185 185 185 185 185 185 185 185 185 185 185 186 186 186 186 186 186 186 186 186 186 186 186 185 185 185 185 185 185 185 185 185 185 185 185 185 185 185 185 185 185 185 185 185 186 186 186 186 186 186 187 187 187 187 187 187 186 186 186 184 184 184 177 177 177 165 165 165 151 151 151 133 133 133 117 117 117 105 105 105 91 91 91 71 71 71 55 55 55 42 42 41 32 32 31 27 27 27 23 23 23 19 19 20 21 21 21 32 32 32 53 53 53 92 92 92 125 125 125 146 147 146 163 164 163 171 171 171 175 175 175 172 173 172 170 171 170 169 169 169 168 168 167 167 167 166 166 166 166 165 165 165 164 164 164 164 165 164 164 165 164 165 165 165 165 165 165 165 165 165 165 165 165 166 166 166 166 166 166 166 167 166 167 167 166 167 168 168 168 168 169 168 169 168 169 170 169 170 170 169 170 170 170 168 167 167 161 161 161 142 142 142 120 120 120 92 92 92 69 68 69 65 64 64 78 77 77 154 153 153 218 218 218 239 238 238 255 255 254 255 255 254 254 254 254 254 254 254 254 254 254 255 255 254 255 255 255 255 255 255 255 255 255 255 255 255 255 255 255 255 255 255 255 255 255 255 255 255 255 255 255 255 255 255 255 255 255 255 255 255 255 255 255 255 255 255 255 255 255 255 255 255 255 255 255 255 255 255 255 255 255 255 255 255 255 255 255 255 255 255 255 255 255 255 255 255 255 255 255 255 255 255 255 255 255 255 255 255 255 255 255 255 255 255 255 255 255 255 255 255 255 255 255 255 255 255 255 255 255 255 255 255 255 255 255 255 255 255 255 255 255 255 255 255 255 255 255 255 255 255 255 255 255 255 255 255 255 255 255 255 255 255 255 255 255 
255 255 255 255 255 255 255 255 255 255 255 255 255 255 255 255 255 255 255 255 255 255 255 255 255 255 255 255 255 255 255 255 255 255 255 255 255 255 255 255 255 255 255 255 255 255 255 255 255 255 255 255 255 255 255 255 255 255 255 255 255 255 255 255 255 255 255 255 255 255 255 255 255 255 255 255 255 255 255 255 255 255 255 255 255 255 255 255 255 255 255 255 255 255 255 255 255 255 255 255 255 255 255 255 255 255 255 255 255 255 255 255 255 255 255 255 255 255 255 255 255 255 255 255 255 255 255 255 255 255 255 255 255 255 255 255 255 255 255 255 255 255 255 255 255 255 255 255 255 255 255 255 255 255 255 255 255 255 255 255 255 255 255 255 255 222 222 222 179 179 179 116 116 116 47 47 47 58 57 58 91 91 91 117 117 117 142 142 142 156 156 156 167 167 167 169 169 169 168 169 168 167 168 167 167 167 166 166 166 165 166 165 164 166 165 163 166 164 160 165 163 159 164 162 159 163 162 158 163 161 157 163 162 156 164 162 156 163 162 156 163 162 157 164 163 158 166 165 160 168 166 162 169 168 165 172 170 168 174 173 171 169 168 167 159 159 159 120 120 120 65 65 64 37 37 37 24 24 25 18 19 19 17 17 17 21 21 20 28 28 27 37 37 36 47 47 46 55 55 55 64 63 63 85 84 84 113 113 112 138 138 137 161 161 161 173 173 173 177 177 177 180 180 180 181 181 181 183 183 183 185 185 185 186 186 186 186 186 186 186 186 186 186 186 186 185 185 185 185 185 185 185 185 185 185 185 185 184 184 184 184 184 184 185 185 185 185 185 185 185 185 185 185 185 185 186 186 186 186 186 186 186 186 186 186 186 186 187 187 187 187 187 187 187 187 187 187 187 187 186 186 186 186 186 186 186 186 186 186 186 186 186 186 186 185 185 185 184 184 184 182 182 182 181 181 181 179 179 179 176 176 176 170 170 170 159 159 159 140 140 140 119 119 119 93 93 93 73 73 73 63 63 63 53 53 53 45 45 45 36 36 35 26 26 25 19 19 19 18 19 19 20 20 21 26 26 26 37 37 37 56 56 55 86 86 85 136 136 136 169 169 169 172 172 172 173 174 173 172 172 172 170 170 170 168 168 167 166 166 165 165 165 162 164 163 160 163 162 159 162 161 158 162 161 157 162 161 156 162 161 155 162 161 155 163 161 156 163 161 156 163 161 156 163 162 157 164 162 158 164 163 159 165 164 160 165 165 161 165 166 164 166 166 166 166 167 166 167 168 166 168 168 168 168 167 167 164 163 163 156 155 155 135 134 134 110 109 110 73 73 73 52 51 52 79 78 78 116 115 115 190 189 189 249 248 248 252 252 251 255 255 254 254 254 254 254 254 254 254 254 253 254 254 253 255 255 254 255 255 255 255 255 255 255 255 255 255 255 255 255 255 255 255 255 255 255 255 255 255 255 255 255 255 255 255 255 255 255 255 255 255 255 255 255 255 255 255 255 255 255 255 255 255 255 255 255 255 255 255 255 255 255 255 255 255 255 255 255 255 255 255 255 255 255 255 255 255 255 255 255 255 255 255 255 255 255 255 255 255 255 255 255 255 255 255 255 255 255 255 255 255 255 255 255 255 255 255 255 255 255 255 255 255 255 255 255 255 255 255 255 255 255 255 255 255 255 255 255 255 255 255 255 255 255 255 255 255 255 255 255 255 255 255 255 255 255 255 255 
255 255 255 255 255 255 255 255 255 255 255 255 255 255 255 255 255 255 255 255 255 255 255 255 255 255 255 255 255 255 255 255 255 255 255 255 255 255 255 255 255 255 255 255 255 255 255 255 255 255 255 255 255 255 255 255 255 255 255 255 255 255 255 255 255 255 255 255 255 255 255 255 255 255 255 255 255 255 255 255 255 255 255 255 255 255 255 255 255 255 255 255 255 255 255 255 255 255 255 255 255 255 255 255 255 255 255 255 255 255 255 255 255 255 255 255 255 255 255 255 255 255 255 255 255 255 255 255 255 255 255 255 255 255 255 255 255 255 255 255 255 255 255 255 255 255 255 255 255 255 255 255 255 255 255 255 255 255 255 255 255 255 255 255 255 239 239 239 219 219 219 158 157 157 84 84 84 67 66 67 66 66 66 93 93 93 129 129 129 149 149 149 164 164 164 167 167 167 166 167 166 166 166 165 165 165 164 165 163 160 165 162 154 165 160 149 164 159 143 164 158 139 163 157 136 163 156 133 162 155 130 163 154 129 163 154 127 163 154 128 162 154 128 163 155 131 165 157 135 165 158 139 166 160 144 168 162 149 170 166 156 168 166 160 166 165 163 147 147 147 120 120 120 87 87 88 51 51 51 31 31 31 20 20 19 17 18 17 21 21 20 25 25 24 29 29 29 36 36 36 45 45 44 60 59 59 78 78 78 94 94 94 108 108 108 120 120 120 132 132 132 142 142 142 153 153 153 165 165 165 178 178 178 185 185 185 187 187 187 188 188 188 187 187 187 187 187 187 187 187 187 187 187 187 187 187 187 186 186 186 186 186 186 187 187 187 187 187 187 187 187 187 187 187 187 188 188 188 188 188 188 188 188 188 189 189 189 189 189 189 189 189 189 189 189 189 189 189 189 189 189 189 189 189 189 189 189 189 189 189 189 186 186 186 181 181 181 173 173 173 161 161 161 150 150 150 141 141 141 130 130 130 118 118 118 106 106 106 95 95 95 82 82 82 65 65 65 51 51 51 41 41 41 34 34 33 29 29 29 24 25 24 20 20 19 19 19 19 24 24 24 38 38 38 68 68 68 95 94 94 115 115 114 136 136 135 157 156 156 170 170 170 169 170 170 168 169 169 166 167 166 165 165 164 163 163 161 162 161 157 162 159 150 161 157 144 160 156 140 160 155 137 161 155 134 161 155 131 162 154 129 162 154 127 163 155 127 163 155 128 163 155 129 163 156 132 163 157 135 164 158 139 164 159 142 164 161 145 165 162 152 165 163 159 165 164 162 165 165 166 166 166 166 165 165 165 159 159 159 146 147 147 117 117 117 88 87 88 61 60 61 54 54 54 117 116 117 175 175 175 218 217 217 252 251 251 254 253 253 255 255 254 254 254 254 254 253 254 254 254 254 255 254 254 255 255 254 255 255 255 255 255 255 255 255 255 255 255 255 255 255 255 255 255 255 255 255 255 255 255 255 255 255 255 255 255 255 255 255 255 255 255 255 255 255 255 255 255 255 255 255 255 255 255 255 255 255 255 255 255 255 255 255 255 255 255 255 255 255 255 255 255 255 255 255 255 255 255 255 255 255 255 255 255 255 255 255 255 255 255 255 255 255 255 255 255 255 255 255 255 255 255 255 255 255 255 255 255 255 255 255 255 255 255 255 255 255 255 255 255 255 255 255 255 255 255 255 255 255 255 255 255 255 255 255 255 255 255 255 255 255 255 255 255 255 255 255 255 
255 255 255 255 255 255 255 255 255 255 255 255 255 255 255 255 255 255 255 255 255 255 255 255 255 255 255 255 255 255 255 255 255 255 255 255 255 255 255 255 255 255 255 255 255 255 255 255 255 255 255 255 255 255 255 255 255 255 255 255 255 255 255 255 255 255 255 255 255 255 255 255 255 255 255 255 255 255 255 255 255 255 255 255 255 255 255 255 255 255 255 255 255 255 255 255 255 255 255 255 255 255 255 255 255 255 255 255 255 255 255 255 255 255 255 255 255 255 255 255 255 255 255 255 255 255 255 255 255 255 255 255 255 255 255 255 255 255 255 255 255 255 255 255 255 255 255 255 255 255 255 255 255 255 255 255 255 255 255 255 255 255 255 255 255 253 253 253 250 250 249 196 195 195 126 126 126 84 83 84 50 50 49 74 73 72 116 114 112 141 139 135 161 159 152 166 163 155 166 163 152 165 162 149 165 160 147 165 158 140 165 156 131 164 154 123 164 153 116 163 151 110 163 150 106 163 149 102 163 147 98 163 146 95 163 146 94 163 146 94 163 146 94 163 146 98 164 148 103 164 149 108 163 150 113 164 153 120 166 156 128 168 160 138 170 164 149 168 163 152 163 159 149 131 127 119 83 80 73 53 51 45 33 32 27 23 22 18 18 18 16 16 16 15 16 16 16 21 21 21 29 29 28 38 38 37 47 47 47 55 55 55 62 62 62 74 74 74 90 90 90 106 106 106 122 122 122 140 140 140 160 160 160 171 171 171 176 176 176 178 178 178 179 179 179 179 179 179 180 180 180 181 181 181 181 181 181 182 182 182 182 182 182 183 183 183 184 184 184 184 184 184 184 184 184 184 184 184 184 184 184 184 184 184 184 184 184 184 184 184 183 183 183 182 182 182 182 182 182 181 181 181 180 180 180 179 179 179 178 178 178 173 173 173 166 166 166 153 153 153 135 135 135 118 118 118 103 103 103 88 88 88 73 73 73 62 62 62 56 56 56 49 49 49 40 40 40 32 32 32 23 23 23 19 19 18 19 18 18 20 20 19 24 25 24 31 32 31 42 42 42 65 65 65 108 107 107 142 141 141 161 160 159 173 172 169 171 170 166 169 168 163 166 165 158 164 162 154 162 160 149 161 158 144 161 156 141 160 154 135 160 152 125 160 150 117 159 149 112 159 149 107 161 148 103 162 148 99 162 147 96 163 147 94 163 148 93 164 148 94 164 149 96 164 149 100 164 151 105 164 152 109 164 153 113 165 155 119 165 156 128 165 158 137 164 159 144 164 160 150 165 162 151 163 160 151 154 152 145 138 137 131 101 99 96 70 69 67 59 58 58 70 70 70 155 155 155 224 224 225 241 241 241 254 254 253 255 255 254 255 255 254 254 254 254 254 253 254 255 254 254 255 254 254 255 255 255 255 255 255 255 255 255 255 255 255 255 255 255 255 255 255 255 255 255 255 255 255 255 255 255 255 255 255 255 255 255 255 255 255 255 255 255 255 255 255 255 255 255 255 255 255 255 255 255 255 255 255 255 255 255 255 255 255 255 255 255 255 255 255 255 255 255 255 255 255 255 255 255 255 255 255 255 255 255 255 255 255 255 255 255 255 255 255 255 255 255 255 255 255 255 255 255 255 255 255 255 255 255 255 255 255 255 255 255 255 255 255 255 255 255 255 255 255 255 255 255 255 255 255 255 255 255 255 255 255 255 255 255 255 255 255 255 255 255 255 255 255 
255 255 255 255 255 255 255 255 255 255 255 255 255 255 255 255 255 255 255 255 255 255 255 255 255 255 255 255 255 255 255 255 255 255 255 255 255 255 255 255 255 255 255 255 255 255 255 255 255 255 255 255 255 255 255 255 255 255 255 255 255 255 255 255 255 255 255 255 255 255 255 255 255 255 255 255 255 255 255 255 255 255 255 255 255 255 255 255 255 255 255 255 255 255 255 255 255 255 255 255 255 255 255 255 255 255 255 255 255 255 255 255 255 255 255 255 255 255 255 255 255 255 255 255 255 255 255 255 255 255 255 255 255 255 255 255 255 255 255 255 255 255 255 255 255 255 255 255 255 255 255 255 255 255 255 255 255 255 255 255 255 255 255 255 255 254 254 254 252 252 252 223 222 223 185 185 185 127 127 126 63 63 61 70 68 60 99 95 78 129 121 96 158 148 114 166 154 109 167 152 97 167 150 88 167 148 80 167 146 72 168 144 64 168 143 59 167 142 55 167 141 51 166 139 48 166 138 46 166 138 44 166 137 43 166 136 42 165 136 42 165 136 42 165 136 44 165 136 47 165 136 49 165 137 52 165 137 56 166 138 61 166 141 69 168 144 78 167 145 85 165 146 90 151 134 87 130 116 78 106 95 66 81 73 51 56 51 37 31 29 23 20 19 17 17 16 16 17 17 17 20 21 20 24 25 24 29 29 29 35 35 35 41 41 41 50 50 50 62 62 62 74 74 74 85 85 85 96 96 96 107 107 107 117 117 117 125 125 125 132 132 132 138 138 138 142 142 142 146 146 146 149 149 149 153 153 153 156 156 156 158 158 158 160 160 160 162 162 162 163 163 163 162 162 162 160 160 160 159 159 159 157 157 157 156 156 156 154 154 154 151 151 151 149 149 149 146 146 146 141 141 141 135 135 135 129 129 129 124 124 124 118 118 118 113 113 113 104 104 104 92 92 92 81 81 81 71 71 71 60 60 60 49 49 49 40 40 40 35 35 35 30 30 30 26 26 26 22 22 22 19 19 19 19 19 19 26 25 25 39 38 38 62 61 61 83 83 83 103 103 103 123 123 122 143 142 142 157 156 155 164 162 158 168 165 155 166 161 143 164 157 130 163 154 116 162 150 103 162 148 93 162 146 83 162 144 76 163 142 68 163 141 61 163 140 55 162 140 52 163 140 49 163 140 47 164 140 45 164 140 43 165 140 42 166 140 42 166 140 42 167 140 43 167 140 45 167 141 48 167 142 50 168 142 53 168 143 57 168 144 62 168 145 68 168 147 77 167 149 86 168 150 94 165 149 100 152 139 101 132 122 94 90 83 63 66 61 49 94 92 87 130 130 130 192 192 192 242 242 241 249 249 248 254 254 254 254 254 253 254 254 253 254 254 254 254 254 254 255 254 254 255 255 254 255 255 255 255 255 255 255 255 255 255 255 255 255 255 255 255 255 255 255 255 255 255 255 255 255 255 255 255 255 255 255 255 255 255 255 255 255 255 255 255 255 255 255 255 255 255 255 255 255 255 255 255 255 255 255 255 255 255 255 255 255 255 255 255 255 255 255 255 255 255 255 255 255 255 255 255 255 255 255 255 255 255 255 255 255 255 255 255 255 255 255 255 255 255 255 255 255 255 255 255 255 255 255 255 255 255 255 255 255 255 255 255 255 255 255 255 255 255 255 255 255 255 255 255 255 255 255 255 255 255 255 255 255 255 255 255 255 255 255 255 255 255 255 255 
255 255 255 255 255 255 255 255 255 255 255 255 255 255 255 255 255 255 255 255 255 255 255 255 255 255 255 255 255 255 255 255 255 255 255 255 255 255 255 255 255 255 255 255 255 255 255 255 255 255 255 255 255 255 255 255 255 255 255 255 255 255 255 255 255 255 255 255 255 255 255 255 255 255 255 255 255 255 255 255 255 255 255 255 255 255 255 255 255 255 255 255 255 255 255 255 255 255 255 255 255 255 255 255 255 255 255 255 255 255 255 255 255 255 255 255 255 255 255 255 255 255 255 255 255 255 255 255 255 255 255 255 255 255 255 255 255 255 255 255 255 255 255 255 255 255 255 255 255 255 255 255 255 255 255 255 255 255 255 255 255 255 255 255 255 254 254 253 253 252 250 242 241 236 229 227 220 165 162 151 86 83 67 80 73 47 96 86 46 125 111 58 158 140 74 167 145 65 169 143 49 170 141 36 170 138 26 170 136 18 170 135 12 170 134 8 170 134 7 170 133 5 169 132 3 169 131 2 168 131 2 168 130 2 168 130 3 168 129 2 167 129 2 167 128 2 166 127 3 166 127 4 166 126 4 166 126 6 165 126 8 165 126 14 166 128 21 166 131 30 166 134 40 166 137 55 166 141 73 149 129 73 123 107 63 91 79 47 55 47 27 36 31 18 28 24 16 23 20 14 19 18 14 17 17 15 16 16 16 18 18 19 23 23 24 30 30 30 37 37 37 45 45 45 51 51 51 57 57 57 62 62 62 70 70 70 80 80 80 90 90 90 99 99 99 106 106 106 111 111 111 116 116 116 122 122 122 126 126 126 130 130 130 133 133 133 136 136 136 137 137 137 135 135 135 133 133 133 130 130 130 127 127 127 125 125 125 122 122 122 118 118 118 114 114 114 109 109 109 103 103 103 94 94 94 85 85 85 77 77 77 70 70 70 66 66 66 60 60 60 55 55 55 49 49 49 42 42 42 36 36 36 29 29 29 23 23 23 19 19 19 17 17 17 20 20 20 22 22 22 25 25 25 32 31 32 45 44 45 66 65 66 99 98 99 129 127 127 152 151 148 167 165 160 168 166 158 168 165 153 165 160 143 163 156 130 162 152 111 161 147 93 161 144 74 162 140 57 162 138 44 163 136 32 164 134 23 164 133 15 165 133 10 165 133 6 165 133 5 165 134 4 166 134 3 166 134 3 166 134 2 167 134 2 167 134 2 168 134 2 169 134 2 170 134 3 170 134 3 169 135 4 170 134 6 171 134 8 171 134 10 171 135 14 171 137 23 170 139 32 171 141 44 168 140 54 153 129 59 132 113 57 93 78 34 75 65 33 129 122 102 180 176 165 220 217 208 252 250 243 253 251 248 254 253 252 254 254 252 254 254 253 254 255 254 254 255 254 255 255 254 255 255 254 255 255 255 255 255 255 255 255 255 255 255 255 255 255 255 255 255 255 255 255 255 255 255 255 255 255 255 255 255 255 255 255 255 255 255 255 255 255 255 255 255 255 255 255 255 255 255 255 255 255 255 255 255 255 255 255 255 255 255 255 255 255 255 255 255 255 255 255 255 255 255 255 255 255 255 255 255 255 255 255 255 255 255 255 255 255 255 255 255 255 255 255 255 255 255 255 255 255 255 255 255 255 255 255 255 255 255 255 255 255 255 255 255 255 255 255 255 255 255 255 255 255 255 255 255 255 255 255 255 255 255 255 255 255 255 255 255 255 255 255 255 255 255 255 
255 255 255 255 255 255 255 255 255 255 255 255 255 255 255 255 255 255 255 255 255 255 255 255 255 255 255 255 255 255 255 255 255 255 255 255 255 255 255 255 255 255 255 255 255 255 255 255 255 255 255 255 255 255 255 255 255 255 255 255 255 255 255 255 255 255 255 255 255 255 255 255 255 255 255 255 255 255 255 255 255 255 255 255 255 255 255 255 255 255 255 255 255 255 255 255 255 255 255 255 255 255 255 255 255 255 255 255 255 255 255 255 255 255 255 255 255 255 255 255 255 255 255 255 255 255 255 255 255 255 255 255 255 255 255 255 255 255 255 255 255 255 255 255 255 255 255 255 255 255 255 255 255 255 255 255 255 255 255 255 255 255 255 255 255 252 250 244 248 244 231 236 229 203 223 212 172 186 171 116 141 123 53 134 113 31 139 114 23 152 125 26 167 139 32 171 142 29 172 141 21 172 140 16 172 139 11 172 138 8 172 137 5 172 137 4 172 136 3 171 135 2 170 134 1 170 134 1 169 134 1 169 133 1 168 132 1 168 132 1 167 131 1 167 131 1 167 130 1 166 129 2 166 128 2 165 128 3 166 127 4 165 127 6 164 127 9 164 128 13 165 128 17 165 130 24 165 131 32 158 125 33 146 116 30 131 103 25 113 89 20 95 74 16 77 59 14 59 46 13 42 34 14 29 25 14 19 18 15 16 16 17 19 19 19 21 21 21 24 24 24 28 28 28 31 31 31 35 35 35 39 39 39 45 45 45 55 55 55 62 62 62 68 68 68 72 72 72 74 74 74 78 78 78 81 81 81 85 85 85 90 90 90 93 93 93 96 96 96 97 97 97 95 95 95 92 92 92 88 88 88 86 86 86 84 84 84 81 81 81 79 79 79 76 76 76 74 74 74 70 70 70 66 66 66 59 59 59 52 52 52 45 45 45 40 40 40 36 36 36 33 33 33 30 30 30 28 28 28 25 25 25 22 22 22 20 20 20 19 19 19 24 24 24 38 38 38 52 52 52 66 66 66 84 84 84 106 105 106 124 124 124 138 137 137 150 148 143 159 154 138 164 156 128 164 153 111 164 149 95 163 146 78 163 143 64 162 141 52 162 139 42 162 137 33 162 136 25 163 136 19 164 136 14 164 135 10 165 135 7 165 135 4 165 135 3 166 136 2 167 136 2 167 136 1 167 136 1 167 137 1 168 137 1 168 137 1 169 137 1 170 137 1 170 137 2 170 138 2 170 138 2 171 137 3 172 137 3 172 137 5 173 137 7 172 138 10 172 138 14 172 139 20 171 138 24 165 133 26 156 125 26 138 110 17 132 106 21 163 139 66 192 171 111 217 201 154 238 227 194 246 239 220 252 249 242 253 252 248 253 254 254 254 254 253 254 254 254 254 254 254 254 254 255 255 255 255 255 255 255 255 255 255 255 255 255 255 255 255 255 255 255 255 255 255 255 255 255 255 255 255 255 255 255 255 255 255 255 255 255 255 255 255 255 255 255 255 255 255 255 255 255 255 255 255 255 255 255 255 255 255 255 255 255 255 255 255 255 255 255 255 255 255 255 255 255 255 255 255 255 255 255 255 255 255 255 255 255 255 255 255 255 255 255 255 255 255 255 255 255 255 255 255 255 255 255 255 255 255 255 255 255 255 255 255 255 255 255 255 255 255 255 255 255 255 255 255 255 255 255 255 255 255 255 255 255 255 255 255 255 255 255 255 255 255 255 255 255 
255 255 255 255 255 255 255 255 255 255 255 255 255 255 255 255 255 255 255 255 255 255 255 255 255 255 255 255 255 255 255 255 255 255 255 255 255 255 255 255 255 255 255 255 255 255 255 255 255 255 255 255 255 255 255 255 255 255 255 255 255 255 255 255 255 255 255 255 255 255 255 255 255 255 255 255 255 255 255 255 255 255 255 255 255 255 255 255 255 255 255 255 255 255 255 255 255 255 255 255 255 255 255 255 255 255 255 255 255 255 255 255 255 255 255 255 255 255 255 255 255 255 255 255 255 255 255 255 255 255 255 255 255 255 255 255 255 255 255 255 255 255 255 255 255 255 255 255 255 255 255 255 255 254 254 253 254 253 250 252 251 245 250 248 238 244 239 218 237 228 194 227 212 159 215 194 119 200 174 79 184 153 37 177 144 17 173 138 4 173 138 1 175 140 0 175 140 0 175 141 0 174 141 0 174 140 0 174 140 0 174 140 0 173 140 0 173 139 0 173 138 0 172 137 0 171 137 0 171 137 0 170 136 0 169 135 0 168 134 0 168 134 0 167 133 0 167 133 0 167 132 0 166 130 0 166 129 0 166 129 0 165 128 0 164 127 0 163 126 0 164 125 0 164 124 0 164 124 1 164 123 2 164 123 4 162 122 8 159 121 13 144 110 13 120 91 11 96 73 11 71 55 12 51 41 14 34 29 14 25 23 15 22 20 16 19 18 16 16 15 15 15 15 15 16 15 16 17 17 17 20 20 20 25 25 25 32 32 32 37 37 37 40 40 41 42 42 42 43 42 42 44 44 44 46 46 46 49 49 49 53 53 53 57 57 57 59 59 59 60 60 60 58 58 58 55 55 55 52 52 52 49 49 49 47 47 47 46 46 46 44 44 44 43 43 43 43 43 43 42 42 42 41 41 41 37 37 37 30 30 30 24 24 24 19 19 19 17 17 17 16 16 16 17 17 17 19 19 19 21 21 21 24 24 24 28 28 28 32 32 32 44 44 44 65 65 65 86 86 86 107 107 106 129 129 127 154 153 150 169 167 160 168 165 154 166 161 141 164 154 117 162 147 93 161 141 67 161 136 44 162 134 25 162 132 11 163 132 5 163 133 1 163 133 1 163 134 0 164 135 0 164 136 0 165 136 0 165 137 0 165 137 0 166 138 0 167 138 0 168 139 0 168 139 0 168 139 0 169 139 1 169 140 1 169 140 0 170 140 0 170 140 1 171 141 1 171 141 0 171 141 0 172 140 0 173 140 0 174 140 1 174 140 1 174 139 0 174 139 0 174 138 1 175 137 1 175 136 0 175 136 1 175 135 3 177 138 11 188 151 34 200 165 61 211 183 100 223 202 139 234 219 178 244 235 212 247 242 227 250 248 241 252 251 246 254 253 251 254 254 253 254 254 255 255 255 255 255 255 255 255 255 255 255 255 255 255 255 255 255 255 255 255 255 255 255 255 255 255 255 255 255 255 255 255 255 255 255 255 255 255 255 255 255 255 255 255 255 255 255 255 255 255 255 255 255 255 255 255 255 255 255 255 255 255 255 255 255 255 255 255 255 255 255 255 255 255 255 255 255 255 255 255 255 255 255 255 255 255 255 255 255 255 255 255 255 255 255 255 255 255 255 255 255 255 255 255 255 255 255 255 255 255 255 255 255 255 255 255 255 255 255 255 255 255 255 255 255 255 255 255 255 255 255 255 255 255 255 255 255 255 255 255 255 255 255 255 255 
255 255 255 255 255 255 255 255 255 255 255 255 255 255 255 255 255 255 255 255 255 255 255 255 255 255 255 255 255 255 255 255 255 255 255 255 255 255 255 255 255 255 255 255 255 255 255 255 255 255 255 255 255 255 255 255 255 255 255 255 255 255 255 255 255 255 255 255 255 255 255 255 255 255 255 255 255 255 255 255 255 255 255 255 255 255 255 255 255 255 255 255 255 255 255 255 255 255 255 255 255 255 255 255 255 255 255 255 255 255 255 255 255 255 255 255 255 255 255 255 255 254 254 255 254 254 255 254 254 255 254 254 254 254 254 255 254 255 255 254 255 255 254 255 254 254 254 254 254 254 254 254 254 251 250 243 248 244 229 239 231 197 228 215 161 218 200 129 209 186 97 202 176 74 197 168 53 189 159 35 181 150 16 178 146 8 176 143 2 176 144 0 177 145 0 177 145 0 177 145 0 176 145 0 176 145 0 176 144 0 176 144 0 175 144 0 175 144 0 175 143 0 174 142 0 173 142 0 173 141 0 172 140 0 171 139 0 170 138 0 169 137 0 169 136 0 169 136 0 168 135 0 167 133 1 167 132 1 167 132 1 166 131 0 165 129 0 164 128 0 164 127 0 164 126 0 164 125 0 164 125 1 164 124 2 163 123 4 161 123 6 154 117 6 144 108 5 133 100 6 122 92 8 108 81 11 91 70 13 72 58 17 53 45 21 37 33 21 22 21 18 16 16 16 15 15 16 16 16 16 17 17 17 20 20 20 23 23 23 25 25 26 27 26 27 27 27 28 28 28 27 28 28 28 29 29 29 30 30 30 33 33 33 34 34 34 36 36 36 36 36 36 35 35 35 34 34 34 32 32 32 31 31 31 30 30 30 30 30 30 29 29 29 28 28 28 28 28 28 28 28 28 27 27 27 26 26 26 22 22 22 20 20 19 17 17 17 16 16 16 17 17 17 22 22 22 31 31 31 43 43 43 61 61 61 78 78 78 94 94 94 110 110 109 123 123 123 134 133 133 141 140 139 149 147 140 158 153 135 164 155 121 163 150 97 163 145 75 162 142 58 162 138 42 162 136 30 162 135 20 162 134 11 163 134 5 163 135 2 163 135 1 163 136 0 163 137 0 164 138 0 165 138 0 166 139 0 166 139 0 166 140 0 167 141 0 168 141 0 169 142 0 169 142 0 170 142 0 170 143 0 171 143 0 171 143 0 172 144 0 172 144 1 173 144 1 173 144 0 173 144 0 174 144 0 175 143 0 176 144 1 176 144 1 177 143 0 177 142 0 177 141 0 177 141 0 177 140 0 177 140 0 177 139 2 178 139 5 184 145 16 189 150 28 194 158 45 200 167 63 208 177 86 216 189 112 226 205 147 235 221 181 244 237 214 251 250 242 253 252 249 255 254 254 254 254 254 254 254 254 254 254 254 254 254 254 254 254 254 254 254 254 254 254 254 254 254 254 255 255 255 255 255 255 255 255 255 255 255 255 255 255 255 255 255 255 255 255 255 255 255 255 255 255 255 255 255 255 255 255 255 255 255 255 255 255 255 255 255 255 255 255 255 255 255 255 255 255 255 255 255 255 255 255 255 255 255 255 255 255 255 255 255 255 255 255 255 255 255 255 255 255 255 255 255 255 255 255 255 255 255 255 255 255 255 255 255 255 255 255 255 255 255 255 255 255 255 255 255 255 255 255 255 255 255 255 255 255 255 255 255 255 255 255 255 255 255 255 
255 255 255 255 255 255 255 255 255 255 255 255 255 255 255 255 255 255 255 255 255 255 255 255 255 255 255 255 255 255 255 255 255 255 255 255 255 255 255 255 255 255 255 255 255 255 255 255 255 255 255 255 255 255 255 255 255 255 255 255 255 255 255 255 255 255 255 255 255 255 255 255 255 255 255 255 255 255 255 255 255 255 255 255 255 255 255 255 255 255 255 255 255 255 255 255 255 255 255 255 255 255 255 255 255 255 255 255 255 255 255 255 255 255 255 255 255 255 255 255 255 254 254 255 254 254 255 254 254 255 254 254 254 254 254 254 254 254 255 254 255 254 254 254 254 253 252 252 251 247 251 248 240 245 239 218 238 229 191 224 208 143 208 186 90 197 168 52 187 153 18 184 149 7 183 147 1 181 148 0 180 148 0 180 148 0 180 149 0 180 149 0 180 150 0 179 150 0 179 150 0 179 150 0 179 149 0 178 149 0 178 148 0 177 148 0 177 148 0 177 147 0 176 147 0 175 146 0 175 145 0 174 144 0 173 143 0 172 142 0 171 140 0 170 139 0 170 139 0 170 138 0 169 136 1 168 135 1 167 135 1 167 134 1 166 132 0 165 131 0 164 130 0 164 129 0 163 127 0 163 126 0 164 126 1 163 125 1 162 124 1 162 123 1 162 123 0 162 122 2 163 121 4 153 114 7 138 104 10 115 89 16 87 70 23 63 53 25 41 37 23 30 29 23 27 26 25 25 24 24 22 22 22 21 21 21 19 19 20 19 18 19 18 17 19 17 17 18 17 16 16 16 16 15 15 15 15 16 16 16 16 16 16 17 17 17 17 17 17 17 17 17 17 17 17 17 17 17 17 17 17 17 17 17 17 17 17 17 17 17 16 16 16 17 17 17 18 18 18 19 19 19 21 21 21 23 23 23 24 24 24 26 26 25 27 27 27 30 30 30 33 33 33 41 41 41 54 54 54 73 73 73 98 98 99 123 123 123 145 146 145 161 161 160 167 167 165 170 168 164 167 164 154 164 159 138 162 152 111 160 145 81 160 138 47 161 133 21 161 132 10 162 132 2 162 133 1 162 134 1 163 135 0 163 136 0 163 137 0 163 138 0 163 139 0 164 140 0 165 140 0 166 141 0 166 141 0 167 142 0 167 143 0 168 144 0 169 144 0 170 145 0 171 145 0 171 146 0 172 146 0 172 146 0 173 147 0 174 148 0 175 148 1 175 148 1 175 148 0 175 148 0 176 147 0 177 147 0 178 148 1 179 148 1 179 147 0 180 146 0 180 145 0 180 145 0 180 144 0 180 144 0 180 143 1 180 142 1 181 141 1 181 140 1 181 139 1 182 140 3 186 144 13 193 152 30 206 173 74 220 194 120 233 217 170 244 237 214 249 244 231 253 250 245 253 252 250 254 254 254 254 254 254 254 254 254 254 254 254 254 254 254 254 254 254 254 254 254 255 255 255 255 255 255 255 255 255 255 255 255 255 255 255 255 255 255 255 255 255 255 255 255 255 255 255 255 255 255 255 255 255 255 255 255 255 255 255 255 255 255 255 255 255 255 255 255 255 255 255 255 255 255 255 255 255 255 255 255 255 255 255 255 255 255 255 255 255 255 255 255 255 255 255 255 255 255 255 255 255 255 255 255 255 255 255 255 255 255 255 255 255 255 255 255 255 255 255 255 255 255 255 255 255 255 255 255 255 255 255 255 255 255 255 255 255 255 255 255 
255 255 255 255 255 255 255 255 255 255 255 255 255 255 255 255 255 255 255 255 255 255 255 255 255 255 255 255 255 255 255 255 255 255 255 255 255 255 255 255 255 255 255 255 255 255 255 255 255 255 255 255 255 255 255 255 255 255 255 255 255 255 255 255 255 255 255 255 255 255 255 255 255 255 255 255 255 255 255 255 255 255 255 255 255 255 255 255 255 255 255 255 255 255 255 255 255 255 255 255 255 255 255 255 255 255 255 255 255 255 255 255 255 255 255 255 255 255 255 255 254 254 254 254 254 254 254 254 254 254 254 254 254 254 254 254 254 254 254 255 254 253 253 250 251 250 245 243 237 213 234 221 175 223 205 135 212 189 95 203 177 66 196 167 40 191 160 23 187 153 8 185 152 3 185 153 1 184 153 0 183 153 0 183 153 0 183 154 1 183 154 0 183 154 0 182 154 0 181 154 0 181 154 0 181 154 0 181 153 0 180 153 0 180 152 0 180 152 0 179 151 0 178 150 0 177 150 0 177 149 0 176 148 0 175 147 0 174 145 0 173 144 1 172 143 1 172 142 1 172 141 1 171 140 0 170 139 0 169 138 0 168 137 0 167 135 1 166 134 0 165 132 0 164 131 0 164 130 0 164 129 0 163 128 1 163 127 1 162 126 1 162 125 0 162 125 0 162 124 1 162 122 2 158 119 3 151 114 5 141 107 8 129 98 12 118 92 23 108 89 37 96 84 50 82 78 63 70 68 64 57 56 56 48 47 48 40 40 40 34 34 34 29 29 29 24 24 24 19 19 19 17 17 16 16 16 16 15 16 16 16 16 16 16 16 16 16 16 16 16 16 16 16 16 16 16 16 16 16 16 16 17 17 17 17 17 17 17 17 17 18 18 18 20 20 20 25 25 25 32 32 32 41 41 41 51 51 51 62 62 61 73 73 72 84 84 84 94 94 94 104 104 104 112 112 112 120 120 120 128 128 128 138 138 138 148 148 147 157 157 156 162 162 157 163 161 149 164 157 132 162 150 103 162 145 77 161 141 55 161 138 36 161 135 21 161 134 9 162 134 4 162 135 1 162 136 1 162 137 0 163 138 0 164 138 0 164 140 0 164 141 0 165 142 0 165 142 0 166 143 0 166 144 0 167 145 0 168 145 0 169 146 0 170 147 0 171 147 0 171 148 0 172 149 0 173 149 0 173 150 0 174 150 0 175 151 0 176 152 0 177 152 0 178 152 0 178 152 0 178 152 0 179 152 0 180 151 0 180 152 0 181 152 0 181 151 0 182 151 0 182 150 0 183 150 0 183 149 0 183 148 0 183 148 0 183 147 0 183 146 0 183 145 0 184 144 0 184 144 1 187 144 6 189 147 13 195 155 33 202 165 55 210 178 84 219 193 116 231 213 160 242 232 201 248 244 229 253 253 252 254 254 253 254 254 254 254 254 254 254 255 254 254 254 254 255 254 255 255 255 255 255 255 255 255 255 255 255 255 255 255 255 255 255 255 255 255 255 255 255 255 255 255 255 255 255 255 255 255 255 255 255 255 255 255 255 255 255 255 255 255 255 255 255 255 255 255 255 255 255 255 255 255 255 255 255 255 255 255 255 255 255 255 255 255 255 255 255 255 255 255 255 255 255 255 255 255 255 255 255 255 255 255 255 255 255 255 255 255 255 255 255 255 255 255 255 255 255 255 255 255 255 255 255 255 255 255 255 255 255 255 255 255 255 255 255 255 255 
255 255 255 255 255 255 255 255 255 255 255 255 255 255 255 255 255 255 255 255 255 255 255 255 255 255 255 255 255 255 255 255 255 255 255 255 255 255 255 255 255 255 255 255 255 255 255 255 255 255 255 255 255 255 255 255 255 255 255 255 255 255 255 255 255 255 255 255 255 255 255 255 255 255 255 255 255 255 255 255 255 255 255 255 255 255 255 255 255 255 255 255 255 255 255 255 255 255 255 255 255 255 255 255 255 255 255 255 255 255 255 255 255 255 255 255 255 255 255 255 254 254 254 254 254 254 254 254 254 254 254 254 254 254 254 253 253 252 253 253 249 249 247 235 245 240 220 232 220 169 218 196 110 205 176 62 191 158 17 188 154 4 187 154 1 187 155 0 187 155 0 187 156 0 187 158 1 187 158 2 187 159 4 187 160 6 187 161 10 187 162 12 187 162 14 187 163 16 186 163 18 186 163 19 186 163 20 186 163 20 186 162 21 185 162 21 185 161 21 184 160 21 183 159 20 182 158 19 181 156 18 180 155 16 179 154 15 177 152 13 176 150 10 175 148 8 175 146 5 174 145 3 173 143 1 171 142 0 170 141 0 169 140 0 169 138 1 167 136 1 166 134 0 165 133 0 165 133 0 164 131 0 163 130 1 163 129 1 162 128 0 162 127 0 162 126 0 162 125 0 162 124 0 162 123 0 162 122 0 162 121 1 162 121 4 161 124 19 161 129 44 149 127 65 130 119 85 111 107 90 93 90 84 79 78 77 68 67 67 59 59 59 51 51 51 43 44 44 37 37 36 33 33 32 31 32 31 30 31 31 30 30 30 30 30 30 30 30 30 30 30 30 30 30 30 30 30 30 30 30 30 30 30 30 31 31 31 33 33 33 34 34 34 39 39 39 47 47 47 57 57 57 70 70 70 84 84 84 100 100 100 117 117 116 133 133 133 148 148 148 161 161 161 169 169 169 171 171 171 172 172 171 169 169 168 167 167 164 164 164 158 162 160 146 160 153 126 159 146 97 159 138 56 160 134 25 160 133 10 161 133 1 162 133 0 162 134 0 162 136 0 162 137 0 162 139 0 162 140 0 163 140 0 164 141 0 165 143 0 165 144 0 166 144 0 166 145 0 167 146 0 168 147 0 168 148 0 169 149 0 171 149 0 172 150 0 172 150 0 173 151 1 174 153 2 175 154 4 176 155 7 177 156 10 179 158 12 180 159 15 182 160 16 183 160 18 183 160 19 184 161 20 185 161 21 186 161 21 186 161 21 186 161 21 187 161 21 187 161 20 188 160 19 188 159 18 188 158 16 188 157 14 187 155 12 187 154 9 187 152 6 186 151 3 187 149 2 187 148 0 187 146 0 187 144 0 187 143 1 188 143 3 192 147 14 199 156 34 214 184 94 229 210 151 240 229 196 249 246 234 252 250 244 254 253 252 254 254 253 254 255 254 255 254 254 255 254 255 255 255 255 255 255 255 255 255 255 255 255 255 255 255 255 255 255 255 255 255 255 255 255 255 255 255 255 255 255 255 255 255 255 255 255 255 255 255 255 255 255 255 255 255 255 255 255 255 255 255 255 255 255 255 255 255 255 255 255 255 255 255 255 255 255 255 255 255 255 255 255 255 255 255 255 255 255 255 255 255 255 255 255 255 255 255 255 255 255 255 255 255 255 255 255 255 255 255 255 255 255 255 255 255 255 255 255 255 255 255 255 255 255 255 255 255 255 255 255 255 
255 255 255 255 255 255 255 255 255 255 255 255 255 255 255 255 255 255 255 255 255 255 255 255 255 255 255 255 255 255 255 255 255 255 255 255 255 255 255 255 255 255 255 255 255 255 255 255 255 255 255 255 255 255 255 255 255 255 255 255 255 255 255 255 255 255 255 255 255 255 255 255 255 255 255 255 255 255 255 255 255 255 255 255 255 255 255 255 255 255 255 255 255 255 255 255 255 255 255 255 255 255 255 255 255 255 255 255 255 255 255 255 255 255 255 255 255 255 255 255 254 254 254 254 254 254 253 254 253 254 254 253 254 254 253 251 249 240 246 242 224 235 224 179 223 204 127 213 188 88 204 174 51 197 166 28 192 159 8 190 158 2 190 159 0 190 160 0 190 160 0 190 161 0 189 162 0 191 165 9 193 168 21 194 172 36 196 177 52 198 180 68 199 184 83 200 186 94 202 188 103 202 189 110 203 191 115 203 191 120 203 191 124 202 191 125 202 190 124 200 189 121 199 187 116 197 184 110 196 181 104 193 178 95 191 175 86 188 171 72 186 165 57 183 160 42 180 155 27 177 151 15 175 147 4 174 145 0 172 144 0 171 143 0 170 141 0 169 139 0 168 137 0 167 136 0 167 135 0 166 134 0 165 132 0 164 131 0 163 130 1 163 129 1 162 128 1 162 126 1 162 125 0 161 124 0 161 124 0 161 123 1 161 122 2 161 123 8 161 124 19 157 123 32 149 121 47 141 121 68 134 123 94 128 123 110 124 122 119 121 121 121 118 118 118 114 115 114 110 111 110 107 108 107 105 106 106 102 102 103 98 98 98 96 96 96 97 97 97 97 97 97 97 97 97 98 98 98 98 98 98 100 100 100 103 103 103 107 107 107 113 113 113 118 118 118 122 122 122 126 126 126 131 131 131 137 137 136 143 143 143 149 149 149 155 155 155 161 161 161 165 165 166 167 167 168 167 167 167 166 166 165 163 163 162 161 159 150 159 153 128 158 147 102 160 141 72 160 137 46 160 134 26 160 133 12 161 134 5 161 135 0 161 136 0 161 137 0 161 138 0 162 139 0 162 141 0 163 142 0 164 143 0 165 144 0 165 145 0 166 146 0 167 147 0 168 148 0 169 149 0 170 149 0 170 151 0 172 152 0 173 153 0 174 153 0 174 154 0 175 156 3 178 159 14 181 162 26 184 166 42 187 171 57 190 175 73 193 179 87 195 182 96 197 184 104 199 186 111 200 188 117 202 190 121 203 191 124 203 191 125 203 191 125 203 191 121 203 190 117 203 188 111 202 186 103 201 183 95 200 180 84 198 176 68 196 171 52 194 166 35 192 161 20 191 156 9 190 152 0 190 151 0 190 150 1 190 148 0 190 147 1 192 148 7 195 151 16 202 162 42 209 175 72 220 193 114 232 212 156 242 232 202 251 249 240 253 252 248 254 254 254 254 254 254 254 254 254 255 255 254 255 255 255 255 255 255 255 255 255 255 255 255 255 255 255 255 255 255 255 255 255 255 255 255 255 255 255 255 255 255 255 255 255 255 255 255 255 255 255 255 255 255 255 255 255 255 255 255 255 255 255 255 255 255 255 255 255 255 255 255 255 255 255 255 255 255 255 255 255 255 255 255 255 255 255 255 255 255 255 255 255 255 255 255 255 255 255 255 255 255 255 255 255 255 255 255 255 255 255 255 255 255 255 255 255 255 255 255 255 255 255 255 255 255 255 255 255 
255 255 255 255 255 255 255 255 255 255 255 255 255 255 255 255 255 255 255 255 255 255 255 255 255 255 255 255 255 255 255 255 255 255 255 255 255 255 255 255 255 255 255 255 255 255 255 255 255 255 255 255 255 255 255 255 255 255 255 255 255 255 255 255 255 255 255 255 255 255 255 255 255 255 255 255 255 255 255 255 255 255 255 255 255 255 255 255 255 255 255 255 255 255 255 255 255 255 255 255 255 255 255 255 255 255 255 255 255 255 255 255 255 255 255 255 255 254 254 254 254 254 254 254 254 253 253 254 253 253 253 250 252 251 246 246 240 219 238 228 187 222 202 121 204 173 47 197 163 20 192 158 3 192 159 0 193 161 1 193 163 1 193 165 1 193 166 3 194 167 6 194 169 11 194 170 15 197 175 32 200 180 51 203 186 75 206 193 99 208 198 122 210 203 146 213 206 162 215 209 176 216 211 186 217 214 194 217 215 201 217 215 207 217 215 208 216 214 207 214 212 202 212 210 195 210 207 186 208 203 176 205 199 163 202 194 149 198 188 128 195 181 105 191 174 82 186 167 59 183 161 39 179 155 21 177 151 12 176 149 8 174 147 4 172 144 2 171 142 0 170 140 0 169 139 0 168 137 0 167 136 0 166 135 0 165 133 0 164 132 1 164 131 1 163 129 2 162 128 1 161 127 0 161 126 0 161 126 1 161 125 1 161 124 0 161 122 0 162 120 0 162 121 5 163 123 14 165 132 45 166 146 92 167 156 127 169 163 152 170 168 165 171 171 169 170 171 170 169 170 169 167 168 168 165 166 166 161 161 162 154 154 155 152 152 152 153 153 153 153 153 153 154 154 154 155 155 155 155 155 155 157 157 157 161 161 161 167 167 167 175 175 175 180 180 180 181 181 181 180 180 180 179 179 179 178 178 177 176 176 176 175 175 174 172 172 171 170 170 170 167 167 169 165 165 166 163 163 163 161 160 157 158 156 150 156 150 130 155 142 94 156 136 60 159 132 26 161 130 5 161 132 3 161 133 1 161 135 0 161 137 0 161 138 0 161 139 0 161 141 1 162 142 1 163 143 0 164 144 0 165 145 0 165 147 0 166 147 0 167 148 0 168 150 0 169 151 0 170 151 0 172 152 0 173 154 0 174 155 1 176 157 4 177 159 8 178 160 12 180 163 21 184 168 39 188 173 59 192 179 82 196 185 105 200 191 129 204 197 150 206 201 164 209 204 176 212 208 187 214 211 196 215 214 202 217 216 207 217 216 208 217 215 208 217 215 203 216 214 197 216 211 187 215 209 176 213 206 163 212 202 147 209 195 123 206 188 99 203 181 74 200 174 51 197 167 31 195 161 15 194 159 11 194 157 7 193 154 4 193 152 1 193 150 1 192 148 1 192 146 1 194 148 8 204 163 43 215 181 85 232 211 154 246 237 214 250 246 234 253 253 250 254 253 252 254 254 253 254 254 254 255 255 255 255 255 255 255 255 255 255 255 255 255 255 255 255 255 255 255 255 255 255 255 255 255 255 255 255 255 255 255 255 255 255 255 255 255 255 255 255 255 255 255 255 255 255 255 255 255 255 255 255 255 255 255 255 255 255 255 255 255 255 255 255 255 255 255 255 255 255 255 255 255 255 255 255 255 255 255 255 255 255 255 255 255 255 255 255 255 255 255 255 255 255 255 255 255 255 255 255 255 255 255 255 255 255 255 255 255 255 255 255 255 255 255 255 255 
255 255 255 255 255 255 255 255 255 255 255 255 255 255 255 255 255 255 255 255 255 255 255 255 255 255 255 255 255 255 255 255 255 255 255 255 255 255 255 255 255 255 255 255 255 255 255 255 255 255 255 255 255 255 255 255 255 255 255 255 255 255 255 255 255 255 255 255 255 255 255 255 255 255 255 255 255 255 255 255 255 255 255 255 254 254 254 254 254 254 254 254 254 254 254 254 254 254 254 254 254 254 254 254 254 254 254 254 254 254 254 254 254 254 254 254 254 254 254 254 253 253 253 253 253 253 253 253 252 249 246 233 244 237 210 232 217 158 219 195 100 209 180 59 200 167 22 197 164 9 195 163 1 195 164 0 196 166 1 197 168 2 197 170 4 199 175 19 202 180 39 205 187 65 208 194 93 211 199 116 214 204 138 216 208 151 217 210 161 218 212 171 218 215 182 219 216 189 220 217 195 220 218 199 220 219 203 220 219 206 220 219 208 219 218 208 218 217 207 217 216 204 216 214 201 214 212 196 213 210 191 211 207 185 209 205 178 206 201 169 204 198 158 202 194 146 199 190 135 195 184 117 192 178 97 187 170 73 183 162 47 179 155 27 176 149 10 174 145 3 172 143 1 171 142 0 170 140 0 168 139 0 167 137 0 166 136 0 165 134 0 165 133 1 164 132 1 163 130 1 162 129 0 162 128 0 162 128 0 162 127 0 162 125 1 162 124 0 161 122 0 162 122 2 162 122 6 163 126 21 164 132 44 165 140 74 165 150 110 165 157 137 165 163 156 166 166 165 166 167 166 167 167 167 167 167 167 166 165 166 163 163 163 163 163 163 164 164 164 165 165 165 165 165 165 166 166 166 166 166 166 168 168 168 169 169 169 172 172 172 175 175 175 177 177 177 176 176 176 175 175 175 174 174 174 172 172 172 171 171 170 169 169 168 167 167 166 164 164 165 162 162 164 160 160 161 158 157 156 156 153 141 155 146 113 155 140 83 157 135 51 159 132 27 160 132 12 161 132 2 161 134 2 161 135 1 161 137 1 162 138 1 162 140 1 162 141 1 163 143 0 163 144 0 164 145 1 165 146 0 166 148 0 166 149 0 167 150 0 168 151 0 170 153 0 171 154 0 173 154 0 174 155 1 176 157 2 178 160 9 181 164 27 185 170 47 189 177 73 193 183 97 197 189 118 200 194 135 203 197 146 206 200 157 208 204 169 210 207 179 212 209 186 214 212 192 215 214 197 217 215 202 218 217 205 219 218 207 220 218 208 220 219 208 220 219 207 220 219 204 220 218 200 220 217 195 220 216 190 220 214 183 219 211 173 217 208 162 216 205 151 215 201 137 211 195 116 208 188 94 205 179 66 202 171 40 199 163 20 196 157 3 196 155 2 196 153 0 195 151 0 196 150 3 200 156 19 206 163 40 216 181 82 227 200 127 239 224 184 250 245 233 252 250 244 253 253 253 254 254 254 254 254 254 254 254 254 254 254 254 254 254 254 254 254 254 254 254 254 254 254 254 254 254 254 254 254 254 254 254 254 254 254 254 254 254 254 254 254 254 255 255 255 255 255 255 255 255 255 255 255 255 255 255 255 255 255 255 255 255 255 255 255 255 255 255 255 255 255 255 255 255 255 255 255 255 255 255 255 255 255 255 255 255 255 255 255 255 255 255 255 255 255 255 255 255 255 255 255 255 255 255 255 255 255 255 255 255 255 255 255 255 255 255 255 255 255 255 
255 255 255 255 255 255 255 255 255 255 255 255 255 255 255 255 255 255 255 255 255 255 255 255 255 255 255 255 255 255 255 255 255 255 255 255 255 255 255 255 255 255 255 255 255 255 255 255 255 255 255 255 255 255 255 255 255 255 255 255 255 255 255 255 255 255 255 255 255 255 255 255 255 255 255 255 255 255 255 255 255 255 255 255 254 254 254 254 254 254 254 254 254 254 254 254 254 254 254 254 254 254 254 254 254 254 254 254 254 254 254 254 254 254 254 254 254 253 253 253 253 253 253 252 252 250 252 250 246 244 237 209 235 220 167 219 195 99 203 168 27 199 164 8 198 164 1 198 166 0 198 168 0 199 170 2 200 172 4 201 175 11 202 178 20 206 186 46 210 195 78 215 204 118 220 214 160 224 220 186 227 224 207 227 225 212 227 224 211 226 224 210 226 224 211 225 224 210 225 224 210 224 223 210 224 223 210 223 222 209 223 222 208 222 221 207 221 220 207 220 219 206 219 218 206 218 217 204 217 216 203 216 215 202 215 214 202 214 213 201 212 212 200 211 210 198 210 209 196 207 204 181 203 197 161 197 187 129 191 175 90 186 165 58 181 156 29 177 151 14 175 147 6 173 145 2 171 143 1 170 141 0 168 139 0 167 138 0 166 137 0 166 135 0 165 134 0 164 133 0 163 132 0 162 131 0 163 130 0 163 128 0 162 127 1 162 125 1 161 124 0 161 123 0 161 122 0 162 121 2 162 120 5 163 126 29 162 137 69 162 147 106 161 155 139 162 161 156 163 164 162 165 166 165 167 167 167 169 168 169 170 169 170 171 171 171 172 172 172 173 173 173 174 174 174 174 174 174 175 175 175 175 175 175 175 175 175 175 175 175 174 174 174 173 173 173 172 172 172 171 171 171 169 169 169 167 167 167 165 165 165 163 163 163 161 161 161 159 159 160 157 157 158 155 155 153 153 151 144 152 145 119 153 137 76 155 132 40 159 130 15 161 129 0 161 132 0 161 134 0 161 135 1 161 137 1 162 138 1 162 140 1 163 142 1 163 144 1 164 145 0 165 146 0 166 147 1 166 149 1 167 150 0 168 151 0 169 152 0 170 154 0 172 155 0 173 157 1 175 158 2 178 159 6 180 162 13 183 167 28 187 173 57 192 181 90 199 192 129 204 200 162 208 206 183 211 211 197 213 212 198 214 213 199 214 214 201 215 215 202 217 216 203 219 218 204 219 219 205 220 220 206 221 220 207 222 221 207 222 221 208 223 222 209 223 222 209 224 223 210 225 223 210 226 224 211 226 224 211 227 224 212 227 224 213 227 224 213 227 225 213 227 224 208 224 218 187 220 211 162 216 198 120 211 186 80 206 175 47 201 166 19 200 162 10 199 158 3 199 156 1 198 153 0 198 151 0 199 150 3 204 157 22 211 168 52 228 202 131 243 233 202 248 243 228 252 252 250 253 253 252 254 254 254 254 254 254 254 254 254 254 254 254 254 254 254 254 254 254 254 254 254 254 254 254 254 254 254 254 254 254 254 254 254 254 254 254 254 254 254 254 254 254 255 255 255 255 255 255 255 255 255 255 255 255 255 255 255 255 255 255 255 255 255 255 255 255 255 255 255 255 255 255 255 255 255 255 255 255 255 255 255 255 255 255 255 255 255 255 255 255 255 255 255 255 255 255 255 255 255 255 255 255 255 255 255 255 255 255 255 255 255 255 255 255 255 255 255 
255 255 255 255 255 255 255 255 255 255 255 255 255 255 255 255 255 255 255 255 255 255 255 255 255 255 255 255 255 255 255 255 255 255 255 255 255 255 255 255 255 255 255 255 255 255 255 255 255 255 255 255 255 255 255 255 255 255 255 255 254 254 254 254 254 254 254 254 254 254 254 254 254 254 254 254 254 254 254 254 254 254 254 254 254 254 254 254 254 254 253 253 253 253 253 253 253 253 253 253 253 253 253 253 253 253 253 253 253 253 253 253 253 253 253 253 253 252 252 253 252 252 252 248 245 233 244 237 211 233 215 153 219 192 88 210 178 48 202 167 13 201 166 4 201 169 1 201 171 0 202 173 1 203 176 9 206 181 19 210 189 51 215 199 89 219 206 119 222 213 147 225 218 167 227 222 186 229 225 197 230 226 207 230 227 208 230 226 208 229 226 208 229 226 208 228 226 208 228 226 208 227 226 207 226 225 207 226 224 207 226 224 206 225 223 205 224 222 204 223 221 203 222 220 203 221 219 202 220 218 201 219 217 200 218 216 200 217 214 199 216 213 197 214 212 196 213 211 194 211 208 187 208 204 177 205 198 162 202 192 143 197 184 120 192 177 95 187 167 64 180 156 30 177 150 12 174 146 3 172 144 0 171 142 0 169 141 0 168 139 0 167 137 0 166 136 0 165 135 0 164 134 0 163 133 0 163 132 0 163 130 0 162 129 0 161 127 0 161 126 0 161 125 0 161 124 0 161 123 1 162 122 2 162 124 14 162 128 33 161 135 63 159 144 102 159 152 131 159 157 150 161 161 160 162 162 163 164 163 164 165 164 165 166 166 166 167 167 167 168 168 168 169 169 169 170 170 170 170 170 170 171 171 171 171 171 171 170 170 170 170 170 170 169 169 169 168 168 168 167 167 167 165 165 165 163 163 163 161 161 162 159 159 160 158 158 158 156 156 155 153 153 152 152 149 138 151 142 109 153 137 77 156 133 43 158 131 18 160 131 7 161 132 0 161 134 0 161 136 0 161 137 0 162 139 0 162 140 0 163 142 0 163 144 0 164 145 0 165 147 1 166 148 1 167 149 0 168 151 0 169 152 0 170 153 0 171 154 0 173 156 0 174 157 0 177 159 3 179 163 12 183 168 30 189 176 64 194 183 95 198 190 120 202 196 143 207 202 162 210 206 178 212 210 188 214 213 195 216 214 196 217 215 198 218 216 198 219 217 199 220 219 200 221 220 201 222 221 203 223 222 204 223 222 204 224 223 205 225 224 206 226 224 207 226 224 207 227 224 207 228 225 208 229 225 208 229 226 208 229 226 209 230 226 209 230 226 209 230 227 209 230 227 207 228 224 198 227 221 187 225 215 168 222 209 147 219 200 119 214 190 89 209 178 51 204 167 19 203 162 8 201 158 0 201 155 0 201 154 2 202 155 10 206 160 25 216 178 70 227 197 118 239 223 179 249 245 233 251 249 244 253 253 253 253 253 252 253 253 252 253 253 253 253 253 253 253 253 254 253 253 254 253 253 254 253 253 253 253 253 253 253 253 253 254 254 254 254 254 254 254 254 254 254 254 254 254 254 254 254 254 254 254 254 254 254 254 254 254 254 254 254 254 254 255 255 255 255 255 255 255 255 255 255 255 255 255 255 255 255 255 255 255 255 255 255 255 255 255 255 255 255 255 255 255 255 255 255 255 255 255 255 255 255 255 255 255 255 255 255 255 255 255 255 255 255 255 255 
255 255 255 255 255 255 255 255 255 255 255 255 255 255 255 255 255 255 255 255 255 255 255 255 255 255 255 255 255 255 255 255 255 255 255 255 255 255 255 255 255 255 255 255 255 255 255 255 255 255 255 255 255 255 255 255 255 254 254 254 254 254 254 254 254 254 254 254 254 254 254 254 254 254 254 254 254 254 254 254 254 254 254 254 254 254 254 253 253 253 253 253 253 253 253 252 253 253 252 253 253 252 253 253 253 252 252 252 252 252 252 252 252 252 252 252 252 251 251 250 250 250 248 243 236 211 236 221 169 222 195 98 207 168 22 203 165 5 202 167 1 202 170 0 203 173 0 205 176 2 206 178 5 209 184 23 212 191 43 219 204 93 226 217 151 230 224 181 233 229 202 233 230 207 233 229 206 233 229 206 232 228 205 232 228 205 232 228 204 232 228 205 231 228 205 231 228 205 231 228 205 230 228 205 229 227 204 228 227 204 228 226 203 228 225 202 227 224 201 226 224 201 225 223 200 224 222 199 223 221 199 222 219 198 222 218 197 221 216 196 219 215 195 218 214 194 217 213 193 215 211 191 213 209 190 212 207 188 211 205 186 207 200 172 203 194 151 195 182 111 187 166 60 181 157 30 177 151 11 175 147 3 173 145 1 171 143 0 169 141 0 168 139 0 167 138 0 166 137 0 165 136 0 164 135 0 163 134 0 163 132 0 162 131 0 161 129 0 161 128 0 161 127 0 161 126 0 161 124 0 161 123 0 161 122 1 162 121 2 161 125 25 158 134 66 157 143 103 156 151 136 157 155 153 158 157 157 159 158 160 160 160 160 161 161 161 163 163 163 164 164 164 165 165 165 166 166 166 166 166 166 166 166 166 166 166 166 166 166 166 166 166 166 165 165 165 164 164 164 163 163 163 161 161 161 160 160 160 158 158 158 156 156 157 154 154 154 152 152 150 150 148 142 149 143 119 151 134 75 154 130 39 158 129 14 161 130 0 161 132 0 161 134 0 161 135 0 161 137 0 162 139 0 162 141 0 163 142 0 163 144 0 164 145 0 165 147 0 166 148 1 167 150 1 168 151 0 170 153 0 171 154 0 172 155 0 173 156 0 175 158 1 178 160 3 180 163 11 184 169 30 190 177 60 198 189 111 204 198 152 208 204 173 211 209 187 214 210 189 216 212 191 216 213 192 217 215 193 219 216 194 220 218 196 221 219 196 222 220 197 223 221 198 224 222 199 225 223 200 226 224 201 226 225 201 227 225 202 228 226 203 229 226 204 229 226 204 230 226 204 231 227 205 231 227 205 231 228 205 232 228 205 232 228 205 232 228 205 232 229 206 232 229 206 232 229 206 232 229 206 232 229 207 232 228 202 230 221 181 226 212 152 218 195 94 211 179 44 208 171 23 205 163 5 204 160 2 203 157 0 202 155 0 202 153 3 206 158 18 213 167 45 229 202 130 243 233 205 248 243 229 252 252 250 252 252 251 253 252 251 253 252 252 253 253 253 253 253 253 253 253 254 253 253 253 253 253 253 253 253 253 253 253 253 253 253 253 254 254 254 254 254 254 254 254 254 254 254 254 254 254 254 254 254 254 254 254 254 254 254 254 254 254 254 254 254 254 255 255 255 255 255 255 255 255 255 255 255 255 255 255 255 255 255 255 255 255 255 255 255 255 255 255 255 255 255 255 255 255 255 255 255 255 255 255 255 255 255 255 255 255 255 255 255 255 255 255 255 
255 255 255 255 255 255 255 255 255 255 255 255 255 255 255 255 255 255 255 255 255 255 255 255 255 255 255 255 255 255 255 255 255 255 255 255 254 254 254 254 254 254 254 254 254 254 254 254 254 254 254 254 254 254 254 254 254 254 254 254 253 253 253 253 253 253 253 253 253 253 253 253 253 253 253 253 253 253 253 253 253 253 253 253 253 253 253 252 252 252 252 252 252 252 252 252 252 252 251 252 252 251 252 251 251 251 251 251 251 251 251 251 250 250 250 250 250 248 246 239 246 241 225 234 220 164 221 195 94 214 180 50 207 168 11 205 168 2 205 171 0 206 174 0 207 177 0 209 182 13 211 188 30 217 198 68 224 210 112 228 218 145 232 226 176 234 229 190 235 231 200 235 231 202 235 231 202 235 231 202 234 230 201 234 230 201 234 230 201 234 230 201 233 230 201 233 230 201 233 230 201 232 229 200 231 229 200 231 228 199 230 227 198 230 226 198 230 226 197 229 225 196 227 224 196 226 223 196 226 222 195 225 221 194 225 220 194 223 219 192 222 217 191 221 216 189 219 214 188 218 213 187 216 211 186 214 209 184 213 207 182 210 204 175 207 200 165 203 193 143 197 184 115 191 173 81 184 162 43 179 154 20 176 148 6 174 145 0 172 143 0 171 141 0 169 140 0 168 139 0 166 137 0 165 136 0 164 135 0 164 133 0 163 132 0 162 131 0 161 130 0 161 129 0 161 127 0 161 126 0 161 124 0 161 123 1 162 122 1 161 123 12 160 127 32 159 134 65 156 143 109 155 150 136 155 153 149 156 155 156 157 157 157 158 158 158 159 159 159 160 160 160 161 161 161 162 162 162 163 163 163 163 163 163 163 163 163 163 163 163 162 162 162 161 161 161 160 160 160 159 159 159 158 158 158 157 157 157 155 155 155 153 153 153 152 151 151 150 148 139 149 141 115 150 135 84 154 131 45 158 129 18 160 131 6 161 132 0 161 134 0 161 136 0 161 137 0 162 139 0 162 141 0 162 142 0 163 144 0 164 145 0 165 147 0 166 149 0 167 150 0 168 151 0 170 153 0 171 155 0 173 156 0 174 157 0 176 159 0 178 162 6 182 166 20 187 172 42 193 182 81 199 191 116 204 198 144 209 204 166 212 208 176 214 211 183 216 212 185 218 214 186 220 215 188 221 217 190 222 218 191 223 220 192 224 221 193 225 222 193 226 223 194 227 224 195 228 224 196 229 225 196 229 226 197 229 227 198 230 227 199 231 228 199 231 228 199 232 228 200 232 229 200 233 229 201 233 230 201 234 230 201 234 229 201 234 229 201 234 229 201 234 230 201 234 230 201 234 230 201 234 230 202 234 229 200 233 226 190 231 222 176 227 213 146 223 202 113 217 188 69 211 174 30 208 168 14 206 162 0 205 159 0 205 157 1 206 157 9 209 160 23 219 180 74 229 201 127 240 226 188 249 247 242 250 249 246 251 251 250 251 251 251 251 251 251 252 252 251 252 252 252 252 252 252 252 252 252 252 252 252 252 252 252 253 253 253 253 253 253 253 253 253 253 253 253 253 253 253 253 253 253 253 253 253 253 253 253 254 254 254 254 254 254 254 254 254 254 254 254 254 254 254 254 254 254 254 254 254 254 254 254 254 254 254 254 254 254 255 255 255 255 255 255 255 255 255 255 255 255 255 255 255 255 255 255 255 255 255 255 255 255 255 255 255 255 255 255 
255 255 255 255 255 255 255 255 255 255 255 255 255 255 255 255 255 255 255 255 255 255 255 255 255 255 255 255 255 255 255 255 255 254 254 254 254 254 254 254 254 254 254 254 254 254 254 254 254 254 254 254 254 254 254 254 254 253 253 253 253 253 253 253 253 253 253 253 253 253 253 253 253 253 253 252 252 252 252 252 252 252 252 252 252 252 252 251 251 251 251 251 251 251 251 251 251 251 251 251 250 250 251 250 250 250 250 250 250 249 249 249 249 248 248 247 247 244 239 223 239 230 195 225 203 116 210 173 29 207 168 9 207 169 1 208 172 0 208 175 0 209 178 1 210 182 3 214 190 28 217 199 60 225 212 113 234 226 171 236 230 188 237 233 195 237 233 197 236 232 197 236 232 197 236 232 197 236 232 197 236 232 197 236 232 197 236 232 197 236 232 197 235 231 196 235 231 196 235 231 196 234 231 196 234 230 195 233 229 194 232 228 193 232 228 193 232 227 192 231 226 192 230 225 192 229 224 192 228 224 191 228 223 190 227 222 189 226 221 188 225 219 187 223 218 185 222 216 184 220 214 183 219 213 182 217 211 180 215 209 179 213 207 177 211 206 175 209 203 169 206 199 161 200 188 125 191 173 76 185 161 40 180 152 13 177 147 2 175 145 1 173 143 0 171 142 0 169 140 0 168 139 0 167 137 0 166 136 0 165 135 0 164 134 0 163 133 0 162 132 0 161 130 0 161 129 0 161 127 0 160 126 1 161 124 1 161 123 0 162 122 2 162 121 4 160 126 32 157 136 80 154 143 115 153 149 139 152 152 151 154 154 154 155 155 155 156 156 156 157 157 157 158 158 158 159 159 159 159 159 159 160 160 160 160 160 160 160 160 160 159 159 159 158 158 158 157 157 157 156 156 156 155 155 155 154 154 154 152 152 153 151 150 150 149 148 146 149 143 126 149 134 87 152 129 51 158 129 18 161 129 0 161 132 0 161 134 0 160 135 0 161 137 0 162 139 0 162 141 0 162 142 0 163 144 0 164 145 0 165 147 0 166 149 0 168 151 0 169 152 0 170 153 0 171 155 0 173 157 0 175 158 0 177 160 1 178 162 2 181 165 13 187 173 40 193 182 76 201 194 126 208 204 162 211 207 170 213 210 176 215 211 178 217 213 180 218 214 181 220 216 182 223 217 184 224 219 186 225 220 187 226 222 188 227 223 189 228 224 189 229 224 190 230 225 191 231 226 192 231 226 192 231 227 193 232 228 193 233 229 194 233 229 194 233 230 195 233 230 195 234 231 196 234 231 196 235 231 196 236 231 196 236 230 196 236 230 196 236 230 196 236 230 196 236 230 196 236 230 196 236 230 197 236 230 197 236 231 196 236 230 195 236 228 188 234 223 171 225 204 114 218 186 61 213 176 29 209 167 3 208 163 1 208 160 0 207 157 1 206 155 5 211 162 26 217 173 58 231 208 147 244 239 224 247 244 238 249 249 249 249 250 249 250 250 249 250 250 249 251 251 250 251 251 250 251 251 251 251 251 251 252 252 252 252 252 252 252 252 252 252 252 252 252 252 252 252 252 252 253 253 253 253 253 253 253 253 253 253 253 253 254 254 254 254 254 254 254 254 254 254 254 254 254 254 254 254 254 254 254 254 254 254 254 254 254 254 254 254 254 254 255 255 255 255 255 255 255 255 255 255 255 255 255 255 255 255 255 255 255 255 255 255 255 255 255 255 255 
255 255 255 255 255 255 255 255 255 255 255 255 255 255 255 255 255 255 255 255 255 255 255 255 255 255 255 255 255 255 254 254 254 254 254 254 254 254 254 254 254 254 254 254 254 254 254 254 253 253 253 253 253 253 253 253 253 253 253 253 252 252 252 252 252 252 252 252 252 252 252 252 252 252 252 251 251 251 251 251 251 250 250 250 250 250 250 249 249 249 249 249 249 248 249 248 248 249 248 248 248 248 248 247 248 248 247 247 247 247 246 246 245 243 245 244 240 236 226 187 227 205 126 218 188 70 209 171 16 208 170 4 209 172 1 210 176 0 210 179 0 212 184 8 214 188 17 220 200 61 227 214 113 232 222 148 237 229 179 238 232 187 237 233 190 237 233 190 237 233 190 237 233 190 237 233 190 237 233 190 237 233 190 237 233 190 237 233 190 237 232 190 236 232 191 236 231 190 236 231 190 236 231 190 235 231 190 235 230 189 234 229 188 234 229 188 233 228 187 233 227 187 232 226 187 231 226 186 230 225 186 230 224 185 229 223 184 229 222 183 227 221 182 226 219 181 224 217 179 222 215 178 221 214 177 219 213 176 217 211 174 215 209 173 213 207 171 211 204 168 209 202 163 205 195 144 199 186 117 192 174 78 185 159 33 180 152 12 177 148 3 175 145 0 173 143 0 171 142 0 169 141 0 168 139 0 167 137 0 166 136 0 165 135 0 164 134 0 163 133 0 162 131 0 161 130 0 161 129 0 160 127 0 160 126 0 161 124 1 161 122 1 161 121 2 160 123 18 159 129 45 156 136 80 152 144 122 151 149 144 152 151 149 153 153 152 154 154 153 155 155 155 156 156 156 156 156 156 157 157 157 157 157 157 157 157 157 157 157 157 157 157 157 156 156 156 155 155 155 154 154 154 153 153 153 152 152 152 150 150 151 149 147 144 146 143 131 147 138 103 151 132 58 155 129 26 159 129 10 161 131 0 161 133 0 161 135 0 161 137 0 161 138 0 162 140 0 163 142 0 163 144 0 164 145 0 165 147 0 166 148 0 167 150 0 169 152 0 170 153 0 172 155 0 174 157 0 176 159 0 177 160 0 179 162 3 182 165 12 187 171 34 194 183 78 201 193 117 206 201 145 211 207 164 213 210 168 215 212 172 217 213 174 219 214 176 221 216 177 223 217 178 225 219 180 226 220 181 227 222 182 228 223 183 229 224 184 230 225 184 231 226 185 232 226 186 232 227 186 233 227 187 233 228 187 234 229 188 234 229 188 235 230 189 235 230 189 235 231 190 236 231 190 236 231 190 236 231 190 237 231 189 237 231 190 238 231 190 237 231 190 237 231 189 237 231 189 237 231 190 238 230 190 238 230 191 238 230 191 238 230 190 237 229 187 236 226 179 232 216 148 227 205 114 220 189 61 213 174 17 211 169 8 210 164 0 209 161 1 208 158 3 209 159 12 212 164 32 223 190 101 234 215 167 241 232 209 246 247 245 247 247 246 247 247 247 248 248 248 248 248 248 248 248 248 249 249 249 249 249 249 250 250 250 250 250 250 250 250 250 251 251 251 251 251 251 251 251 251 252 252 252 252 252 252 252 252 252 253 253 253 253 253 253 253 253 253 253 253 253 253 253 253 253 253 253 254 254 254 254 254 254 254 254 254 254 254 254 254 254 254 254 254 254 255 255 255 255 255 255 255 255 255 255 255 255 255 255 255 255 255 255 255 255 255 255 255 255 
255 255 255 255 255 255 255 255 255 255 255 255 255 255 255 255 255 255 255 255 255 255 255 255 255 255 255 254 254 254 254 254 254 254 254 254 254 254 254 254 254 254 254 254 254 253 253 253 253 253 253 252 252 252 252 252 252 252 252 252 252 252 252 251 251 251 251 251 251 251 251 251 251 251 251 250 250 250 250 250 250 249 249 249 248 248 248 247 247 247 247 247 247 246 246 246 246 246 246 245 246 245 245 245 245 245 244 244 244 243 243 242 241 235 240 237 227 229 212 151 216 183 63 211 174 29 209 170 4 210 172 0 211 176 0 212 179 0 212 183 0 215 189 16 219 196 36 227 211 93 235 227 158 238 231 177 240 233 184 239 233 185 238 233 184 238 233 184 238 233 184 238 233 184 238 233 184 238 233 184 238 233 184 238 233 184 238 233 184 238 233 184 237 232 185 237 232 184 237 231 184 237 231 184 236 231 184 236 231 183 236 230 183 235 230 182 235 229 181 234 228 181 233 227 181 233 227 181 232 226 180 232 225 179 231 224 178 231 223 178 230 222 177 228 220 176 226 218 174 224 217 173 223 216 172 221 214 171 220 213 170 218 210 168 215 208 167 213 206 165 212 204 164 209 201 159 206 198 151 200 185 112 191 168 56 184 157 24 180 151 7 177 147 0 175 145 0 173 144 0 171 143 0 169 141 0 168 139 0 167 138 0 166 137 0 165 135 0 164 134 0 163 133 0 162 132 0 161 130 0 160 129 0 160 127 0 160 125 1 160 123 1 161 122 0 161 122 5 160 122 14 157 128 48 152 139 102 150 145 133 150 148 144 150 150 150 151 151 151 152 152 152 153 153 153 154 154 154 155 155 155 155 155 155 155 155 155 155 155 155 155 155 155 154 154 154 153 153 153 152 152 152 151 151 151 150 150 150 148 148 149 147 144 137 144 138 114 147 133 79 154 129 32 159 128 5 160 130 2 161 132 1 161 134 0 161 136 0 161 138 0 161 140 0 162 141 0 163 143 0 164 145 0 165 147 0 166 148 0 167 150 0 168 151 0 170 153 0 171 155 0 173 157 0 176 159 0 178 161 0 179 162 0 182 165 7 186 170 25 192 178 56 201 192 113 208 203 152 211 207 159 214 210 165 216 212 166 218 214 168 219 215 170 221 216 172 224 217 173 226 219 174 227 220 175 228 222 175 229 223 176 230 224 177 231 225 178 232 226 179 232 227 180 233 227 180 234 228 181 234 228 181 235 229 182 235 229 182 236 230 182 236 230 183 237 230 183 237 231 184 237 231 184 237 231 184 237 231 183 237 231 183 238 231 183 239 231 184 238 231 183 238 231 183 238 231 183 238 231 183 239 230 184 239 230 185 239 230 185 239 230 185 238 230 185 238 229 184 237 227 177 235 221 159 226 201 93 218 183 36 214 175 17 211 168 0 211 164 1 210 161 1 209 157 1 208 156 9 216 174 58 224 193 111 234 219 179 243 242 237 244 243 242 244 244 245 245 245 246 245 245 246 246 246 246 246 246 246 247 247 247 248 248 248 248 248 248 249 249 249 249 249 249 250 250 250 250 250 250 251 251 251 251 251 251 252 252 252 252 252 252 252 252 252 252 252 252 253 253 253 253 253 253 253 253 253 253 253 253 254 254 254 254 254 254 254 254 254 254 254 254 254 254 254 254 254 254 255 255 255 255 255 255 255 255 255 255 255 255 255 255 255 255 255 255 255 255 255 
255 255 255 255 255 255 255 255 255 255 255 255 254 254 254 254 254 254 254 254 254 254 254 254 254 254 254 254 254 254 253 253 253 253 253 253 253 253 253 253 253 253 253 253 253 252 252 252 252 252 252 251 251 251 251 251 251 250 250 250 250 250 250 249 249 249 249 249 249 249 249 249 248 248 248 247 247 247 247 247 247 246 246 246 245 245 245 244 244 244 244 244 244 243 243 243 243 242 243 242 242 242 241 241 241 241 240 240 240 239 240 236 230 212 232 220 180 223 199 111 213 175 35 211 172 14 211 172 2 212 175 0 213 178 0 214 182 0 215 185 1 220 196 37 226 208 80 232 219 122 237 229 163 239 232 174 240 233 177 240 233 178 239 233 177 239 233 177 239 233 177 239 233 177 239 233 177 239 233 177 239 232 177 239 232 177 239 232 177 238 232 177 238 232 177 238 231 177 239 231 177 238 230 177 238 230 176 238 230 176 237 230 176 237 230 176 236 229 175 235 228 175 234 228 175 234 227 174 234 227 174 233 226 173 233 225 172 232 224 171 231 222 170 230 221 169 228 219 168 227 218 167 225 217 166 224 215 165 222 213 164 220 211 163 218 209 162 216 207 160 213 205 158 211 203 154 209 199 151 204 191 126 197 179 90 190 167 53 183 155 14 179 149 0 178 148 0 175 146 0 173 144 0 171 143 0 169 141 0 168 139 0 167 138 0 166 136 0 165 135 0 164 134 0 163 133 0 162 131 0 161 130 0 161 128 0 161 126 0 161 124 0 160 123 0 161 122 2 161 121 7 159 125 32 155 133 74 152 140 108 149 146 135 149 149 148 150 150 150 151 151 151 152 152 152 153 153 153 153 153 153 153 153 153 154 154 154 154 154 154 153 153 153 152 152 152 152 152 152 151 151 151 150 150 150 148 148 148 146 146 145 146 141 124 148 133 84 152 129 49 157 128 19 160 129 3 160 131 2 161 134 1 161 136 0 161 138 0 161 140 0 161 141 0 162 143 0 163 145 0 164 147 0 165 148 0 167 150 0 168 151 0 170 153 0 172 155 0 174 157 0 176 159 0 178 161 0 180 163 0 182 165 0 186 169 15 193 179 54 200 188 91 206 198 127 211 205 152 214 208 156 216 211 160 218 213 161 220 215 162 222 216 164 224 217 166 226 219 167 228 220 168 228 221 169 229 222 169 230 224 170 231 225 171 232 226 172 233 227 173 234 227 174 234 228 174 235 228 174 235 228 175 236 229 175 237 229 175 237 229 176 238 229 176 238 230 176 238 230 176 238 230 176 238 230 176 238 230 176 238 230 177 239 230 177 239 230 177 239 230 177 239 230 176 239 230 176 239 230 177 239 230 177 239 229 177 239 229 177 239 229 177 239 229 177 238 228 176 238 227 173 237 224 163 232 211 122 226 198 81 219 183 37 214 170 1 213 167 1 212 164 0 210 160 1 209 158 5 213 165 29 217 175 62 227 205 142 236 230 213 238 236 228 240 240 240 241 241 241 242 242 242 242 242 242 243 243 243 244 244 244 245 245 245 245 245 245 246 246 246 247 247 247 247 247 247 248 248 248 249 249 249 249 249 249 250 250 250 250 250 250 250 250 250 251 251 251 251 251 251 252 252 252 252 252 252 252 252 252 253 253 253 253 253 253 253 253 253 253 253 253 253 253 253 254 254 254 254 254 254 254 254 254 254 254 254 255 255 255 255 255 255 255 255 255 255 255 255 
255 255 255 255 255 255 255 255 255 254 254 254 254 254 254 254 254 254 254 254 254 254 254 254 254 254 254 253 253 253 253 253 253 252 252 252 252 252 252 252 252 252 252 252 252 251 251 251 251 251 251 250 250 250 250 250 250 249 249 249 248 248 248 248 248 248 247 247 247 247 247 247 246 246 246 245 245 245 243 243 243 243 243 243 242 242 242 241 241 241 240 240 240 240 239 240 239 238 239 238 238 238 236 237 236 236 236 236 236 235 236 230 220 189 224 203 133 218 186 73 211 169 11 211 170 1 213 175 1 214 178 1 214 181 0 216 185 2 217 188 4 224 203 56 233 219 119 236 226 147 239 231 166 239 232 170 240 233 170 240 233 170 240 233 171 240 233 171 240 233 171 240 233 170 240 233 170 240 232 170 239 232 170 239 232 170 239 232 170 239 231 169 239 231 169 239 230 169 240 230 169 240 230 169 239 230 169 239 230 169 238 230 169 238 229 169 237 229 169 236 228 168 235 228 168 235 227 167 235 227 167 235 226 166 234 225 166 233 224 165 232 222 163 231 221 163 230 220 162 229 219 161 228 217 160 226 216 159 225 214 158 223 212 157 220 210 157 218 208 155 215 207 151 213 204 150 211 201 149 208 196 138 203 189 120 196 176 79 186 159 23 182 152 2 180 150 0 178 148 0 175 146 0 172 144 0 171 142 0 169 140 0 168 139 0 167 137 0 166 136 0 164 135 0 164 134 0 163 133 0 162 132 0 161 130 0 161 127 0 161 125 0 160 124 0 161 122 0 162 121 1 161 123 17 158 128 48 154 135 84 149 143 125 148 147 146 149 149 149 150 150 150 151 151 151 151 151 151 152 152 152 152 152 152 153 153 153 152 152 152 151 151 151 151 151 151 151 151 151 150 150 150 149 149 149 147 146 145 144 143 139 146 138 111 152 129 57 156 126 22 159 128 8 160 130 1 161 133 1 161 135 1 161 137 0 161 139 0 161 141 0 162 143 0 163 144 0 164 146 0 165 148 0 166 150 0 168 151 0 170 153 0 171 155 0 173 157 0 176 159 0 178 161 0 180 163 0 182 165 1 184 167 2 189 174 24 199 187 80 206 198 122 211 203 140 215 207 152 216 210 153 218 212 154 220 214 155 222 216 156 224 217 158 226 219 159 228 220 161 229 221 162 230 222 163 230 223 163 231 224 164 232 225 165 233 226 166 234 227 167 235 228 167 235 228 168 236 228 168 236 228 168 237 229 168 238 229 168 239 229 168 239 229 169 239 229 169 239 229 169 239 229 169 239 229 169 239 229 169 239 230 170 239 230 170 239 230 170 239 230 170 239 230 170 239 230 170 239 230 170 239 229 170 239 229 170 239 229 170 239 229 170 239 228 169 239 227 168 238 227 168 238 226 165 236 220 147 234 212 120 224 191 57 216 174 4 215 170 2 214 167 0 212 163 1 210 160 1 210 158 4 211 161 19 221 190 106 229 217 184 233 227 211 236 236 235 237 237 236 238 238 237 239 239 238 239 239 239 240 240 240 241 241 241 242 242 242 243 243 243 244 244 244 245 245 245 245 245 245 246 246 246 247 247 247 248 248 248 248 248 248 249 249 249 249 249 249 250 250 250 250 250 250 251 251 251 251 251 251 252 252 252 252 252 252 253 253 253 253 253 253 253 253 253 253 253 253 254 254 254 254 254 254 254 254 254 254 254 254 255 255 255 255 255 255 255 255 255 
255 255 255 255 255 255 254 254 254 254 254 254 254 254 254 254 254 254 253 253 253 253 253 253 253 253 253 252 252 252 252 252 252 251 251 251 251 251 251 251 251 251 250 250 250 250 250 250 249 249 249 248 248 248 247 247 247 246 246 246 245 245 245 245 245 245 244 244 244 243 243 243 242 242 242 241 241 241 240 240 240 239 239 239 238 238 238 237 237 237 236 236 236 235 235 235 234 234 234 233 233 233 231 232 231 231 230 228 230 228 225 224 209 161 218 188 86 214 178 44 212 171 6 213 173 0 213 177 0 214 181 0 216 184 0 218 189 8 220 194 19 227 208 71 235 224 132 238 229 151 239 231 160 239 232 162 240 232 162 240 232 162 240 232 162 240 232 162 240 232 162 240 232 162 240 232 162 240 232 162 239 231 162 239 231 162 239 231 161 239 230 161 239 230 161 239 230 161 239 229 161 239 229 161 240 229 161 239 229 161 239 229 161 238 228 161 238 228 160 237 227 160 236 227 159 236 226 159 236 226 159 235 225 158 235 225 158 234 224 157 233 222 156 232 221 156 231 220 155 230 219 154 229 217 154 228 216 153 226 215 151 224 213 151 221 210 150 219 209 149 217 207 147 215 205 145 213 202 144 210 198 137 207 194 129 200 182 91 191 165 37 186 156 12 183 152 3 180 150 0 177 148 0 175 146 0 173 144 0 171 142 0 169 140 0 168 139 0 166 138 0 165 136 0 164 135 0 163 133 0 162 132 0 161 130 0 161 129 0 161 127 0 161 125 0 161 124 0 162 122 0 162 122 10 160 125 27 156 131 62 150 140 112 148 145 140 148 148 146 149 149 149 149 150 150 150 150 150 151 151 151 151 151 151 151 152 152 151 151 151 151 151 151 150 150 150 150 150 150 149 149 149 148 148 148 146 145 139 144 140 123 146 134 91 154 129 41 159 127 11 160 129 4 161 131 0 161 133 0 161 136 0 161 138 0 162 140 0 162 142 0 163 144 0 164 146 0 165 147 0 166 149 0 167 150 0 169 152 0 171 155 0 173 157 0 176 159 0 178 161 0 180 163 0 182 165 0 185 168 3 188 171 12 194 179 38 203 192 92 210 202 130 213 205 139 216 208 146 218 211 147 220 213 148 222 214 149 224 216 150 226 218 152 227 219 153 229 221 154 230 222 155 231 223 155 231 223 156 232 224 157 233 225 158 234 226 158 235 227 159 235 227 159 236 227 160 237 227 160 237 227 160 238 228 160 238 228 160 238 228 161 239 228 161 239 228 161 239 228 161 239 227 160 239 227 160 239 228 161 238 228 161 239 228 161 239 228 161 239 228 161 240 228 161 240 228 162 240 228 162 240 227 162 240 227 162 240 227 162 240 227 162 239 227 161 239 226 160 239 226 161 239 226 159 238 223 151 236 217 133 227 197 71 219 180 18 217 175 8 215 169 0 213 166 0 212 162 1 211 159 2 211 159 12 216 178 73 221 197 133 226 215 184 231 230 229 232 232 231 233 233 232 234 234 233 234 234 234 236 236 236 237 237 237 238 238 238 239 239 239 240 240 240 241 241 241 242 242 242 242 242 242 244 244 244 245 245 245 245 245 245 246 246 246 247 247 247 248 248 248 249 249 249 249 249 249 250 250 250 250 250 250 251 251 251 252 252 252 252 252 252 252 252 252 253 253 253 253 253 253 253 253 253 253 253 253 254 254 254 254 254 254 254 254 254 254 254 254 
255 255 255 254 254 254 254 254 254 254 254 254 254 254 254 253 253 253 253 253 253 252 252 252 252 252 252 251 251 251 251 251 251 250 250 250 250 250 250 249 249 249 249 249 249 248 248 248 247 247 247 246 246 246 244 244 244 243 243 243 242 242 242 241 241 241 240 240 240 239 239 239 238 238 238 237 237 237 235 235 235 234 234 234 233 233 233 232 232 232 231 231 231 230 230 230 228 229 228 227 228 227 226 226 226 225 223 219 224 220 210 218 199 133 212 175 44 212 172 18 213 172 2 214 176 0 214 180 0 215 183 0 217 187 0 220 193 15 223 199 32 230 212 83 237 227 142 239 230 153 239 231 153 239 231 154 240 231 154 240 231 154 240 231 154 240 231 154 240 231 154 240 231 154 240 231 154 240 231 154 239 231 154 239 230 153 239 230 153 239 229 153 239 229 153 239 229 152 239 229 152 239 229 152 240 229 153 240 228 153 239 228 153 239 227 152 238 227 152 238 226 151 237 226 151 237 225 151 236 225 151 236 225 150 235 224 150 234 223 149 233 222 149 233 221 148 232 219 148 231 218 147 230 217 147 229 216 146 227 215 145 225 213 144 223 211 143 221 209 142 219 207 141 217 205 140 215 203 138 213 200 136 210 198 135 204 187 101 196 171 50 190 161 21 185 155 6 182 151 0 179 150 0 177 148 0 174 146 0 172 144 0 171 142 0 169 141 0 167 140 0 166 138 0 165 136 0 164 134 0 163 133 0 162 131 0 161 130 0 161 128 0 161 127 0 161 125 0 162 123 0 162 122 3 162 122 9 158 127 42 152 137 99 148 143 132 147 146 143 147 148 148 148 149 149 149 149 149 150 150 150 150 150 150 150 151 151 150 151 151 150 150 150 149 149 150 148 148 149 148 148 148 147 147 146 146 143 133 144 136 107 147 131 72 156 128 27 161 127 2 161 130 1 162 132 0 161 134 0 161 136 0 162 139 0 162 141 0 163 143 0 164 145 0 165 147 0 166 149 0 167 150 0 169 151 0 170 154 0 172 156 0 175 158 0 178 160 0 180 162 0 182 164 0 185 167 0 188 170 6 192 175 22 198 183 51 207 197 102 213 206 136 216 207 138 218 209 139 219 211 140 221 214 141 224 215 142 226 217 143 227 218 145 229 220 146 230 221 147 231 222 148 232 223 148 232 224 148 233 225 149 234 225 150 235 226 150 235 226 151 236 226 151 236 227 152 237 227 152 238 227 152 238 227 152 238 227 153 238 227 153 238 227 153 239 227 153 239 227 152 239 226 152 239 226 152 238 226 152 238 227 153 239 227 153 239 227 153 240 227 153 240 227 153 240 226 153 240 226 154 240 226 154 240 226 154 240 226 154 240 226 153 239 226 153 239 226 153 239 226 153 239 225 153 239 225 153 238 221 143 230 203 84 222 186 32 219 179 14 216 172 0 214 168 0 213 165 0 211 161 0 210 159 6 212 168 43 214 179 85 220 203 157 225 224 221 226 226 224 227 227 227 228 228 228 229 229 229 231 231 231 232 232 232 233 233 233 234 234 234 236 236 236 237 237 237 238 238 238 238 238 238 240 240 240 241 241 241 242 242 242 243 243 243 245 245 245 246 246 246 247 247 247 248 248 248 248 248 248 249 249 249 250 250 250 251 251 251 251 251 251 251 251 251 252 252 252 253 253 253 253 253 253 253 253 253 253 253 253 254 254 254 254 254 254 254 254 254 
254 254 254 254 254 254 254 254 254 254 254 254 253 253 253 253 253 253 252 252 252 251 251 251 251 251 251 250 250 250 249 249 249 249 249 249 248 248 248 247 247 247 246 246 246 244 244 244 243 243 243 242 242 242 241 241 241 239 239 239 238 238 238 237 237 237 235 235 235 234 234 234 233 233 233 231 231 231 230 230 230 229 229 229 227 227 227 226 226 226 225 225 225 223 223 223 222 222 222 220 221 220 219 219 219 218 214 201 217 208 180 215 191 108 212 171 28 212 171 9 213 173 1 214 177 0 216 182 0 217 185 0 218 188 0 221 195 19 225 203 43 231 214 86 237 226 134 239 229 143 239 229 143 239 229 144 239 229 144 239 229 144 239 229 144 239 229 144 239 229 144 239 229 144 239 229 144 239 229 144 239 229 144 239 229 143 239 228 143 239 228 143 239 228 143 239 228 143 239 227 143 239 227 143 239 227 144 239 227 143 239 226 143 238 226 143 238 225 142 237 225 142 237 224 142 237 224 142 236 224 142 236 224 142 235 223 141 235 222 141 234 222 141 234 220 140 233 219 140 232 218 139 231 217 139 230 216 138 228 215 137 227 213 136 225 211 135 223 209 134 221 207 133 219 205 132 217 203 130 215 200 129 213 198 128 207 188 100 199 175 57 192 165 28 188 158 8 184 154 0 181 152 0 179 150 0 176 148 0 174 146 0 172 144 0 170 142 0 168 141 0 167 139 0 165 137 0 164 136 0 163 134 0 163 132 0 161 131 0 161 130 0 161 128 0 161 126 0 162 124 0 162 122 2 162 122 5 159 126 32 154 134 82 150 140 116 147 144 137 146 147 147 147 147 148 148 148 148 149 149 149 149 150 149 149 150 149 149 149 149 149 149 149 149 148 148 148 148 148 147 147 147 146 146 145 146 141 126 147 133 88 150 128 53 157 127 19 161 128 1 162 131 0 162 133 0 161 135 0 161 138 0 162 139 0 163 141 0 164 143 0 165 146 0 166 148 0 167 150 0 169 151 0 171 153 0 172 155 0 174 158 0 177 160 0 180 162 0 182 164 0 184 166 0 187 168 0 190 172 8 195 179 28 201 187 57 209 198 101 215 206 130 217 208 131 219 210 132 221 212 133 223 214 134 225 216 134 227 217 135 228 219 137 230 220 138 231 221 139 232 222 139 233 223 140 233 224 140 234 224 140 235 224 141 235 225 141 236 225 142 236 225 142 237 225 142 237 225 142 237 225 142 237 225 142 238 225 143 238 225 143 239 225 143 239 225 143 239 225 143 239 225 143 239 225 143 239 225 143 239 225 143 239 225 143 239 225 143 239 225 144 239 225 144 239 225 144 239 224 144 239 224 144 239 224 144 239 224 144 239 224 144 239 223 143 238 223 143 238 223 143 238 223 143 238 223 144 237 220 135 230 205 87 224 191 43 220 181 19 217 173 0 216 170 0 214 167 1 213 163 0 212 160 3 212 163 24 212 169 54 215 193 134 218 215 205 219 218 214 220 221 221 221 222 222 223 223 223 224 224 224 226 226 226 227 227 227 228 228 228 230 230 230 231 231 231 232 232 232 233 233 233 235 235 235 236 236 236 238 238 238 240 240 240 241 241 241 242 242 242 243 243 243 245 245 245 246 246 246 247 247 247 248 248 248 249 249 249 250 250 250 250 250 250 251 251 251 252 252 252 252 252 252 252 252 252 253 253 253 253 253 253 254 254 254 254 254 254 
254 254 254 254 254 254 254 254 254 253 253 253 253 253 253 252 252 252 251 251 251 250 250 250 250 250 250 249 249 249 248 248 248 247 247 247 246 246 246 244 244 244 243 243 243 241 241 241 239 239 239 238 238 238 236 236 236 235 235 235 233 233 233 232 232 232 230 230 230 229 229 229 227 227 227 226 226 226 224 224 224 223 223 223 221 221 221 220 220 220 218 218 218 217 217 217 215 215 215 213 214 213 211 212 210 211 205 182 211 197 150 211 183 84 212 168 13 213 170 2 214 174 0 215 178 0 217 183 0 218 187 0 219 190 0 223 197 23 227 206 52 232 215 88 237 225 126 238 227 133 239 228 134 239 228 134 238 228 134 238 228 134 238 228 134 238 228 134 238 228 134 238 228 134 239 228 134 239 227 134 239 227 134 239 227 134 239 227 134 239 227 133 239 227 133 239 226 133 239 226 134 239 226 134 239 226 135 238 225 134 238 225 134 238 224 133 237 224 133 237 223 133 237 223 133 237 223 133 236 223 134 236 222 133 235 222 133 235 221 133 235 221 133 234 220 132 233 218 132 232 217 131 231 216 130 230 215 130 229 214 129 228 213 128 227 211 127 225 209 126 223 207 125 221 205 124 220 203 123 218 200 122 215 198 121 209 190 98 201 179 62 195 169 34 190 160 9 186 156 0 184 153 0 181 151 0 178 149 0 175 147 0 173 145 0 171 143 0 170 142 0 168 140 0 166 139 0 165 137 0 164 135 0 163 134 0 162 132 0 161 131 0 161 129 0 161 127 0 162 124 0 162 123 0 163 121 1 160 125 23 156 131 65 151 137 100 147 143 131 146 146 146 147 147 147 147 147 148 148 148 148 148 149 149 149 149 148 149 148 148 148 147 147 148 147 147 147 147 148 146 146 146 145 145 142 146 139 118 149 130 71 153 126 35 158 127 12 161 129 0 162 132 0 162 134 0 161 137 0 162 139 0 163 140 0 164 142 0 165 144 0 166 146 0 167 149 0 168 151 0 171 152 0 173 154 0 174 157 0 176 159 0 179 161 0 181 163 0 184 166 0 186 168 0 189 170 0 193 174 9 199 182 34 205 190 63 212 200 99 217 207 123 219 209 124 221 211 124 222 213 125 224 215 126 226 216 127 228 217 127 229 219 129 230 220 130 231 221 131 232 221 131 233 223 132 234 224 132 235 224 132 235 224 132 236 224 133 236 224 133 237 224 133 237 224 133 237 224 133 237 224 133 237 224 133 237 224 133 238 224 133 239 224 134 239 224 134 239 224 134 239 224 134 239 224 134 239 224 134 239 224 134 239 224 134 239 224 134 239 224 135 239 224 135 238 223 135 238 223 135 238 223 134 238 223 134 238 222 134 238 222 134 238 221 134 238 221 134 238 221 134 238 221 134 237 221 134 236 218 128 231 206 89 226 194 52 222 184 24 218 175 0 217 172 1 216 169 1 214 165 0 213 161 1 211 159 8 210 160 26 210 184 112 210 205 188 212 210 202 213 214 215 215 215 215 216 216 216 218 218 218 219 219 219 221 221 221 222 222 222 224 224 224 225 225 225 227 227 227 228 228 228 230 230 230 231 231 231 233 233 233 235 235 235 237 237 237 238 238 238 240 240 240 241 241 241 243 243 243 245 245 245 246 246 246 248 248 248 248 248 248 249 249 249 250 250 250 251 251 251 251 251 251 252 252 252 252 252 252 253 253 253 253 253 253 254 254 254 
254 254 254 254 254 254 253 253 253 253 253 253 252 252 252 251 251 251 250 250 250 249 249 249 248 248 248 247 247 247 245 245 245 244 244 244 243 243 243 241 241 241 239 239 239 237 237 237 235 235 235 233 233 233 231 231 231 229 229 229 227 227 227 226 226 226 224 224 224 222 222 222 220 220 220 219 219 219 217 217 217 215 215 215 214 214 214 212 212 212 210 210 210 208 209 209 207 207 207 205 205 203 203 203 198 205 195 161 207 186 119 209 177 66 212 168 10 213 171 1 215 175 0 216 179 0 217 184 0 218 187 0 219 190 0 223 198 23 228 206 51 232 215 84 237 224 118 238 225 125 238 226 125 238 226 125 238 227 125 238 226 125 237 226 126 237 226 126 237 226 125 238 226 126 238 226 126 238 226 126 238 225 125 238 225 125 238 225 125 238 225 125 237 225 124 237 224 124 237 224 125 238 224 125 238 223 126 237 223 126 237 223 125 237 222 125 236 222 125 236 221 125 236 221 124 236 221 124 236 220 124 235 220 124 235 220 125 235 219 125 235 219 124 234 218 124 233 217 123 232 216 123 231 215 122 231 214 121 230 213 121 229 211 120 227 210 120 225 208 119 224 207 117 222 205 117 220 203 116 218 200 115 216 198 114 211 190 93 204 180 62 198 171 35 192 162 10 189 157 0 186 155 0 183 152 0 180 151 0 177 149 0 175 147 0 173 145 0 171 143 0 169 141 0 167 140 0 166 138 0 165 136 0 163 134 0 163 132 0 162 130 0 161 129 0 161 127 0 162 125 0 162 123 1 163 122 0 161 124 18 158 129 50 153 135 86 148 142 125 146 146 145 147 147 147 147 147 148 148 148 148 148 148 148 148 148 148 148 148 148 148 147 147 147 146 147 146 146 147 146 145 143 146 143 135 147 138 107 151 129 57 155 125 24 159 127 8 162 130 0 161 132 0 161 135 0 162 137 0 162 139 0 163 141 0 164 143 0 165 145 0 166 147 0 168 150 0 170 152 0 172 153 0 174 155 0 176 158 0 178 160 0 181 162 0 184 165 0 186 167 0 189 170 0 192 172 0 196 176 9 201 184 34 207 192 62 213 201 95 218 207 116 220 209 116 222 211 117 224 213 118 225 215 119 227 216 119 229 217 120 230 218 121 231 219 122 232 220 123 233 221 123 233 221 124 234 222 124 234 222 124 235 222 124 235 222 124 235 222 124 236 222 125 237 222 125 237 222 125 237 222 125 237 222 125 237 222 125 237 222 125 237 222 125 237 222 125 237 222 125 237 221 125 237 221 125 237 221 125 237 221 125 238 221 125 238 221 125 238 221 126 238 221 126 238 221 125 237 221 125 237 220 125 237 220 125 237 220 125 237 220 125 237 219 125 237 219 125 237 219 125 237 219 125 237 218 125 236 216 119 231 206 85 227 195 52 222 185 24 218 176 0 217 173 0 216 170 0 215 166 0 214 162 0 212 159 4 210 159 17 207 178 95 205 194 166 205 200 187 205 205 206 207 207 207 208 208 208 210 210 210 211 211 211 213 213 213 215 215 215 217 217 217 218 218 218 220 220 220 222 222 222 224 224 224 225 225 225 227 227 227 229 229 229 231 231 231 233 233 233 235 235 235 237 237 237 239 239 239 241 241 241 243 243 243 244 244 244 245 245 245 247 247 247 248 248 248 249 249 249 250 250 250 251 251 251 252 252 252 253 253 253 253 253 253 253 253 253 
254 254 254 253 253 253 253 253 253 252 252 252 252 252 252 251 251 251 250 250 250 248 248 248 247 247 247 245 245 245 243 243 243 241 241 241 239 239 239 237 237 237 234 234 234 232 232 232 230 230 230 228 228 228 226 226 226 224 224 224 221 221 221 219 219 219 217 217 217 215 215 215 213 213 213 212 212 212 210 210 210 208 208 208 206 206 206 204 204 204 202 202 202 200 201 201 198 199 199 197 197 192 196 194 184 199 185 139 203 176 89 207 172 47 211 169 7 214 172 1 216 176 0 217 180 0 218 184 0 219 188 0 220 191 0 224 198 22 228 206 49 232 214 80 236 222 111 237 224 117 238 224 117 238 225 116 238 225 116 237 225 116 237 224 117 237 224 117 237 224 117 237 224 117 238 224 117 237 224 117 237 224 117 237 223 117 237 223 117 237 223 116 236 223 116 236 222 116 236 222 116 236 221 116 237 221 117 237 221 117 236 221 117 236 220 117 236 220 117 236 219 116 236 219 116 236 218 115 235 218 115 235 218 115 235 218 116 235 217 116 234 217 116 233 216 115 232 216 115 232 215 114 231 213 114 231 212 113 230 211 112 229 210 112 228 209 112 226 208 111 225 206 110 223 205 110 221 203 109 219 200 108 217 198 106 212 191 88 206 181 60 200 172 34 195 164 10 191 159 0 188 156 1 185 154 1 182 152 0 179 150 0 177 148 0 174 146 0 172 144 0 170 142 0 169 141 0 167 139 0 165 137 0 164 135 0 163 132 0 162 130 0 161 129 0 161 127 0 162 126 1 162 124 1 163 122 0 162 123 13 159 127 36 155 133 73 148 141 120 146 146 145 147 147 147 147 147 148 148 147 148 148 148 148 148 148 148 148 148 148 147 147 148 147 146 147 146 146 146 146 144 140 147 142 127 149 137 96 153 129 45 157 125 13 160 128 5 162 130 0 161 133 0 161 135 0 162 138 0 163 140 0 164 142 0 165 144 0 166 146 0 167 148 0 169 151 0 171 153 0 173 154 0 175 156 0 178 159 0 180 161 0 183 164 0 186 166 0 189 169 0 191 171 0 194 174 0 198 178 9 204 186 34 209 194 60 215 202 89 219 208 108 222 209 109 224 211 109 225 213 111 227 214 112 228 216 112 229 217 112 230 218 113 231 218 114 232 219 114 233 220 115 233 220 115 233 220 116 234 220 116 235 221 117 234 220 116 234 220 116 235 220 116 236 220 117 236 220 117 237 220 117 237 220 117 237 221 117 236 220 117 236 220 117 236 220 117 236 220 117 236 219 116 236 219 116 236 219 116 236 219 116 237 219 116 237 219 117 237 219 116 237 219 116 237 219 116 237 219 116 237 218 116 237 218 117 237 218 117 237 218 117 237 218 117 237 218 117 237 217 117 237 217 117 237 216 116 236 214 110 232 205 80 227 196 51 223 186 23 219 177 0 218 174 0 217 171 0 216 167 0 215 164 0 212 160 0 209 158 10 204 171 79 199 184 143 198 191 172 197 197 197 199 199 199 200 200 200 202 202 202 203 203 203 206 206 206 208 208 208 210 210 210 211 211 211 213 213 213 215 215 215 217 217 217 219 219 219 221 221 221 223 223 223 226 226 226 228 228 228 230 230 230 232 232 232 235 235 235 237 237 237 239 239 239 241 241 241 243 243 243 245 245 245 246 246 246 248 248 248 249 249 249 251 251 251 252 252 252 253 253 253 253 253 253 253 253 253 
253 253 253 253 253 253 252 252 252 251 251 251 250 250 250 249 249 249 248 248 248 246 246 246 244 244 244 242 242 242 240 240 240 237 237 237 235 235 235 232 232 232 230 230 230 227 227 227 224 224 224 222 222 222 220 220 220 217 217 217 214 214 214 212 212 212 210 210 210 208 208 208 206 206 206 204 204 204 202 202 202 200 200 200 198 198 198 196 196 196 194 194 194 192 192 192 190 191 191 190 188 179 190 185 165 196 178 117 203 170 64 207 169 33 212 169 5 214 173 0 216 177 0 217 181 0 218 185 0 219 188 0 220 191 0 223 197 17 227 204 39 231 212 69 235 220 101 236 222 107 237 222 107 237 223 107 237 223 106 237 223 107 236 222 107 236 222 107 236 222 107 236 222 107 236 222 107 236 222 107 236 222 107 236 222 107 236 221 107 236 221 107 236 221 106 236 220 106 236 220 106 236 219 107 236 219 107 236 219 107 235 219 107 235 219 107 235 218 107 235 218 107 235 217 106 235 217 106 235 216 106 235 216 106 235 216 107 234 215 106 234 215 106 233 214 106 233 214 105 232 213 105 231 212 104 231 211 104 230 210 104 229 209 103 228 208 103 227 207 102 226 205 102 224 204 101 222 202 101 220 200 100 218 198 98 213 191 79 207 181 50 201 172 27 196 165 7 193 161 0 190 158 0 187 156 0 184 154 0 181 152 0 179 150 0 176 147 0 174 145 0 172 143 0 170 141 0 168 139 0 166 137 0 165 135 0 163 133 0 163 131 0 162 129 0 162 128 0 162 127 0 162 125 0 162 123 0 162 123 9 161 126 27 157 132 64 150 142 119 147 147 147 148 149 148 149 149 149 150 149 149 150 149 150 150 150 150 149 149 150 149 149 150 148 148 149 147 148 148 148 146 139 150 143 120 153 138 87 156 129 38 159 126 9 161 128 3 162 131 0 162 133 0 162 136 0 162 138 0 163 140 0 164 142 0 166 144 0 167 146 0 168 149 0 170 151 0 172 154 0 174 156 0 177 158 0 179 160 0 182 163 0 185 165 0 188 168 0 191 170 0 193 173 0 196 175 0 200 179 7 205 186 27 210 193 50 216 202 81 220 208 100 223 209 100 225 211 101 226 212 102 227 214 102 228 215 103 229 217 103 230 217 104 231 217 104 232 217 105 233 218 105 233 218 106 234 218 106 234 218 106 234 219 107 234 218 106 234 218 106 235 218 107 235 218 107 235 218 107 235 218 107 235 218 107 235 218 107 235 218 107 235 218 107 235 217 107 236 217 107 236 217 107 236 217 107 236 217 107 236 217 107 236 217 107 236 217 107 236 217 106 236 217 106 236 216 106 236 216 106 236 216 107 236 216 107 236 216 107 236 216 107 236 215 107 236 215 107 236 215 107 236 215 107 236 214 107 235 212 101 231 202 69 226 193 39 223 185 18 219 178 1 218 175 0 217 172 0 216 168 0 215 164 1 213 160 0 210 158 8 202 167 68 194 176 125 191 183 159 189 189 189 190 190 190 192 192 192 194 194 194 196 196 196 198 198 198 200 200 200 201 201 201 203 203 203 205 205 205 208 208 208 210 210 210 212 212 212 215 215 215 217 217 217 220 220 220 222 222 222 225 225 225 227 227 227 230 230 230 233 233 233 235 235 235 237 237 237 240 240 240 242 242 242 244 244 244 246 246 246 248 248 248 249 249 249 251 251 251 252 252 252 252 252 252 252 252 252 
253 253 253 252 252 252 251 251 251 250 250 250 249 249 249 248 248 248 247 247 247 244 244 244 242 242 242 239 239 239 237 237 237 234 234 234 231 231 231 227 227 227 224 224 224 221 221 221 218 218 218 216 216 216 213 213 213 210 210 210 207 207 207 205 205 205 202 202 202 200 200 200 198 198 198 196 196 196 193 193 193 191 191 191 189 189 189 188 188 188 186 186 186 184 184 184 182 182 182 183 179 166 185 176 147 193 170 97 202 165 42 207 166 20 212 169 3 215 173 0 217 177 0 218 181 0 219 185 0 220 188 0 221 191 0 223 196 13 225 202 28 229 210 57 234 218 90 235 220 97 236 221 97 236 221 97 236 221 97 236 221 97 236 221 97 235 220 97 235 220 97 235 220 97 235 220 97 235 220 97 235 220 97 235 220 97 235 220 97 235 219 97 236 219 97 236 218 97 236 218 97 235 217 97 235 217 98 235 217 98 235 217 97 235 217 97 235 217 97 235 216 97 234 216 97 234 215 97 234 214 97 234 214 97 235 214 97 234 213 97 233 213 96 233 212 96 233 212 96 232 211 96 231 210 95 231 209 95 230 209 95 229 208 95 228 206 94 227 205 94 226 204 93 225 203 93 223 201 92 221 199 91 219 197 90 214 190 70 207 180 39 202 172 19 198 166 5 194 163 0 191 160 0 188 158 0 185 155 0 183 153 0 181 151 0 179 149 0 176 146 0 174 144 0 171 142 0 169 140 0 167 138 0 165 136 0 164 134 0 163 132 0 162 130 0 162 128 0 162 127 0 162 126 0 162 123 0 162 123 6 162 124 18 159 131 56 152 143 119 149 149 149 149 151 149 150 151 150 152 151 151 152 151 152 152 151 152 151 151 152 150 151 152 149 151 152 149 150 150 151 148 138 153 144 114 156 138 79 159 130 32 161 126 5 161 129 2 162 131 0 162 134 0 162 136 0 163 138 0 164 140 0 164 143 0 166 145 0 168 147 0 170 149 0 171 152 0 173 154 0 176 157 0 178 160 0 181 162 0 184 164 0 187 167 0 190 169 0 193 172 0 195 174 0 198 177 0 202 180 5 206 185 20 211 192 40 217 201 72 221 207 92 223 209 92 225 210 92 226 212 93 227 213 93 228 215 94 229 216 94 230 216 95 231 216 95 232 216 96 232 216 96 233 216 96 234 216 96 233 216 97 233 217 97 234 217 97 234 217 97 234 217 97 235 217 97 234 216 97 234 216 97 234 216 97 234 216 97 234 216 97 234 216 97 235 215 97 235 215 97 235 215 97 236 216 98 236 216 98 236 216 98 235 215 97 235 215 97 235 215 97 235 215 97 235 214 97 235 214 97 235 214 97 235 214 97 235 214 97 235 214 98 235 213 97 235 213 97 235 213 97 235 213 97 235 212 97 234 210 91 229 200 58 225 190 28 222 184 13 220 178 1 219 175 0 218 172 0 216 169 1 215 165 1 213 161 0 210 158 7 200 163 58 190 168 107 185 175 146 180 180 180 182 182 182 184 184 184 186 186 186 188 188 188 190 190 190 191 191 191 193 193 193 195 195 195 198 198 198 200 200 200 203 203 203 205 205 205 208 208 208 210 210 210 213 213 213 216 216 216 219 219 219 221 221 221 225 225 225 228 228 228 231 231 231 234 234 234 237 237 237 240 240 240 242 242 242 244 244 244 246 246 246 248 248 248 249 249 249 251 251 251 251 251 251 252 252 252 
252 252 252 251 251 251 250 250 250 249 249 249 248 248 248 246 246 246 244 244 244 241 241 241 239 239 239 236 236 236 233 233 233 229 229 229 226 226 226 222 222 222 218 218 218 215 215 215 212 212 212 209 209 209 206 206 206 203 203 203 200 200 200 197 197 197 194 194 194 192 192 192 190 190 190 187 187 187 185 185 185 183 183 183 181 181 181 179 179 179 178 178 178 176 176 176 174 174 174 176 171 157 179 169 137 190 166 88 202 163 35 208 165 16 212 169 3 215 173 0 217 177 0 218 181 0 219 185 0 220 188 0 220 191 1 222 195 8 224 198 17 228 206 46 232 215 79 233 217 86 234 218 88 234 218 88 234 218 88 234 218 88 234 218 88 234 217 88 234 217 88 234 217 88 234 217 88 234 217 88 234 217 88 234 216 88 234 216 88 234 216 88 234 216 88 234 216 88 234 215 88 234 215 88 234 215 89 234 215 89 234 214 88 234 214 88 234 214 88 234 214 88 234 213 88 233 213 88 233 212 88 233 212 88 233 211 88 233 211 88 233 211 88 233 210 87 233 210 87 232 209 87 231 208 87 231 208 87 230 207 87 229 206 86 228 205 86 227 204 86 226 203 85 225 201 85 224 200 84 221 198 83 219 196 81 214 189 60 208 178 29 203 171 12 200 167 3 197 164 0 194 162 0 191 159 0 188 157 0 185 154 0 182 152 0 180 150 0 177 147 0 175 145 0 172 143 0 170 141 0 168 139 0 166 137 0 165 135 0 164 132 0 163 130 0 163 129 0 163 127 0 163 125 0 163 123 0 163 123 6 163 124 16 160 132 55 155 145 120 153 152 152 153 154 153 154 154 154 154 154 154 155 154 154 154 154 155 154 154 155 153 154 154 153 154 154 153 153 153 153 151 140 155 146 114 157 139 78 159 130 31 161 127 5 162 129 2 162 131 0 162 133 0 163 136 0 163 138 0 164 141 0 165 143 0 166 145 0 168 147 0 170 150 0 172 152 0 175 155 0 177 157 0 180 160 0 183 163 0 186 165 0 189 168 0 192 170 0 195 173 0 197 175 0 200 178 0 203 181 3 206 185 12 211 191 29 217 200 61 222 206 82 224 208 83 225 209 84 227 211 85 228 212 86 229 213 86 229 214 86 230 214 86 231 214 87 231 214 87 232 214 88 233 214 88 233 214 88 233 214 88 233 214 88 233 214 88 233 214 88 233 214 88 233 214 88 233 214 88 233 214 88 234 214 88 234 214 88 234 214 88 233 214 88 234 213 88 234 213 88 234 213 88 234 213 88 234 213 88 234 213 89 234 212 89 234 212 88 234 212 88 234 212 88 234 211 88 234 211 88 234 211 88 233 211 88 234 211 88 234 211 89 234 210 88 234 210 88 234 210 88 234 210 88 234 209 86 232 206 79 227 196 46 223 187 17 221 182 8 219 178 0 219 175 0 218 172 0 216 169 0 215 165 0 213 161 0 210 157 7 198 160 54 187 163 100 179 168 139 172 173 173 174 175 175 176 176 176 178 178 178 180 180 180 181 181 181 183 183 183 185 185 185 187 187 187 190 190 190 192 192 192 195 195 195 197 197 197 200 200 200 203 203 203 206 206 206 209 209 209 212 212 212 215 215 215 219 219 219 222 222 222 226 226 226 230 230 230 233 233 233 236 236 236 239 239 239 241 241 241 244 244 244 246 246 246 248 248 248 249 249 249 251 251 251 252 252 252 
252 252 252 251 251 251 250 250 250 248 248 248 247 247 247 244 244 244 242 242 242 239 239 239 236 236 236 232 232 232 229 229 229 225 225 225 221 221 221 217 217 217 213 213 213 209 209 209 205 205 205 202 202 202 198 198 198 195 195 195 192 192 192 189 189 189 186 186 186 184 184 184 181 181 181 179 179 179 177 177 177 175 175 175 173 173 173 171 171 171 169 169 169 168 167 168 166 166 166 169 164 148 173 162 127 187 161 80 202 161 29 208 164 13 212 168 3 215 172 1 217 176 0 218 180 0 220 184 0 220 187 0 220 190 1 221 193 4 223 195 8 226 203 35 230 212 66 232 214 75 233 215 79 233 215 79 233 215 79 233 215 79 233 215 79 233 215 79 233 215 79 233 215 79 233 215 79 233 214 79 233 214 80 233 213 80 233 213 79 233 213 79 233 214 80 233 213 80 233 213 79 233 213 79 233 213 80 233 212 80 233 212 79 233 212 79 233 212 79 233 211 79 233 211 79 232 210 79 232 210 80 232 209 80 232 209 79 232 209 79 233 209 79 232 208 79 232 208 79 231 207 79 231 206 79 230 206 79 230 206 78 229 205 78 228 203 78 227 202 78 226 201 77 225 200 77 224 199 76 222 197 74 219 194 70 214 187 49 208 177 19 204 171 5 201 167 1 199 165 0 196 163 1 193 161 1 190 158 0 186 156 0 183 153 0 181 151 0 178 148 0 176 146 0 173 144 0 171 142 0 169 140 0 167 138 0 166 135 0 165 133 0 164 131 0 163 129 0 163 127 0 163 125 0 163 123 1 163 123 6 164 124 14 162 132 54 157 147 122 156 155 155 157 157 157 157 157 157 157 157 157 157 157 157 157 157 157 157 157 157 157 157 157 156 156 156 156 156 156 156 153 143 158 147 114 159 140 76 160 131 30 161 127 4 162 129 1 162 131 0 163 133 0 163 135 0 164 138 0 164 141 0 166 143 0 167 145 0 169 148 0 171 150 0 174 153 0 176 155 0 179 158 0 181 160 0 184 163 0 187 166 0 190 169 0 193 171 0 196 174 0 199 176 0 202 178 0 204 181 1 207 184 5 211 189 18 217 198 50 222 204 71 224 206 74 225 208 76 227 209 77 228 210 78 229 211 78 229 212 78 230 212 78 230 212 78 231 212 79 232 212 79 232 212 80 232 212 80 232 212 79 232 212 79 232 212 79 232 212 79 232 212 79 232 212 79 232 212 79 232 212 79 233 212 80 234 212 80 233 212 79 233 212 79 233 211 79 233 211 79 232 211 78 232 211 78 232 210 79 232 210 80 232 210 80 233 210 80 233 209 79 233 209 79 233 209 79 233 209 79 232 208 78 232 208 78 233 208 79 234 208 80 233 208 79 233 208 79 233 208 79 233 207 78 232 206 74 231 202 66 225 193 34 221 184 8 220 181 4 219 177 0 218 175 0 218 172 0 216 168 0 215 164 0 213 160 0 210 157 6 196 157 50 183 158 93 173 162 131 164 165 165 166 167 167 168 168 168 170 170 170 171 171 171 173 173 173 175 175 175 177 177 177 179 179 179 182 182 182 184 184 184 187 187 187 189 189 189 192 192 192 195 195 195 199 199 199 202 202 202 206 206 206 209 209 209 213 213 213 217 217 217 221 221 221 226 226 226 229 229 229 233 233 233 236 236 236 239 239 239 242 242 242 245 245 245 246 246 246 248 248 248 250 250 250 252 252 252 
251 251 251 250 250 250 249 249 249 247 247 247 245 245 245 243 243 243 240 240 240 236 236 236 233 233 233 229 229 229 225 225 225 220 220 220 216 216 216 211 211 211 207 207 207 203 203 203 199 199 199 195 195 195 191 191 191 188 188 188 185 185 185 182 182 182 179 179 179 176 176 176 174 174 174 172 172 172 170 170 170 168 168 168 166 166 166 164 164 164 162 162 162 161 161 161 160 159 159 164 158 142 168 157 123 183 158 78 200 159 29 207 163 13 212 167 2 214 171 0 216 175 0 217 179 0 219 183 0 219 186 0 220 188 1 221 191 2 222 193 4 224 199 23 228 205 46 229 208 58 231 211 68 231 211 70 232 211 70 232 211 70 231 212 69 231 211 70 231 211 70 231 211 71 231 211 71 231 211 70 231 211 70 231 210 70 231 210 70 232 210 70 232 211 71 232 210 71 231 210 70 231 210 70 231 210 70 231 209 70 231 209 70 231 209 70 231 209 70 231 208 70 231 208 70 231 207 70 231 207 70 231 207 70 231 206 70 231 206 70 231 206 70 231 205 70 230 205 70 230 204 70 229 203 70 229 203 70 228 203 70 228 202 69 227 201 69 226 200 69 226 199 69 225 198 68 223 197 67 221 194 61 218 190 51 214 183 34 209 175 12 205 170 3 203 168 1 200 166 1 197 163 0 194 161 0 191 159 0 188 156 0 185 154 0 182 151 0 179 149 0 177 146 0 174 144 0 172 142 0 170 140 0 168 138 0 167 136 0 165 133 0 164 131 0 163 128 0 163 127 0 163 125 0 163 123 1 164 123 6 165 124 16 163 134 57 160 150 125 159 158 158 160 160 159 160 161 160 161 161 161 161 161 161 161 161 161 161 161 161 160 161 160 160 160 160 159 160 160 159 156 146 160 149 117 161 141 79 161 131 31 162 126 4 162 129 1 163 131 0 163 133 0 163 135 0 164 138 0 165 140 0 167 143 0 168 145 0 170 148 0 172 150 0 175 153 0 177 156 0 180 158 0 183 161 0 186 163 0 189 166 0 191 169 0 194 172 0 198 174 0 201 176 0 203 179 0 206 181 1 208 183 3 211 187 12 216 195 34 220 200 52 222 203 62 225 206 68 226 207 69 228 208 69 228 209 69 228 209 69 229 209 69 229 209 69 230 209 69 230 209 70 230 210 70 230 210 70 231 209 70 231 209 70 231 210 70 231 210 70 231 209 70 231 209 70 231 209 70 231 209 70 231 209 70 232 209 70 231 209 70 231 209 70 232 208 70 232 208 70 232 208 70 231 208 70 231 207 70 231 207 70 231 207 70 231 207 70 231 206 70 231 206 70 231 206 70 231 206 70 231 205 70 231 205 70 231 205 70 232 205 70 231 205 70 231 205 70 231 204 70 231 203 68 229 200 58 227 196 45 224 188 23 221 182 4 220 179 2 219 176 1 218 174 0 217 171 0 216 167 0 215 164 0 213 160 0 209 156 6 194 155 48 180 154 90 168 156 127 158 158 159 160 160 160 161 161 161 163 163 163 164 164 164 166 166 166 168 168 168 170 170 170 172 172 172 174 174 174 177 177 177 179 179 179 182 182 182 185 185 185 188 188 188 192 192 192 195 195 195 199 199 199 203 203 203 207 207 207 212 212 212 216 216 216 221 221 221 225 225 225 229 229 229 233 233 233 236 236 236 240 240 240 243 243 243 245 245 245 247 247 247 249 249 249 251 251 251 
251 251 251 250 250 250 249 249 249 246 246 246 244 244 244 241 241 241 238 238 238 234 234 234 230 230 230 225 225 225 221 221 221 216 216 216 211 211 211 206 206 206 202 202 202 197 197 197 193 193 193 189 189 189 185 185 185 181 181 181 178 178 178 175 175 175 172 172 172 169 169 169 167 167 167 165 165 165 163 163 163 161 161 161 159 159 159 157 157 157 156 156 156 155 155 154 154 154 153 158 153 137 163 153 120 179 154 77 198 156 31 206 161 14 212 166 2 214 170 0 215 174 0 216 178 0 218 182 0 219 184 0 220 186 1 220 189 1 221 191 0 223 195 12 225 199 26 227 203 41 228 208 56 230 208 60 231 208 61 230 208 61 230 208 60 230 208 61 230 208 62 230 208 62 230 208 62 230 208 62 230 208 61 230 208 61 230 208 61 230 208 61 231 208 62 230 207 62 230 207 61 230 207 61 230 207 61 230 206 61 230 206 61 230 206 61 230 206 61 230 205 61 230 205 62 230 204 62 230 204 61 230 204 61 230 204 61 230 203 61 230 203 62 229 202 62 229 202 61 229 201 61 228 201 61 228 200 61 227 200 61 227 199 61 226 199 60 226 198 60 225 197 60 224 196 59 222 195 58 220 191 48 217 185 33 213 179 19 210 173 5 207 170 0 204 169 1 201 166 1 198 164 0 196 161 0 193 159 0 190 157 0 187 154 0 183 152 0 180 149 0 178 147 0 175 145 0 173 143 0 171 140 0 169 138 0 168 136 1 166 133 1 165 130 0 164 128 0 163 127 0 163 125 0 163 123 1 164 123 7 165 125 18 164 135 59 161 151 127 161 160 160 162 162 161 163 163 162 163 164 164 163 164 164 163 164 164 163 164 163 163 164 163 162 163 162 162 162 162 161 158 148 162 150 120 162 141 82 162 131 32 162 126 4 163 129 1 163 131 0 163 133 0 163 135 0 164 138 0 165 140 0 168 142 0 170 145 0 171 147 0 173 150 0 176 153 0 178 156 0 181 158 0 184 161 0 187 163 1 190 166 1 193 169 0 195 172 0 199 174 0 202 177 0 205 179 0 207 181 0 209 183 1 212 186 6 215 191 20 218 196 34 221 200 49 224 203 59 226 205 60 227 206 60 227 206 60 227 207 60 228 207 60 228 207 60 229 207 60 229 207 60 229 207 61 229 207 61 230 207 61 230 207 61 230 207 62 231 207 62 230 207 61 230 206 61 230 206 61 230 206 60 230 206 61 230 206 61 230 206 61 230 205 61 230 205 62 231 205 62 231 205 62 231 204 62 230 204 61 230 204 61 230 204 61 230 203 61 230 203 61 230 203 61 230 203 61 230 203 61 230 203 61 230 202 61 230 202 61 230 202 61 229 202 61 229 201 61 229 201 60 229 199 56 227 194 41 224 189 26 222 184 12 221 179 0 220 177 1 219 175 1 218 172 0 217 169 0 216 166 0 215 163 0 213 159 0 209 155 6 192 152 47 176 151 87 163 151 122 152 152 153 153 153 154 155 155 155 156 156 156 158 158 158 159 159 159 161 161 161 163 163 163 165 165 165 167 167 167 170 170 170 172 172 172 175 175 175 178 178 178 181 181 181 185 185 185 189 189 189 193 193 193 197 197 197 202 202 202 207 207 207 211 211 211 216 216 216 221 221 221 226 226 226 230 230 230 234 234 234 237 237 237 241 241 241 243 243 243 246 246 246 248 248 248 250 250 250 
251 251 251 249 249 249 248 248 248 245 245 245 243 243 243 239 239 239 236 236 236 232 232 232 227 227 227 222 222 222 217 217 217 212 212 212 207 207 207 202 202 202 197 197 197 192 192 192 187 187 187 183 183 183 179 179 179 175 175 175 172 172 172 169 169 169 166 166 166 163 163 163 161 161 161 159 159 159 157 157 157 155 155 155 153 153 153 152 152 152 151 151 151 149 150 149 148 149 148 151 148 136 155 148 123 172 150 83 191 154 40 202 159 19 211 163 2 214 168 0 215 173 0 216 176 0 217 180 0 218 182 0 219 184 0 220 186 0 220 188 1 221 191 6 222 193 13 224 198 26 226 202 41 228 204 47 229 205 52 229 205 52 229 205 52 229 204 53 229 204 53 229 204 54 229 204 54 229 204 53 228 204 53 228 204 53 228 204 53 229 204 53 229 204 53 229 203 53 228 203 53 228 202 53 228 202 53 228 202 53 228 202 53 228 202 53 228 202 53 228 201 53 228 201 54 228 201 53 228 200 53 229 200 53 229 200 53 229 199 53 228 199 53 228 199 53 228 198 53 227 198 53 227 197 53 227 196 53 227 196 53 226 196 52 225 195 52 225 194 52 225 194 52 223 192 49 222 190 45 219 186 34 216 180 19 213 176 9 210 172 3 207 170 0 205 168 0 202 166 0 199 164 0 196 161 0 194 159 0 191 157 0 187 154 0 184 152 0 181 149 0 178 147 0 176 145 0 173 143 0 171 140 0 170 138 0 168 135 0 166 132 0 165 130 0 164 128 0 164 126 0 164 124 0 164 122 0 163 123 8 163 125 22 160 132 61 155 145 123 153 153 153 155 156 156 157 157 157 158 158 158 158 159 158 158 159 158 158 159 157 158 158 157 157 157 157 155 155 155 154 151 143 154 145 119 155 137 83 159 128 34 161 125 6 163 127 2 164 130 0 164 132 0 164 134 0 165 137 0 166 139 0 168 141 0 170 144 0 172 147 0 174 150 0 176 153 0 179 155 0 182 158 0 185 160 1 188 163 0 191 166 0 193 169 0 196 171 0 200 174 0 203 176 0 205 179 0 207 181 0 210 182 1 212 185 3 214 188 10 217 191 19 220 195 34 223 199 45 224 201 49 225 203 52 226 203 53 226 203 53 227 203 53 227 203 53 228 203 53 228 203 53 228 203 53 228 204 54 228 203 53 228 203 53 229 203 53 229 203 54 228 203 53 228 202 53 228 202 53 228 202 53 228 202 53 228 202 53 228 202 53 228 201 53 229 201 53 229 201 54 229 201 54 229 200 54 229 200 53 228 200 53 229 200 53 229 200 53 229 199 53 228 199 53 228 199 53 228 199 53 228 199 53 228 198 53 228 198 53 228 198 53 228 197 53 228 197 52 227 195 48 226 193 41 224 188 26 222 184 13 221 181 6 219 178 1 219 176 0 219 173 0 217 171 1 216 168 1 215 165 0 214 162 0 212 158 0 208 153 6 188 150 49 169 147 90 157 147 121 147 147 147 148 148 148 149 149 149 151 151 151 152 152 152 154 154 154 155 155 155 157 157 157 159 159 159 161 161 161 164 164 164 166 166 166 169 169 169 172 172 172 175 175 175 179 179 179 183 183 183 187 187 187 192 192 192 197 197 197 202 202 202 207 207 207 212 212 212 218 218 218 223 223 223 227 227 227 232 232 232 236 236 236 239 239 239 242 242 242 245 245 245 247 247 247 249 249 249 
251 251 251 249 249 249 247 247 247 244 244 244 242 242 242 238 238 238 234 234 234 229 229 229 225 225 225 220 220 220 214 214 214 209 209 209 203 203 203 198 198 198 192 192 192 187 187 187 182 182 182 177 177 177 173 173 173 169 169 169 166 166 166 163 163 163 160 160 160 157 157 157 155 155 155 153 153 153 151 151 151 149 149 149 148 148 148 147 147 147 146 146 146 144 145 145 143 144 144 145 143 135 148 143 126 165 146 90 184 151 50 197 156 25 210 161 3 213 166 0 215 171 0 216 174 0 217 177 0 217 180 0 218 182 0 219 184 0 220 185 1 220 187 1 220 188 2 222 192 13 224 196 26 226 199 35 227 201 42 227 201 44 228 201 44 228 201 45 228 201 45 228 201 45 228 201 45 227 200 45 227 200 44 227 200 44 227 200 44 227 200 44 227 200 44 227 199 44 227 199 44 227 198 45 227 198 45 227 198 45 227 198 45 227 198 45 227 197 45 227 197 45 227 197 45 227 197 45 227 197 45 227 196 45 228 196 45 227 196 45 227 195 44 227 195 44 226 195 44 226 194 44 226 193 44 226 193 44 226 193 44 225 192 44 224 191 44 224 191 44 224 190 44 222 188 39 220 185 31 218 181 20 214 176 6 212 173 1 210 171 0 208 169 0 206 167 0 203 166 0 200 164 0 197 161 0 194 159 0 191 156 0 188 154 0 185 151 0 182 149 0 179 147 0 176 145 0 174 142 0 172 140 0 170 137 0 168 134 0 166 132 0 165 129 0 164 127 0 164 126 0 164 124 0 164 122 0 163 122 9 160 124 26 155 129 63 147 138 117 145 144 145 147 148 149 150 150 151 151 150 151 151 151 150 151 151 150 151 151 150 151 151 150 149 149 149 146 146 146 145 143 136 144 138 117 147 132 84 154 125 37 160 123 8 162 126 3 164 129 0 164 131 0 164 134 0 165 136 0 167 138 0 168 140 0 170 143 0 172 146 0 174 149 0 177 152 0 179 155 0 182 157 1 185 160 1 188 162 0 191 165 0 194 168 0 197 171 0 201 173 0 204 176 0 206 178 0 208 180 0 210 182 1 212 183 1 214 184 1 216 186 6 220 191 20 222 194 31 223 197 39 224 199 44 225 200 45 225 200 45 226 200 45 226 200 45 226 200 45 227 200 45 227 200 46 228 200 46 227 200 46 227 200 45 227 200 45 227 199 45 227 199 45 227 198 45 227 198 45 227 198 45 227 198 45 227 198 44 227 198 44 227 197 44 227 197 45 227 197 45 227 197 45 227 196 45 227 196 45 227 196 45 227 196 45 228 196 45 227 196 45 227 195 44 227 195 44 227 195 44 227 195 45 227 194 45 227 194 45 227 193 45 227 193 45 226 192 43 225 190 35 223 187 26 221 183 13 220 179 2 219 178 1 218 176 1 218 174 0 218 171 0 217 169 1 215 166 1 214 163 0 213 160 0 212 156 0 207 152 7 184 148 52 162 144 95 151 143 120 142 142 142 143 143 143 144 144 144 145 145 145 147 147 147 148 148 148 150 150 150 151 151 151 153 153 153 155 155 155 158 158 158 160 160 160 163 163 163 166 166 166 170 170 170 173 173 173 177 177 177 182 182 182 187 187 187 192 192 192 198 198 198 203 203 203 209 209 209 214 214 214 220 220 220 225 225 225 230 230 230 234 234 234 238 238 238 241 241 241 245 245 245 247 247 247 249 249 249 
250 250 250 248 248 248 246 246 246 244 244 244 241 241 241 237 237 237 233 233 233 228 228 228 224 224 224 218 218 218 212 212 212 206 206 206 201 201 201 195 195 195 189 189 189 184 184 184 178 178 178 174 174 174 169 169 169 166 166 166 162 162 162 159 159 159 156 156 156 154 154 154 152 152 152 150 150 150 148 148 148 146 146 146 145 145 145 144 144 144 143 143 143 142 142 142 140 141 141 141 140 136 142 139 131 155 142 103 170 146 71 189 152 38 208 159 5 212 163 0 214 168 0 215 171 0 216 174 0 217 176 0 217 179 0 218 180 0 219 182 0 219 183 1 219 185 1 221 187 6 222 189 13 223 192 21 224 194 29 225 195 33 226 196 37 226 196 37 225 196 37 225 196 37 226 196 37 226 196 37 225 196 37 225 195 37 225 195 37 225 195 37 225 195 37 225 195 37 225 195 37 225 194 37 225 194 37 225 193 37 225 193 37 225 193 37 225 193 38 225 193 38 225 193 38 225 192 38 225 192 38 226 191 38 226 191 37 226 191 37 225 191 37 225 190 37 225 190 36 224 190 37 224 189 37 224 188 37 224 188 37 224 187 37 223 187 37 222 186 35 222 185 32 220 182 25 218 179 17 216 176 10 214 173 3 212 171 0 210 169 0 208 168 0 206 166 0 204 164 0 201 162 0 198 160 0 196 158 0 193 155 0 189 153 0 186 150 0 183 148 0 180 146 0 177 143 0 175 141 0 173 138 0 171 136 0 169 133 0 167 131 0 166 128 0 165 126 0 164 125 0 164 123 0 164 121 0 160 120 12 150 119 36 140 120 67 129 122 106 125 124 125 126 127 127 128 128 128 128 128 128 129 129 128 129 129 128 129 129 128 128 128 128 127 127 127 125 125 125 125 124 119 125 122 110 131 120 85 144 119 43 154 120 16 161 124 6 165 127 0 165 130 0 165 132 0 166 135 0 167 137 0 169 139 0 171 142 0 173 145 0 175 148 0 178 151 0 180 154 0 183 156 0 186 159 0 190 161 0 193 164 0 195 167 0 198 169 0 202 172 0 204 174 0 206 176 0 208 178 0 210 180 0 212 181 1 213 182 1 215 184 3 217 186 10 219 189 17 221 192 25 222 194 31 223 195 35 224 196 37 224 196 37 224 196 37 225 196 37 225 196 37 226 196 38 226 196 38 226 196 37 225 196 37 225 195 37 225 195 37 225 195 37 225 195 37 225 194 37 225 194 38 225 194 37 225 194 37 225 193 37 225 193 37 225 193 37 225 193 37 225 192 38 225 192 38 225 191 37 225 191 37 225 191 37 225 191 37 225 191 37 225 191 37 225 191 37 225 190 37 225 190 37 225 189 37 225 189 37 225 189 37 224 187 33 223 186 29 222 184 21 221 181 13 220 179 6 219 176 1 218 175 1 217 173 1 217 171 0 217 169 0 215 166 0 214 164 0 213 161 0 212 158 0 210 155 2 204 151 10 177 146 61 153 141 107 146 140 124 139 139 139 140 140 140 141 141 141 143 143 143 144 144 144 145 145 145 146 146 146 148 148 148 150 150 150 152 152 152 154 154 154 157 157 157 159 159 159 163 163 163 166 166 166 170 170 170 173 173 173 178 178 178 183 183 183 189 189 189 195 195 195 201 201 201 206 206 206 212 212 212 218 218 218 223 223 223 228 228 228 233 233 233 237 237 237 241 241 241 244 244 244 247 247 247 249 249 249 
250 250 250 248 248 248 246 246 246 244 244 244 241 241 241 237 237 237 232 232 232 227 227 227 222 222 222 216 216 216 210 210 210 204 204 204 198 198 198 192 192 192 186 186 186 181 181 181 175 175 175 171 171 171 166 166 166 163 163 163 159 159 159 156 156 156 153 153 153 151 151 151 149 149 149 147 147 147 145 145 145 144 144 144 142 142 142 141 141 141 140 140 140 139 139 139 138 138 138 137 137 137 136 136 136 146 138 116 157 141 92 180 148 52 205 156 9 211 161 2 213 164 0 214 167 0 215 170 0 216 173 0 217 175 0 217 177 0 218 178 0 218 180 0 219 181 0 219 182 0 220 182 1 221 185 7 222 187 16 222 189 22 223 191 28 223 191 30 223 191 29 223 191 29 224 191 29 224 191 29 224 191 29 224 191 29 224 191 29 224 191 30 224 190 30 224 190 30 224 190 30 223 190 30 223 190 30 223 189 29 223 189 29 223 188 30 224 188 30 223 188 30 223 188 30 223 187 30 224 187 30 224 187 30 224 186 30 224 186 29 224 186 29 223 186 29 223 186 29 223 185 29 223 185 30 222 184 30 222 183 29 222 183 29 222 182 29 221 181 25 219 179 20 218 177 13 216 174 4 214 172 1 213 170 0 212 169 0 210 168 0 209 167 0 207 165 0 204 163 0 202 161 0 199 159 0 197 157 0 194 154 0 190 152 0 187 149 0 184 147 0 181 144 0 178 142 0 176 139 0 173 137 0 171 134 0 170 132 0 168 130 0 167 128 0 166 126 0 165 124 0 164 122 0 165 121 1 157 118 17 141 115 47 127 112 73 113 109 97 107 107 108 108 108 109 109 109 109 109 109 109 109 109 109 110 110 110 110 109 110 109 108 109 108 108 108 107 107 107 108 107 106 109 108 105 118 110 87 134 113 52 148 118 26 159 122 9 165 126 1 165 129 1 166 131 1 167 133 0 168 136 0 169 138 0 171 141 0 174 144 0 176 147 0 179 149 0 181 152 0 184 155 0 187 158 0 191 160 0 194 163 0 196 165 0 199 168 0 202 170 0 205 172 0 207 174 0 209 176 0 210 178 0 212 179 0 213 180 1 214 181 1 215 182 2 217 184 5 219 186 12 220 189 19 221 190 24 222 191 28 222 191 29 223 191 29 223 191 29 223 191 29 224 191 29 225 191 29 224 191 29 224 191 29 224 191 29 224 190 29 223 190 29 223 190 29 223 190 30 224 190 30 224 190 30 224 189 29 224 189 29 224 189 29 224 189 29 224 188 30 223 188 30 223 187 30 223 187 30 223 187 29 223 187 29 223 186 29 223 186 29 224 186 29 224 186 29 224 185 29 223 185 29 223 185 28 223 184 29 223 184 28 222 182 22 221 180 16 220 178 8 219 175 2 218 174 1 218 173 0 217 172 1 217 170 1 216 168 0 215 166 0 214 164 0 214 161 0 213 158 0 211 155 1 208 153 5 200 150 16 170 143 70 144 138 118 140 137 128 137 137 137 138 138 138 139 139 139 140 140 140 141 141 141 142 142 142 143 143 143 145 145 145 147 147 147 149 149 149 151 151 151 154 154 154 156 156 156 160 160 160 163 163 163 167 167 167 170 170 170 175 175 175 180 180 180 186 186 186 192 192 192 198 198 198 204 204 204 210 210 210 216 216 216 222 222 222 227 227 227 232 232 232 236 236 236 240 240 240 244 244 244 246 246 246 249 249 249 
250 250 250 248 248 248 246 246 246 243 243 243 240 240 240 236 236 236 232 232 232 227 227 227 222 222 222 216 216 216 210 210 210 204 204 204 198 198 198 192 192 192 186 186 186 180 180 180 175 175 175 170 170 170 165 165 165 162 162 162 158 158 158 155 155 155 153 153 153 150 150 150 148 148 148 146 146 146 145 145 145 143 143 143 142 142 142 141 141 141 140 140 140 139 139 139 138 138 138 137 137 137 136 136 136 141 137 124 146 138 112 169 145 72 195 152 27 204 157 12 211 161 2 213 164 0 214 166 1 214 169 0 215 171 0 215 173 0 216 174 0 217 176 0 217 177 0 218 177 0 218 178 0 218 179 4 219 181 7 219 182 12 220 184 16 220 184 19 221 185 21 221 185 22 222 185 23 222 186 23 221 186 24 221 186 24 221 186 23 221 185 23 221 185 24 221 185 24 221 185 24 221 185 24 221 184 24 221 184 23 221 184 23 221 183 24 221 183 24 221 183 24 221 183 24 221 182 24 221 182 24 221 181 24 221 181 24 221 181 23 221 181 23 221 181 23 220 181 23 220 180 23 220 180 24 220 179 23 220 179 22 219 178 20 219 176 18 218 175 15 217 174 10 216 172 6 214 170 2 213 169 0 212 168 0 211 167 0 209 166 0 208 164 0 206 162 0 204 161 0 201 159 0 199 157 0 197 155 0 194 153 0 191 150 0 188 148 0 185 145 0 182 143 0 179 140 0 176 138 0 174 135 0 172 133 0 170 131 0 169 129 0 168 126 0 167 124 0 166 123 0 165 122 4 163 122 9 155 121 33 140 120 72 129 119 98 121 118 111 117 118 117 118 118 118 119 118 119 118 118 119 118 118 119 119 119 119 119 119 119 118 118 118 118 118 118 118 118 117 118 118 117 118 118 116 123 118 104 132 119 80 143 121 52 156 123 21 164 125 4 165 127 2 166 129 1 167 132 0 168 134 0 170 136 0 172 139 0 174 142 0 177 145 0 179 147 0 182 150 0 185 153 0 188 156 0 191 158 0 194 160 0 196 163 0 199 165 0 202 167 0 204 169 0 207 171 0 209 173 0 210 174 0 211 176 0 213 177 0 214 178 1 214 179 1 215 180 2 217 181 6 218 182 10 219 183 14 220 185 18 220 185 20 221 186 22 220 186 23 221 186 23 221 186 23 222 186 23 222 186 24 222 185 24 222 185 24 222 185 23 222 185 23 221 185 23 221 185 24 221 185 24 221 184 24 221 184 23 221 184 23 221 184 23 222 184 23 222 183 24 221 183 24 221 182 24 221 182 24 221 181 23 220 181 23 220 181 23 221 181 23 221 181 23 221 181 23 221 181 23 221 180 22 220 179 20 220 179 18 220 178 16 219 176 12 218 174 8 218 173 4 217 172 1 217 171 0 217 169 0 216 168 1 216 167 1 215 165 0 214 163 0 213 161 0 212 158 0 212 156 0 210 153 3 198 150 22 185 146 44 160 141 87 139 136 126 138 136 131 137 137 136 138 138 137 139 139 139 140 140 140 141 141 141 142 142 142 143 143 143 144 144 144 146 146 146 148 148 148 150 150 150 153 153 153 155 155 155 159 159 159 162 162 162 166 166 166 170 170 170 175 175 175 180 180 180 185 185 185 191 191 191 197 197 197 204 204 204 210 210 210 216 216 216 221 221 221 227 227 227 231 231 231 236 236 236 240 240 240 243 243 243 246 246 246 249 249 249 
250 250 250 248 248 248 246 246 246 243 243 243 240 240 240 236 236 236 231 231 231 226 226 226 221 221 221 215 215 215 209 209 209 203 203 203 197 197 197 191 191 191 186 186 186 180 180 180 175 175 175 170 170 170 165 165 165 161 161 161 157 157 157 155 155 155 152 152 152 150 150 150 147 147 147 146 146 146 144 144 144 143 143 143 141 141 141 140 140 140 139 139 139 138 138 138 137 137 137 137 136 136 136 135 135 136 135 133 136 135 130 158 141 91 183 148 46 197 153 24 208 158 5 211 160 2 212 162 1 213 165 1 213 167 0 214 169 0 215 170 0 215 171 0 216 172 0 216 173 0 216 174 0 216 174 0 216 175 0 216 175 2 217 176 5 218 177 9 218 178 13 219 179 15 220 179 16 219 180 17 219 180 18 218 180 18 218 180 17 218 180 17 219 180 17 219 179 18 219 179 17 219 179 17 219 179 17 219 178 17 219 178 17 218 178 17 218 178 17 218 177 18 219 177 18 219 177 18 219 177 18 218 176 18 218 176 18 218 176 18 219 176 17 218 176 17 218 176 17 218 175 17 218 175 17 218 174 16 218 174 15 217 173 12 216 170 8 215 169 5 214 168 1 214 167 0 213 166 0 212 165 0 211 165 0 210 164 0 209 163 0 207 162 0 206 160 0 203 159 0 201 157 0 199 155 0 197 153 1 194 151 1 191 148 0 188 146 0 185 144 0 182 141 0 179 139 0 177 136 0 175 134 0 173 132 0 171 130 0 169 127 0 168 125 0 168 123 1 167 122 2 165 122 9 161 123 20 152 124 50 138 125 97 130 126 120 127 127 123 127 127 126 127 126 127 128 126 128 127 126 128 127 126 128 127 127 127 127 127 127 127 127 127 127 127 127 127 127 127 127 127 127 127 127 127 128 126 120 130 124 106 138 123 78 153 124 35 163 125 9 165 126 5 167 128 2 168 130 1 169 132 0 170 134 0 172 137 0 175 140 0 177 143 0 180 145 0 182 147 0 185 151 0 188 154 0 191 156 0 194 158 0 196 160 0 199 162 0 201 164 0 204 166 0 206 168 0 208 170 0 210 171 0 211 172 0 212 173 0 213 174 0 214 175 0 214 175 0 215 175 0 215 175 1 216 177 4 217 178 8 218 179 11 219 180 14 218 180 16 218 180 17 218 180 17 219 180 17 219 180 18 220 179 18 220 179 18 220 179 17 220 179 17 219 179 17 219 179 17 218 179 17 218 179 17 219 178 17 219 178 17 219 178 17 219 178 17 220 178 18 219 178 18 219 177 18 219 177 18 219 176 17 218 176 17 218 175 17 218 175 17 218 176 17 218 176 17 219 176 17 218 175 15 218 174 13 217 173 9 217 171 5 216 170 3 216 169 1 216 169 0 216 168 0 216 167 0 216 165 0 215 164 1 215 163 1 214 161 0 214 159 0 212 157 0 211 155 1 210 153 3 206 151 9 188 147 40 169 142 72 150 138 105 134 135 133 135 136 134 136 136 135 137 137 137 138 138 138 139 139 139 140 140 140 141 141 141 142 142 142 144 144 144 145 145 145 147 147 147 149 149 149 152 152 152 154 154 154 158 158 158 161 161 161 165 165 165 169 169 169 174 174 174 179 179 179 185 185 185 190 190 190 197 197 197 203 203 203 209 209 209 215 215 215 221 221 221 226 226 226 231 231 231 236 236 236 240 240 240 243 243 243 246 246 246 249 249 249 
250 250 250 248 248 248 247 247 247 244 244 244 241 241 241 236 236 236 232 232 232 227 227 227 222 222 222 217 217 217 211 211 211 205 205 205 199 199 199 193 193 193 187 187 187 182 182 182 177 177 177 172 172 172 167 167 167 163 163 163 160 160 160 157 157 157 154 154 154 152 152 152 149 149 149 148 148 148 146 146 146 145 145 145 143 143 143 142 142 142 141 141 141 139 140 140 138 139 139 138 138 138 138 137 137 137 136 135 137 136 134 148 139 112 162 142 87 177 147 60 193 152 32 201 156 18 209 159 6 211 161 2 212 163 0 213 164 0 213 166 0 214 167 0 214 168 0 214 169 0 214 169 0 215 170 0 215 170 0 215 170 1 215 171 3 215 171 4 215 172 6 216 172 8 216 173 9 216 173 10 216 173 11 216 173 11 216 173 11 216 173 11 216 173 12 216 173 12 216 172 12 216 172 12 216 172 12 216 172 12 216 172 12 216 171 12 215 171 12 216 170 12 217 170 12 217 170 12 217 170 12 217 170 12 216 170 12 216 170 12 216 170 12 216 170 11 216 169 11 216 168 10 216 168 10 216 167 9 215 167 7 215 166 6 215 164 4 214 164 2 213 164 1 212 163 0 212 162 0 211 161 0 211 161 0 210 160 0 208 159 0 207 158 0 205 157 0 203 155 0 200 153 0 198 152 0 196 150 0 194 148 0 191 145 0 188 143 0 185 141 0 182 139 0 180 137 0 177 135 0 175 132 0 173 130 0 171 128 0 170 126 1 169 124 2 167 123 7 164 123 16 158 124 34 150 125 58 142 126 83 133 127 110 128 127 123 127 127 125 127 127 126 127 127 127 127 127 127 127 127 127 127 127 127 127 127 127 127 127 127 127 127 127 127 127 127 127 127 127 127 127 127 127 127 127 127 127 124 128 126 117 133 125 99 142 125 69 151 125 44 159 126 24 165 127 11 167 128 4 170 130 0 172 133 0 173 135 0 175 138 0 178 140 0 180 143 0 183 145 0 185 148 0 188 151 0 191 153 0 194 155 0 196 157 0 199 159 0 201 160 0 203 162 0 205 164 0 207 166 0 208 167 0 210 168 0 211 169 0 212 170 0 212 171 0 213 171 0 213 170 0 214 170 1 214 171 2 215 172 4 215 173 6 216 173 8 215 173 9 215 174 10 216 174 10 216 174 11 217 174 11 217 174 12 217 174 12 217 174 12 217 174 12 217 173 12 216 173 12 216 173 12 216 172 12 216 172 12 216 172 12 216 172 12 216 172 12 216 172 11 216 171 11 216 171 11 217 170 11 217 170 11 217 170 11 216 170 11 216 170 11 216 169 10 216 169 10 216 169 10 215 168 8 215 167 6 215 167 4 214 166 3 214 165 1 214 164 0 214 164 0 214 164 0 214 163 0 214 161 0 214 160 0 213 159 0 213 158 1 212 156 1 209 154 5 205 152 10 196 150 25 186 147 42 169 143 74 153 139 103 144 137 121 136 136 136 137 137 137 138 138 137 139 139 139 140 140 140 141 141 141 142 142 142 143 143 143 144 144 144 146 146 146 147 147 147 149 149 149 151 151 151 154 154 154 157 157 157 160 160 160 164 164 164 168 168 168 171 171 171 176 176 176 181 181 181 187 187 187 192 192 192 199 199 199 205 205 205 211 211 211 217 217 217 222 222 222 227 227 227 232 232 232 237 237 237 240 240 240 244 244 244 246 246 246 249 249 249 
250 250 250 249 249 249 247 247 247 244 244 244 241 241 241 237 237 237 233 233 233 228 228 228 223 223 223 218 218 218 212 212 212 206 206 206 201 201 201 195 195 195 190 190 190 184 184 184 179 179 179 174 174 174 170 170 170 166 166 166 163 163 163 160 160 160 157 157 157 154 154 154 152 152 152 150 150 150 148 148 148 146 146 146 145 145 145 144 144 144 143 143 143 141 141 141 139 140 140 139 140 139 139 139 138 138 138 138 137 137 138 139 137 132 142 137 126 158 142 95 177 147 60 191 151 36 203 155 15 207 157 8 210 158 4 210 160 4 210 161 3 210 162 3 210 163 3 211 164 3 211 164 3 212 165 4 212 165 4 212 165 4 211 165 3 211 165 3 210 165 3 211 166 4 211 166 6 212 166 6 212 166 7 212 166 7 212 166 8 212 166 9 212 166 10 212 166 9 212 165 9 212 165 9 212 165 9 212 165 9 211 165 9 211 164 9 211 163 9 212 163 9 213 163 9 213 163 9 213 163 10 213 163 10 213 163 10 213 163 9 212 163 9 212 163 8 212 162 7 212 161 6 212 160 6 212 159 5 211 159 3 211 158 3 211 158 3 211 159 3 210 159 3 209 159 3 208 158 3 208 157 3 208 156 3 207 156 3 206 155 3 204 154 3 203 153 3 201 151 3 198 149 3 196 148 3 194 146 3 192 144 3 190 142 3 187 140 3 184 138 3 181 136 3 179 134 3 176 133 3 174 131 3 172 129 3 171 126 3 169 125 5 168 124 7 165 124 17 159 125 33 151 126 59 140 127 94 132 127 114 128 128 122 126 128 126 127 127 127 127 127 127 127 127 127 127 127 127 127 127 127 127 127 127 127 127 127 127 127 127 127 127 127 127 127 127 127 127 127 127 127 127 127 127 127 127 127 127 126 127 126 128 127 118 132 126 102 139 125 78 152 125 46 161 126 23 166 127 11 170 129 4 172 131 4 173 133 3 175 135 3 177 138 3 179 140 4 182 143 4 184 145 3 187 147 3 190 149 4 193 151 4 195 154 3 197 156 3 198 157 3 200 158 3 202 160 3 204 161 3 205 162 3 207 163 3 208 164 3 209 165 3 209 166 3 210 166 3 210 165 3 210 165 3 211 166 3 211 166 3 211 166 4 211 166 4 211 166 6 211 166 7 212 167 7 212 167 8 212 167 8 212 167 9 212 167 9 212 167 9 212 167 9 212 167 9 212 166 9 212 166 9 212 165 9 212 165 9 211 165 9 211 165 9 211 165 9 211 165 9 212 164 8 212 164 8 213 163 8 213 163 9 213 163 9 213 163 9 212 163 8 212 163 7 212 162 6 211 161 6 211 161 4 211 160 3 211 160 3 210 160 3 211 160 3 211 159 3 211 159 3 210 159 3 210 158 3 210 157 3 210 156 3 210 155 4 209 154 4 208 152 6 204 151 13 198 149 23 182 146 49 167 143 76 151 140 107 138 136 133 138 137 136 138 137 138 139 138 139 139 139 139 140 140 140 141 141 141 143 143 143 144 144 144 145 145 145 147 147 147 148 148 148 150 150 150 152 152 152 154 154 154 157 157 157 160 160 160 163 163 163 167 167 167 170 170 170 174 174 174 179 179 179 184 184 184 189 189 189 195 195 195 201 201 201 206 206 206 212 212 212 218 218 218 223 223 223 228 228 228 233 233 233 237 237 237 241 241 241 244 244 244 247 247 247 249 249 249 
251 251 251 249 249 249 248 248 248 245 245 245 242 242 242 238 238 238 235 235 235 230 230 230 225 225 225 220 220 220 215 215 215 209 209 209 204 204 204 199 199 199 194 194 194 188 188 188 183 183 183 179 179 179 175 175 175 171 171 171 168 168 168 165 165 165 162 162 162 159 159 159 157 157 157 155 155 155 153 153 153 151 151 151 149 149 149 148 148 148 147 147 147 146 145 145 144 144 144 143 143 143 143 143 143 142 142 142 141 140 141 141 140 138 142 140 134 150 142 119 159 144 101 167 146 85 175 148 70 180 150 61 183 151 54 185 152 50 187 153 47 188 153 46 188 154 44 188 154 44 188 154 43 188 154 43 189 155 43 189 155 43 188 155 43 188 155 42 187 154 42 187 154 43 188 155 43 188 154 43 188 154 44 188 154 44 188 154 44 188 154 44 188 154 44 188 154 44 188 154 44 187 153 44 187 153 44 187 153 44 187 153 44 187 153 44 187 152 44 187 151 44 187 151 44 188 151 44 188 151 44 188 151 44 188 151 44 187 151 44 187 151 44 187 151 43 187 150 43 187 150 43 187 149 42 186 149 42 186 148 41 186 148 40 186 148 40 186 148 40 185 149 41 185 148 41 185 148 41 185 147 41 185 147 40 184 146 40 183 146 40 182 145 40 181 144 40 179 143 40 178 142 40 176 141 40 175 140 40 173 139 40 171 138 39 170 136 39 168 134 40 166 133 40 164 132 40 163 131 41 161 130 42 159 129 43 157 127 46 155 126 50 153 125 56 150 126 66 145 126 78 139 127 94 134 127 111 130 128 121 128 127 126 128 127 128 128 128 128 128 128 128 128 128 128 128 128 128 128 128 128 128 128 128 128 128 128 128 128 128 128 128 128 128 128 128 128 128 128 128 128 128 128 128 128 128 128 127 128 128 127 128 128 123 130 127 115 134 127 103 140 127 86 146 127 71 150 128 60 154 129 52 156 130 48 159 131 45 160 133 43 162 134 41 165 136 40 167 138 40 168 140 40 170 141 40 172 143 41 174 144 41 175 145 40 176 147 40 178 147 40 179 148 40 180 149 40 182 150 40 182 151 41 183 152 41 184 153 41 185 153 41 185 153 41 186 153 41 186 153 40 186 153 40 186 153 41 186 153 41 186 153 41 186 153 41 186 153 42 186 154 42 186 154 43 187 154 43 187 154 43 187 154 43 187 154 43 187 154 44 187 154 44 187 154 44 187 154 44 187 154 44 187 153 44 187 153 44 187 153 44 187 153 44 187 153 44 187 153 44 187 153 44 187 153 44 188 152 44 188 152 44 188 152 44 188 152 45 188 152 44 188 152 43 188 151 43 188 151 43 188 151 42 188 151 42 188 151 42 188 151 42 188 151 42 189 151 42 189 151 42 188 151 43 188 150 43 187 150 44 187 150 46 186 149 49 184 148 53 182 147 58 177 146 66 171 145 76 162 144 93 153 142 110 147 141 125 141 140 138 141 141 140 141 141 141 142 142 142 143 143 143 144 144 144 145 145 145 147 147 147 148 148 148 150 150 150 151 151 151 153 153 153 155 155 155 157 157 157 159 159 159 161 161 161 164 164 164 168 168 168 171 171 171 175 175 175 179 179 179 183 183 183 188 188 188 193 193 193 199 199 199 204 204 204 209 209 209 215 215 215 221 221 221 226 226 226 230 230 230 234 234 234 239 239 239 242 242 242 245 245 245 247 247 247 250 250 250 
251 251 251 250 250 250 248 248 248 246 246 246 243 243 243 240 240 240 236 236 236 232 232 232 227 227 227 222 222 222 217 217 217 213 213 213 208 208 208 203 203 203 198 198 198 193 193 193 188 188 188 184 184 184 180 180 180 176 176 176 173 173 173 170 170 170 167 167 167 164 164 164 162 162 162 160 160 160 158 158 158 156 156 156 154 154 154 153 153 153 152 152 152 151 150 150 150 148 148 148 147 147 147 146 147 146 146 146 144 144 144 143 143 143 143 143 142 142 142 141 141 141 140 145 142 131 149 142 122 154 143 112 159 144 102 162 144 95 165 145 90 166 145 87 166 145 85 166 145 83 166 145 82 166 145 82 166 145 82 166 145 82 166 145 81 166 144 81 165 144 81 165 144 81 165 144 80 165 143 80 164 143 80 164 143 80 164 143 79 164 143 79 164 143 79 164 143 79 164 143 79 164 142 79 163 142 79 163 142 79 163 142 79 163 141 79 163 141 79 163 140 79 163 140 78 163 140 78 163 140 78 163 140 78 163 140 78 163 140 78 163 140 78 163 139 78 162 139 78 162 139 78 162 139 78 162 139 78 161 139 77 161 139 77 162 139 77 162 139 77 161 139 78 161 139 78 162 139 78 162 138 78 162 138 77 161 137 77 160 137 76 160 137 76 159 136 77 158 136 77 157 135 77 157 135 77 156 134 76 155 134 76 154 133 75 153 132 75 152 131 76 151 130 76 150 129 77 149 129 78 149 129 79 147 129 82 144 128 87 141 128 94 139 127 103 135 127 112 131 128 121 129 128 126 128 128 127 128 128 128 129 127 129 129 127 129 128 128 128 128 128 129 128 128 130 128 128 130 128 128 129 128 128 128 128 128 128 128 128 128 128 128 128 128 128 128 128 128 128 128 128 128 128 128 128 128 128 128 129 129 127 129 129 127 129 128 128 129 128 127 130 128 124 132 128 117 136 128 106 139 128 97 142 129 91 144 129 86 146 130 81 148 131 78 150 132 76 152 133 75 153 134 76 154 135 76 155 136 77 155 137 78 156 137 77 156 138 76 157 138 76 158 139 76 159 139 77 160 139 77 160 141 78 160 142 78 161 142 78 162 142 78 162 142 78 162 141 78 162 141 77 162 141 77 162 141 78 162 142 79 162 141 78 162 141 77 162 141 77 162 142 77 162 142 78 162 142 78 162 142 77 162 142 77 163 142 78 163 142 78 163 142 78 163 142 78 163 142 78 163 142 78 163 142 79 163 142 79 163 142 79 163 142 79 163 142 79 163 142 79 163 142 79 163 142 79 164 141 79 164 141 79 164 141 80 164 142 80 164 142 80 164 142 79 165 141 80 166 141 80 165 142 80 165 142 80 166 143 81 166 143 81 167 143 81 167 143 81 167 143 81 167 143 81 166 143 82 165 143 84 164 144 88 163 144 92 160 143 100 157 142 107 152 142 117 147 142 127 144 142 135 142 142 142 142 143 142 143 144 143 144 145 144 145 146 145 146 147 146 147 148 147 148 149 148 150 150 150 151 151 151 153 153 153 154 154 154 156 156 156 158 158 158 160 160 160 162 162 162 164 164 164 166 166 166 169 169 169 172 172 172 176 176 176 180 180 180 184 184 184 188 188 188 193 193 193 198 198 198 203 203 203 208 208 208 213 213 213 218 218 218 223 223 223 228 228 228 232 232 232 236 236 236 240 240 240 243 243 243 246 246 246 248 248 248 250 250 250 
252 252 252 250 250 250 249 249 249 247 247 247 244 244 244 241 241 241 238 238 238 234 234 234 230 230 230 226 226 226 221 221 221 217 217 217 212 212 212 208 208 208 203 203 203 198 198 198 194 194 194 190 190 190 186 186 186 183 183 183 179 179 179 176 176 176 173 173 173 171 171 171 169 169 169 166 166 166 164 164 164 162 162 162 160 160 160 159 159 159 158 158 158 156 156 156 155 154 154 154 153 153 152 152 152 151 151 151 150 150 150 148 148 149 147 147 147 147 147 146 146 146 145 148 146 140 149 146 136 151 146 131 153 146 126 154 146 122 155 146 119 155 145 117 155 145 115 155 144 114 154 144 114 154 144 113 154 143 113 153 143 113 153 143 112 153 142 112 152 142 112 152 142 111 152 141 111 151 141 111 151 141 111 151 140 110 150 140 109 150 140 109 150 140 109 150 140 109 150 139 109 149 139 108 149 139 108 149 139 108 149 138 108 149 138 108 149 138 108 148 137 108 148 137 107 148 137 107 148 137 107 148 137 107 148 137 107 148 137 107 148 136 106 148 136 106 147 135 106 147 135 106 147 136 106 147 136 106 147 136 106 147 136 106 146 135 105 146 135 106 146 135 106 146 135 106 146 135 105 146 135 105 146 135 105 146 135 105 146 134 105 145 134 105 145 134 105 145 134 105 144 133 105 143 133 105 143 132 104 143 132 104 142 132 104 142 132 104 141 131 104 141 131 105 140 130 105 140 130 105 140 130 106 139 130 107 137 129 109 136 129 113 134 129 117 133 129 122 131 129 126 130 130 128 130 130 129 130 129 129 130 129 129 129 129 129 129 129 129 129 129 129 129 129 130 129 129 130 129 129 129 129 129 129 129 129 129 129 129 129 129 129 129 129 129 129 129 129 129 129 129 129 129 129 129 129 129 129 129 130 129 130 130 129 130 130 129 130 130 129 130 130 127 131 130 124 133 130 119 135 130 114 136 130 111 137 130 109 138 131 106 139 131 105 140 131 104 141 132 104 141 132 104 142 133 104 142 134 105 143 134 105 143 134 105 143 134 104 144 135 104 144 135 105 145 135 105 146 136 105 146 136 106 146 137 106 146 137 106 146 137 106 146 137 106 146 137 106 146 136 106 147 136 106 147 137 106 147 137 107 147 137 106 147 137 106 147 137 106 147 137 106 147 137 107 147 137 107 147 137 106 147 137 106 148 138 107 148 138 107 148 138 107 148 138 107 148 138 107 148 138 107 148 138 108 149 138 108 149 138 108 149 138 108 149 139 108 149 139 108 149 139 108 149 139 109 150 139 109 150 139 109 150 139 110 151 140 110 151 140 110 151 140 110 152 140 111 153 141 111 152 141 111 152 141 111 153 142 112 153 142 112 154 142 112 154 143 113 155 143 113 155 143 114 155 144 115 155 144 116 155 145 118 155 145 121 154 145 124 152 145 128 150 146 133 148 146 138 147 146 143 146 147 146 147 148 147 148 149 148 150 150 150 151 151 151 152 152 152 153 154 153 154 155 154 156 156 156 157 157 157 159 159 159 161 161 161 162 162 162 164 164 164 166 166 166 168 168 168 171 171 171 173 173 173 176 176 176 179 179 179 182 182 182 186 186 186 190 190 190 194 194 194 199 199 199 203 203 203 208 208 208 212 212 212 217 217 217 222 222 222 226 226 226 231 231 231 235 235 235 238 238 238 242 242 242 244 244 244 247 247 247 249 249 249 251 251 251 
252 252 252 251 251 251 250 250 250 248 248 248 245 245 245 243 243 243 240 240 240 237 237 237 233 233 233 229 229 229 225 225 225 221 221 221 217 217 217 213 213 213 209 209 209 204 204 204 200 200 200 196 196 196 193 193 193 189 189 189 186 186 186 183 183 183 180 180 180 178 178 178 176 176 176 173 173 173 171 171 171 169 169 169 167 167 167 165 165 165 164 164 164 162 162 162 161 161 161 159 159 159 158 158 158 156 156 157 155 155 156 154 154 154 153 153 153 152 152 151 151 151 150 151 150 149 150 149 149 149 149 149 148 148 149 147 147 148 146 146 146 146 146 145 145 145 144 144 144 143 143 143 143 143 143 143 142 142 142 142 142 142 141 141 141 141 141 141 140 140 140 140 140 140 139 139 139 139 139 139 139 139 139 139 139 139 138 138 138 137 137 138 137 137 138 137 137 137 136 136 137 136 136 136 136 136 136 136 136 136 135 135 135 135 135 135 135 135 135 135 135 135 134 134 134 134 134 134 134 134 134 134 134 134 134 134 134 134 134 134 134 133 133 134 133 133 133 132 133 133 133 133 133 133 133 133 133 133 133 133 133 133 133 133 132 132 132 132 132 132 132 132 132 132 132 132 132 132 131 132 132 131 132 132 132 132 132 132 132 132 132 132 132 132 132 132 132 132 132 132 131 131 131 131 131 131 131 131 131 131 131 131 131 131 131 131 131 131 131 131 131 131 131 131 131 131 131 131 131 131 131 131 131 131 131 131 131 130 130 131 130 130 130 131 131 130 131 131 131 131 130 131 131 130 131 131 131 131 131 131 130 130 130 130 130 129 130 131 130 130 131 130 130 130 131 130 130 131 130 130 130 130 130 129 130 130 130 130 130 130 130 130 130 130 130 130 130 130 130 130 130 130 130 130 130 130 130 130 130 131 131 130 131 131 130 131 130 130 131 130 131 131 131 131 131 131 131 131 131 131 131 131 131 131 130 131 131 130 131 131 130 131 131 130 130 130 131 130 130 131 131 131 130 131 131 130 131 131 131 131 131 131 131 131 131 131 131 131 131 131 131 131 131 131 132 132 132 132 132 132 132 132 132 132 132 132 132 132 132 132 132 132 132 132 132 132 132 132 132 132 132 132 132 132 133 133 133 133 133 133 133 133 133 133 133 133 133 133 133 133 133 133 133 133 134 133 133 134 133 133 134 133 133 133 134 134 134 134 134 134 134 134 134 134 134 134 134 134 134 134 134 134 135 135 135 135 135 135 135 135 135 135 135 135 136 136 136 136 136 136 136 136 136 136 136 136 137 137 137 137 137 137 138 138 138 138 138 138 139 139 139 139 139 139 140 140 140 140 140 140 140 140 140 140 140 140 141 141 141 141 141 141 142 142 142 143 142 143 144 143 144 144 144 144 145 145 145 146 145 146 147 146 147 147 147 147 148 148 147 149 148 148 150 149 149 150 150 150 151 151 151 152 152 152 153 153 153 154 154 154 155 155 155 157 157 157 158 158 158 160 160 160 161 161 161 162 162 162 164 164 164 166 166 166 167 167 167 169 169 169 171 171 171 173 173 173 175 175 175 178 178 178 180 180 180 183 183 183 186 186 186 189 189 189 193 193 193 197 197 197 201 201 201 205 205 205 209 209 209 213 213 213 217 217 217 221 221 221 225 225 225 229 229 229 233 233 233 237 237 237 240 240 240 243 243 243 246 246 246 248 248 248 250 250 250 251 251 251 
253 253 253 252 252 252 251 251 251 249 249 249 247 247 247 244 244 244 242 242 242 239 239 239 236 236 236 233 233 233 229 229 229 226 226 226 222 222 222 218 218 218 215 215 215 211 211 211 207 207 207 203 203 203 200 200 200 197 197 197 194 194 194 191 191 191 188 188 188 186 186 186 184 184 184 181 181 181 179 179 179 177 177 177 175 175 175 173 173 173 171 171 171 170 170 170 168 168 168 167 167 167 165 165 165 164 164 164 162 162 163 161 161 161 160 160 160 159 159 158 158 158 157 157 157 156 156 156 156 155 155 155 154 154 154 153 153 153 152 152 152 151 151 151 150 150 150 150 150 149 149 149 149 148 148 148 147 147 147 147 147 147 146 146 146 146 146 146 145 145 145 144 144 144 144 144 144 144 144 144 143 143 143 143 143 143 142 142 142 142 142 142 141 141 142 141 141 141 140 140 140 140 140 140 140 140 140 139 139 139 139 139 139 139 139 139 139 139 139 138 138 138 138 138 138 138 138 138 138 138 138 138 138 138 137 137 137 137 137 137 137 137 137 137 136 137 136 136 136 136 136 136 136 136 136 136 136 136 136 136 136 135 135 135 135 135 135 135 135 135 135 135 135 135 135 134 135 135 134 135 135 134 135 135 135 135 135 135 135 135 135 134 134 134 134 134 134 134 134 134 134 134 134 134 134 134 134 134 134 134 134 134 134 134 134 133 133 133 133 133 133 133 133 133 133 133 133 133 133 133 133 133 133 133 133 133 133 133 133 133 133 133 133 133 133 133 133 133 133 133 133 133 133 133 133 133 133 133 133 133 133 133 132 133 133 132 132 133 132 132 132 132 132 132 132 132 132 132 132 132 132 132 132 132 132 132 132 132 132 132 132 132 132 132 132 132 132 132 132 132 132 132 133 133 133 133 133 133 133 133 133 133 133 133 133 133 133 133 133 133 133 133 133 133 133 133 133 133 133 133 133 133 133 133 133 133 133 133 133 133 133 133 133 133 133 133 133 133 133 133 133 133 133 133 133 133 133 133 133 134 134 134 134 134 134 134 134 134 134 134 134 134 134 134 134 134 134 134 134 134 134 134 134 135 135 135 135 135 135 135 135 135 135 135 135 135 135 135 135 135 135 135 135 135 135 135 135 136 136 136 136 136 136 136 136 136 136 136 136 136 136 136 137 137 137 137 137 137 137 137 137 137 137 137 137 137 137 137 137 137 138 138 138 138 138 138 138 138 138 138 138 138 139 139 139 139 139 139 139 139 139 139 139 139 140 140 140 140 140 140 141 141 141 141 141 141 141 141 141 142 142 142 142 142 142 143 143 143 143 143 143 144 144 144 144 144 144 145 145 145 145 145 145 145 145 145 146 146 146 147 147 147 147 147 147 148 148 148 149 149 149 150 149 150 150 150 150 151 151 151 152 152 152 153 153 153 154 154 154 155 155 155 156 156 156 157 157 157 158 158 158 159 159 159 160 160 160 161 161 161 162 162 162 164 164 164 165 165 165 167 167 167 168 168 168 170 170 170 171 171 171 173 173 173 175 175 175 177 177 177 179 179 179 181 181 181 183 183 183 186 186 186 188 188 188 191 191 191 193 193 193 196 196 196 200 200 200 204 204 204 207 207 207 211 211 211 214 214 214 218 218 218 222 222 222 226 226 226 230 230 230 233 233 233 237 237 237 240 240 240 242 242 242 245 245 245 247 247 247 249 249 249 250 250 250 252 252 252 
253 253 253 252 252 252 251 251 251 250 250 250 248 248 248 246 246 246 244 244 244 242 242 242 239 239 239 236 236 236 233 233 233 230 230 230 227 227 227 224 224 224 220 220 220 217 217 217 214 214 214 211 211 211 208 208 208 205 205 205 202 202 202 199 199 199 196 196 196 194 194 194 192 192 192 189 189 189 187 187 187 185 185 185 183 183 183 181 181 181 179 179 179 177 177 177 176 176 176 174 174 174 173 173 173 171 171 171 170 170 170 168 168 168 167 167 167 166 166 166 165 165 165 164 164 164 163 163 163 161 161 161 160 160 160 159 159 159 158 158 158 157 157 157 156 156 156 156 156 156 155 155 155 154 154 154 153 153 153 152 152 152 151 151 151 151 151 151 150 150 150 149 149 149 148 148 148 148 148 148 147 147 147 147 147 147 146 146 146 146 146 146 145 145 145 145 145 145 144 144 144 144 144 144 143 143 143 143 143 143 142 142 142 142 142 142 142 142 142 142 142 142 141 141 141 141 141 141 141 141 141 141 141 141 140 140 140 140 140 140 140 140 140 140 140 140 139 139 139 139 139 139 139 139 139 139 139 139 138 138 138 138 138 138 138 138 138 138 138 138 137 137 137 137 137 137 137 137 137 137 137 137 137 137 137 137 137 137 137 137 137 137 137 137 136 136 136 136 136 136 136 136 136 136 136 136 136 136 136 136 136 136 136 136 136 136 136 136 135 135 135 135 135 135 135 135 135 135 135 135 135 135 135 135 135 135 135 135 135 135 135 135 135 135 135 135 135 135 135 135 135 135 135 135 135 135 135 135 135 135 135 135 135 135 135 135 134 134 134 134 134 134 134 134 134 134 134 134 134 134 134 134 134 134 134 134 134 134 134 134 134 134 134 134 134 134 134 134 134 134 134 134 135 135 135 135 135 135 135 135 135 135 135 135 135 135 135 135 135 135 135 135 135 135 135 135 135 135 135 135 135 135 135 135 135 135 135 135 135 135 135 135 135 135 135 135 135 135 135 135 135 135 135 135 135 135 136 136 136 136 136 136 136 136 136 136 136 136 136 136 136 136 136 136 136 136 136 136 136 136 137 137 137 137 137 137 137 137 137 137 137 137 137 137 137 137 137 137 138 138 138 138 138 138 138 138 138 138 138 138 138 138 138 138 138 138 139 139 139 139 139 139 140 140 140 140 140 140 140 140 140 140 140 140 140 140 140 140 140 140 141 141 141 141 141 141 142 142 142 142 142 142 142 142 142 142 142 142 143 143 143 143 143 143 144 144 144 144 144 144 145 145 145 145 145 145 146 146 146 146 146 146 147 147 147 147 147 147 148 148 148 148 148 148 149 149 149 149 149 149 150 150 150 151 151 151 152 152 152 152 152 152 153 153 153 154 154 154 155 155 155 155 155 155 156 156 156 157 157 157 158 158 158 159 159 159 160 160 160 162 162 162 163 163 163 164 164 164 165 165 165 166 166 166 167 167 167 168 168 168 169 169 169 171 171 171 172 172 172 174 174 174 176 176 176 178 178 178 179 179 179 181 181 181 183 183 183 185 185 185 187 187 187 189 189 189 191 191 191 194 194 194 196 196 196 199 199 199 201 201 201 204 204 204 207 207 207 211 211 211 214 214 214 217 217 217 220 220 220 223 223 223 227 227 227 230 230 230 234 234 234 237 237 237 240 240 240 242 242 242 244 244 244 246 246 246 248 248 248 250 250 250 251 251 251 252 252 252 
254 254 254 253 253 253 252 252 252 251 251 251 250 250 250 248 248 248 246 246 246 244 244 244 242 242 242 240 240 240 237 237 237 234 234 234 232 232 232 229 229 229 226 226 226 223 223 223 220 220 220 217 217 217 215 215 215 212 212 212 209 209 209 206 206 206 204 204 204 202 202 202 200 200 200 197 197 197 195 195 195 193 193 193 191 191 191 189 189 189 187 187 187 186 186 186 184 184 184 182 182 182 181 181 181 179 179 179 178 178 178 176 176 176 175 175 175 173 173 173 172 172 172 171 171 171 170 170 170 169 169 169 167 167 167 166 166 166 165 165 165 164 164 164 164 164 164 163 163 163 162 162 162 161 161 161 160 160 160 159 159 159 158 158 158 157 157 157 157 157 157 156 156 156 155 155 155 154 154 154 154 154 154 153 153 153 152 152 152 152 152 152 151 151 151 151 151 151 150 150 150 150 150 150 149 149 149 149 149 149 148 148 148 148 148 148 147 147 147 147 147 147 147 147 147 147 147 147 146 146 146 146 146 146 145 145 145 145 145 145 145 145 145 144 144 144 144 144 144 144 144 144 144 144 144 143 143 143 143 143 143 143 143 143 142 142 142 142 142 142 142 142 142 142 142 142 141 141 141 141 141 141 141 141 141 141 141 141 141 141 141 141 141 141 140 140 140 140 140 140 140 140 140 140 140 140 140 140 140 140 140 140 140 140 140 140 140 140 139 139 139 139 139 139 139 139 139 139 139 139 139 139 139 139 139 139 139 139 139 139 139 139 139 139 139 139 139 139 139 139 139 139 139 139 139 139 139 139 139 139 139 139 139 139 139 139 138 138 138 138 138 138 138 138 138 138 138 138 138 138 138 138 138 138 138 138 138 138 138 138 138 138 138 138 138 138 138 138 138 138 138 138 139 139 139 139 139 139 139 139 139 139 139 139 139 139 139 139 139 139 139 139 139 139 139 139 139 139 139 139 139 139 139 139 139 139 139 139 139 139 139 139 139 139 139 139 139 139 139 139 139 139 139 139 139 139 140 140 140 140 140 140 140 140 140 140 140 140 140 140 140 140 140 140 140 140 140 140 140 140 141 141 141 141 141 141 141 141 141 141 141 141 142 142 142 142 142 142 142 142 142 142 142 142 143 143 143 143 143 143 143 143 143 143 143 143 143 143 143 144 144 144 144 144 144 145 145 145 145 145 145 145 145 145 145 145 145 145 145 145 146 146 146 146 146 146 147 147 147 147 147 147 148 148 148 148 148 148 148 148 148 149 149 149 149 149 149 150 150 150 150 150 150 151 151 151 152 152 152 152 152 152 153 153 153 153 153 153 154 154 154 154 154 154 155 155 155 156 156 156 156 156 156 157 157 157 158 158 158 159 159 159 160 160 160 161 161 161 162 162 162 163 163 163 163 163 163 164 164 164 165 165 165 166 166 166 167 167 167 169 169 169 170 170 170 171 171 171 172 172 172 174 174 174 175 175 175 176 176 176 177 177 177 179 179 179 180 180 180 182 182 182 184 184 184 186 186 186 187 187 187 189 189 189 191 191 191 193 193 193 195 195 195 197 197 197 199 199 199 202 202 202 204 204 204 206 206 206 209 209 209 211 211 211 214 214 214 217 217 217 220 220 220 222 222 222 225 225 225 228 228 228 231 231 231 234 234 234 237 237 237 240 240 240 242 242 242 244 244 244 246 246 246 248 248 248 249 249 249 251 251 251 252 252 252 253 253 253 
254 254 254 253 253 253 252 252 252 252 252 252 251 251 251 250 250 250 248 248 248 247 247 247 245 245 245 243 243 243 240 240 240 238 238 238 236 236 236 234 234 234 231 231 231 229 229 229 226 226 226 224 224 224 221 221 221 219 219 219 217 217 217 214 214 214 212 212 212 210 210 210 208 208 208 206 206 206 204 204 204 202 202 202 200 200 200 198 198 198 196 196 196 194 194 194 193 193 193 191 191 191 189 189 189 187 187 187 186 186 186 184 184 184 183 183 183 181 181 181 180 180 180 179 179 179 178 178 178 176 176 176 175 175 175 174 174 174 173 173 173 172 172 172 171 171 171 170 170 170 169 169 169 168 168 168 167 167 167 166 166 166 165 165 165 164 164 164 163 163 163 163 163 163 162 162 162 161 161 161 160 160 160 160 160 160 159 159 159 158 158 158 157 157 157 157 157 157 156 156 156 156 156 156 155 155 155 155 155 155 154 154 154 153 153 153 152 152 152 152 152 152 152 152 152 152 152 152 151 151 151 151 151 151 150 150 150 150 150 150 149 149 149 149 149 149 148 148 148 148 148 148 148 148 148 148 148 148 147 147 147 147 147 147 146 146 146 146 146 146 146 146 146 146 146 146 145 145 145 145 145 145 145 145 145 145 145 145 145 145 145 145 145 145 144 144 144 144 144 144 144 144 144 144 144 144 144 144 144 144 144 144 143 143 143 143 143 143 143 143 143 143 143 143 143 143 143 143 143 143 143 143 143 143 143 143 143 143 143 143 143 143 142 142 142 142 142 142 142 142 142 142 142 142 142 142 142 142 142 142 142 142 142 142 142 142 142 142 142 142 142 142 142 142 142 142 142 142 142 142 142 142 142 142 142 142 142 142 142 142 142 142 142 142 142 142 142 142 142 142 142 142 142 142 142 142 142 142 142 142 142 142 142 142 143 143 143 143 143 143 143 143 143 142 142 142 142 142 142 142 142 142 143 143 143 143 143 143 143 143 143 143 143 143 143 143 143 143 143 143 143 143 143 143 143 143 144 144 144 144 144 144 144 144 144 144 144 144 144 144 144 144 144 144 144 144 144 144 144 144 145 145 145 145 145 145 145 145 145 145 145 145 146 146 146 146 146 146 146 146 146 146 146 146 147 147 147 147 147 147 147 147 147 147 147 147 148 148 148 148 148 148 149 149 149 149 149 149 150 150 150 150 150 150 150 150 150 150 150 150 151 151 151 151 151 151 152 152 152 152 152 152 153 153 153 153 153 153 154 154 154 154 154 154 155 155 155 155 155 155 156 156 156 157 157 157 158 158 158 158 158 158 159 159 159 159 159 159 160 160 160 161 161 161 162 162 162 162 162 162 163 163 163 164 164 164 165 165 165 166 166 166 167 167 167 168 168 168 169 169 169 170 170 170 171 171 171 172 172 172 173 173 173 174 174 174 175 175 175 176 176 176 177 177 177 179 179 179 180 180 180 182 182 182 183 183 183 184 184 184 185 185 185 187 187 187 189 189 189 191 191 191 192 192 192 194 194 194 196 196 196 198 198 198 200 200 200 202 202 202 204 204 204 206 206 206 208 208 208 210 210 210 211 211 211 214 214 214 216 216 216 218 218 218 221 221 221 223 223 223 226 226 226 228 228 228 231 231 231 233 233 233 236 236 236 238 238 238 240 240 240 242 242 242 244 244 244 246 246 246 248 248 248 250 250 250 251 251 251 251 251 251 252 252 252 253 253 253 
254 254 254 253 253 253 253 253 253 252 252 252 252 252 252 251 251 251 250 250 250 248 248 248 247 247 247 245 245 245 243 243 243 241 241 241 240 240 240 238 238 238 236 236 236 234 234 234 231 231 231 229 229 229 227 227 227 225 225 225 223 223 223 221 221 221 218 218 218 216 216 216 214 214 214 213 213 213 211 211 211 209 209 209 207 207 207 205 205 205 204 204 204 202 202 202 201 201 201 199 199 199 197 197 197 196 196 196 194 194 194 193 193 193 191 191 191 190 190 190 188 188 188 187 187 187 186 186 186 185 185 185 183 183 183 182 182 182 181 181 181 180 180 180 179 179 179 178 178 178 177 177 177 176 176 176 175 175 175 174 174 174 173 173 173 172 172 172 171 171 171 170 170 170 169 169 169 168 168 168 168 168 168 167 167 167 166 166 166 165 165 165 164 164 164 164 164 164 163 163 163 163 163 163 162 162 162 162 162 162 161 161 161 160 160 160 160 160 160 159 159 159 159 159 159 158 158 158 158 158 158 157 157 157 157 157 157 156 156 156 156 156 156 155 155 155 155 155 155 155 155 155 154 154 154 154 154 154 153 153 153 153 153 153 152 152 152 152 152 152 152 152 152 152 152 152 151 151 151 151 151 151 151 151 151 151 151 151 151 151 151 151 151 151 150 150 150 150 150 150 150 150 150 150 150 150 150 150 150 149 149 149 149 149 149 149 149 149 149 149 149 149 149 149 149 149 149 149 149 149 149 149 149 149 149 149 148 148 148 148 148 148 148 148 148 148 148 148 148 148 148 148 148 148 148 148 148 148 148 148 148 148 148 148 148 148 148 148 148 148 148 148 147 147 147 147 147 147 147 147 147 147 147 147 147 147 147 147 147 147 147 147 147 147 147 147 148 148 148 148 148 148 148 148 148 148 148 148 148 148 148 148 148 148 148 148 148 148 148 148 148 148 148 148 148 148 148 148 148 148 148 148 148 148 148 149 149 149 149 149 149 149 149 149 149 149 149 149 149 149 149 149 149 149 149 149 149 149 149 149 149 149 150 150 150 150 150 150 150 150 150 150 150 150 150 150 150 150 150 150 151 151 151 151 151 151 151 151 151 151 151 151 152 152 152 152 152 152 152 152 152 152 152 152 153 153 153 153 153 153 154 154 154 154 154 154 154 154 154 155 155 155 155 155 155 156 156 156 156 156 156 156 156 156 157 157 157 157 157 157 157 157 157 158 158 158 159 159 159 159 159 159 160 160 160 160 160 160 161 161 161 161 161 161 162 162 162 162 162 162 163 163 163 164 164 164 165 165 165 165 165 165 166 166 166 167 167 167 167 167 167 168 168 168 169 169 169 170 170 170 171 171 171 172 172 172 173 173 173 174 174 174 175 175 175 176 176 176 177 177 177 178 178 178 179 179 179 180 180 180 181 181 181 182 182 182 183 183 183 184 184 184 186 186 186 187 187 187 189 189 189 190 190 190 191 191 191 192 192 192 194 194 194 195 195 195 197 197 197 199 199 199 200 200 200 202 202 202 204 204 204 206 206 206 207 207 207 209 209 209 211 211 211 213 213 213 215 215 215 216 216 216 218 218 218 220 220 220 223 223 223 225 225 225 227 227 227 229 229 229 231 231 231 233 233 233 235 235 235 237 237 237 240 240 240 242 242 242 243 243 243 245 245 245 246 246 246 248 248 248 250 250 250 251 251 251 252 252 252 252 252 252 253 253 253 254 254 254 
254 254 254 254 254 254 253 253 253 253 253 253 252 252 252 252 252 252 251 251 251 250 250 250 248 248 248 247 247 247 246 246 246 245 245 245 243 243 243 242 242 242 240 240 240 238 238 238 236 236 236 234 234 234 232 232 232 231 231 231 229 229 229 227 227 227 225 225 225 223 223 223 221 221 221 220 220 220 218 218 218 216 216 216 214 214 214 213 213 213 211 211 211 210 210 210 208 208 208 207 207 207 205 205 205 204 204 204 203 203 203 201 201 201 200 200 200 198 198 198 197 197 197 195 195 195 194 194 194 193 193 193 192 192 192 191 191 191 189 189 189 188 188 188 187 187 187 186 186 186 185 185 185 184 184 184 183 183 183 182 182 182 181 181 181 180 180 180 179 179 179 178 178 178 177 177 177 176 176 176 175 175 175 175 175 175 174 174 174 173 173 173 172 172 172 171 171 171 170 170 170 170 170 170 169 169 169 169 169 169 168 168 168 168 168 168 167 167 167 166 166 166 165 165 165 165 165 165 164 164 164 164 164 164 163 163 163 163 163 163 162 162 162 162 162 162 161 161 161 161 161 161 160 160 160 160 160 160 159 159 159 159 159 159 158 158 158 158 158 158 158 158 158 158 158 158 157 157 157 157 157 157 157 157 157 157 157 157 156 156 156 156 156 156 156 156 156 156 156 156 155 155 155 155 155 155 155 155 155 155 155 155 154 154 154 154 154 154 154 154 154 154 154 154 154 154 154 154 154 154 154 154 154 154 154 154 153 153 153 153 153 153 153 153 153 153 153 153 153 153 153 153 153 153 153 153 153 153 153 153 153 153 153 153 153 153 153 153 153 153 153 153 153 153 153 152 152 152 152 152 152 152 152 152 152 152 152 152 152 152 152 152 152 153 153 153 153 153 153 153 153 153 153 153 153 153 153 153 153 153 153 153 153 153 153 153 153 153 153 153 153 153 153 153 153 153 153 153 153 153 153 153 154 154 154 154 154 154 154 154 154 154 154 154 154 154 154 154 154 154 154 154 154 154 154 154 154 154 154 154 154 154 155 155 155 155 155 155 155 155 155 155 155 155 156 156 156 156 156 156 156 156 156 156 156 156 157 157 157 157 157 157 158 158 158 158 158 158 158 158 158 158 158 158 159 159 159 159 159 159 160 160 160 160 160 160 161 161 161 161 161 161 162 162 162 162 162 162 162 162 162 162 162 162 163 163 163 163 163 163 164 164 164 165 165 165 166 166 166 166 166 166 167 167 167 167 167 167 168 168 168 168 168 168 169 169 169 170 170 170 171 171 171 171 171 171 172 172 172 173 173 173 174 174 174 174 174 174 175 175 175 176 176 176 177 177 177 178 178 178 179 179 179 180 180 180 181 181 181 182 182 182 183 183 183 184 184 184 185 185 185 186 186 186 187 187 187 188 188 188 189 189 189 190 190 190 191 191 191 193 193 193 194 194 194 196 196 196 197 197 197 198 198 198 199 199 199 201 201 201 202 202 202 204 204 204 205 205 205 207 207 207 208 208 208 210 210 210 212 212 212 213 213 213 215 215 215 216 216 216 218 218 218 220 220 220 222 222 222 223 223 223 225 225 225 227 227 227 229 229 229 231 231 231 233 233 233 234 234 234 236 236 236 238 238 238 240 240 240 241 241 241 243 243 243 245 245 245 246 246 246 247 247 247 249 249 249 250 250 250 251 251 251 252 252 252 253 253 253 253 253 253 254 254 254 254 254 254 
254 254 254 254 254 254 254 254 254 253 253 253 253 253 253 252 252 252 252 252 252 251 251 251 250 250 250 249 249 249 248 248 248 247 247 247 246 246 246 244 244 244 243 243 243 242 242 242 240 240 240 239 239 239 237 237 237 236 236 236 234 234 234 233 233 233 231 231 231 229 229 229 228 228 228 226 226 226 225 225 225 223 223 223 221 221 221 220 220 220 219 219 219 217 217 217 216 216 216 214 214 214 213 213 213 212 212 212 210 210 210 209 209 209 208 208 208 206 206 206 205 205 205 203 203 203 202 202 202 201 201 201 200 200 200 199 199 199 198 198 198 196 196 196 195 195 195 194 194 194 193 193 193 192 192 192 191 191 191 190 190 190 189 189 189 188 188 188 187 187 187 186 186 186 185 185 185 184 184 184 184 184 184 183 183 183 182 182 182 181 181 181 180 180 180 179 179 179 179 179 179 178 178 178 177 177 177 177 177 177 176 176 176 176 176 176 175 175 175 174 174 174 174 174 174 173 173 173 172 172 172 172 172 172 171 171 171 171 171 171 170 170 170 170 170 170 169 169 169 169 169 169 168 168 168 168 168 168 167 167 167 167 167 167 166 166 166 166 166 166 166 166 166 165 165 165 165 165 165 165 165 165 164 164 164 164 164 164 164 164 164 164 164 164 163 163 163 163 163 163 163 163 163 163 163 163 162 162 162 162 162 162 162 162 162 162 162 162 162 162 162 162 162 162 161 161 161 161 161 161 161 161 161 161 161 161 160 160 160 160 160 160 160 160 160 160 160 160 160 160 160 160 160 160 160 160 160 160 160 160 160 160 160 160 160 160 160 160 160 160 160 160 159 159 159 159 159 159 159 159 159 159 159 159 159 159 159 159 159 159 159 159 159 159 159 159 160 160 160 160 160 160 160 160 160 160 160 160 160 160 160 160 160 160 160 160 160 160 160 160 160 160 160 160 160 160 160 160 160 160 160 160 161 161 161 161 161 161 161 161 161 161 161 161 161 161 161 161 161 161 162 162 162 162 162 162 162 162 162 162 162 162 162 162 162 163 163 163 163 163 163 163 163 163 163 163 163 164 164 164 164 164 164 164 164 164 164 164 164 165 165 165 165 165 165 166 166 166 166 166 166 166 166 166 167 167 167 167 167 167 167 167 167 168 168 168 168 168 168 169 169 169 169 169 169 170 170 170 170 170 170 171 171 171 171 171 171 172 172 172 172 172 172 173 173 173 174 174 174 174 174 174 175 175 175 175 175 175 176 176 176 176 176 176 177 177 177 178 178 178 179 179 179 180 180 180 180 180 180 181 181 181 182 182 182 183 183 183 183 183 183 184 184 184 185 185 185 186 186 186 187 187 187 188 188 188 189 189 189 190 190 190 191 191 191 192 192 192 193 193 193 194 194 194 195 195 195 196 196 196 197 197 197 198 198 198 200 200 200 201 201 201 202 202 202 204 204 204 205 205 205 206 206 206 207 207 207 208 208 208 210 210 210 211 211 211 213 213 213 214 214 214 216 216 216 217 217 217 219 219 219 220 220 220 222 222 222 223 223 223 225 225 225 226 226 226 228 228 228 229 229 229 231 231 231 233 233 233 234 234 234 236 236 236 237 237 237 238 238 238 240 240 240 242 242 242 243 243 243 244 244 244 246 246 246 247 247 247 248 248 248 249 249 249 250 250 250 251 251 251 252 252 252 253 253 253 253 253 253 254 254 254 254 254 254 254 254 254 
254 254 254 254 254 254 254 254 254 254 254 254 253 253 253 253 253 253 252 252 252 252 252 252 251 251 251 251 251 251 250 250 250 249 249 249 248 248 248 247 247 247 246 246 246 245 245 245 244 244 244 243 243 243 241 241 241 240 240 240 239 239 239 238 238 238 236 236 236 235 235 235 234 234 234 233 233 233 231 231 231 230 230 230 228 228 228 227 227 227 226 226 226 225 225 225 223 223 223 222 222 222 220 220 220 219 219 219 218 218 218 217 217 217 215 215 215 214 214 214 212 212 212 211 211 211 210 210 210 209 209 209 208 208 208 207 207 207 206 206 206 204 204 204 203 203 203 202 202 202 201 201 201 200 200 200 199 199 199 198 198 198 197 197 197 196 196 196 195 195 195 194 194 194 193 193 193 193 193 193 192 192 192 191 191 191 191 191 191 190 190 190 189 189 189 188 188 188 187 187 187 187 187 187 186 186 186 185 185 185 184 184 184 184 184 184 183 183 183 183 183 183 182 182 182 181 181 181 180 180 180 180 180 180 179 179 179 179 179 179 178 178 178 178 178 178 177 177 177 177 177 177 176 176 176 176 176 176 175 175 175 175 175 175 174 174 174 174 174 174 173 173 173 173 173 173 172 172 172 172 172 172 171 171 171 171 171 171 171 171 171 171 171 171 170 170 170 170 170 170 170 170 170 170 170 170 169 169 169 169 169 169 169 169 169 169 169 169 169 169 169 169 169 169 168 168 168 168 168 168 168 168 168 168 168 168 167 167 167 167 167 167 167 167 167 167 167 167 167 167 167 167 167 167 167 167 167 167 167 167 167 167 167 167 167 167 167 167 167 166 166 166 166 166 166 166 166 166 166 166 166 166 166 166 166 166 166 166 166 166 166 166 166 166 166 166 166 166 166 166 166 166 166 166 166 166 166 166 167 167 167 167 167 167 167 167 167 167 167 167 167 167 167 167 167 167 167 167 167 167 167 167 168 168 168 168 168 168 168 168 168 168 168 168 168 168 168 168 168 168 169 169 169 169 169 169 169 169 169 169 169 169 170 170 170 170 170 170 170 170 170 170 170 170 171 171 171 171 171 171 171 171 171 171 171 171 171 171 171 172 172 172 173 173 173 173 173 173 174 174 174 174 174 174 174 174 174 174 174 174 175 175 175 175 175 175 176 176 176 176 176 176 177 177 177 177 177 177 178 178 178 179 179 179 180 180 180 180 180 180 180 180 180 181 181 181 182 182 182 182 182 182 183 183 183 183 183 183 184 184 184 185 185 185 186 186 186 187 187 187 188 188 188 188 188 188 189 189 189 190 190 190 190 190 190 191 191 191 192 192 192 192 192 192 193 193 193 194 194 194 195 195 195 196 196 196 197 197 197 198 198 198 199 199 199 200 200 200 201 201 201 202 202 202 203 203 203 204 204 204 205 205 205 207 207 207 208 208 208 209 209 209 210 210 210 211 211 211 213 213 213 214 214 214 215 215 215 216 216 216 218 218 218 219 219 219 221 221 221 222 222 222 223 223 223 224 224 224 226 226 226 227 227 227 228 228 228 229 229 229 231 231 231 232 232 232 234 234 234 235 235 235 237 237 237 238 238 238 239 239 239 240 240 240 241 241 241 242 242 242 244 244 244 245 245 245 246 246 246 247 247 247 248 248 248 249 249 249 250 250 250 251 251 251 252 252 252 252 252 252 253 253 253 253 253 253 254 254 254 254 254 254 254 254 254 254 254 254 
255 255 255 255 255 255 255 255 255 254 254 254 254 254 254 253 253 253 253 253 253 253 253 253 252 252 252 252 252 252 251 251 251 250 250 250 250 250 250 249 249 249 248 248 248 247 247 247 247 247 247 246 246 246 245 245 245 244 244 244 243 243 243 241 241 241 240 240 240 239 239 239 239 239 239 237 237 237 236 236 236 235 235 235 234 234 234 233 233 233 232 232 232 231 231 231 229 229 229 228 228 228 227 227 227 226 226 226 225 225 225 224 224 224 222 222 222 221 221 221 220 220 220 219 219 219 218 218 218 217 217 217 215 215 215 214 214 214 213 213 213 212 212 212 211 211 211 210 210 210 209 209 209 208 208 208 207 207 207 206 206 206 205 205 205 205 205 205 204 204 204 203 203 203 202 202 202 201 201 201 200 200 200 200 200 200 199 199 199 198 198 198 197 197 197 196 196 196 196 196 196 195 195 195 194 194 194 193 193 193 193 193 193 192 192 192 191 191 191 191 191 191 190 190 190 190 190 190 189 189 189 188 188 188 188 188 188 187 187 187 187 187 187 186 186 186 186 186 186 185 185 185 185 185 185 184 184 184 184 184 184 183 183 183 183 183 183 182 182 182 182 182 182 181 181 181 181 181 181 180 180 180 180 180 180 180 180 180 179 179 179 179 179 179 179 179 179 179 179 179 178 178 178 178 178 178 178 178 178 178 178 178 177 177 177 177 177 177 177 177 177 177 177 177 176 176 176 176 176 176 176 176 176 176 176 176 176 176 176 176 176 176 175 175 175 175 175 175 175 175 175 175 175 175 175 175 175 175 175 175 175 175 175 175 175 175 175 175 175 175 175 175 174 174 174 174 174 174 174 174 174 174 174 174 174 174 174 174 174 174 174 174 174 174 174 174 174 174 174 174 174 174 175 175 175 175 175 175 175 175 175 175 175 175 175 175 175 175 175 175 175 175 175 175 175 175 175 175 175 175 175 175 176 176 176 176 176 176 176 176 176 176 176 176 177 177 177 177 177 177 177 177 177 177 177 177 177 177 177 177 177 177 178 178 178 178 178 178 179 179 179 179 179 179 179 179 179 179 179 179 180 180 180 180 180 180 180 180 180 180 180 180 181 181 181 181 181 181 182 182 182 182 182 182 183 183 183 183 183 183 183 183 183 184 184 184 184 184 184 185 185 185 185 185 185 186 186 186 186 186 186 187 187 187 188 188 188 189 189 189 189 189 189 189 189 189 190 190 190 191 191 191 191 191 191 192 192 192 192 192 192 193 193 193 194 194 194 195 195 195 196 196 196 196 196 196 197 197 197 198 198 198 199 199 199 199 199 199 200 200 200 201 201 201 202 202 202 203 203 203 204 204 204 204 204 204 205 205 205 206 206 206 207 207 207 208 208 208 209 209 209 210 210 210 211 211 211 212 212 212 213 213 213 214 214 214 216 216 216 217 217 217 218 218 218 219 219 219 220 220 220 221 221 221 222 222 222 223 223 223 225 225 225 226 226 226 227 227 227 228 228 228 229 229 229 230 230 230 232 232 232 233 233 233 234 234 234 235 235 235 236 236 236 237 237 237 238 238 238 240 240 240 241 241 241 242 242 242 243 243 243 244 244 244 245 245 245 246 246 246 247 247 247 248 248 248 248 248 248 249 249 249 250 250 250 251 251 251 251 251 251 252 252 252 253 253 253 253 253 253 253 253 253 254 254 254 254 254 254 255 255 255 255 255 255 255 255 255 
255 255 255 255 255 255 255 255 255 255 255 255 254 254 254 254 254 254 254 254 254 254 254 254 253 253 253 253 253 253 252 252 252 252 252 252 251 251 251 251 251 251 250 250 250 250 250 250 249 249 249 249 249 249 248 248 248 247 247 247 246 246 246 245 245 245 244 244 244 244 244 244 243 243 243 242 242 242 240 240 240 240 240 240 239 239 239 238 238 238 237 237 237 236 236 236 235 235 235 234 234 234 233 233 233 232 232 232 231 231 231 230 230 230 229 229 229 228 228 228 227 227 227 226 226 226 225 225 225 224 224 224 222 222 222 222 222 222 221 221 221 220 220 220 219 219 219 218 218 218 217 217 217 216 216 216 215 215 215 214 214 214 213 213 213 213 213 213 212 212 212 211 211 211 210 210 210 209 209 209 208 208 208 208 208 208 207 207 207 206 206 206 205 205 205 205 205 205 204 204 204 203 203 203 202 202 202 202 202 202 201 201 201 200 200 200 199 199 199 199 199 199 199 199 199 198 198 198 197 197 197 197 197 197 196 196 196 196 196 196 195 195 195 195 195 195 194 194 194 194 194 194 193 193 193 193 193 193 192 192 192 192 192 192 191 191 191 191 191 191 190 190 190 190 190 190 189 189 189 189 189 189 188 188 188 188 188 188 187 187 187 187 187 187 187 187 187 187 187 187 186 186 186 186 186 186 186 186 186 186 186 186 185 185 185 185 185 185 185 185 185 185 185 185 184 184 184 184 184 184 184 184 184 184 184 184 184 184 184 184 184 184 183 183 183 183 183 183 183 183 183 183 183 183 183 183 183 183 183 183 183 183 183 183 183 183 183 183 183 183 183 183 182 182 182 182 182 182 182 182 182 182 182 182 182 182 182 182 182 182 182 182 182 182 182 182 182 182 182 182 182 182 183 183 183 183 183 183 183 183 183 183 183 183 183 183 183 183 183 183 183 183 183 183 183 183 183 183 183 183 183 183 184 184 184 184 184 184 184 184 184 184 184 184 185 185 185 185 185 185 185 185 185 185 185 185 185 185 185 185 185 185 186 186 186 186 186 186 187 187 187 187 187 187 187 187 187 187 187 187 188 188 188 188 188 188 189 189 189 189 189 189 189 189 189 189 189 189 190 190 190 190 190 190 191 191 191 191 191 191 192 192 192 192 192 192 193 193 193 193 193 193 194 194 194 194 194 194 195 195 195 196 196 196 196 196 196 197 197 197 198 198 198 198 198 198 199 199 199 199 199 199 200 200 200 200 200 200 201 201 201 201 201 201 202 202 202 203 203 203 204 204 204 204 204 204 205 205 205 206 206 206 207 207 207 207 207 207 208 208 208 209 209 209 210 210 210 211 211 211 212 212 212 212 212 212 213 213 213 214 214 214 215 215 215 216 216 216 217 217 217 218 218 218 219 219 219 220 220 220 221 221 221 222 222 222 223 223 223 224 224 224 225 225 225 226 226 226 227 227 227 228 228 228 229 229 229 230 230 230 231 231 231 232 232 232 233 233 233 234 234 234 235 235 235 236 236 236 237 237 237 238 238 238 239 239 239 240 240 240 241 241 241 241 241 241 243 243 243 244 244 244 245 245 245 245 245 245 246 246 246 247 247 247 248 248 248 249 249 249 250 250 250 250 250 250 251 251 251 251 251 251 252 252 252 252 252 252 253 253 253 253 253 253 254 254 254 254 254 254 254 254 254 254 254 254 255 255 255 255 255 255 255 255 255 255 255 255 
255 255 255 255 255 255 255 255 255 255 255 255 255 255 255 255 255 255 255 255 255 254 254 254 254 254 254 253 253 253 253 253 253 253 253 253 252 252 252 252 252 252 252 252 252 251 251 251 251 251 251 250 250 250 250 250 250 249 249 249 248 248 248 248 248 248 247 247 247 246 246 246 246 246 246 245 245 245 244 244 244 243 243 243 243 243 243 242 242 242 241 241 241 240 240 240 239 239 239 238 238 238 238 238 238 237 237 237 236 236 236 235 235 235 234 234 234 233 233 233 233 233 233 232 232 232 231 231 231 230 230 230 229 229 229 228 228 228 227 227 227 227 227 227 226 226 226 225 225 225 224 224 224 223 223 223 222 222 222 222 222 222 221 221 221 220 220 220 219 219 219 219 219 219 218 218 218 217 217 217 216 216 216 215 215 215 215 215 215 214 214 214 213 213 213 213 213 213 212 212 212 211 211 211 210 210 210 210 210 210 209 209 209 209 209 209 208 208 208 207 207 207 207 207 207 206 206 206 205 205 205 205 205 205 204 204 204 204 204 204 203 203 203 203 203 203 202 202 202 202 202 202 201 201 201 201 201 201 201 201 201 200 200 200 200 200 200 199 199 199 199 199 199 198 198 198 198 198 198 198 198 198 197 197 197 197 197 197 196 196 196 196 196 196 196 196 196 195 195 195 195 195 195 195 195 195 195 195 195 194 194 194 194 194 194 194 194 194 194 194 194 193 193 193 193 193 193 193 193 193 193 193 193 193 193 193 193 193 193 193 193 193 192 192 192 192 192 192 192 192 192 192 192 192 192 192 192 192 192 192 192 192 192 192 192 192 192 192 192 192 192 192 191 191 191 191 191 191 191 191 191 191 191 191 191 191 191 191 191 191 191 191 191 191 191 191 191 191 191 191 191 191 192 192 192 192 192 192 192 192 192 192 192 192 192 192 192 192 192 192 192 192 192 192 192 192 192 192 192 192 192 192 193 193 193 193 193 193 193 193 193 193 193 193 193 193 193 194 194 194 194 194 194 194 194 194 194 194 194 194 194 194 195 195 195 195 195 195 195 195 195 196 196 196 196 196 196 196 196 196 197 197 197 197 197 197 197 197 197 198 198 198 198 198 198 198 198 198 198 198 198 199 199 199 199 199 199 200 200 200 200 200 200 201 201 201 201 201 201 202 202 202 202 202 202 203 203 203 203 203 203 204 204 204 205 205 205 205 205 205 206 206 206 206 206 206 207 207 207 207 207 207 208 208 208 208 208 208 209 209 209 209 209 209 210 210 210 211 211 211 212 212 212 212 212 212 213 213 213 214 214 214 215 215 215 215 215 215 216 216 216 217 217 217 218 218 218 219 219 219 219 219 219 220 220 220 221 221 221 221 221 221 222 222 222 223 223 223 224 224 224 225 225 225 226 226 226 227 227 227 228 228 228 228 228 228 229 229 229 230 230 230 231 231 231 232 232 232 232 232 232 233 233 233 234 234 234 235 235 235 236 236 236 237 237 237 238 238 238 239 239 239 239 239 239 240 240 240 241 241 241 242 242 242 243 243 243 244 244 244 244 244 244 245 245 245 246 246 246 247 247 247 247 247 247 248 248 248 248 248 248 249 249 249 250 250 250 251 251 251 251 251 251 251 251 251 252 252 252 252 252 252 252 252 252 253 253 253 253 253 253 254 254 254 254 254 254 254 254 254 254 254 254 255 255 255 255 255 255 255 255 255 255 255 255 255 255 255 
255 255 255 255 255 255 255 255 255 255 255 255 255 255 255 255 255 255 255 255 255 255 255 255 254 254 254 254 254 254 254 254 254 254 254 254 253 253 253 253 253 253 253 253 253 253 253 253 252 252 252 252 252 252 252 252 252 251 251 251 250 250 250 250 250 250 250 250 250 249 249 249 248 248 248 248 248 248 247 247 247 247 247 247 246 246 246 245 245 245 244 244 244 244 244 244 243 243 243 243 243 243 242 242 242 242 242 242 241 241 241 240 240 240 239 239 239 239 239 239 238 238 238 238 238 238 237 237 237 236 236 236 235 235 235 234 234 234 233 233 233 233 233 233 232 232 232 231 231 231 230 230 230 230 230 230 229 229 229 229 229 229 228 228 228 227 227 227 226 226 226 226 226 226 225 225 225 224 224 224 223 223 223 223 223 223 222 222 222 222 222 222 221 221 221 220 220 220 219 219 219 219 219 219 218 218 218 218 218 218 217 217 217 217 217 217 216 216 216 215 215 215 214 214 214 214 214 214 213 213 213 213 213 213 212 212 212 212 212 212 211 211 211 211 211 211 210 210 210 210 210 210 209 209 209 209 209 209 209 209 209 209 209 209 208 208 208 208 208 208 207 207 207 207 207 207 206 206 206 206 206 206 206 206 206 206 206 206 205 205 205 205 205 205 204 204 204 204 204 204 203 203 203 203 203 203 203 203 203 203 203 203 202 202 202 202 202 202 202 202 202 202 202 202 201 201 201 201 201 201 201 201 201 201 201 201 201 201 201 201 201 201 201 201 201 201 201 201 200 200 200 200 200 200 200 200 200 200 200 200 200 200 200 200 200 200 200 200 200 200 200 200 200 200 200 200 200 200 200 200 200 200 200 200 200 200 200 200 200 200 200 200 200 200 200 200 200 200 200 200 200 200 200 200 200 200 200 200 200 200 200 200 200 200 200 200 200 200 200 200 200 200 200 200 200 200 201 201 201 201 201 201 201 201 201 201 201 201 201 201 201 201 201 201 202 202 202 202 202 202 202 202 202 202 202 202 203 203 203 203 203 203 203 203 203 203 203 203 204 204 204 204 204 204 205 205 205 205 205 205 205 205 205 205 205 205 206 206 206 206 206 206 206 206 206 206 206 206 207 207 207 207 207 207 208 208 208 208 208 208 209 209 209 209 209 209 210 210 210 210 210 210 211 211 211 211 211 211 212 212 212 212 212 212 213 213 213 213 213 213 214 214 214 214 214 214 215 215 215 215 215 215 216 216 216 216 216 216 217 217 217 217 217 217 218 218 218 219 219 219 220 220 220 220 220 220 221 221 221 222 222 222 223 223 223 223 223 223 224 224 224 224 224 224 225 225 225 226 226 226 227 227 227 227 227 227 228 228 228 228 228 228 229 229 229 230 230 230 231 231 231 231 231 231 232 232 232 233 233 233 234 234 234 234 234 234 235 235 235 236 236 236 237 237 237 237 237 237 238 238 238 238 238 238 239 239 239 240 240 240 241 241 241 241 241 241 242 242 242 243 243 243 244 244 244 244 244 244 245 245 245 246 246 246 247 247 247 247 247 247 248 248 248 248 248 248 249 249 249 249 249 249 250 250 250 250 250 250 251 251 251 251 251 251 252 252 252 252 252 252 252 252 252 252 252 252 253 253 253 253 253 253 253 253 253 253 253 253 254 254 254 254 254 254 254 254 254 254 254 254 255 255 255 255 255 255 255 255 255 255 255 255 255 255 255 255 255 255 
255 255 255 255 255 255 255 255 255 255 255 255 255 255 255 255 255 255 255 255 255 255 255 255 255 255 255 254 254 254 254 254 254 254 254 254 254 254 254 254 254 254 254 254 254 253 253 253 253 253 253 253 253 253 253 253 253 252 252 252 252 252 252 251 251 251 251 251 251 251 251 251 250 250 250 250 250 250 249 249 249 249 249 249 249 249 249 248 248 248 247 247 247 247 247 247 246 246 246 246 246 246 245 245 245 245 245 245 244 244 244 243 243 243 243 243 243 242 242 242 242 242 242 242 242 242 241 241 241 240 240 240 240 240 240 239 239 239 238 238 238 238 238 238 237 237 237 236 236 236 236 236 236 235 235 235 234 234 234 234 234 234 233 233 233 232 232 232 232 232 232 231 231 231 231 231 231 230 230 230 229 229 229 229 229 229 228 228 228 228 228 228 227 227 227 227 227 227 226 226 226 225 225 225 225 225 225 224 224 224 224 224 224 223 223 223 223 223 223 222 222 222 222 222 222 221 221 221 221 221 221 220 220 220 220 220 220 219 219 219 219 219 219 218 218 218 218 218 218 217 217 217 217 217 217 216 216 216 216 216 216 216 216 216 216 216 216 215 215 215 215 215 215 214 214 214 214 214 214 214 214 214 214 214 214 213 213 213 213 213 213 212 212 212 212 212 212 212 212 212 211 211 211 211 211 211 211 211 211 211 211 211 210 210 210 210 210 210 210 210 210 210 210 210 210 210 210 209 209 209 209 209 209 209 209 209 209 209 209 209 209 209 209 209 209 209 209 209 208 208 208 208 208 208 208 208 208 208 208 208 208 208 208 208 208 208 208 208 208 208 208 208 208 208 208 208 208 208 208 208 208 208 208 208 208 208 208 208 208 208 208 208 208 208 208 208 208 208 208 208 208 208 208 208 208 208 208 208 208 208 208 208 208 208 208 208 208 208 208 208 208 208 208 208 208 208 209 209 209 209 209 209 209 209 209 209 209 209 209 209 209 209 209 209 209 209 209 210 210 210 210 210 210 210 210 210 210 210 210 211 211 211 211 211 211 211 211 211 211 211 211 212 212 212 212 212 212 213 213 213 213 213 213 213 213 213 213 213 213 214 214 214 214 214 214 214 214 214 215 215 215 215 215 215 215 215 215 216 216 216 216 216 216 217 217 217 217 217 217 218 218 218 218 218 218 218 218 218 219 219 219 219 219 219 220 220 220 220 220 220 221 221 221 221 221 221 222 222 222 222 222 222 223 223 223 223 223 223 224 224 224 224 224 224 225 225 225 226 226 226 226 226 226 227 227 227 228 228 228 228 228 228 229 229 229 229 229 229 230 230 230 230 230 230 231 231 231 232 232 232 232 232 232 233 233 233 233 233 233 234 234 234 234 234 234 235 235 235 236 236 236 236 236 236 237 237 237 238 238 238 238 238 238 239 239 239 239 239 239 240 240 240 241 241 241 241 241 241 242 242 242 242 242 242 243 243 243 244 244 244 244 244 244 244 244 244 245 245 245 246 246 246 247 247 247 247 247 247 248 248 248 248 248 248 249 249 249 249 249 249 249 249 249 250 250 250 250 250 250 251 251 251 251 251 251 251 251 251 252 252 252 252 252 252 252 252 252 253 253 253 253 253 253 253 253 253 253 253 253 254 254 254 254 254 254 254 254 254 254 254 254 255 255 255 255 255 255 255 255 255 255 255 255 255 255 255 255 255 255 255 255 255 255 255 255 255 255 255 
255 255 255 255 255 255 255 255 255 255 255 255 255 255 255 255 255 255 255 255 255 255 255 255 255 255 255 255 255 255 254 254 254 254 254 254 254 254 254 254 254 254 254 254 254 254 254 254 254 254 254 254 254 254 253 253 253 253 253 253 253 253 253 253 253 253 252 252 252 252 252 252 252 252 252 252 252 252 251 251 251 251 251 251 251 251 251 251 251 251 250 250 250 250 250 250 249 249 249 249 249 249 248 248 248 248 248 248 247 247 247 247 247 247 246 246 246 246 246 246 246 246 246 246 246 246 245 245 245 245 245 245 244 244 244 244 244 244 243 243 243 243 243 243 242 242 242 242 242 242 241 241 241 240 240 240 239 239 239 239 239 239 238 238 238 238 238 238 237 237 237 237 237 237 236 236 236 236 236 236 235 235 235 235 235 235 234 234 234 234 234 234 233 233 233 233 233 233 232 232 232 232 232 232 231 231 231 231 231 231 230 230 230 230 230 230 229 229 229 229 229 229 229 229 229 229 229 229 228 228 228 228 228 228 227 227 227 227 227 227 226 226 226 226 226 226 225 225 225 225 225 225 224 224 224 224 224 224 223 223 223 223 223 223 223 223 223 223 223 223 222 222 222 222 222 222 221 221 221 221 221 221 221 221 221 221 221 221 220 220 220 220 220 220 220 220 220 220 220 220 219 219 219 219 219 219 219 219 219 219 219 219 218 218 218 218 218 218 218 218 218 218 218 218 218 218 218 218 218 218 217 217 217 217 217 217 217 217 217 217 217 217 217 217 217 217 217 217 216 216 216 216 216 216 216 216 216 216 216 216 216 216 216 216 216 216 216 216 216 216 216 216 216 216 216 216 216 216 216 216 216 216 216 216 216 216 216 216 216 216 216 216 216 216 216 216 216 216 216 216 216 216 215 215 215 215 215 215 216 216 216 216 216 216 216 216 216 216 216 216 216 216 216 216 216 216 217 217 217 217 217 217 217 217 217 217 217 217 217 217 217 217 217 217 217 217 217 217 217 217 218 218 218 218 218 218 218 218 218 218 218 218 219 219 219 219 219 219 219 219 219 219 219 219 220 220 220 220 220 220 221 221 221 221 221 221 221 221 221 221 221 221 222 222 222 222 222 222 223 223 223 223 223 223 223 223 223 223 223 223 224 224 224 224 224 224 225 225 225 225 225 225 225 225 225 225 225 225 226 226 226 226 226 226 227 227 227 227 227 227 228 228 228 228 228 228 229 229 229 229 229 229 230 230 230 230 230 230 231 231 231 231 231 231 232 232 232 232 232 232 233 233 233 233 233 233 234 234 234 234 234 234 235 235 235 235 235 235 236 236 236 236 236 236 237 237 237 237 237 237 238 238 238 238 238 238 239 239 239 239 239 239 240 240 240 240 240 240 241 241 241 241 241 241 242 242 242 242 242 242 243 243 243 243 243 243 244 244 244 244 244 244 245 245 245 245 245 245 246 246 246 246 246 246 247 247 247 247 247 247 247 247 247 247 247 247 248 248 248 249 249 249 250 250 250 250 250 250 250 250 250 250 250 250 251 251 251 251 251 251 251 251 251 251 251 251 252 252 252 252 252 252 252 252 252 252 252 252 253 253 253 253 253 253 253 253 253 253 253 253 254 254 254 254 254 254 254 254 254 254 254 254 254 254 254 254 254 254 255 255 255 255 255 255 255 255 255 255 255 255 255 255 255 255 255 255 255 255 255 255 255 255 255 255 255 255 255 255 
255 255 255 255 255 255 255 255 255 255 255 255 255 255 255 255 255 255 255 255 255 255 255 255 255 255 255 255 255 255 255 255 255 255 255 255 255 255 255 255 255 255 255 255 255 254 254 254 254 254 254 254 254 254 254 254 254 254 254 254 254 254 254 253 253 253 253 253 253 253 253 253 253 253 253 252 252 252 252 252 252 252 252 252 252 252 252 252 252 252 251 251 251 251 251 251 251 251 251 250 250 250 250 250 250 250 250 250 249 249 249 249 249 249 249 249 249 248 248 248 248 248 248 248 248 248 248 248 248 247 247 247 247 247 247 246 246 246 246 246 246 245 245 245 245 245 245 245 245 245 244 244 244 243 243 243 243 243 243 242 242 242 242 242 242 242 242 242 241 241 241 241 241 241 240 240 240 240 240 240 240 240 240 239 239 239 239 239 239 238 238 238 238 238 238 238 238 238 237 237 237 237 237 237 236 236 236 236 236 236 236 236 236 235 235 235 235 235 235 234 234 234 234 234 234 234 234 234 233 233 233 233 233 233 233 233 233 232 232 232 232 232 232 231 231 231 231 231 231 231 231 231 230 230 230 230 230 230 229 229 229 229 229 229 229 229 229 229 229 229 228 228 228 228 228 228 228 228 228 227 227 227 227 227 227 227 227 227 227 227 227 227 227 227 227 227 227 226 226 226 226 226 226 225 225 225 225 225 225 225 225 225 225 225 225 225 225 225 225 225 225 225 225 225 225 225 225 224 224 224 224 224 224 224 224 224 224 224 224 224 224 224 224 224 224 223 223 223 223 223 223 223 223 223 223 223 223 223 223 223 223 223 223 223 223 223 223 223 223 223 223 223 223 223 223 223 223 223 223 223 223 223 223 223 223 223 223 223 223 223 223 223 223 223 223 223 223 223 223 223 223 223 223 223 223 223 223 223 223 223 223 223 223 223 223 223 223 223 223 223 223 223 223 223 223 223 224 224 224 224 224 224 224 224 224 224 224 224 224 224 224 224 224 224 224 224 224 224 224 224 225 225 225 225 225 225 225 225 225 225 225 225 225 225 225 226 226 226 226 226 226 226 226 226 226 226 226 227 227 227 227 227 227 227 227 227 227 227 227 228 228 228 228 228 228 228 228 228 229 229 229 229 229 229 229 229 229 229 229 229 230 230 230 230 230 230 230 230 230 231 231 231 231 231 231 231 231 231 231 231 231 232 232 232 232 232 232 233 233 233 233 233 233 234 234 234 234 234 234 234 234 234 235 235 235 235 235 235 236 236 236 236 236 236 237 237 237 237 237 237 237 237 237 238 238 238 238 238 238 239 239 239 239 239 239 240 240 240 240 240 240 240 240 240 241 241 241 241 241 241 242 242 242 242 242 242 242 242 242 243 243 243 243 243 243 244 244 244 244 244 244 245 245 245 245 245 245 245 245 245 246 246 246 246 246 246 247 247 247 247 247 247 247 247 247 248 248 248 248 248 248 249 249 249 249 249 249 249 249 249 249 249 249 250 250 250 250 250 250 251 251 251 251 251 251 251 251 251 251 251 251 252 252 252 252 252 252 252 252 252 252 252 252 252 252 252 253 253 253 253 253 253 253 253 253 253 253 253 253 253 253 254 254 254 254 254 254 254 254 254 254 254 254 254 254 254 254 254 254 255 255 255 255 255 255 255 255 255 255 255 255 255 255 255 255 255 255 255 255 255 255 255 255 255 255 255 255 255 255 255 255 255 255 255 255 255 255 255 
255 255 255 255 255 255 255 255 255 255 255 255 255 255 255 255 255 255 255 255 255 255 255 255 255 255 255 255 255 255 255 255 255 255 255 255 255 255 255 255 255 255 255 255 255 255 255 255 254 254 254 254 254 254 254 254 254 254 254 254 254 254 254 254 254 254 254 254 254 254 254 254 253 253 253 253 253 253 253 253 253 253 253 253 253 253 253 253 253 253 252 252 252 252 252 252 252 252 252 252 252 252 252 252 252 252 252 252 251 251 251 251 251 251 251 251 251 251 251 251 250 250 250 250 250 250 250 250 250 250 250 250 249 249 249 249 249 249 248 248 248 248 248 248 248 248 248 248 248 248 247 247 247 247 247 247 246 246 246 246 246 246 246 246 246 246 246 246 245 245 245 245 245 245 244 244 244 244 244 244 244 244 244 244 244 244 243 243 243 243 243 243 243 243 243 243 243 243 242 242 242 242 242 242 241 241 241 241 241 241 241 241 241 241 241 241 240 240 240 240 240 240 239 239 239 239 239 239 238 238 238 238 238 238 238 238 238 238 238 238 237 237 237 237 237 237 237 237 237 237 237 237 236 236 236 236 236 236 235 235 235 235 235 235 235 235 235 235 235 235 234 234 234 234 234 234 234 234 234 234 234 234 233 233 233 233 233 233 233 233 233 233 233 233 233 233 233 233 233 233 232 232 232 232 232 232 231 231 231 231 231 231 232 232 232 232 232 232 231 231 231 231 231 231 231 231 231 231 231 231 231 231 231 231 231 231 231 231 231 231 231 231 230 230 230 230 230 230 230 230 230 230 230 230 230 230 230 230 230 230 230 230 230 230 230 230 230 230 230 230 230 230 230 230 230 230 230 230 230 230 230 230 230 230 230 230 230 230 230 230 230 230 230 230 230 230 230 230 230 230 230 230 230 230 230 230 230 230 230 230 230 230 230 230 230 230 230 230 230 230 230 230 230 230 230 230 231 231 231 231 231 231 231 231 231 231 231 231 230 230 230 230 230 230 231 231 231 231 231 231 232 232 232 232 232 232 232 232 232 232 232 232 232 232 232 232 232 232 232 232 232 232 232 232 233 233 233 233 233 233 233 233 233 233 233 233 234 234 234 234 234 234 234 234 234 234 234 234 235 235 235 235 235 235 235 235 235 235 235 235 236 236 236 236 236 236 236 236 236 236 236 236 237 237 237 237 237 237 237 237 237 237 237 237 238 238 238 238 238 238 239 239 239 239 239 239 239 239 239 239 239 239 240 240 240 240 240 240 241 241 241 241 241 241 242 242 242 242 242 242 242 242 242 242 242 242 243 243 243 243 243 243 244 244 244 244 244 244 244 244 244 244 244 244 245 245 245 245 245 245 246 246 246 246 246 246 246 246 246 246 246 246 247 247 247 247 247 247 248 248 248 248 248 248 248 248 248 248 248 248 249 249 249 249 249 249 250 250 250 250 250 250 250 250 250 250 250 250 251 251 251 251 251 251 251 251 251 251 251 251 252 252 252 252 252 252 252 252 252 252 252 252 252 252 252 252 252 252 253 253 253 253 253 253 253 253 253 253 253 253 253 253 253 253 253 253 254 254 254 254 254 254 254 254 254 254 254 254 254 254 254 254 254 254 254 254 254 254 254 254 254 254 254 254 254 254 255 255 255 255 255 255 255 255 255 255 255 255 255 255 255 255 255 255 255 255 255 255 255 255 255 255 255 255 255 255 255 255 255 255 255 255 255 255 255 255 255 255 
