P3
64 64
255
255 255 255 255 255 255 255 255 255 255 255 255 255 255 255 255 255 255 255 255 255 255 255 255 255 255 255 255 255 255 255 255 255 255 255 255 255 255 255 255 255 255 255 255 255 255 255 255 255 255 255 255 255 255 255 255 255 255 255 255 255 255 255 255 255 255 255 255 255 255 255 255 254 254 254 254 254 254 254 254 254 252 252 252 229 229 229 193 193 193 159 159 159 144 144 144 146 146 146 164 164 164 202 202 202 237 237 237 253 253 253 254 254 254 254 254 254 254 254 254 255 255 255 255 255 255 255 255 255 255 255 255 255 255 255 255 255 255 255 255 255 255 255 255 255 255 255 255 255 255 255 255 255 255 255 255 255 255 255 255 255 255 255 255 255 255 255 255 255 255 255 255 255 255 255 255 255 255 255 255 255 255 255 255 255 255 255 255 255 255 255 255 
255 255 255 255 255 255 255 255 255 255 255 255 255 255 255 255 255 255 255 255 255 255 255 255 255 255 255 255 255 255 255 255 255 255 255 255 255 255 255 255 255 255 255 255 255 255 255 255 255 255 255 255 255 255 255 255 255 255 255 255 255 255 255 255 255 255 255 255 255 255 255 255 253 253 253 200 200 200 130 130 130 133 133 133 162 162 162 203 203 203 232 232 232 247 247 247 248 248 248 231 231 231 204 204 204 167 167 167 148 148 148 152 152 152 219 219 219 254 254 254 255 255 255 255 255 255 255 255 255 255 255 255 255 255 255 255 255 255 255 255 255 255 255 255 255 255 255 255 255 255 255 255 255 255 255 255 255 255 255 255 255 255 255 255 255 255 255 255 255 255 255 255 255 255 255 255 255 255 255 255 255 255 255 255 255 255 255 255 255 255 255 255 
255 255 255 255 255 255 255 255 255 255 255 255 255 255 255 255 255 255 255 255 255 255 255 255 255 255 255 255 255 255 255 255 255 255 255 255 255 255 255 255 255 255 255 255 255 255 255 255 255 255 255 255 255 255 255 255 255 255 255 255 254 254 254 254 254 254 253 253 253 183 183 183 100 100 100 157 157 157 235 235 235 244 244 244 244 244 244 244 244 244 244 244 244 244 244 244 244 244 244 244 244 244 244 244 244 244 244 244 244 244 244 235 235 235 162 162 162 124 124 124 210 210 210 254 254 254 254 254 254 254 254 254 255 255 255 255 255 255 255 255 255 255 255 255 255 255 255 255 255 255 255 255 255 255 255 255 255 255 255 255 255 255 255 255 255 255 255 255 255 255 255 255 255 255 255 255 255 255 255 255 255 255 255 255 255 255 255 255 255 255 255 255 
255 255 255 255 255 255 255 255 255 255 255 255 255 255 255 255 255 255 255 255 255 255 255 255 255 255 255 255 255 255 255 255 255 255 255 255 255 255 255 255 255 255 255 255 255 255 255 255 255 255 255 255 255 255 255 255 255 255 255 255 254 254 254 229 229 229 91 91 91 133 133 133 230 230 230 235 235 235 235 235 235 235 235 235 235 235 235 235 235 235 235 235 235 235 235 235 235 235 235 235 235 235 235 235 235 235 235 235 235 235 235 235 235 235 235 235 235 230 230 230 139 139 139 132 132 132 246 246 246 254 254 254 255 255 255 255 255 255 255 255 255 255 255 255 255 255 255 255 255 255 255 255 255 255 255 255 255 255 255 255 255 255 255 255 255 255 255 255 255 255 255 255 255 255 255 255 255 255 255 255 255 255 255 255 255 255 255 255 255 255 255 255 
255 255 255 255 255 255 255 255 255 255 255 255 255 255 255 255 255 255 255 255 255 255 255 255 255 255 255 255 255 255 255 255 255 255 255 255 255 255 255 255 255 255 255 255 255 255 255 255 255 255 255 255 255 255 254 254 254 254 254 254 197 197 197 53 53 53 180 180 180 225 225 225 225 225 225 225 225 225 225 225 225 225 225 225 225 225 225 225 225 225 225 225 225 225 225 225 225 225 225 225 225 225 225 225 225 225 225 225 225 225 225 225 225 225 225 225 225 225 225 225 225 225 225 180 180 180 85 85 85 227 227 227 254 254 254 254 254 254 255 255 255 255 255 255 255 255 255 255 255 255 255 255 255 255 255 255 255 255 255 255 255 255 255 255 255 255 255 255 255 255 255 255 255 255 255 255 255 255 255 255 255 255 255 255 255 255 255 255 255 255 255 255 
255 255 255 255 255 255 255 255 255 255 255 255 255 255 255 255 255 255 255 255 255 255 255 255 255 255 255 255 255 255 255 255 255 255 255 255 255 255 255 255 255 255 255 255 255 255 255 255 255 255 255 255 255 255 254 254 254 180 180 180 35 35 35 184 184 184 214 214 214 214 214 214 214 214 214 214 214 214 214 214 214 214 214 214 214 214 214 214 214 214 214 214 214 214 214 214 214 214 214 214 214 214 214 214 214 214 214 214 214 214 214 214 214 214 214 214 214 214 214 214 214 214 214 214 214 214 184 184 184 57 57 57 216 216 216 254 254 254 255 255 255 255 255 255 255 255 255 255 255 255 255 255 255 255 255 255 255 255 255 255 255 255 255 255 255 255 255 255 255 255 255 255 255 255 255 255 255 255 255 255 255 255 255 255 255 255 255 255 255 255 255 255 
255 255 255 255 255 255 255 255 255 255 255 255 255 255 255 255 255 255 255 255 255 255 255 255 255 255 255 255 255 255 255 255 255 255 255 255 255 255 255 255 255 255 255 255 255 255 255 255 254 254 254 254 254 254 191 191 191 16 16 16 158 158 158 203 203 203 203 203 203 203 203 203 203 203 203 203 203 203 203 203 203 203 203 203 203 203 203 203 203 203 203 203 203 203 203 203 203 203 203 203 203 203 203 203 203 203 203 203 203 203 203 203 203 203 203 203 203 203 203 203 203 203 203 203 203 203 203 203 203 158 158 158 39 39 39 227 227 227 254 254 254 254 254 254 255 255 255 255 255 255 255 255 255 255 255 255 255 255 255 255 255 255 255 255 255 255 255 255 255 255 255 255 255 255 255 255 255 255 255 255 255 255 255 255 255 255 255 255 255 255 255 255 
255 255 255 255 255 255 255 255 255 255 255 255 255 255 255 255 255 255 255 255 255 255 255 255 255 255 255 255 255 255 255 255 255 255 255 255 255 255 255 255 255 255 255 255 255 255 255 255 254 254 254 224 224 224 24 24 24 90 90 90 190 190 190 190 190 190 190 190 190 190 190 190 187 187 187 184 184 184 185 185 185 189 189 189 190 190 190 190 190 190 190 190 190 190 190 190 190 190 190 190 190 190 190 190 190 190 190 190 190 190 190 190 190 190 190 190 190 190 190 190 190 190 190 190 190 190 190 190 190 190 190 190 89 89 89 65 65 65 248 248 248 254 254 254 255 255 255 255 255 255 255 255 255 255 255 255 255 255 255 255 255 255 255 255 255 255 255 255 255 255 255 255 255 255 255 255 255 255 255 255 255 255 255 255 255 255 255 255 255 255 255 255 
255 255 255 255 255 255 255 255 255 255 255 255 255 255 255 255 255 255 255 255 255 255 255 255 255 255 255 255 255 255 255 255 255 255 255 255 255 255 255 255 255 255 255 255 255 255 255 255 252 252 252 76 76 76 11 11 11 167 167 167 177 177 177 177 177 177 159 159 159 113 113 113 94 94 94 97 97 97 95 95 95 97 97 97 128 128 128 169 169 169 177 177 177 177 177 177 177 177 177 177 177 177 177 177 177 177 177 177 177 177 177 177 177 177 177 177 177 177 177 177 177 177 177 177 177 177 177 177 177 177 177 177 167 167 167 12 12 12 139 139 139 254 254 254 255 255 255 255 255 255 255 255 255 255 255 255 255 255 255 255 255 255 255 255 255 255 255 255 255 255 255 255 255 255 255 255 255 255 255 255 255 255 255 255 255 255 255 255 255 255 255 255 
255 255 255 255 255 255 255 255 255 255 255 255 255 255 255 255 255 255 255 255 255 255 255 255 255 255 255 255 255 255 255 255 255 255 255 255 255 255 255 255 255 255 255 255 255 255 255 255 177 177 177 1 1 1 68 68 68 164 164 164 162 162 162 117 117 117 83 83 83 116 116 116 120 120 120 110 110 110 112 112 112 122 122 122 104 104 104 83 83 83 140 140 140 163 163 163 164 164 164 164 164 164 164 164 164 164 164 164 164 164 164 164 164 164 164 164 164 164 164 164 164 164 164 164 164 164 164 164 164 164 164 164 164 164 164 69 69 69 16 16 16 228 228 228 255 255 255 255 255 255 255 255 255 255 255 255 255 255 255 255 255 255 255 255 255 255 255 255 255 255 255 255 255 255 255 255 255 255 255 255 255 255 255 255 255 255 255 255 255 255 255 255 
255 255 255 255 255 255 255 255 255 255 255 255 255 255 255 255 255 255 255 255 255 255 255 255 255 255 255 255 255 255 255 255 255 255 255 255 255 255 255 255 255 255 254 254 254 252 252 252 55 55 55 0 0 0 107 107 107 149 149 149 103 103 103 82 82 82 89 89 89 53 53 53 89 89 89 131 131 131 132 132 132 94 94 94 69 69 69 96 96 96 73 73 73 128 128 128 150 150 150 150 150 150 150 150 150 148 148 148 135 135 135 123 123 123 120 120 120 124 124 124 137 137 137 148 148 148 150 150 150 150 150 150 150 150 150 106 106 106 0 0 0 115 115 115 254 254 254 254 254 254 255 255 255 255 255 255 255 255 255 255 255 255 255 255 255 255 255 255 255 255 255 255 255 255 255 255 255 255 255 255 255 255 255 255 255 255 255 255 255 255 255 255 
255 255 255 255 255 255 255 255 255 255 255 255 255 255 255 255 255 255 255 255 255 255 255 255 255 255 255 255 255 255 255 255 255 255 255 255 255 255 255 255 255 255 254 254 254 196 196 196 2 2 2 0 0 0 122 122 122 109 109 109 62 62 62 55 55 55 58 58 58 182 182 182 240 240 240 251 251 251 251 251 251 240 240 240 183 183 183 68 68 68 68 68 68 64 64 64 127 127 127 134 134 134 107 107 107 77 77 77 91 91 91 113 113 113 120 120 120 112 112 112 88 88 88 78 78 78 111 111 111 135 135 135 136 136 136 122 122 122 0 0 0 20 20 20 239 239 239 254 254 254 255 255 255 255 255 255 255 255 255 255 255 255 255 255 255 255 255 255 255 255 255 255 255 255 255 255 255 255 255 255 255 255 255 255 255 255 255 255 255 255 255 255 
255 255 255 255 255 255 255 255 255 255 255 255 255 255 255 255 255 255 255 255 255 255 255 255 255 255 255 255 255 255 255 255 255 255 255 255 255 255 255 255 255 255 255 255 255 111 111 111 0 0 0 0 0 0 115 115 115 55 55 55 44 44 44 44 44 44 161 161 161 207 207 207 236 236 236 246 246 246 246 246 246 245 245 245 243 243 243 195 195 195 53 53 53 48 48 48 72 72 72 74 74 74 78 78 78 93 93 93 70 70 70 50 50 50 43 43 43 54 54 54 78 78 78 101 101 101 78 78 78 79 79 79 118 118 118 120 120 120 0 0 0 0 0 0 170 170 170 254 254 254 255 255 255 255 255 255 255 255 255 255 255 255 255 255 255 255 255 255 255 255 255 255 255 255 255 255 255 255 255 255 255 255 255 255 255 255 255 255 255 255 255 255 
255 255 255 255 255 255 255 255 255 255 255 255 255 255 255 255 255 255 255 255 255 255 255 255 255 255 255 255 255 255 255 255 255 255 255 255 255 255 255 255 255 255 253 253 253 42 42 42 0 0 0 0 0 0 78 78 78 33 33 33 13 13 13 136 136 136 182 182 182 202 202 202 214 214 214 230 230 230 243 243 243 242 242 242 238 238 238 231 231 231 151 151 151 23 23 23 28 28 28 47 47 47 29 29 29 72 72 72 125 125 125 170 170 170 197 197 197 164 164 164 94 94 94 27 27 27 32 32 32 56 56 56 65 65 65 103 103 103 0 0 0 0 0 0 99 99 99 254 254 254 255 255 255 255 255 255 255 255 255 255 255 255 255 255 255 255 255 255 255 255 255 255 255 255 255 255 255 255 255 255 255 255 255 255 255 255 255 255 255 255 255 255 
255 255 255 255 255 255 255 255 255 255 255 255 255 255 255 255 255 255 255 255 255 255 255 255 255 255 255 255 255 255 255 255 255 255 255 255 255 255 255 255 255 255 229 229 229 8 8 8 0 0 0 0 0 0 35 35 35 14 14 14 54 54 54 171 171 171 194 194 194 211 211 211 220 220 220 222 222 222 229 229 229 238 238 238 234 234 234 226 226 226 201 201 201 58 58 58 13 13 13 28 28 28 134 134 134 172 172 172 184 184 184 191 191 191 228 228 228 243 243 243 236 236 236 187 187 187 61 61 61 6 6 6 25 25 25 56 56 56 0 0 0 0 0 0 43 43 43 253 253 253 255 255 255 255 255 255 255 255 255 255 255 255 255 255 255 255 255 255 255 255 255 255 255 255 255 255 255 255 255 255 255 255 255 255 255 255 255 255 255 255 255 255 
255 255 255 255 255 255 255 255 255 255 255 255 255 255 255 255 255 255 255 255 255 255 255 255 255 255 255 255 255 255 255 255 255 255 255 255 255 255 255 255 255 255 190 190 190 0 0 0 0 0 0 0 0 0 9 9 9 3 3 3 107 107 107 183 183 183 201 201 201 215 215 215 220 220 220 221 221 221 221 221 221 228 228 228 229 229 229 207 207 207 170 170 170 106 106 106 11 11 11 132 132 132 175 175 175 194 194 194 204 204 204 209 209 209 211 211 211 233 233 233 233 233 233 227 227 227 190 190 190 45 45 45 1 1 1 11 11 11 0 0 0 0 0 0 12 12 12 237 237 237 255 255 255 255 255 255 255 255 255 255 255 255 255 255 255 255 255 255 255 255 255 255 255 255 255 255 255 255 255 255 255 255 255 255 255 255 255 255 255 255 255 255 
255 255 255 255 255 255 255 255 255 255 255 255 255 255 255 255 255 255 255 255 255 255 255 255 255 255 255 255 255 255 255 255 255 255 255 255 255 255 255 255 255 255 157 157 157 0 0 0 0 0 0 0 0 0 2 2 2 0 0 0 143 143 143 189 189 189 203 203 203 215 215 215 218 218 218 219 219 219 218 218 218 220 220 220 210 210 210 74 74 74 211 211 211 131 131 131 53 53 53 119 119 119 133 133 133 203 203 203 215 215 215 218 218 218 218 218 218 222 222 222 228 228 228 220 220 220 206 206 206 137 137 137 1 1 1 0 0 0 0 0 0 0 0 0 2 2 2 213 213 213 255 255 255 255 255 255 255 255 255 255 255 255 255 255 255 255 255 255 255 255 255 255 255 255 255 255 255 255 255 255 255 255 255 255 255 255 255 255 255 255 255 255 
255 255 255 255 255 255 255 255 255 255 255 255 255 255 255 255 255 255 255 255 255 255 255 255 255 255 255 255 255 255 255 255 255 255 255 255 255 255 255 255 255 255 133 133 133 0 0 0 0 0 0 0 0 0 0 0 0 0 0 0 160 160 160 193 193 193 203 203 203 214 214 214 216 216 216 216 216 216 216 216 216 216 216 216 143 143 143 12 12 12 117 117 117 113 113 113 28 28 28 86 86 86 177 177 177 154 154 154 217 217 217 218 218 218 218 218 218 218 218 218 220 220 220 212 212 212 196 196 196 166 166 166 23 23 23 0 0 0 0 0 0 0 0 0 0 0 0 192 192 192 255 255 255 255 255 255 255 255 255 255 255 255 255 255 255 255 255 255 255 255 255 255 255 255 255 255 255 255 255 255 255 255 255 255 255 255 255 255 255 255 255 255 
255 255 255 255 255 255 255 255 255 255 255 255 255 255 255 255 255 255 255 255 255 255 255 255 255 255 255 255 255 255 255 255 255 255 255 255 255 255 255 255 255 255 107 107 107 0 0 0 0 0 0 0 0 0 0 0 0 0 0 0 158 158 158 196 196 196 202 202 202 212 212 212 214 214 214 214 214 214 214 214 214 214 214 214 121 121 121 25 25 25 0 0 0 0 0 0 18 18 18 15 15 15 13 13 13 112 112 112 214 214 214 215 215 215 215 215 215 215 215 215 212 212 212 204 204 204 186 186 186 158 158 158 33 33 33 0 0 0 0 0 0 0 0 0 0 0 0 166 166 166 255 255 255 255 255 255 255 255 255 255 255 255 255 255 255 255 255 255 255 255 255 255 255 255 255 255 255 255 255 255 255 255 255 255 255 255 255 255 255 255 255 255 
255 255 255 255 255 255 255 255 255 255 255 255 255 255 255 255 255 255 255 255 255 255 255 255 255 255 255 255 255 255 255 255 255 255 255 255 255 255 255 255 255 255 76 76 76 0 0 0 0 0 0 0 0 0 0 0 0 0 0 0 137 137 137 195 195 195 205 205 205 208 208 208 211 211 211 212 212 212 212 212 212 211 211 211 143 143 143 54 54 54 2 2 2 2 2 2 27 27 27 28 28 28 0 0 0 131 131 131 210 210 210 211 211 211 211 211 211 210 210 210 206 206 206 196 196 196 177 177 177 149 149 149 16 16 16 0 0 0 0 0 0 0 0 0 0 0 0 135 135 135 255 255 255 255 255 255 255 255 255 255 255 255 255 255 255 255 255 255 255 255 255 255 255 255 255 255 255 255 255 255 255 255 255 255 255 255 255 255 255 255 255 255 
255 255 255 255 255 255 255 255 255 255 255 255 255 255 255 255 255 255 255 255 255 255 255 255 255 255 255 255 255 255 255 255 255 255 255 255 254 254 254 253 253 253 38 38 38 0 0 0 0 0 0 0 0 0 0 0 0 0 0 0 95 95 95 190 190 190 207 207 207 207 207 207 208 208 208 209 209 209 209 209 209 208 208 208 191 191 191 85 85 85 55 56 55 27 27 27 25 26 26 56 56 56 66 66 66 181 181 181 200 200 200 203 203 203 203 203 203 201 201 201 196 196 196 185 185 185 173 173 173 107 107 107 0 0 0 0 0 0 0 0 0 0 0 0 0 0 0 96 96 96 255 255 255 255 255 255 255 255 255 255 255 255 255 255 255 255 255 255 255 255 255 255 255 255 255 255 255 255 255 255 255 255 255 255 255 255 255 255 255 255 255 255 
255 255 255 255 255 255 255 255 255 255 255 255 255 255 255 255 255 255 255 255 255 255 255 255 255 255 255 255 255 255 255 255 255 255 255 255 254 254 254 236 236 236 11 11 11 0 0 0 0 0 0 0 0 0 0 0 0 0 0 0 40 40 40 174 174 174 201 201 201 211 211 211 206 206 206 206 206 206 206 206 206 203 203 203 196 195 194 174 167 145 150 132 73 122 103 27 99 80 3 153 138 77 179 174 151 188 187 187 194 194 194 197 197 197 198 198 198 197 197 197 194 194 194 186 186 186 144 144 144 22 22 22 0 0 0 0 0 0 0 0 0 0 0 0 0 0 0 53 53 53 253 253 253 255 255 255 255 255 255 255 255 255 255 255 255 255 255 255 255 255 255 255 255 255 255 255 255 255 255 255 255 255 255 255 255 255 255 255 255 255 255 255 
255 255 255 255 255 255 255 255 255 255 255 255 255 255 255 255 255 255 255 255 255 255 255 255 255 255 255 255 255 255 255 255 255 255 255 255 254 254 254 195 195 195 1 1 1 0 0 0 0 0 0 0 0 0 0 0 0 0 0 0 2 2 2 116 116 116 191 191 191 205 205 205 212 212 212 204 204 204 197 197 194 206 182 117 221 182 62 235 201 85 242 223 142 247 237 185 249 242 204 247 238 189 241 224 140 225 202 93 202 188 121 191 190 189 191 191 191 187 187 187 172 172 172 124 124 124 27 27 27 0 0 0 0 0 0 0 0 0 0 0 0 0 0 0 0 0 0 15 15 15 241 241 241 254 254 254 255 255 255 255 255 255 255 255 255 255 255 255 255 255 255 255 255 255 255 255 255 255 255 255 255 255 255 255 255 255 255 255 255 255 255 255 
255 255 255 255 255 255 255 255 255 255 255 255 255 255 255 255 255 255 255 255 255 255 255 255 255 255 255 255 255 255 255 255 255 255 255 255 254 254 254 138 138 138 0 0 0 0 0 0 0 0 0 0 0 0 0 0 0 0 0 0 0 0 0 22 22 22 147 147 147 193 193 193 202 202 202 206 206 206 214 180 93 224 169 7 229 184 9 235 203 49 242 224 116 248 238 172 250 243 195 252 248 216 253 251 234 253 253 248 245 232 172 179 164 90 147 147 147 135 135 135 50 50 50 3 3 3 0 0 0 0 0 0 0 0 0 0 0 0 0 0 0 0 0 0 0 0 0 0 0 0 181 181 181 254 254 254 255 255 255 255 255 255 255 255 255 255 255 255 255 255 255 255 255 255 255 255 255 255 255 255 255 255 255 255 255 255 255 255 255 255 255 255 
255 255 255 255 255 255 255 255 255 255 255 255 255 255 255 255 255 255 255 255 255 255 255 255 255 255 255 255 255 255 255 255 255 255 255 255 254 254 254 55 55 55 0 0 0 0 0 0 0 0 0 0 0 0 0 0 0 0 0 0 0 0 0 0 0 0 45 45 45 149 149 149 177 177 177 191 191 191 222 177 62 231 189 49 230 187 0 233 197 0 234 202 1 239 216 49 247 236 150 249 243 188 251 247 209 252 250 229 251 248 229 195 175 77 163 163 163 174 174 174 159 159 159 40 40 40 0 0 0 0 0 0 0 0 0 0 0 0 0 0 0 0 0 0 0 0 0 0 0 0 63 63 63 253 253 253 255 255 255 255 255 255 255 255 255 255 255 255 255 255 255 255 255 255 255 255 255 255 255 255 255 255 255 255 255 255 255 255 255 255 255 255 
255 255 255 255 255 255 255 255 255 255 255 255 255 255 255 255 255 255 255 255 255 255 255 255 255 255 255 255 255 255 255 255 255 255 255 255 187 187 187 1 1 1 0 0 0 0 0 0 0 0 0 0 0 0 0 0 0 0 0 0 0 0 0 49 49 49 175 175 175 165 165 165 146 146 146 135 135 135 162 135 68 234 197 85 232 192 28 233 195 0 235 201 0 235 205 0 237 212 20 246 235 140 249 242 180 250 244 202 230 208 98 177 171 144 201 201 201 213 213 213 220 220 220 221 221 221 79 79 79 0 0 0 0 0 0 0 0 0 0 0 0 0 0 0 0 0 0 0 0 0 14 14 14 175 175 175 255 255 255 255 255 255 255 255 255 255 255 255 255 255 255 255 255 255 255 255 255 255 255 255 255 255 255 255 255 255 255 255 255 255 255 255 
255 255 255 255 255 255 255 255 255 255 255 255 255 255 255 255 255 255 255 255 255 255 255 255 255 255 255 255 255 255 254 254 254 240 240 240 48 48 48 0 0 0 0 0 0 0 0 0 0 0 0 0 0 0 0 0 0 0 0 0 61 61 61 223 223 223 219 219 219 202 202 202 186 186 186 170 170 170 137 136 136 172 140 50 236 202 90 232 193 22 233 196 0 234 202 0 235 206 0 236 212 29 245 232 145 236 214 103 172 160 101 203 203 203 232 232 232 237 237 237 241 241 241 244 244 244 244 244 244 96 96 96 0 0 0 0 0 0 0 0 0 0 0 0 0 0 0 0 0 0 1 1 1 69 69 69 227 227 227 254 254 254 255 255 255 255 255 255 255 255 255 255 255 255 255 255 255 255 255 255 255 255 255 255 255 255 255 255 255 255 255 255 
255 255 255 255 255 255 255 255 255 255 255 255 255 255 255 255 255 255 255 255 255 255 255 255 255 255 255 255 255 255 251 251 251 99 99 99 44 44 44 0 0 0 0 0 0 0 0 0 0 0 0 0 0 0 0 0 0 41 41 41 230 230 230 243 243 243 236 236 236 228 228 228 220 220 220 212 212 212 192 192 192 145 144 142 183 148 49 236 203 91 232 194 18 233 197 0 234 200 0 231 198 0 233 202 53 140 120 36 106 106 106 142 143 142 162 162 162 185 185 185 211 211 211 246 246 246 247 247 247 243 243 243 75 75 75 0 0 0 0 0 0 0 0 0 0 0 0 0 0 0 0 0 0 52 52 52 103 103 103 243 243 243 255 255 255 255 255 255 255 255 255 255 255 255 255 255 255 255 255 255 255 255 255 255 255 255 255 255 255 255 255 255 
255 255 255 255 255 255 255 255 255 255 255 255 255 255 255 255 255 255 255 255 255 255 255 255 254 254 254 252 252 252 117 117 117 130 130 130 11 11 11 0 0 0 0 0 0 0 0 0 0 0 0 0 0 0 14 14 14 208 208 208 245 245 245 245 245 245 243 243 243 241 241 241 238 238 238 236 236 236 229 229 229 199 199 199 145 143 140 181 145 42 236 204 90 231 191 15 230 189 0 227 185 0 148 118 4 17 16 15 21 21 21 23 23 23 29 29 29 37 37 37 43 43 43 157 157 157 246 246 246 246 246 246 229 229 229 33 33 33 0 0 0 0 0 0 0 0 0 0 0 0 0 0 0 4 4 4 138 138 138 104 104 104 245 245 245 254 254 254 255 255 255 255 255 255 255 255 255 255 255 255 255 255 255 255 255 255 255 255 255 255 255 255 
255 255 255 255 255 255 255 255 255 255 255 255 255 255 255 255 255 255 255 255 255 255 255 255 250 250 250 116 116 116 137 137 137 89 89 89 0 0 0 0 0 0 0 0 0 0 0 0 0 0 0 0 0 0 140 140 140 243 243 243 243 243 243 243 243 243 243 243 243 243 243 243 243 243 243 243 243 243 242 242 242 179 179 179 76 76 76 31 29 24 163 126 19 234 198 84 227 181 24 172 133 3 24 22 16 26 27 26 32 32 32 27 27 27 24 24 24 24 24 24 23 23 23 161 161 161 244 244 244 243 243 243 243 243 243 175 175 175 1 1 1 0 0 0 0 0 0 0 0 0 0 0 0 0 0 0 55 55 55 156 156 156 102 102 102 238 238 238 255 255 255 255 255 255 255 255 255 255 255 255 255 255 255 255 255 255 255 255 255 255 255 255 
255 255 255 255 255 255 255 255 255 255 255 255 255 255 255 255 255 255 255 255 255 233 233 233 95 95 95 145 145 145 106 106 106 2 2 2 0 0 0 0 0 0 0 0 0 0 0 0 0 0 0 41 41 41 236 236 236 240 240 240 241 241 241 241 241 241 241 241 241 241 241 241 242 242 242 209 209 209 101 101 101 40 40 40 22 22 22 17 17 17 42 40 36 162 134 61 186 157 76 146 143 135 186 186 186 226 226 226 232 232 232 216 216 216 217 217 217 161 161 161 80 80 80 191 191 191 241 241 241 240 240 240 241 241 241 240 240 240 67 67 67 0 0 0 0 0 0 0 0 0 0 0 0 0 0 0 0 0 0 68 68 68 161 161 161 87 87 87 209 209 209 254 254 254 255 255 255 255 255 255 255 255 255 255 255 255 255 255 255 255 255 255 
255 255 255 255 255 255 255 255 255 255 255 255 255 255 255 255 255 255 193 193 193 85 85 85 168 168 168 94 94 94 2 2 2 0 0 0 0 0 0 0 0 0 0 0 0 0 0 0 0 0 0 150 150 150 238 238 238 238 238 238 238 238 238 238 238 238 239 239 239 237 237 237 147 147 147 48 48 48 25 25 25 31 31 31 113 113 113 176 176 176 186 186 186 171 170 171 171 172 171 189 189 189 217 217 217 235 235 235 179 179 179 71 71 71 140 140 140 128 128 128 200 200 200 241 241 241 239 239 239 238 238 238 238 238 238 238 238 238 176 176 176 4 4 4 0 0 0 0 0 0 0 0 0 0 0 0 0 0 0 0 0 0 59 59 59 169 169 169 101 101 101 159 159 159 253 253 253 255 255 255 255 255 255 255 255 255 255 255 255 255 255 255 
255 255 255 255 255 255 255 255 255 255 255 255 254 254 254 159 159 159 107 107 107 173 173 173 59 59 59 0 0 0 0 0 0 0 0 0 0 0 0 0 0 0 0 0 0 0 0 0 36 36 36 214 214 214 235 235 235 235 235 235 235 235 235 237 237 237 221 221 221 97 97 97 33 33 33 27 27 27 117 117 117 222 222 222 236 236 236 227 227 227 210 210 210 196 196 196 197 197 197 213 213 213 229 229 229 237 237 237 187 187 187 67 67 67 122 122 122 24 24 24 43 43 43 110 110 110 223 223 223 236 236 236 235 235 235 235 235 235 216 216 216 64 64 64 0 0 0 0 0 0 0 0 0 0 0 0 0 0 0 0 0 0 0 0 0 32 32 32 155 155 155 136 136 136 128 128 128 252 252 252 255 255 255 255 255 255 255 255 255 255 255 255 
255 255 255 255 255 255 255 255 255 255 255 255 158 158 158 122 122 122 157 157 157 26 26 26 0 0 0 0 0 0 0 0 0 0 0 0 0 0 0 0 0 0 0 0 0 0 0 0 112 112 112 220 220 220 232 232 232 232 232 232 233 233 233 222 222 222 78 78 78 27 27 27 56 56 56 197 197 197 235 235 235 233 233 233 232 232 232 231 231 231 224 224 224 216 216 216 217 217 217 208 208 208 132 132 132 217 217 217 131 131 131 184 184 184 145 145 145 74 74 74 24 24 24 28 28 28 77 77 77 221 221 221 233 233 233 232 232 232 220 220 220 143 143 143 0 0 0 0 0 0 0 0 0 0 0 0 0 0 0 0 0 0 0 0 0 0 0 0 9 9 9 126 126 126 155 155 155 133 133 133 254 254 254 255 255 255 255 255 255 255 255 255 
255 255 255 255 255 255 254 254 254 181 181 181 112 112 112 149 149 149 13 13 13 0 0 0 0 0 0 0 0 0 0 0 0 0 0 0 0 0 0 0 0 0 0 0 0 5 5 5 176 176 176 221 221 221 228 228 228 230 230 230 226 226 226 85 85 85 27 27 27 80 80 80 221 221 221 231 231 231 230 230 230 229 229 229 230 230 230 230 230 230 152 152 152 216 216 216 177 177 177 197 197 197 73 73 73 64 64 64 87 87 87 233 233 233 231 231 231 232 232 232 191 191 191 59 59 59 26 26 26 93 93 93 232 232 232 229 229 229 221 221 221 190 190 190 23 23 23 0 0 0 0 0 0 0 0 0 0 0 0 0 0 0 0 0 0 0 0 0 0 0 0 2 2 2 112 112 112 148 148 148 157 157 157 254 254 254 255 255 255 255 255 255 
255 255 255 255 255 255 216 216 216 92 92 92 158 158 158 14 14 14 0 0 0 0 0 0 6 6 6 40 40 40 37 37 37 0 0 0 0 0 0 0 0 0 0 0 0 46 46 46 194 194 194 221 221 221 225 225 225 228 228 228 132 132 132 29 29 29 73 73 73 223 223 223 229 229 229 229 229 229 206 206 206 196 196 196 223 223 223 230 230 230 31 31 31 178 178 178 77 77 77 145 145 145 202 202 202 22 22 22 96 96 96 230 230 230 227 227 227 226 226 226 227 227 227 222 222 222 82 82 82 30 30 30 167 167 167 228 228 228 222 222 222 195 195 195 78 78 78 0 0 0 0 0 0 0 0 0 0 0 0 29 29 29 49 49 49 13 13 13 0 0 0 0 0 0 2 2 2 123 123 123 129 129 129 200 200 200 255 255 255 255 255 255 
254 254 254 252 252 252 91 91 91 167 167 167 25 25 25 0 0 0 16 16 16 64 64 64 105 105 105 159 159 159 112 112 112 0 0 0 0 0 0 0 0 0 0 0 0 94 94 94 193 193 193 220 220 220 223 223 223 216 216 216 40 40 40 43 43 43 166 166 166 161 161 161 198 198 198 91 91 91 95 95 95 55 55 55 66 66 66 154 154 154 36 36 36 139 139 139 72 72 72 133 133 133 152 152 152 51 51 51 49 49 49 147 147 147 225 225 225 223 223 223 222 222 222 224 224 224 218 218 218 46 46 46 70 70 70 225 225 225 220 220 220 193 193 193 127 127 127 0 0 0 0 0 0 0 0 0 0 0 0 101 101 101 198 198 198 142 142 142 76 76 76 28 28 28 0 0 0 6 6 6 145 145 145 117 117 117 250 250 250 254 254 254 
254 254 254 194 194 194 120 120 120 56 56 56 10 10 10 62 62 62 117 117 117 193 193 193 252 252 252 254 254 254 154 154 154 0 0 0 0 0 0 0 0 0 0 0 0 132 132 132 192 192 192 217 217 217 221 221 221 142 142 142 26 26 26 166 166 166 102 102 102 27 27 27 212 212 212 139 139 139 113 113 113 27 27 27 77 77 77 62 62 62 58 58 58 92 92 92 37 37 37 117 117 117 72 72 72 150 150 150 187 187 187 163 163 163 101 101 101 184 184 184 222 222 222 222 222 222 223 223 223 147 147 147 24 24 24 205 205 205 219 219 219 192 192 192 164 164 164 2 2 2 0 0 0 0 0 0 0 0 0 117 117 117 254 254 254 254 254 254 225 225 225 148 148 148 76 76 76 21 21 21 21 21 21 151 151 151 183 183 183 254 254 254 
254 254 254 170 170 170 79 79 79 50 50 50 106 106 106 185 185 185 252 252 252 254 254 254 255 255 255 255 255 255 178 178 178 0 0 0 0 0 0 0 0 0 6 6 6 164 164 164 191 191 191 214 214 214 218 218 218 87 87 87 61 61 61 223 223 223 119 119 119 22 22 22 170 170 170 37 37 37 94 94 94 66 66 66 139 139 139 37 37 37 148 148 148 39 39 39 30 30 30 98 98 98 208 208 208 209 209 209 220 220 220 213 213 213 21 21 21 153 153 153 130 130 130 85 85 85 178 178 178 214 214 214 25 25 25 174 174 174 216 216 216 191 191 191 184 184 184 14 14 14 0 0 0 0 0 0 0 0 0 138 138 138 255 255 255 255 255 255 255 255 255 255 255 255 218 218 218 139 139 139 71 71 71 75 75 75 195 195 195 254 254 254 
254 254 254 248 248 248 158 158 158 188 188 188 249 249 249 254 254 254 254 254 254 254 254 254 255 255 255 255 255 255 217 217 217 2 2 2 0 0 0 0 0 0 23 23 23 179 179 179 189 189 189 210 210 210 216 216 216 55 55 55 125 125 125 218 218 218 139 139 139 21 21 21 175 175 175 20 20 20 104 104 104 65 65 65 162 162 162 34 34 34 218 218 218 211 211 211 184 184 184 196 196 196 179 179 179 47 47 47 207 207 207 180 180 180 27 27 27 121 121 121 26 26 26 68 68 68 151 151 151 219 219 219 44 44 44 171 171 171 212 212 212 189 189 189 188 188 188 31 31 31 0 0 0 0 0 0 0 0 0 176 176 176 255 255 255 255 255 255 255 255 255 255 255 255 254 254 254 254 254 254 230 230 230 220 220 220 254 254 254 254 254 254 
255 255 255 255 255 255 255 255 255 255 255 255 255 255 255 255 255 255 255 255 255 255 255 255 255 255 255 255 255 255 245 245 245 18 18 18 0 0 0 0 0 0 35 35 35 186 186 186 188 188 188 206 206 206 212 212 212 40 40 40 159 159 159 213 213 213 143 143 143 21 21 21 186 186 186 19 19 19 164 164 164 158 158 158 205 205 205 130 130 130 211 211 211 211 211 211 198 198 198 107 107 107 146 146 146 113 113 113 156 156 156 41 41 41 22 22 22 85 85 85 20 20 20 81 81 81 213 213 213 214 214 214 30 30 30 169 169 169 207 207 207 188 188 188 188 188 188 43 43 43 0 0 0 0 0 0 4 4 4 217 217 217 255 255 255 255 255 255 255 255 255 255 255 255 255 255 255 255 255 255 255 255 255 255 255 255 255 255 255 255 255 255 
255 255 255 255 255 255 255 255 255 255 255 255 255 255 255 255 255 255 255 255 255 255 255 255 255 255 255 255 255 255 254 254 254 68 68 68 0 0 0 0 0 0 42 42 42 187 187 187 187 187 187 201 201 201 208 208 208 52 52 52 153 153 153 209 209 209 149 149 149 21 21 21 196 196 196 25 25 25 195 195 195 122 122 122 192 192 192 185 185 185 211 211 211 212 212 212 78 78 78 38 38 38 129 129 129 20 20 20 71 71 71 97 97 97 24 24 24 87 87 87 56 56 56 127 127 127 128 128 128 186 186 186 21 21 21 192 192 192 202 202 202 187 187 187 187 187 187 46 46 46 0 0 0 0 0 0 32 32 32 250 250 250 255 255 255 255 255 255 255 255 255 255 255 255 255 255 255 255 255 255 255 255 255 255 255 255 255 255 255 255 255 255 
255 255 255 255 255 255 255 255 255 255 255 255 255 255 255 255 255 255 255 255 255 255 255 255 255 255 255 255 255 255 255 255 255 140 140 140 0 0 0 0 0 0 41 41 41 185 185 185 185 185 185 196 196 196 204 204 204 82 82 82 113 113 113 207 207 207 165 165 165 21 21 21 203 203 203 194 194 194 200 200 200 88 88 88 118 118 118 42 42 42 89 89 89 96 96 96 39 39 39 120 120 120 160 160 160 20 20 20 47 47 47 118 118 118 20 20 20 138 138 138 73 73 73 63 63 63 182 182 182 118 118 118 57 57 57 205 205 205 197 197 197 185 185 185 185 185 185 46 46 46 0 0 0 4 4 4 102 102 102 254 254 254 255 255 255 255 255 255 255 255 255 255 255 255 255 255 255 255 255 255 255 255 255 255 255 255 255 255 255 255 255 255 
255 255 255 255 255 255 255 255 255 255 255 255 255 255 255 255 255 255 255 255 255 255 255 255 255 255 255 255 255 255 254 254 254 218 218 218 24 24 24 2 2 2 33 33 33 182 182 182 184 184 184 191 191 191 199 199 199 124 124 124 61 61 61 205 205 205 188 188 188 40 40 40 198 198 198 199 199 199 176 176 176 35 35 35 96 96 96 18 18 18 59 59 59 30 30 30 171 171 171 44 44 44 119 119 119 21 21 21 74 74 74 23 23 23 33 33 33 154 154 154 203 203 203 204 204 204 195 195 195 38 38 38 120 120 120 199 199 199 191 191 191 184 184 184 184 184 184 41 41 41 9 9 9 43 43 43 185 185 185 255 255 255 255 255 255 255 255 255 255 255 255 255 255 255 255 255 255 255 255 255 255 255 255 255 255 255 255 255 255 255 255 255 
255 255 255 255 255 255 255 255 255 255 255 255 255 255 255 255 255 255 255 255 255 255 255 255 255 255 255 255 255 255 255 255 255 253 253 253 83 83 83 68 68 68 28 28 28 171 171 171 183 183 183 187 187 187 194 194 194 179 179 179 28 28 28 148 148 148 199 199 199 194 194 194 194 194 194 194 194 194 183 183 183 19 19 19 103 103 103 27 27 27 156 156 156 18 18 18 187 187 187 40 40 40 96 96 96 35 35 35 181 181 181 151 151 151 135 135 135 176 176 176 196 196 196 200 200 200 86 86 86 41 41 41 190 190 190 194 194 194 187 187 187 183 183 183 182 182 182 48 48 48 83 83 83 63 63 63 248 248 248 254 254 254 255 255 255 255 255 255 255 255 255 255 255 255 255 255 255 255 255 255 255 255 255 255 255 255 255 255 255 255 255 255 
255 255 255 255 255 255 255 255 255 255 255 255 255 255 255 255 255 255 255 255 255 255 255 255 255 255 255 255 255 255 254 254 254 254 254 254 183 183 183 69 69 69 97 97 97 163 163 163 181 181 181 182 182 182 188 188 188 193 193 193 87 87 87 46 46 46 177 177 177 192 192 192 188 188 188 189 189 189 183 183 183 18 18 18 118 118 118 34 34 34 183 183 183 18 18 18 102 102 102 39 39 39 183 183 183 194 194 194 192 192 192 191 191 191 191 191 191 193 193 193 195 195 195 106 106 106 28 28 28 141 141 141 191 191 191 187 187 187 182 182 182 181 181 181 177 177 177 108 108 108 83 83 83 147 147 147 254 254 254 254 254 254 255 255 255 255 255 255 255 255 255 255 255 255 255 255 255 255 255 255 255 255 255 255 255 255 255 255 255 255 255 255 
255 255 255 255 255 255 255 255 255 255 255 255 255 255 255 255 255 255 255 255 255 255 255 255 255 255 255 255 255 255 255 255 255 255 255 255 252 252 252 84 84 84 110 110 110 157 157 157 178 178 178 178 178 178 181 181 181 183 183 183 171 171 171 29 29 29 59 59 59 170 170 170 188 188 188 186 186 186 185 185 185 18 18 18 155 155 155 91 91 91 195 195 195 88 88 88 168 168 168 168 168 168 189 189 189 186 186 186 185 185 185 186 186 186 190 190 190 174 174 174 85 85 85 26 26 26 109 109 109 187 187 187 181 181 181 180 180 180 177 177 177 178 178 178 168 168 168 114 114 114 66 66 66 244 244 244 255 255 255 255 255 255 255 255 255 255 255 255 255 255 255 255 255 255 255 255 255 255 255 255 255 255 255 255 255 255 255 255 255 255 255 255 
255 255 255 255 255 255 255 255 255 255 255 255 255 255 255 255 255 255 255 255 255 255 255 255 255 255 255 255 255 255 255 255 255 255 255 255 254 254 254 207 207 207 69 69 69 146 146 146 174 174 174 172 172 172 171 171 171 172 172 172 177 177 177 132 132 132 22 22 22 49 49 49 139 139 139 186 186 186 187 187 187 107 107 107 184 184 184 186 186 186 186 186 186 186 186 186 186 186 186 185 185 185 184 184 184 184 184 184 186 186 186 181 181 181 119 119 119 47 47 47 24 24 24 113 113 113 179 179 179 173 173 173 171 171 171 171 171 171 172 172 172 174 174 174 155 155 155 82 82 82 170 170 170 254 254 254 255 255 255 255 255 255 255 255 255 255 255 255 255 255 255 255 255 255 255 255 255 255 255 255 255 255 255 255 255 255 255 255 255 255 255 255 
255 255 255 255 255 255 255 255 255 255 255 255 255 255 255 255 255 255 255 255 255 255 255 255 255 255 255 255 255 255 255 255 255 255 255 255 255 255 255 255 255 255 132 131 131 107 107 107 167 167 167 165 164 159 164 159 143 163 156 135 164 157 139 169 165 156 129 129 128 24 25 25 30 30 29 74 74 73 136 136 136 174 174 174 187 187 187 186 186 186 186 186 186 187 187 187 188 188 188 188 188 188 184 184 184 153 153 153 112 112 112 50 50 50 23 24 23 48 48 48 142 141 141 168 169 169 163 161 154 161 156 140 162 156 134 164 158 140 165 163 153 166 166 166 128 127 128 95 95 95 252 252 252 254 254 254 255 255 255 255 255 255 255 255 255 255 255 255 255 255 255 255 255 255 255 255 255 255 255 255 255 255 255 255 255 255 255 255 255 255 255 255 
255 255 255 255 255 255 255 255 255 255 255 255 255 255 255 255 255 255 255 255 255 255 255 255 255 255 255 255 255 255 255 255 255 255 255 255 255 255 255 255 255 255 235 228 204 124 105 33 171 142 34 172 137 9 171 135 2 168 132 1 167 130 1 165 127 4 165 129 19 150 121 40 76 59 16 23 21 14 25 25 25 41 41 41 71 71 71 88 88 88 103 103 103 100 100 100 89 89 89 74 74 74 48 48 48 32 32 32 19 19 19 52 52 52 122 122 122 165 157 127 163 144 70 162 137 27 165 134 6 166 135 2 168 136 1 170 137 2 172 136 5 172 139 23 134 107 24 211 197 156 253 252 248 254 254 254 255 255 255 255 255 255 255 255 255 255 255 255 255 255 255 255 255 255 255 255 255 255 255 255 255 255 255 255 255 255 255 255 255 255 255 255 
255 255 255 255 255 255 255 255 255 255 255 255 255 255 255 255 255 255 255 255 255 255 255 255 255 255 255 255 255 255 254 254 254 254 254 254 244 238 214 206 181 76 184 151 3 182 153 0 181 153 0 180 152 0 178 150 0 175 146 0 172 142 0 169 138 0 165 133 0 163 128 0 162 124 0 154 116 5 101 81 28 55 55 52 29 29 29 16 16 16 16 16 16 16 16 16 17 17 17 34 34 34 67 67 67 102 102 102 149 149 149 164 156 124 160 137 34 162 135 1 164 139 0 165 142 0 168 145 0 171 148 0 174 150 0 177 151 0 180 151 0 182 149 0 182 147 0 183 143 0 196 157 36 233 216 167 254 254 253 254 254 254 255 255 255 255 255 255 255 255 255 255 255 255 255 255 255 255 255 255 255 255 255 255 255 255 255 255 255 255 255 255 
255 255 255 255 255 255 255 255 255 255 255 255 255 255 255 255 255 255 255 255 255 254 254 254 254 254 254 254 254 254 253 254 253 233 218 161 196 164 9 196 167 2 203 185 59 214 204 139 218 214 186 219 218 206 216 215 203 209 205 178 199 188 129 184 164 54 172 144 1 167 138 0 164 132 0 162 128 0 161 123 0 164 130 38 166 162 149 167 167 167 161 161 161 164 164 164 173 173 173 176 176 176 169 169 168 159 159 159 156 139 73 161 133 2 162 139 0 163 144 0 167 149 0 171 153 0 179 161 17 193 183 96 205 200 157 214 212 194 219 218 208 220 216 199 217 209 166 209 191 104 198 163 20 195 150 0 217 183 88 252 250 244 254 254 254 254 254 254 254 254 254 254 254 254 255 255 255 255 255 255 255 255 255 255 255 255 255 255 255 255 255 255 
255 255 255 255 255 255 255 255 255 254 254 254 254 254 254 254 254 254 253 253 253 252 252 252 252 252 251 251 250 251 234 219 162 205 168 2 208 182 14 227 217 144 234 231 203 234 230 202 232 230 201 230 227 200 228 224 197 224 220 194 220 215 190 213 208 184 199 187 126 178 151 12 169 141 0 165 135 0 161 130 0 161 125 0 161 125 25 155 152 144 159 159 159 163 163 163 163 163 163 159 159 159 153 152 153 152 134 68 161 133 0 161 140 0 164 146 0 169 152 0 175 158 0 190 177 60 210 206 171 218 215 188 223 220 193 227 224 196 229 227 199 232 228 201 233 229 202 234 229 202 233 226 191 216 187 68 205 158 0 219 180 75 250 249 246 251 251 251 252 252 252 253 253 253 253 253 253 254 254 254 254 254 254 254 254 254 255 255 255 255 255 255 
255 255 255 254 254 254 254 254 254 253 253 253 251 251 251 250 250 250 248 248 248 245 245 245 242 242 242 237 231 212 211 172 14 213 182 0 232 220 126 239 233 179 239 233 178 239 233 178 238 231 178 237 230 177 235 228 175 233 225 174 229 220 170 223 214 165 215 206 160 200 185 109 178 148 0 170 141 0 165 135 0 161 130 0 161 123 0 157 130 55 149 149 149 153 153 153 153 153 153 150 150 150 147 137 106 160 130 2 161 139 0 164 146 0 169 152 0 177 160 0 189 174 36 212 207 155 221 215 164 228 220 170 232 225 173 234 228 175 237 229 176 238 230 177 239 230 178 239 230 178 239 230 179 238 227 174 219 184 41 210 160 1 227 203 137 241 242 242 244 244 244 247 247 247 249 249 249 251 251 251 252 252 252 253 253 253 254 254 254 255 255 255 
254 254 254 253 253 253 250 250 250 247 247 247 242 242 242 237 237 237 232 232 232 226 226 226 221 221 221 215 189 100 214 177 0 222 196 23 239 229 145 239 230 145 239 229 145 239 229 145 239 228 144 239 227 145 237 225 143 235 223 143 233 220 141 229 215 139 222 208 135 214 199 129 190 162 19 177 148 0 169 141 0 163 134 0 161 128 0 162 122 3 148 142 127 149 149 149 149 149 149 147 146 146 154 128 37 162 134 0 163 142 0 168 150 0 176 158 0 186 167 0 206 193 85 220 211 133 228 218 138 232 222 140 235 225 142 237 225 144 238 226 144 239 225 144 239 225 144 239 225 145 239 224 145 239 223 145 231 207 95 215 170 0 212 163 24 220 218 214 225 225 225 230 230 230 235 235 235 241 241 241 246 246 246 250 250 250 252 252 252 254 254 254 
253 253 253 249 249 249 242 242 242 233 233 233 223 223 223 213 213 213 204 204 204 196 196 196 191 188 179 208 169 30 217 182 0 224 199 22 236 222 108 236 223 108 236 222 108 236 222 108 236 220 108 236 219 108 235 218 108 235 216 108 233 214 107 230 211 105 226 206 103 219 199 100 199 169 20 186 155 0 175 146 0 167 138 0 162 131 0 162 123 0 153 137 91 149 149 149 149 149 150 149 144 129 160 127 6 162 137 0 166 145 0 173 155 0 183 164 0 195 174 0 213 198 71 225 212 102 230 217 105 233 218 107 234 219 108 235 218 108 235 218 108 236 217 108 236 217 108 236 217 108 236 216 108 236 215 108 231 204 76 219 175 0 213 160 0 192 183 156 195 195 195 202 202 202 211 211 211 220 220 220 230 230 230 240 240 240 248 248 248 252 252 252 
250 250 250 243 243 243 229 229 229 212 212 212 196 196 196 182 182 182 172 172 172 165 165 165 165 159 140 208 163 11 217 180 0 221 191 3 230 210 62 231 212 71 231 212 71 232 211 71 232 210 71 231 209 71 231 208 71 231 207 71 231 205 71 229 203 71 226 200 70 220 193 59 204 170 2 193 160 0 181 150 0 171 141 0 165 132 0 163 124 0 161 141 89 160 160 160 160 160 160 159 152 130 162 128 2 163 137 0 169 147 0 179 157 0 190 168 0 202 178 0 215 192 27 226 207 69 229 209 70 230 210 71 231 210 71 231 209 71 232 209 71 232 208 71 231 207 71 231 206 71 231 205 71 231 205 71 225 190 28 218 174 0 213 160 0 170 157 122 163 163 163 170 170 170 180 180 180 192 192 192 208 208 208 225 225 225 240 240 240 249 249 249 
248 248 248 237 237 237 218 218 218 195 195 195 174 174 174 159 159 159 150 150 150 144 144 144 142 140 135 192 153 32 215 171 0 218 181 0 221 188 8 225 196 35 226 196 38 226 196 38 225 195 38 225 194 38 225 193 38 226 192 38 225 191 37 224 189 38 222 186 35 215 176 8 207 167 0 197 159 0 185 149 0 174 140 0 166 130 0 164 122 0 136 122 86 130 130 130 130 130 131 127 124 115 158 123 10 165 133 0 172 144 0 182 155 0 194 166 0 205 176 0 213 182 1 220 191 24 224 196 37 225 196 38 225 196 38 225 194 38 225 194 37 225 193 38 225 192 38 225 191 37 225 190 38 223 185 24 218 175 1 216 167 0 210 155 1 147 140 121 143 143 143 148 148 148 157 157 157 170 170 170 189 189 189 212 212 212 233 233 233 246 246 246 
248 248 248 236 236 236 216 216 216 192 192 192 171 171 171 157 157 157 147 147 147 141 141 141 137 137 137 151 140 107 203 156 14 213 165 0 214 169 0 215 171 2 216 173 9 216 174 11 216 173 12 216 172 12 216 171 12 217 170 13 216 170 11 216 168 9 214 164 2 211 162 0 206 158 0 197 151 0 187 142 0 176 134 0 169 125 1 155 124 42 128 127 124 127 127 127 127 127 127 127 127 127 138 124 81 166 128 6 174 137 0 184 147 0 195 157 0 204 164 0 210 169 0 213 171 0 215 173 6 216 174 11 217 174 12 217 173 12 216 173 12 216 172 12 217 170 12 216 170 11 215 167 5 214 164 0 213 161 0 210 155 3 173 144 66 137 137 136 140 140 140 145 145 145 154 154 154 167 167 167 187 187 187 210 210 210 232 232 232 246 246 246 
250 250 250 241 241 241 226 226 226 207 207 207 189 189 189 175 175 175 165 165 165 158 158 158 153 153 153 148 148 148 147 145 139 155 145 120 155 144 112 154 143 110 153 142 109 151 141 108 151 140 107 150 139 106 149 138 105 149 137 105 148 136 104 147 136 104 147 136 104 147 135 103 146 134 103 144 133 103 142 131 102 140 130 104 135 129 113 130 129 128 129 129 129 129 129 129 129 129 129 129 129 129 129 129 129 132 129 120 138 130 106 142 132 102 144 134 103 145 135 103 147 137 104 147 137 103 148 137 104 148 137 104 148 138 104 149 138 105 150 139 106 150 139 106 151 140 107 152 140 108 153 141 109 155 143 111 155 144 115 151 145 131 147 147 147 151 151 151 157 157 157 163 163 163 173 173 173 185 185 185 202 202 202 221 221 221 238 238 238 248 248 248 
252 252 252 248 248 248 239 239 239 228 228 228 216 216 216 206 206 206 196 196 196 188 188 188 181 181 181 175 175 175 170 170 170 166 166 166 162 162 162 158 158 158 155 155 155 153 153 153 150 150 150 148 148 148 147 147 147 145 145 145 144 144 144 143 143 143 142 142 142 141 141 141 140 140 140 140 140 140 139 139 139 139 139 139 139 139 139 138 138 138 138 138 138 138 138 138 138 138 138 138 138 138 138 138 138 139 139 139 139 139 139 139 139 139 140 140 140 140 140 140 141 141 141 141 141 141 142 142 142 144 144 144 145 145 145 146 146 146 148 148 148 150 150 150 152 152 152 154 154 154 157 157 157 161 161 161 165 165 165 169 169 169 174 174 174 180 180 180 187 187 187 194 194 194 203 203 203 213 213 213 225 225 225 237 237 237 246 246 246 251 251 251 
254 254 254 252 252 252 249 249 249 244 244 244 238 238 238 232 232 232 226 226 226 220 220 220 214 214 214 208 208 208 203 203 203 198 198 198 194 194 194 190 190 190 186 186 186 182 182 182 179 179 179 176 176 176 174 174 174 171 171 171 169 169 169 167 167 167 166 166 166 164 164 164 163 163 163 162 162 162 161 161 161 161 161 161 160 160 160 160 160 160 159 159 159 159 159 159 159 159 159 159 159 159 160 160 160 160 160 160 161 161 161 161 161 161 162 162 162 163 163 163 164 164 164 165 165 165 167 167 167 169 169 169 171 171 171 173 173 173 176 176 176 178 178 178 181 181 181 185 185 185 189 189 189 193 193 193 197 197 197 202 202 202 207 207 207 212 212 212 218 218 218 224 224 224 230 230 230 237 237 237 243 243 243 248 248 248 251 251 251 253 253 253 
255 255 255 254 254 254 253 253 253 252 252 252 250 250 250 247 247 247 245 245 245 241 241 241 238 238 238 235 235 235 231 231 231 228 228 228 224 224 224 221 221 221 218 218 218 215 215 215 212 212 212 209 209 209 207 207 207 205 205 205 202 202 202 201 201 201 199 199 199 197 197 197 196 196 196 195 195 195 193 193 193 193 193 193 192 192 192 191 191 191 191 191 191 191 191 191 191 191 191 191 191 191 191 191 191 192 192 192 192 192 192 193 193 193 194 194 194 195 195 195 197 197 197 198 198 198 200 200 200 202 202 202 204 204 204 206 206 206 209 209 209 211 211 211 214 214 214 217 217 217 220 220 220 224 224 224 227 227 227 230 230 230 234 234 234 237 237 237 241 241 241 244 244 244 247 247 247 249 249 249 251 251 251 253 253 253 254 254 254 255 255 255 
255 255 255 255 255 255 254 254 254 254 254 254 254 254 254 253 253 253 252 252 252 251 251 251 250 250 250 249 249 249 247 247 247 246 246 246 244 244 244 242 242 242 240 240 240 239 239 239 237 237 237 236 236 236 234 234 234 233 233 233 231 231 231 230 230 230 228 228 228 227 227 227 226 226 226 225 225 225 225 225 225 224 224 224 223 223 223 223 223 223 223 223 223 223 223 223 223 223 223 222 222 222 223 223 223 223 223 223 224 224 224 224 224 224 225 225 225 226 226 226 227 227 227 228 228 228 229 229 229 231 231 231 232 232 232 234 234 234 235 235 235 237 237 237 239 239 239 240 240 240 242 242 242 244 244 244 245 245 245 247 247 247 249 249 249 250 250 250 251 251 251 252 252 252 253 253 253 254 254 254 254 254 254 254 254 254 255 255 255 255 255 255 
