P3
256 256
255
255 255 255 255 255 255 255 255 255 255 255 255 255 255 255 255 255 255 255 255 255 255 255 255 255 255 255 255 255 255 255 255 255 255 255 255 255 255 255 255 255 255 255 255 255 255 255 255 255 255 255 255 255 255 255 255 255 255 255 255 255 255 255 255 255 255 255 255 255 255 255 255 255 255 255 255 255 255 255 255 255 255 255 255 255 255 255 255 255 255 255 255 255 255 255 255 255 255 255 255 255 255 255 255 255 255 255 255 255 255 255 255 255 255 255 255 255 255 255 255 255 255 255 255 255 255 255 255 255 255 255 255 255 255 255 255 255 255 255 255 255 255 255 255 255 255 255 255 255 255 255 255 255 255 255 255 255 255 255 255 255 255 255 255 255 255 255 255 255 255 255 255 255 255 255 255 255 255 255 255 255 255 255 255 255 255 255 255 255 255 255 255 255 255 255 255 255 255 255 255 255 255 255 255 255 255 255 255 255 255 255 255 255 255 255 255 255 255 255 255 255 255 255 255 255 255 255 255 255 255 255 255 255 255 255 255 255 255 255 255 255 255 255 255 255 255 255 255 255 255 255 255 255 255 255 255 255 255 255 255 255 255 255 255 255 255 255 255 255 255 255 255 255 255 255 255 255 255 255 255 255 255 255 255 255 255 255 255 254 254 254 254 254 254 254 254 254 254 254 254 254 254 254 254 254 254 254 254 254 254 254 254 254 254 254 254 254 254 254 254 254 253 253 253 253 253 253 252 252 252 248 248 248 242 242 242 237 237 237 231 231 231 223 223 223 214 214 214 205 205 205 196 196 196 188 188 188 179 179 179 171 171 171 163 163 163 157 157 157 153 153 153 149 149 149 146 146 146 144 144 144 145 145 145 145 145 145 146 146 146 148 148 148 153 153 153 157 157 157 161 161 161 168 168 168 177 177 177 187 187 187 196 196 196 205 205 205 214 214 214 223 223 223 231 231 231 238 238 238 242 242 242 246 246 246 250 250 250 253 253 253 253 253 253 254 254 254 254 254 254 254 254 254 254 254 254 254 254 254 254 254 254 254 254 254 254 254 254 254 254 254 254 254 254 254 254 254 254 254 254 255 255 255 255 255 255 255 255 255 255 255 255 255 255 255 255 255 255 255 255 255 255 255 255 255 255 255 255 255 255 255 255 255 255 255 255 255 255 255 255 255 255 255 255 255 255 255 255 255 255 255 255 255 255 255 255 255 255 255 255 255 255 255 255 255 255 255 255 255 255 255 255 255 255 255 255 255 255 255 255 255 255 255 255 255 255 255 255 255 255 255 255 255 255 255 255 255 255 255 255 255 255 255 255 255 255 255 255 255 255 255 255 255 255 255 255 255 255 255 255 255 255 255 255 255 255 255 255 255 255 255 255 255 255 255 255 255 255 255 255 255 255 255 255 255 255 255 255 255 255 255 255 255 255 255 255 255 255 255 255 255 255 255 255 255 255 255 255 255 255 255 255 255 255 255 255 255 255 255 255 255 255 255 255 255 255 255 255 255 255 255 255 255 255 255 255 255 255 255 255 255 255 255 255 255 255 255 255 255 255 255 255 255 255 255 255 255 255 255 255 255 255 255 255 255 255 255 255 255 255 255 255 255 255 255 255 255 255 255 255 255 255 255 255 255 255 255 255 255 255 255 255 255 255 255 255 255 255 255 255 255 255 255 255 255 255 255 255 255 255 255 255 255 255 255 255 255 255 255 255 255 255 255 255 255 255 255 255 
255 255 255 255 255 255 255 255 255 255 255 255 255 255 255 255 255 255 255 255 255 255 255 255 255 255 255 255 255 255 255 255 255 255 255 255 255 255 255 255 255 255 255 255 255 255 255 255 255 255 255 255 255 255 255 255 255 255 255 255 255 255 255 255 255 255 255 255 255 255 255 255 255 255 255 255 255 255 255 255 255 255 255 255 255 255 255 255 255 255 255 255 255 255 255 255 255 255 255 255 255 255 255 255 255 255 255 255 255 255 255 255 255 255 255 255 255 255 255 255 255 255 255 255 255 255 255 255 255 255 255 255 255 255 255 255 255 255 255 255 255 255 255 255 255 255 255 255 255 255 255 255 255 255 255 255 255 255 255 255 255 255 255 255 255 255 255 255 255 255 255 255 255 255 255 255 255 255 255 255 255 255 255 255 255 255 255 255 255 255 255 255 255 255 255 255 255 255 255 255 255 255 255 255 255 255 255 255 255 255 255 255 255 255 255 255 255 255 255 255 255 255 255 255 255 255 255 255 255 255 255 255 255 255 255 255 255 255 255 255 255 255 255 255 255 255 255 255 255 255 255 255 255 255 255 255 255 255 255 255 255 255 255 255 255 255 255 255 255 255 255 255 255 255 255 255 255 255 255 255 255 255 255 255 255 254 254 254 254 254 254 254 254 254 251 251 251 248 248 248 245 245 245 241 241 241 237 237 237 233 233 233 229 229 229 224 224 224 223 223 223 223 223 223 223 223 223 223 223 223 221 221 221 218 218 218 216 216 216 213 213 213 210 210 210 205 205 205 201 201 201 197 197 197 193 193 193 188 188 188 184 184 184 179 179 179 176 176 176 174 174 174 172 172 172 170 170 170 170 170 170 170 170 170 171 171 171 171 171 171 172 172 172 175 175 175 177 177 177 179 179 179 183 183 183 188 188 188 194 194 194 199 199 199 204 204 204 208 208 208 213 213 213 217 217 217 220 220 220 222 222 222 224 224 224 226 226 226 227 227 227 228 228 228 228 228 228 228 228 228 230 230 230 234 234 234 238 238 238 242 242 242 246 246 246 248 248 248 250 250 250 252 252 252 254 254 254 254 254 254 255 255 255 255 255 255 255 255 255 255 255 255 255 255 255 255 255 255 255 255 255 255 255 255 255 255 255 255 255 255 255 255 255 255 255 255 255 255 255 255 255 255 255 255 255 255 255 255 255 255 255 255 255 255 255 255 255 255 255 255 255 255 255 255 255 255 255 255 255 255 255 255 255 255 255 255 255 255 255 255 255 255 255 255 255 255 255 255 255 255 255 255 255 255 255 255 255 255 255 255 255 255 255 255 255 255 255 255 255 255 255 255 255 255 255 255 255 255 255 255 255 255 255 255 255 255 255 255 255 255 255 255 255 255 255 255 255 255 255 255 255 255 255 255 255 255 255 255 255 255 255 255 255 255 255 255 255 255 255 255 255 255 255 255 255 255 255 255 255 255 255 255 255 255 255 255 255 255 255 255 255 255 255 255 255 255 255 255 255 255 255 255 255 255 255 255 255 255 255 255 255 255 255 255 255 255 255 255 255 255 255 255 255 255 255 255 255 255 255 255 255 255 255 255 255 255 255 255 255 255 255 255 255 255 255 255 255 255 255 255 255 255 255 255 255 255 255 255 255 255 255 255 255 255 255 255 255 255 255 255 255 255 255 255 255 255 255 255 255 255 255 255 255 255 255 255 255 255 255 255 255 255 255 255 255 255 255 255 
255 255 255 255 255 255 255 255 255 255 255 255 255 255 255 255 255 255 255 255 255 255 255 255 255 255 255 255 255 255 255 255 255 255 255 255 255 255 255 255 255 255 255 255 255 255 255 255 255 255 255 255 255 255 255 255 255 255 255 255 255 255 255 255 255 255 255 255 255 255 255 255 255 255 255 255 255 255 255 255 255 255 255 255 255 255 255 255 255 255 255 255 255 255 255 255 255 255 255 255 255 255 255 255 255 255 255 255 255 255 255 255 255 255 255 255 255 255 255 255 255 255 255 255 255 255 255 255 255 255 255 255 255 255 255 255 255 255 255 255 255 255 255 255 255 255 255 255 255 255 255 255 255 255 255 255 255 255 255 255 255 255 255 255 255 255 255 255 255 255 255 255 255 255 255 255 255 255 255 255 255 255 255 255 255 255 255 255 255 255 255 255 255 255 255 255 255 255 255 255 255 255 255 255 255 255 255 255 255 255 255 255 255 255 255 255 255 255 255 255 255 255 255 255 255 255 255 255 255 255 255 255 255 255 255 255 255 255 255 255 255 255 255 255 255 255 255 255 255 255 255 255 255 255 255 255 255 255 255 255 255 255 255 255 255 255 255 255 255 255 255 255 255 255 255 255 255 255 255 255 255 255 255 255 255 254 254 254 254 254 254 254 254 254 248 248 248 241 241 241 235 235 235 229 229 229 220 220 220 212 212 212 203 203 203 195 195 195 193 193 193 193 193 193 193 193 193 193 193 193 194 194 194 194 194 194 195 195 195 196 196 196 196 196 196 197 197 197 197 197 197 198 198 198 198 198 198 197 197 197 196 196 196 195 195 195 195 195 195 195 195 195 195 195 195 195 195 195 195 195 195 195 195 195 196 196 196 196 196 196 196 196 196 197 197 197 197 197 197 197 197 197 198 198 198 199 199 199 201 201 201 202 202 202 203 203 203 203 203 203 203 203 203 203 203 203 202 202 202 202 202 202 202 202 202 201 201 201 201 201 201 202 202 202 203 203 203 203 203 203 206 206 206 214 214 214 222 222 222 230 230 230 238 238 238 242 242 242 246 246 246 250 250 250 254 254 254 254 254 254 255 255 255 255 255 255 255 255 255 255 255 255 255 255 255 255 255 255 255 255 255 255 255 255 255 255 255 255 255 255 255 255 255 255 255 255 255 255 255 255 255 255 255 255 255 255 255 255 255 255 255 255 255 255 255 255 255 255 255 255 255 255 255 255 255 255 255 255 255 255 255 255 255 255 255 255 255 255 255 255 255 255 255 255 255 255 255 255 255 255 255 255 255 255 255 255 255 255 255 255 255 255 255 255 255 255 255 255 255 255 255 255 255 255 255 255 255 255 255 255 255 255 255 255 255 255 255 255 255 255 255 255 255 255 255 255 255 255 255 255 255 255 255 255 255 255 255 255 255 255 255 255 255 255 255 255 255 255 255 255 255 255 255 255 255 255 255 255 255 255 255 255 255 255 255 255 255 255 255 255 255 255 255 255 255 255 255 255 255 255 255 255 255 255 255 255 255 255 255 255 255 255 255 255 255 255 255 255 255 255 255 255 255 255 255 255 255 255 255 255 255 255 255 255 255 255 255 255 255 255 255 255 255 255 255 255 255 255 255 255 255 255 255 255 255 255 255 255 255 255 255 255 255 255 255 255 255 255 255 255 255 255 255 255 255 255 255 255 255 255 255 255 255 255 255 255 255 255 255 255 255 255 255 255 255 255 255 255 
255 255 255 255 255 255 255 255 255 255 255 255 255 255 255 255 255 255 255 255 255 255 255 255 255 255 255 255 255 255 255 255 255 255 255 255 255 255 255 255 255 255 255 255 255 255 255 255 255 255 255 255 255 255 255 255 255 255 255 255 255 255 255 255 255 255 255 255 255 255 255 255 255 255 255 255 255 255 255 255 255 255 255 255 255 255 255 255 255 255 255 255 255 255 255 255 255 255 255 255 255 255 255 255 255 255 255 255 255 255 255 255 255 255 255 255 255 255 255 255 255 255 255 255 255 255 255 255 255 255 255 255 255 255 255 255 255 255 255 255 255 255 255 255 255 255 255 255 255 255 255 255 255 255 255 255 255 255 255 255 255 255 255 255 255 255 255 255 255 255 255 255 255 255 255 255 255 255 255 255 255 255 255 255 255 255 255 255 255 255 255 255 255 255 255 255 255 255 255 255 255 255 255 255 255 255 255 255 255 255 255 255 255 255 255 255 255 255 255 255 255 255 255 255 255 255 255 255 255 255 255 255 255 255 255 255 255 255 255 255 255 255 255 255 255 255 255 255 255 255 255 255 255 255 255 255 255 255 255 255 255 255 255 255 255 255 255 255 255 255 255 255 255 255 255 255 255 255 255 255 255 255 255 255 255 254 254 254 254 254 254 253 253 253 245 245 245 235 235 235 226 226 226 216 216 216 204 204 204 191 191 191 178 178 178 165 165 165 162 162 162 163 163 163 163 163 163 164 164 164 167 167 167 170 170 170 174 174 174 178 178 178 183 183 183 188 188 188 193 193 193 198 198 198 202 202 202 205 205 205 209 209 209 212 212 212 214 214 214 216 216 216 218 218 218 219 219 219 221 221 221 221 221 221 221 221 221 221 221 221 221 221 221 219 219 219 217 217 217 215 215 215 213 213 213 210 210 210 208 208 208 205 205 205 202 202 202 197 197 197 193 193 193 188 188 188 184 184 184 182 182 182 179 179 179 177 177 177 175 175 175 176 176 176 177 177 177 178 178 178 181 181 181 194 194 194 206 206 206 218 218 218 229 229 229 236 236 236 242 242 242 249 249 249 254 254 254 254 254 254 255 255 255 255 255 255 255 255 255 255 255 255 255 255 255 255 255 255 255 255 255 255 255 255 255 255 255 255 255 255 255 255 255 255 255 255 255 255 255 255 255 255 255 255 255 255 255 255 255 255 255 255 255 255 255 255 255 255 255 255 255 255 255 255 255 255 255 255 255 255 255 255 255 255 255 255 255 255 255 255 255 255 255 255 255 255 255 255 255 255 255 255 255 255 255 255 255 255 255 255 255 255 255 255 255 255 255 255 255 255 255 255 255 255 255 255 255 255 255 255 255 255 255 255 255 255 255 255 255 255 255 255 255 255 255 255 255 255 255 255 255 255 255 255 255 255 255 255 255 255 255 255 255 255 255 255 255 255 255 255 255 255 255 255 255 255 255 255 255 255 255 255 255 255 255 255 255 255 255 255 255 255 255 255 255 255 255 255 255 255 255 255 255 255 255 255 255 255 255 255 255 255 255 255 255 255 255 255 255 255 255 255 255 255 255 255 255 255 255 255 255 255 255 255 255 255 255 255 255 255 255 255 255 255 255 255 255 255 255 255 255 255 255 255 255 255 255 255 255 255 255 255 255 255 255 255 255 255 255 255 255 255 255 255 255 255 255 255 255 255 255 255 255 255 255 255 255 255 255 255 255 255 255 255 255 255 255 255 
255 255 255 255 255 255 255 255 255 255 255 255 255 255 255 255 255 255 255 255 255 255 255 255 255 255 255 255 255 255 255 255 255 255 255 255 255 255 255 255 255 255 255 255 255 255 255 255 255 255 255 255 255 255 255 255 255 255 255 255 255 255 255 255 255 255 255 255 255 255 255 255 255 255 255 255 255 255 255 255 255 255 255 255 255 255 255 255 255 255 255 255 255 255 255 255 255 255 255 255 255 255 255 255 255 255 255 255 255 255 255 255 255 255 255 255 255 255 255 255 255 255 255 255 255 255 255 255 255 255 255 255 255 255 255 255 255 255 255 255 255 255 255 255 255 255 255 255 255 255 255 255 255 255 255 255 255 255 255 255 255 255 255 255 255 255 255 255 255 255 255 255 255 255 255 255 255 255 255 255 255 255 255 255 255 255 255 255 255 255 255 255 255 255 255 255 255 255 255 255 255 255 255 255 255 255 255 255 255 255 255 255 255 255 255 255 255 255 255 255 255 255 255 255 255 255 255 255 255 255 255 255 255 255 255 255 255 255 255 255 255 255 255 255 255 255 255 255 255 255 255 255 255 255 255 255 255 255 255 255 255 255 255 255 255 255 255 255 255 255 255 255 255 255 255 255 255 255 255 255 255 255 255 255 255 254 254 254 254 254 254 253 253 253 242 242 242 229 229 229 216 216 216 203 203 203 187 187 187 170 170 170 153 153 153 136 136 136 132 132 132 133 133 133 133 133 133 134 134 134 139 139 139 146 146 146 153 153 153 160 160 160 169 169 169 179 179 179 189 189 189 199 199 199 207 207 207 214 214 214 221 221 221 228 228 228 233 233 233 237 237 237 240 240 240 244 244 244 246 246 246 246 246 246 246 246 246 247 247 247 245 245 245 241 241 241 237 237 237 233 233 233 227 227 227 221 221 221 214 214 214 208 208 208 201 201 201 192 192 192 183 183 183 174 174 174 166 166 166 162 162 162 157 157 157 153 153 153 150 150 150 150 150 150 151 151 151 152 152 152 157 157 157 173 173 173 190 190 190 206 206 206 221 221 221 230 230 230 238 238 238 247 247 247 254 254 254 254 254 254 255 255 255 255 255 255 255 255 255 255 255 255 255 255 255 255 255 255 255 255 255 255 255 255 255 255 255 255 255 255 255 255 255 255 255 255 255 255 255 255 255 255 255 255 255 255 255 255 255 255 255 255 255 255 255 255 255 255 255 255 255 255 255 255 255 255 255 255 255 255 255 255 255 255 255 255 255 255 255 255 255 255 255 255 255 255 255 255 255 255 255 255 255 255 255 255 255 255 255 255 255 255 255 255 255 255 255 255 255 255 255 255 255 255 255 255 255 255 255 255 255 255 255 255 255 255 255 255 255 255 255 255 255 255 255 255 255 255 255 255 255 255 255 255 255 255 255 255 255 255 255 255 255 255 255 255 255 255 255 255 255 255 255 255 255 255 255 255 255 255 255 255 255 255 255 255 255 255 255 255 255 255 255 255 255 255 255 255 255 255 255 255 255 255 255 255 255 255 255 255 255 255 255 255 255 255 255 255 255 255 255 255 255 255 255 255 255 255 255 255 255 255 255 255 255 255 255 255 255 255 255 255 255 255 255 255 255 255 255 255 255 255 255 255 255 255 255 255 255 255 255 255 255 255 255 255 255 255 255 255 255 255 255 255 255 255 255 255 255 255 255 255 255 255 255 255 255 255 255 255 255 255 255 255 255 255 255 255 
255 255 255 255 255 255 255 255 255 255 255 255 255 255 255 255 255 255 255 255 255 255 255 255 255 255 255 255 255 255 255 255 255 255 255 255 255 255 255 255 255 255 255 255 255 255 255 255 255 255 255 255 255 255 255 255 255 255 255 255 255 255 255 255 255 255 255 255 255 255 255 255 255 255 255 255 255 255 255 255 255 255 255 255 255 255 255 255 255 255 255 255 255 255 255 255 255 255 255 255 255 255 255 255 255 255 255 255 255 255 255 255 255 255 255 255 255 255 255 255 255 255 255 255 255 255 255 255 255 255 255 255 255 255 255 255 255 255 255 255 255 255 255 255 255 255 255 255 255 255 255 255 255 255 255 255 255 255 255 255 255 255 255 255 255 255 255 255 255 255 255 255 255 255 255 255 255 255 255 255 255 255 255 255 255 255 255 255 255 255 255 255 255 255 255 255 255 255 255 255 255 255 255 255 255 255 255 255 255 255 255 255 255 255 255 255 255 255 255 255 255 255 255 255 255 255 255 255 255 255 255 255 255 255 255 255 255 255 255 255 255 255 255 255 255 255 255 255 255 255 255 255 255 255 255 255 255 255 255 255 255 255 255 255 255 255 255 255 255 255 251 251 251 247 247 247 243 243 243 238 238 238 233 233 233 228 228 228 223 223 223 218 218 218 211 211 211 205 205 205 198 198 198 191 191 191 183 183 183 174 174 174 165 165 165 157 157 157 156 156 156 157 157 157 158 158 158 159 159 159 163 163 163 169 169 169 174 174 174 179 179 179 186 186 186 194 194 194 202 202 202 210 210 210 216 216 216 222 222 222 227 227 227 232 232 232 236 236 236 239 239 239 242 242 242 245 245 245 246 246 246 247 247 247 247 247 247 247 247 247 246 246 246 242 242 242 239 239 239 236 236 236 232 232 232 227 227 227 222 222 222 217 217 217 211 211 211 204 204 204 197 197 197 190 190 190 184 184 184 180 180 180 177 177 177 173 173 173 171 171 171 171 171 171 171 171 171 171 171 171 174 174 174 182 182 182 190 190 190 199 199 199 206 206 206 211 211 211 215 215 215 220 220 220 224 224 224 229 229 229 235 235 235 240 240 240 245 245 245 247 247 247 250 250 250 252 252 252 255 255 255 255 255 255 255 255 255 255 255 255 255 255 255 255 255 255 255 255 255 255 255 255 255 255 255 255 255 255 255 255 255 255 255 255 255 255 255 255 255 255 255 255 255 255 255 255 255 255 255 255 255 255 255 255 255 255 255 255 255 255 255 255 255 255 255 255 255 255 255 255 255 255 255 255 255 255 255 255 255 255 255 255 255 255 255 255 255 255 255 255 255 255 255 255 255 255 255 255 255 255 255 255 255 255 255 255 255 255 255 255 255 255 255 255 255 255 255 255 255 255 255 255 255 255 255 255 255 255 255 255 255 255 255 255 255 255 255 255 255 255 255 255 255 255 255 255 255 255 255 255 255 255 255 255 255 255 255 255 255 255 255 255 255 255 255 255 255 255 255 255 255 255 255 255 255 255 255 255 255 255 255 255 255 255 255 255 255 255 255 255 255 255 255 255 255 255 255 255 255 255 255 255 255 255 255 255 255 255 255 255 255 255 255 255 255 255 255 255 255 255 255 255 255 255 255 255 255 255 255 255 255 255 255 255 255 255 255 255 255 255 255 255 255 255 255 255 255 255 255 255 255 255 255 255 255 255 255 255 255 255 255 255 255 255 255 255 255 255 
255 255 255 255 255 255 255 255 255 255 255 255 255 255 255 255 255 255 255 255 255 255 255 255 255 255 255 255 255 255 255 255 255 255 255 255 255 255 255 255 255 255 255 255 255 255 255 255 255 255 255 255 255 255 255 255 255 255 255 255 255 255 255 255 255 255 255 255 255 255 255 255 255 255 255 255 255 255 255 255 255 255 255 255 255 255 255 255 255 255 255 255 255 255 255 255 255 255 255 255 255 255 255 255 255 255 255 255 255 255 255 255 255 255 255 255 255 255 255 255 255 255 255 255 255 255 255 255 255 255 255 255 255 255 255 255 255 255 255 255 255 255 255 255 255 255 255 255 255 255 255 255 255 255 255 255 255 255 255 255 255 255 255 255 255 255 255 255 255 255 255 255 255 255 255 255 255 255 255 255 255 255 255 255 255 255 255 255 255 255 255 255 255 255 255 255 255 255 255 255 255 255 255 255 255 255 255 255 255 255 255 255 255 255 255 255 255 255 255 255 255 255 255 255 255 255 255 255 255 255 255 255 255 255 255 255 255 255 255 255 255 255 255 255 255 255 255 255 255 255 255 255 255 255 255 255 255 255 254 254 254 254 254 254 254 254 254 254 254 254 246 246 246 238 238 238 229 229 229 221 221 221 211 211 211 201 201 201 191 191 191 181 181 181 179 179 179 179 179 179 179 179 179 179 179 179 180 180 180 180 180 180 180 180 180 181 181 181 182 182 182 183 183 183 185 185 185 186 186 186 189 189 189 193 193 193 197 197 197 200 200 200 205 205 205 210 210 210 216 216 216 221 221 221 225 225 225 229 229 229 232 232 232 236 236 236 239 239 239 241 241 241 243 243 243 245 245 245 246 246 246 246 246 246 246 246 246 246 246 246 245 245 245 243 243 243 241 241 241 239 239 239 236 236 236 232 232 232 229 229 229 225 225 225 221 221 221 217 217 217 212 212 212 207 207 207 203 203 203 201 201 201 198 198 198 196 196 196 194 194 194 194 194 194 193 193 193 192 192 192 192 192 192 192 192 192 192 192 192 192 192 192 191 191 191 191 191 191 191 191 191 191 191 191 193 193 193 203 203 203 214 214 214 224 224 224 234 234 234 239 239 239 244 244 244 250 250 250 255 255 255 255 255 255 255 255 255 255 255 255 255 255 255 255 255 255 255 255 255 255 255 255 255 255 255 255 255 255 255 255 255 255 255 255 255 255 255 255 255 255 255 255 255 255 255 255 255 255 255 255 255 255 255 255 255 255 255 255 255 255 255 255 255 255 255 255 255 255 255 255 255 255 255 255 255 255 255 255 255 255 255 255 255 255 255 255 255 255 255 255 255 255 255 255 255 255 255 255 255 255 255 255 255 255 255 255 255 255 255 255 255 255 255 255 255 255 255 255 255 255 255 255 255 255 255 255 255 255 255 255 255 255 255 255 255 255 255 255 255 255 255 255 255 255 255 255 255 255 255 255 255 255 255 255 255 255 255 255 255 255 255 255 255 255 255 255 255 255 255 255 255 255 255 255 255 255 255 255 255 255 255 255 255 255 255 255 255 255 255 255 255 255 255 255 255 255 255 255 255 255 255 255 255 255 255 255 255 255 255 255 255 255 255 255 255 255 255 255 255 255 255 255 255 255 255 255 255 255 255 255 255 255 255 255 255 255 255 255 255 255 255 255 255 255 255 255 255 255 255 255 255 255 255 255 255 255 255 255 255 255 255 255 255 255 255 255 255 255 
255 255 255 255 255 255 255 255 255 255 255 255 255 255 255 255 255 255 255 255 255 255 255 255 255 255 255 255 255 255 255 255 255 255 255 255 255 255 255 255 255 255 255 255 255 255 255 255 255 255 255 255 255 255 255 255 255 255 255 255 255 255 255 255 255 255 255 255 255 255 255 255 255 255 255 255 255 255 255 255 255 255 255 255 255 255 255 255 255 255 255 255 255 255 255 255 255 255 255 255 255 255 255 255 255 255 255 255 255 255 255 255 255 255 255 255 255 255 255 255 255 255 255 255 255 255 255 255 255 255 255 255 255 255 255 255 255 255 255 255 255 255 255 255 255 255 255 255 255 255 255 255 255 255 255 255 255 255 255 255 255 255 255 255 255 255 255 255 255 255 255 255 255 255 255 255 255 255 255 255 255 255 255 255 255 255 255 255 255 255 255 255 255 255 255 255 255 255 255 255 255 255 255 255 255 255 255 255 255 255 255 255 255 255 255 255 255 255 255 255 255 255 255 255 255 255 255 255 255 255 255 255 255 255 255 255 255 255 255 255 254 254 254 254 254 254 254 254 254 254 254 254 254 254 254 254 254 254 254 254 254 254 254 254 254 254 254 254 254 254 242 242 242 229 229 229 216 216 216 204 204 204 189 189 189 174 174 174 159 159 159 144 144 144 147 147 147 154 154 154 161 161 161 167 167 167 176 176 176 186 186 186 195 195 195 204 204 204 208 208 208 210 210 210 212 212 212 213 213 213 215 215 215 217 217 217 219 219 219 221 221 221 224 224 224 226 226 226 229 229 229 232 232 232 234 234 234 236 236 236 238 238 238 240 240 240 241 241 241 242 242 242 243 243 243 244 244 244 245 245 245 245 245 245 245 245 245 245 245 245 245 245 245 243 243 243 242 242 242 241 241 241 240 240 240 238 238 238 236 236 236 234 234 234 232 232 232 230 230 230 227 227 227 225 225 225 223 223 223 221 221 221 220 220 220 219 219 219 218 218 218 216 216 216 215 215 215 214 214 214 210 210 210 202 202 202 193 193 193 184 184 184 177 177 177 172 172 172 168 168 168 163 163 163 161 161 161 177 177 177 193 193 193 208 208 208 223 223 223 231 231 231 239 239 239 247 247 247 254 254 254 254 254 254 254 254 254 254 254 254 254 254 254 254 254 254 254 254 254 254 254 254 254 254 254 254 254 254 255 255 255 255 255 255 255 255 255 255 255 255 255 255 255 255 255 255 255 255 255 255 255 255 255 255 255 255 255 255 255 255 255 255 255 255 255 255 255 255 255 255 255 255 255 255 255 255 255 255 255 255 255 255 255 255 255 255 255 255 255 255 255 255 255 255 255 255 255 255 255 255 255 255 255 255 255 255 255 255 255 255 255 255 255 255 255 255 255 255 255 255 255 255 255 255 255 255 255 255 255 255 255 255 255 255 255 255 255 255 255 255 255 255 255 255 255 255 255 255 255 255 255 255 255 255 255 255 255 255 255 255 255 255 255 255 255 255 255 255 255 255 255 255 255 255 255 255 255 255 255 255 255 255 255 255 255 255 255 255 255 255 255 255 255 255 255 255 255 255 255 255 255 255 255 255 255 255 255 255 255 255 255 255 255 255 255 255 255 255 255 255 255 255 255 255 255 255 255 255 255 255 255 255 255 255 255 255 255 255 255 255 255 255 255 255 255 255 255 255 255 255 255 255 255 255 255 255 255 255 255 255 255 255 255 255 255 255 255 255 
255 255 255 255 255 255 255 255 255 255 255 255 255 255 255 255 255 255 255 255 255 255 255 255 255 255 255 255 255 255 255 255 255 255 255 255 255 255 255 255 255 255 255 255 255 255 255 255 255 255 255 255 255 255 255 255 255 255 255 255 255 255 255 255 255 255 255 255 255 255 255 255 255 255 255 255 255 255 255 255 255 255 255 255 255 255 255 255 255 255 255 255 255 255 255 255 255 255 255 255 255 255 255 255 255 255 255 255 255 255 255 255 255 255 255 255 255 255 255 255 255 255 255 255 255 255 255 255 255 255 255 255 255 255 255 255 255 255 255 255 255 255 255 255 255 255 255 255 255 255 255 255 255 255 255 255 255 255 255 255 255 255 255 255 255 255 255 255 255 255 255 255 255 255 255 255 255 255 255 255 255 255 255 255 255 255 255 255 255 255 255 255 255 255 255 255 255 255 255 255 255 255 255 255 255 255 255 255 255 255 255 255 255 255 255 255 255 255 255 255 255 255 255 255 255 255 255 255 255 255 255 255 255 255 255 255 255 254 254 254 254 254 254 254 254 254 254 254 254 254 254 254 254 254 254 254 254 254 254 254 254 254 254 254 253 253 253 253 253 253 237 237 237 220 220 220 203 203 203 186 186 186 167 167 167 147 147 147 126 126 126 106 106 106 115 115 115 129 129 129 142 142 142 155 155 155 173 173 173 191 191 191 210 210 210 228 228 228 234 234 234 236 236 236 239 239 239 241 241 241 242 242 242 242 242 242 242 242 242 242 242 242 242 242 242 242 242 242 243 243 243 243 243 243 243 243 243 243 243 243 243 243 243 244 244 244 244 244 244 244 244 244 244 244 244 244 244 244 244 244 244 244 244 244 244 244 244 244 244 244 244 244 244 244 244 244 244 244 244 244 244 244 244 244 244 243 243 243 243 243 243 243 243 243 243 243 243 243 243 243 243 243 243 242 242 242 242 242 242 242 242 242 242 242 242 242 242 242 241 241 241 239 239 239 237 237 237 235 235 235 229 229 229 212 212 212 195 195 195 177 177 177 162 162 162 153 153 153 144 144 144 135 135 135 130 130 130 151 151 151 172 172 172 192 192 192 212 212 212 223 223 223 233 233 233 244 244 244 254 254 254 254 254 254 254 254 254 254 254 254 254 254 254 254 254 254 254 254 254 254 254 254 254 254 254 254 254 254 254 254 254 255 255 255 255 255 255 255 255 255 255 255 255 255 255 255 255 255 255 255 255 255 255 255 255 255 255 255 255 255 255 255 255 255 255 255 255 255 255 255 255 255 255 255 255 255 255 255 255 255 255 255 255 255 255 255 255 255 255 255 255 255 255 255 255 255 255 255 255 255 255 255 255 255 255 255 255 255 255 255 255 255 255 255 255 255 255 255 255 255 255 255 255 255 255 255 255 255 255 255 255 255 255 255 255 255 255 255 255 255 255 255 255 255 255 255 255 255 255 255 255 255 255 255 255 255 255 255 255 255 255 255 255 255 255 255 255 255 255 255 255 255 255 255 255 255 255 255 255 255 255 255 255 255 255 255 255 255 255 255 255 255 255 255 255 255 255 255 255 255 255 255 255 255 255 255 255 255 255 255 255 255 255 255 255 255 255 255 255 255 255 255 255 255 255 255 255 255 255 255 255 255 255 255 255 255 255 255 255 255 255 255 255 255 255 255 255 255 255 255 255 255 255 255 255 255 255 255 255 255 255 255 255 255 255 255 255 255 
255 255 255 255 255 255 255 255 255 255 255 255 255 255 255 255 255 255 255 255 255 255 255 255 255 255 255 255 255 255 255 255 255 255 255 255 255 255 255 255 255 255 255 255 255 255 255 255 255 255 255 255 255 255 255 255 255 255 255 255 255 255 255 255 255 255 255 255 255 255 255 255 255 255 255 255 255 255 255 255 255 255 255 255 255 255 255 255 255 255 255 255 255 255 255 255 255 255 255 255 255 255 255 255 255 255 255 255 255 255 255 255 255 255 255 255 255 255 255 255 255 255 255 255 255 255 255 255 255 255 255 255 255 255 255 255 255 255 255 255 255 255 255 255 255 255 255 255 255 255 255 255 255 255 255 255 255 255 255 255 255 255 255 255 255 255 255 255 255 255 255 255 255 255 255 255 255 255 255 255 255 255 255 255 255 255 255 255 255 255 255 255 255 255 255 255 255 255 255 255 255 255 255 255 255 255 255 255 255 255 255 255 255 255 255 255 255 255 255 255 255 255 255 255 255 255 255 255 255 255 255 255 255 255 255 255 255 254 254 254 254 254 254 254 254 254 253 253 253 251 251 251 250 250 250 248 248 248 241 241 241 233 233 233 225 225 225 217 217 217 206 206 206 195 195 195 184 184 184 173 173 173 162 162 162 152 152 152 141 141 141 131 131 131 139 139 139 150 150 150 161 161 161 172 172 172 187 187 187 202 202 202 216 216 216 231 231 231 236 236 236 238 238 238 240 240 240 241 241 241 242 242 242 242 242 242 242 242 242 242 242 242 242 242 242 242 242 242 242 242 242 242 242 242 242 242 242 242 242 242 242 242 242 242 242 242 242 242 242 242 242 242 242 242 242 242 242 242 242 242 242 242 242 242 242 242 242 242 242 242 242 242 242 242 242 242 242 242 242 242 242 242 242 242 242 242 242 242 242 242 242 242 242 242 242 242 242 242 242 242 242 242 242 242 242 242 242 242 242 242 242 242 242 242 242 242 242 242 241 241 241 240 240 240 238 238 238 236 236 236 232 232 232 218 218 218 204 204 204 190 190 190 177 177 177 169 169 169 162 162 162 154 154 154 149 149 149 161 161 161 172 172 172 184 184 184 195 195 195 203 203 203 211 211 211 219 219 219 227 227 227 233 233 233 240 240 240 246 246 246 252 252 252 253 253 253 253 253 253 254 254 254 254 254 254 254 254 254 254 254 254 255 255 255 255 255 255 255 255 255 255 255 255 255 255 255 255 255 255 255 255 255 255 255 255 255 255 255 255 255 255 255 255 255 255 255 255 255 255 255 255 255 255 255 255 255 255 255 255 255 255 255 255 255 255 255 255 255 255 255 255 255 255 255 255 255 255 255 255 255 255 255 255 255 255 255 255 255 255 255 255 255 255 255 255 255 255 255 255 255 255 255 255 255 255 255 255 255 255 255 255 255 255 255 255 255 255 255 255 255 255 255 255 255 255 255 255 255 255 255 255 255 255 255 255 255 255 255 255 255 255 255 255 255 255 255 255 255 255 255 255 255 255 255 255 255 255 255 255 255 255 255 255 255 255 255 255 255 255 255 255 255 255 255 255 255 255 255 255 255 255 255 255 255 255 255 255 255 255 255 255 255 255 255 255 255 255 255 255 255 255 255 255 255 255 255 255 255 255 255 255 255 255 255 255 255 255 255 255 255 255 255 255 255 255 255 255 255 255 255 255 255 255 255 255 255 255 255 255 255 255 255 255 255 255 255 255 255 
255 255 255 255 255 255 255 255 255 255 255 255 255 255 255 255 255 255 255 255 255 255 255 255 255 255 255 255 255 255 255 255 255 255 255 255 255 255 255 255 255 255 255 255 255 255 255 255 255 255 255 255 255 255 255 255 255 255 255 255 255 255 255 255 255 255 255 255 255 255 255 255 255 255 255 255 255 255 255 255 255 255 255 255 255 255 255 255 255 255 255 255 255 255 255 255 255 255 255 255 255 255 255 255 255 255 255 255 255 255 255 255 255 255 255 255 255 255 255 255 255 255 255 255 255 255 255 255 255 255 255 255 255 255 255 255 255 255 255 255 255 255 255 255 255 255 255 255 255 255 255 255 255 255 255 255 255 255 255 255 255 255 255 255 255 255 255 255 255 255 255 255 255 255 255 255 255 255 255 255 255 255 255 255 255 255 255 255 255 255 255 255 255 255 255 255 255 255 255 255 255 255 255 255 255 255 255 255 255 255 255 255 255 255 255 255 255 255 255 255 255 255 255 255 255 255 255 255 255 255 255 255 255 255 255 255 255 254 254 254 254 254 254 254 254 254 251 251 251 248 248 248 245 245 245 242 242 242 226 226 226 210 210 210 194 194 194 178 178 178 173 173 173 168 168 168 164 164 164 160 160 160 160 160 160 160 160 160 161 161 161 161 161 161 168 168 168 176 176 176 184 184 184 192 192 192 202 202 202 212 212 212 222 222 222 233 233 233 236 236 236 237 237 237 238 238 238 239 239 239 240 240 240 240 240 240 240 240 240 240 240 240 240 240 240 240 240 240 240 240 240 240 240 240 240 240 240 240 240 240 240 240 240 240 240 240 240 240 240 240 240 240 240 240 240 240 240 240 240 240 240 240 240 240 240 240 240 240 240 240 240 240 240 240 240 240 240 240 240 240 240 240 240 240 240 240 240 240 240 240 240 240 240 240 240 240 240 240 240 240 240 240 240 240 240 240 240 240 240 240 240 240 240 240 240 240 240 240 239 239 239 238 238 238 237 237 237 236 236 236 233 233 233 223 223 223 214 214 214 204 204 204 195 195 195 190 190 190 184 184 184 179 179 179 174 174 174 175 175 175 175 175 175 176 176 176 177 177 177 182 182 182 187 187 187 192 192 192 197 197 197 210 210 210 224 224 224 237 237 237 250 250 250 251 251 251 252 252 252 253 253 253 254 254 254 254 254 254 254 254 254 255 255 255 255 255 255 255 255 255 255 255 255 255 255 255 255 255 255 255 255 255 255 255 255 255 255 255 255 255 255 255 255 255 255 255 255 255 255 255 255 255 255 255 255 255 255 255 255 255 255 255 255 255 255 255 255 255 255 255 255 255 255 255 255 255 255 255 255 255 255 255 255 255 255 255 255 255 255 255 255 255 255 255 255 255 255 255 255 255 255 255 255 255 255 255 255 255 255 255 255 255 255 255 255 255 255 255 255 255 255 255 255 255 255 255 255 255 255 255 255 255 255 255 255 255 255 255 255 255 255 255 255 255 255 255 255 255 255 255 255 255 255 255 255 255 255 255 255 255 255 255 255 255 255 255 255 255 255 255 255 255 255 255 255 255 255 255 255 255 255 255 255 255 255 255 255 255 255 255 255 255 255 255 255 255 255 255 255 255 255 255 255 255 255 255 255 255 255 255 255 255 255 255 255 255 255 255 255 255 255 255 255 255 255 255 255 255 255 255 255 255 255 255 255 255 255 255 255 255 255 255 255 255 255 255 255 255 
255 255 255 255 255 255 255 255 255 255 255 255 255 255 255 255 255 255 255 255 255 255 255 255 255 255 255 255 255 255 255 255 255 255 255 255 255 255 255 255 255 255 255 255 255 255 255 255 255 255 255 255 255 255 255 255 255 255 255 255 255 255 255 255 255 255 255 255 255 255 255 255 255 255 255 255 255 255 255 255 255 255 255 255 255 255 255 255 255 255 255 255 255 255 255 255 255 255 255 255 255 255 255 255 255 255 255 255 255 255 255 255 255 255 255 255 255 255 255 255 255 255 255 255 255 255 255 255 255 255 255 255 255 255 255 255 255 255 255 255 255 255 255 255 255 255 255 255 255 255 255 255 255 255 255 255 255 255 255 255 255 255 255 255 255 255 255 255 255 255 255 255 255 255 255 255 255 255 255 255 255 255 255 255 255 255 255 255 255 255 255 255 255 255 255 255 255 255 255 255 255 255 255 255 255 255 255 255 255 255 255 255 255 255 255 255 255 255 255 255 255 255 255 255 255 255 255 255 255 255 255 255 255 255 255 255 255 254 254 254 254 254 254 254 254 254 249 249 249 245 245 245 240 240 240 236 236 236 212 212 212 187 187 187 162 162 162 138 138 138 139 139 139 142 142 142 144 144 144 147 147 147 157 157 157 169 169 169 180 180 180 192 192 192 197 197 197 202 202 202 207 207 207 212 212 212 217 217 217 223 223 223 228 228 228 234 234 234 235 235 235 236 236 236 237 237 237 237 237 237 238 238 238 238 238 238 238 238 238 238 238 238 238 238 238 238 238 238 238 238 238 238 238 238 238 238 238 238 238 238 238 238 238 238 238 238 238 238 238 238 238 238 238 238 238 238 238 238 238 238 238 238 238 238 238 238 238 238 238 238 238 238 238 238 238 238 238 238 238 238 238 238 238 238 238 238 238 238 238 238 238 238 238 238 238 238 238 238 238 238 238 238 238 238 238 238 238 238 238 238 238 238 238 238 238 238 238 238 237 237 237 237 237 237 236 236 236 235 235 235 234 234 234 229 229 229 224 224 224 219 219 219 214 214 214 210 210 210 207 207 207 203 203 203 199 199 199 188 188 188 178 178 178 168 168 168 159 159 159 161 161 161 163 163 163 165 165 165 167 167 167 188 188 188 208 208 208 228 228 228 248 248 248 250 250 250 251 251 251 253 253 253 254 254 254 254 254 254 254 254 254 255 255 255 255 255 255 255 255 255 255 255 255 255 255 255 255 255 255 255 255 255 255 255 255 255 255 255 255 255 255 255 255 255 255 255 255 255 255 255 255 255 255 255 255 255 255 255 255 255 255 255 255 255 255 255 255 255 255 255 255 255 255 255 255 255 255 255 255 255 255 255 255 255 255 255 255 255 255 255 255 255 255 255 255 255 255 255 255 255 255 255 255 255 255 255 255 255 255 255 255 255 255 255 255 255 255 255 255 255 255 255 255 255 255 255 255 255 255 255 255 255 255 255 255 255 255 255 255 255 255 255 255 255 255 255 255 255 255 255 255 255 255 255 255 255 255 255 255 255 255 255 255 255 255 255 255 255 255 255 255 255 255 255 255 255 255 255 255 255 255 255 255 255 255 255 255 255 255 255 255 255 255 255 255 255 255 255 255 255 255 255 255 255 255 255 255 255 255 255 255 255 255 255 255 255 255 255 255 255 255 255 255 255 255 255 255 255 255 255 255 255 255 255 255 255 255 255 255 255 255 255 255 255 255 255 255 255 
255 255 255 255 255 255 255 255 255 255 255 255 255 255 255 255 255 255 255 255 255 255 255 255 255 255 255 255 255 255 255 255 255 255 255 255 255 255 255 255 255 255 255 255 255 255 255 255 255 255 255 255 255 255 255 255 255 255 255 255 255 255 255 255 255 255 255 255 255 255 255 255 255 255 255 255 255 255 255 255 255 255 255 255 255 255 255 255 255 255 255 255 255 255 255 255 255 255 255 255 255 255 255 255 255 255 255 255 255 255 255 255 255 255 255 255 255 255 255 255 255 255 255 255 255 255 255 255 255 255 255 255 255 255 255 255 255 255 255 255 255 255 255 255 255 255 255 255 255 255 255 255 255 255 255 255 255 255 255 255 255 255 255 255 255 255 255 255 255 255 255 255 255 255 255 255 255 255 255 255 255 255 255 255 255 255 255 255 255 255 255 255 255 255 255 255 255 255 255 255 255 255 255 255 255 255 255 255 255 255 255 255 255 255 255 255 255 255 255 255 255 255 255 255 255 255 255 255 255 255 255 255 255 255 255 255 255 254 254 254 254 254 254 254 254 254 248 248 248 242 242 242 236 236 236 230 230 230 197 197 197 164 164 164 131 131 131 98 98 98 106 106 106 115 115 115 124 124 124 134 134 134 155 155 155 177 177 177 200 200 200 222 222 222 227 227 227 229 229 229 230 230 230 232 232 232 233 233 233 233 233 233 234 234 234 235 235 235 235 235 235 235 235 235 235 235 235 235 235 235 235 235 235 235 235 235 235 235 235 235 235 235 235 235 235 235 235 235 235 235 235 235 235 235 235 235 235 235 235 235 235 235 235 235 235 235 235 235 235 235 235 235 235 235 235 235 235 235 235 235 235 235 235 235 235 235 235 235 235 235 235 235 235 235 235 235 235 235 235 235 235 235 235 235 235 235 235 235 235 235 235 235 235 235 235 235 235 235 235 235 235 235 235 235 235 235 235 235 235 235 235 235 235 235 235 235 235 235 235 235 235 235 235 235 235 235 235 235 235 235 235 235 235 234 234 234 234 234 234 233 233 233 232 232 232 231 231 231 229 229 229 228 228 228 223 223 223 202 202 202 181 181 181 160 160 160 141 141 141 140 140 140 139 139 139 138 138 138 138 138 138 165 165 165 192 192 192 219 219 219 246 246 246 248 248 248 250 250 250 252 252 252 254 254 254 254 254 254 254 254 254 255 255 255 255 255 255 255 255 255 255 255 255 255 255 255 255 255 255 255 255 255 255 255 255 255 255 255 255 255 255 255 255 255 255 255 255 255 255 255 255 255 255 255 255 255 255 255 255 255 255 255 255 255 255 255 255 255 255 255 255 255 255 255 255 255 255 255 255 255 255 255 255 255 255 255 255 255 255 255 255 255 255 255 255 255 255 255 255 255 255 255 255 255 255 255 255 255 255 255 255 255 255 255 255 255 255 255 255 255 255 255 255 255 255 255 255 255 255 255 255 255 255 255 255 255 255 255 255 255 255 255 255 255 255 255 255 255 255 255 255 255 255 255 255 255 255 255 255 255 255 255 255 255 255 255 255 255 255 255 255 255 255 255 255 255 255 255 255 255 255 255 255 255 255 255 255 255 255 255 255 255 255 255 255 255 255 255 255 255 255 255 255 255 255 255 255 255 255 255 255 255 255 255 255 255 255 255 255 255 255 255 255 255 255 255 255 255 255 255 255 255 255 255 255 255 255 255 255 255 255 255 255 255 255 255 255 255 
255 255 255 255 255 255 255 255 255 255 255 255 255 255 255 255 255 255 255 255 255 255 255 255 255 255 255 255 255 255 255 255 255 255 255 255 255 255 255 255 255 255 255 255 255 255 255 255 255 255 255 255 255 255 255 255 255 255 255 255 255 255 255 255 255 255 255 255 255 255 255 255 255 255 255 255 255 255 255 255 255 255 255 255 255 255 255 255 255 255 255 255 255 255 255 255 255 255 255 255 255 255 255 255 255 255 255 255 255 255 255 255 255 255 255 255 255 255 255 255 255 255 255 255 255 255 255 255 255 255 255 255 255 255 255 255 255 255 255 255 255 255 255 255 255 255 255 255 255 255 255 255 255 255 255 255 255 255 255 255 255 255 255 255 255 255 255 255 255 255 255 255 255 255 255 255 255 255 255 255 255 255 255 255 255 255 255 255 255 255 255 255 255 255 255 255 255 255 255 255 255 255 255 255 255 255 255 255 255 255 255 255 255 255 255 255 255 255 255 255 255 255 255 255 255 255 255 255 255 255 255 254 254 254 251 251 251 248 248 248 245 245 245 241 241 241 229 229 229 217 217 217 204 204 204 192 192 192 171 171 171 151 151 151 131 131 131 111 111 111 120 120 120 130 130 130 141 141 141 151 151 151 170 170 170 188 188 188 207 207 207 226 226 226 230 230 230 231 231 231 232 232 232 233 233 233 233 233 233 233 233 233 233 233 233 233 233 233 233 233 233 233 233 233 233 233 233 233 233 233 233 233 233 233 233 233 233 233 233 233 233 233 233 233 233 233 233 233 233 233 233 233 233 233 233 233 233 233 233 233 233 233 233 233 233 233 233 233 233 233 233 233 233 233 233 233 233 233 233 233 233 233 233 233 233 233 233 233 233 233 233 233 233 233 233 233 233 233 233 233 233 233 233 233 233 233 233 233 233 233 233 233 233 233 233 233 233 233 233 233 233 233 233 233 233 233 233 233 233 233 233 233 233 233 233 233 233 233 233 233 233 233 233 233 233 233 233 233 233 233 233 233 233 233 233 233 233 233 233 233 233 233 233 233 233 232 232 232 231 231 231 230 230 230 226 226 226 209 209 209 191 191 191 173 173 173 157 157 157 153 153 153 149 149 149 146 146 146 143 143 143 160 160 160 177 177 177 195 195 195 212 212 212 221 221 221 230 230 230 239 239 239 248 248 248 250 250 250 251 251 251 253 253 253 255 255 255 255 255 255 255 255 255 255 255 255 255 255 255 255 255 255 255 255 255 255 255 255 255 255 255 255 255 255 255 255 255 255 255 255 255 255 255 255 255 255 255 255 255 255 255 255 255 255 255 255 255 255 255 255 255 255 255 255 255 255 255 255 255 255 255 255 255 255 255 255 255 255 255 255 255 255 255 255 255 255 255 255 255 255 255 255 255 255 255 255 255 255 255 255 255 255 255 255 255 255 255 255 255 255 255 255 255 255 255 255 255 255 255 255 255 255 255 255 255 255 255 255 255 255 255 255 255 255 255 255 255 255 255 255 255 255 255 255 255 255 255 255 255 255 255 255 255 255 255 255 255 255 255 255 255 255 255 255 255 255 255 255 255 255 255 255 255 255 255 255 255 255 255 255 255 255 255 255 255 255 255 255 255 255 255 255 255 255 255 255 255 255 255 255 255 255 255 255 255 255 255 255 255 255 255 255 255 255 255 255 255 255 255 255 255 255 255 255 255 255 255 255 255 255 255 255 255 255 255 255 255 255 
255 255 255 255 255 255 255 255 255 255 255 255 255 255 255 255 255 255 255 255 255 255 255 255 255 255 255 255 255 255 255 255 255 255 255 255 255 255 255 255 255 255 255 255 255 255 255 255 255 255 255 255 255 255 255 255 255 255 255 255 255 255 255 255 255 255 255 255 255 255 255 255 255 255 255 255 255 255 255 255 255 255 255 255 255 255 255 255 255 255 255 255 255 255 255 255 255 255 255 255 255 255 255 255 255 255 255 255 255 255 255 255 255 255 255 255 255 255 255 255 255 255 255 255 255 255 255 255 255 255 255 255 255 255 255 255 255 255 255 255 255 255 255 255 255 255 255 255 255 255 255 255 255 255 255 255 255 255 255 255 255 255 255 255 255 255 255 255 255 255 255 255 255 255 255 255 255 255 255 255 255 255 255 255 255 255 255 255 255 255 255 255 255 255 255 255 255 255 255 255 255 255 255 255 255 255 255 255 255 255 255 255 255 255 255 255 255 255 255 255 255 255 255 255 255 255 255 255 255 255 255 254 254 254 247 247 247 241 241 241 234 234 234 227 227 227 207 207 207 188 188 188 168 168 168 148 148 148 144 144 144 140 140 140 136 136 136 132 132 132 142 142 142 153 153 153 163 163 163 174 174 174 187 187 187 200 200 200 213 213 213 226 226 226 228 228 228 229 229 229 230 230 230 230 230 230 230 230 230 230 230 230 230 230 230 230 230 230 230 230 230 230 230 230 230 230 230 230 230 230 230 230 230 230 230 230 230 230 230 230 230 230 230 230 230 230 230 230 230 230 230 230 230 230 230 230 230 230 230 230 230 230 230 230 230 230 230 230 230 230 230 230 230 230 230 230 230 230 230 230 230 230 230 230 230 230 230 230 230 230 230 230 230 230 230 230 230 230 230 230 230 230 230 230 230 230 230 230 230 230 230 230 230 230 230 230 230 230 230 230 230 230 230 230 230 230 230 230 230 230 230 230 230 230 230 230 230 230 230 230 230 230 230 230 230 230 230 230 230 230 230 230 230 230 230 230 230 230 230 230 230 230 230 230 230 230 230 230 229 229 229 228 228 228 226 226 226 214 214 214 202 202 202 189 189 189 178 178 178 172 172 172 166 166 166 160 160 160 154 154 154 159 159 159 163 163 163 168 168 168 172 172 172 189 189 189 206 206 206 224 224 224 241 241 241 245 245 245 248 248 248 251 251 251 254 254 254 255 255 255 255 255 255 255 255 255 255 255 255 255 255 255 255 255 255 255 255 255 255 255 255 255 255 255 255 255 255 255 255 255 255 255 255 255 255 255 255 255 255 255 255 255 255 255 255 255 255 255 255 255 255 255 255 255 255 255 255 255 255 255 255 255 255 255 255 255 255 255 255 255 255 255 255 255 255 255 255 255 255 255 255 255 255 255 255 255 255 255 255 255 255 255 255 255 255 255 255 255 255 255 255 255 255 255 255 255 255 255 255 255 255 255 255 255 255 255 255 255 255 255 255 255 255 255 255 255 255 255 255 255 255 255 255 255 255 255 255 255 255 255 255 255 255 255 255 255 255 255 255 255 255 255 255 255 255 255 255 255 255 255 255 255 255 255 255 255 255 255 255 255 255 255 255 255 255 255 255 255 255 255 255 255 255 255 255 255 255 255 255 255 255 255 255 255 255 255 255 255 255 255 255 255 255 255 255 255 255 255 255 255 255 255 255 255 255 255 255 255 255 255 255 255 255 255 255 255 255 255 
255 255 255 255 255 255 255 255 255 255 255 255 255 255 255 255 255 255 255 255 255 255 255 255 255 255 255 255 255 255 255 255 255 255 255 255 255 255 255 255 255 255 255 255 255 255 255 255 255 255 255 255 255 255 255 255 255 255 255 255 255 255 255 255 255 255 255 255 255 255 255 255 255 255 255 255 255 255 255 255 255 255 255 255 255 255 255 255 255 255 255 255 255 255 255 255 255 255 255 255 255 255 255 255 255 255 255 255 255 255 255 255 255 255 255 255 255 255 255 255 255 255 255 255 255 255 255 255 255 255 255 255 255 255 255 255 255 255 255 255 255 255 255 255 255 255 255 255 255 255 255 255 255 255 255 255 255 255 255 255 255 255 255 255 255 255 255 255 255 255 255 255 255 255 255 255 255 255 255 255 255 255 255 255 255 255 255 255 255 255 255 255 255 255 255 255 255 255 255 255 255 255 255 255 255 255 255 255 255 255 255 255 255 255 255 255 254 254 254 254 254 254 254 254 254 254 254 254 254 254 254 253 253 253 243 243 243 233 233 233 223 223 223 212 212 212 186 186 186 159 159 159 132 132 132 105 105 105 117 117 117 129 129 129 141 141 141 153 153 153 164 164 164 175 175 175 186 186 186 197 197 197 204 204 204 211 211 211 218 218 218 225 225 225 227 227 227 227 227 227 228 228 228 228 228 228 228 228 228 228 228 228 228 228 228 228 228 228 228 228 228 228 228 228 228 228 228 228 228 228 228 228 228 228 228 228 228 228 228 228 228 228 228 228 228 228 228 228 228 228 228 228 228 228 228 228 228 228 228 228 228 228 228 228 228 228 228 228 228 228 228 228 228 228 228 228 228 228 228 228 228 228 228 228 228 228 228 228 228 228 228 228 228 228 228 228 228 228 228 228 228 228 228 228 228 228 228 228 228 228 228 228 228 228 228 228 228 228 228 228 228 228 228 228 228 228 228 228 228 228 228 228 228 228 228 228 228 228 228 228 228 228 228 228 228 228 228 228 228 228 228 228 228 228 228 228 228 228 228 228 228 228 228 228 228 228 228 228 227 227 227 227 227 227 226 226 226 219 219 219 212 212 212 206 206 206 199 199 199 191 191 191 182 182 182 174 174 174 165 165 165 157 157 157 149 149 149 141 141 141 132 132 132 158 158 158 183 183 183 208 208 208 234 234 234 239 239 239 244 244 244 249 249 249 254 254 254 254 254 254 254 254 254 254 254 254 254 254 254 254 254 254 255 255 255 255 255 255 255 255 255 255 255 255 255 255 255 255 255 255 255 255 255 255 255 255 255 255 255 255 255 255 255 255 255 255 255 255 255 255 255 255 255 255 255 255 255 255 255 255 255 255 255 255 255 255 255 255 255 255 255 255 255 255 255 255 255 255 255 255 255 255 255 255 255 255 255 255 255 255 255 255 255 255 255 255 255 255 255 255 255 255 255 255 255 255 255 255 255 255 255 255 255 255 255 255 255 255 255 255 255 255 255 255 255 255 255 255 255 255 255 255 255 255 255 255 255 255 255 255 255 255 255 255 255 255 255 255 255 255 255 255 255 255 255 255 255 255 255 255 255 255 255 255 255 255 255 255 255 255 255 255 255 255 255 255 255 255 255 255 255 255 255 255 255 255 255 255 255 255 255 255 255 255 255 255 255 255 255 255 255 255 255 255 255 255 255 255 255 255 255 255 255 255 255 255 255 255 255 255 255 255 255 255 255 255 255 255 
255 255 255 255 255 255 255 255 255 255 255 255 255 255 255 255 255 255 255 255 255 255 255 255 255 255 255 255 255 255 255 255 255 255 255 255 255 255 255 255 255 255 255 255 255 255 255 255 255 255 255 255 255 255 255 255 255 255 255 255 255 255 255 255 255 255 255 255 255 255 255 255 255 255 255 255 255 255 255 255 255 255 255 255 255 255 255 255 255 255 255 255 255 255 255 255 255 255 255 255 255 255 255 255 255 255 255 255 255 255 255 255 255 255 255 255 255 255 255 255 255 255 255 255 255 255 255 255 255 255 255 255 255 255 255 255 255 255 255 255 255 255 255 255 255 255 255 255 255 255 255 255 255 255 255 255 255 255 255 255 255 255 255 255 255 255 255 255 255 255 255 255 255 255 255 255 255 255 255 255 255 255 255 255 255 255 255 255 255 255 255 255 255 255 255 255 255 255 255 255 255 255 255 255 255 255 255 255 255 255 255 255 255 254 254 254 254 254 254 254 254 254 254 254 254 254 254 254 254 254 254 253 253 253 239 239 239 226 226 226 212 212 212 198 198 198 164 164 164 130 130 130 95 95 95 61 61 61 90 90 90 118 118 118 146 146 146 174 174 174 186 186 186 197 197 197 209 209 209 220 220 220 222 222 222 223 223 223 224 224 224 225 225 225 225 225 225 225 225 225 225 225 225 225 225 225 225 225 225 225 225 225 225 225 225 225 225 225 225 225 225 225 225 225 225 225 225 225 225 225 225 225 225 225 225 225 225 225 225 225 225 225 225 225 225 225 225 225 225 225 225 225 225 225 225 225 225 225 225 225 225 225 225 225 225 225 225 225 225 225 225 225 225 225 225 225 225 225 225 225 225 225 225 225 225 225 225 225 225 225 225 225 225 225 225 225 225 225 225 225 225 225 225 225 225 225 225 225 225 225 225 225 225 225 225 225 225 225 225 225 225 225 225 225 225 225 225 225 225 225 225 225 225 225 225 225 225 225 225 225 225 225 225 225 225 225 225 225 225 225 225 225 225 225 225 225 225 225 225 225 225 225 225 225 225 225 225 225 225 225 225 225 225 225 225 225 225 224 224 224 223 223 223 222 222 222 220 220 220 209 209 209 199 199 199 188 188 188 177 177 177 156 156 156 135 135 135 114 114 114 93 93 93 126 126 126 160 160 160 193 193 193 227 227 227 234 234 234 241 241 241 247 247 247 253 253 253 254 254 254 254 254 254 254 254 254 254 254 254 254 254 254 254 254 254 255 255 255 255 255 255 255 255 255 255 255 255 255 255 255 255 255 255 255 255 255 255 255 255 255 255 255 255 255 255 255 255 255 255 255 255 255 255 255 255 255 255 255 255 255 255 255 255 255 255 255 255 255 255 255 255 255 255 255 255 255 255 255 255 255 255 255 255 255 255 255 255 255 255 255 255 255 255 255 255 255 255 255 255 255 255 255 255 255 255 255 255 255 255 255 255 255 255 255 255 255 255 255 255 255 255 255 255 255 255 255 255 255 255 255 255 255 255 255 255 255 255 255 255 255 255 255 255 255 255 255 255 255 255 255 255 255 255 255 255 255 255 255 255 255 255 255 255 255 255 255 255 255 255 255 255 255 255 255 255 255 255 255 255 255 255 255 255 255 255 255 255 255 255 255 255 255 255 255 255 255 255 255 255 255 255 255 255 255 255 255 255 255 255 255 255 255 255 255 255 255 255 255 255 255 255 255 255 255 255 255 255 255 
255 255 255 255 255 255 255 255 255 255 255 255 255 255 255 255 255 255 255 255 255 255 255 255 255 255 255 255 255 255 255 255 255 255 255 255 255 255 255 255 255 255 255 255 255 255 255 255 255 255 255 255 255 255 255 255 255 255 255 255 255 255 255 255 255 255 255 255 255 255 255 255 255 255 255 255 255 255 255 255 255 255 255 255 255 255 255 255 255 255 255 255 255 255 255 255 255 255 255 255 255 255 255 255 255 255 255 255 255 255 255 255 255 255 255 255 255 255 255 255 255 255 255 255 255 255 255 255 255 255 255 255 255 255 255 255 255 255 255 255 255 255 255 255 255 255 255 255 255 255 255 255 255 255 255 255 255 255 255 255 255 255 255 255 255 255 255 255 255 255 255 255 255 255 255 255 255 255 255 255 255 255 255 255 255 255 255 255 255 255 255 255 255 255 255 255 255 255 255 255 255 255 255 255 255 255 255 255 255 255 255 255 255 254 254 254 254 254 254 253 253 253 250 250 250 246 246 246 243 243 243 237 237 237 219 219 219 201 201 201 182 182 182 164 164 164 142 142 142 121 121 121 100 100 100 79 79 79 106 106 106 132 132 132 159 159 159 186 186 186 195 195 195 204 204 204 213 213 213 222 222 222 223 223 223 223 223 223 223 223 223 223 223 223 223 223 223 223 223 223 223 223 223 223 223 223 223 223 223 223 223 223 223 223 223 223 223 223 223 223 223 223 223 223 223 223 223 223 223 223 223 223 223 223 223 223 223 223 223 223 223 223 223 223 223 223 223 223 223 223 223 223 223 223 223 223 223 223 223 223 223 223 223 223 223 223 223 223 223 223 223 223 223 223 223 223 223 223 223 223 223 223 223 223 223 223 223 223 223 223 223 223 223 223 223 223 223 223 223 223 223 223 223 223 223 223 223 223 223 223 223 223 223 223 223 223 223 223 223 223 223 223 223 223 223 223 223 223 223 223 223 223 223 223 223 223 223 223 223 223 223 223 223 223 223 223 223 223 223 223 223 223 223 223 223 223 223 223 223 223 223 223 223 223 223 223 223 223 223 223 223 223 223 223 223 223 223 223 223 223 223 223 223 223 223 223 222 222 222 213 213 213 204 204 204 195 195 195 186 186 186 166 166 166 145 145 145 125 125 125 105 105 105 127 127 127 148 148 148 170 170 170 192 192 192 206 206 206 219 219 219 232 232 232 245 245 245 248 248 248 250 250 250 252 252 252 254 254 254 254 254 254 254 254 254 255 255 255 255 255 255 255 255 255 255 255 255 255 255 255 255 255 255 255 255 255 255 255 255 255 255 255 255 255 255 255 255 255 255 255 255 255 255 255 255 255 255 255 255 255 255 255 255 255 255 255 255 255 255 255 255 255 255 255 255 255 255 255 255 255 255 255 255 255 255 255 255 255 255 255 255 255 255 255 255 255 255 255 255 255 255 255 255 255 255 255 255 255 255 255 255 255 255 255 255 255 255 255 255 255 255 255 255 255 255 255 255 255 255 255 255 255 255 255 255 255 255 255 255 255 255 255 255 255 255 255 255 255 255 255 255 255 255 255 255 255 255 255 255 255 255 255 255 255 255 255 255 255 255 255 255 255 255 255 255 255 255 255 255 255 255 255 255 255 255 255 255 255 255 255 255 255 255 255 255 255 255 255 255 255 255 255 255 255 255 255 255 255 255 255 255 255 255 255 255 255 255 255 255 255 255 255 255 255 255 255 255 255 
255 255 255 255 255 255 255 255 255 255 255 255 255 255 255 255 255 255 255 255 255 255 255 255 255 255 255 255 255 255 255 255 255 255 255 255 255 255 255 255 255 255 255 255 255 255 255 255 255 255 255 255 255 255 255 255 255 255 255 255 255 255 255 255 255 255 255 255 255 255 255 255 255 255 255 255 255 255 255 255 255 255 255 255 255 255 255 255 255 255 255 255 255 255 255 255 255 255 255 255 255 255 255 255 255 255 255 255 255 255 255 255 255 255 255 255 255 255 255 255 255 255 255 255 255 255 255 255 255 255 255 255 255 255 255 255 255 255 255 255 255 255 255 255 255 255 255 255 255 255 255 255 255 255 255 255 255 255 255 255 255 255 255 255 255 255 255 255 255 255 255 255 255 255 255 255 255 255 255 255 255 255 255 255 255 255 255 255 255 255 255 255 255 255 255 255 255 255 255 255 255 255 255 255 255 255 255 255 255 255 255 255 255 254 254 254 254 254 254 253 253 253 245 245 245 236 236 236 228 228 228 219 219 219 195 195 195 171 171 171 147 147 147 124 124 124 121 121 121 118 118 118 115 115 115 112 112 112 132 132 132 153 153 153 174 174 174 194 194 194 201 201 201 207 207 207 213 213 213 219 219 219 220 220 220 220 220 220 220 220 220 220 220 220 220 220 220 220 220 220 220 220 220 220 220 220 220 220 220 220 220 220 220 220 220 220 220 220 220 220 220 220 220 220 220 220 220 220 220 220 220 220 220 220 220 220 220 220 220 220 220 220 220 220 220 220 220 220 220 220 220 220 220 220 220 220 220 220 220 220 220 220 220 220 220 220 220 220 220 220 220 220 220 220 220 220 220 220 220 220 220 220 220 220 220 220 220 220 220 220 220 220 220 220 220 220 220 220 220 220 220 220 220 220 220 220 220 220 220 220 220 220 220 220 220 220 220 220 220 220 220 220 220 220 220 220 220 220 220 220 220 220 220 220 220 220 220 220 220 220 220 220 220 220 220 220 220 220 220 220 220 220 220 220 220 220 220 220 220 220 220 220 220 220 220 220 220 220 220 220 220 220 220 220 220 220 220 220 220 220 220 220 220 220 220 220 219 219 219 213 213 213 207 207 207 201 201 201 194 194 194 178 178 178 162 162 162 146 146 146 129 129 129 135 135 135 140 140 140 145 145 145 151 151 151 171 171 171 192 192 192 214 214 214 235 235 235 241 241 241 245 245 245 249 249 249 253 253 253 254 254 254 254 254 254 255 255 255 255 255 255 255 255 255 255 255 255 255 255 255 255 255 255 255 255 255 255 255 255 255 255 255 255 255 255 255 255 255 255 255 255 255 255 255 255 255 255 255 255 255 255 255 255 255 255 255 255 255 255 255 255 255 255 255 255 255 255 255 255 255 255 255 255 255 255 255 255 255 255 255 255 255 255 255 255 255 255 255 255 255 255 255 255 255 255 255 255 255 255 255 255 255 255 255 255 255 255 255 255 255 255 255 255 255 255 255 255 255 255 255 255 255 255 255 255 255 255 255 255 255 255 255 255 255 255 255 255 255 255 255 255 255 255 255 255 255 255 255 255 255 255 255 255 255 255 255 255 255 255 255 255 255 255 255 255 255 255 255 255 255 255 255 255 255 255 255 255 255 255 255 255 255 255 255 255 255 255 255 255 255 255 255 255 255 255 255 255 255 255 255 255 255 255 255 255 255 255 255 255 255 255 255 255 255 255 255 255 255 
255 255 255 255 255 255 255 255 255 255 255 255 255 255 255 255 255 255 255 255 255 255 255 255 255 255 255 255 255 255 255 255 255 255 255 255 255 255 255 255 255 255 255 255 255 255 255 255 255 255 255 255 255 255 255 255 255 255 255 255 255 255 255 255 255 255 255 255 255 255 255 255 255 255 255 255 255 255 255 255 255 255 255 255 255 255 255 255 255 255 255 255 255 255 255 255 255 255 255 255 255 255 255 255 255 255 255 255 255 255 255 255 255 255 255 255 255 255 255 255 255 255 255 255 255 255 255 255 255 255 255 255 255 255 255 255 255 255 255 255 255 255 255 255 255 255 255 255 255 255 255 255 255 255 255 255 255 255 255 255 255 255 255 255 255 255 255 255 255 255 255 255 255 255 255 255 255 255 255 255 255 255 255 255 255 255 255 255 255 255 255 255 255 255 255 255 255 255 255 255 255 255 255 255 255 255 255 255 255 255 255 255 255 254 254 254 254 254 254 252 252 252 239 239 239 227 227 227 214 214 214 200 200 200 171 171 171 142 142 142 112 112 112 85 85 85 100 100 100 115 115 115 129 129 129 144 144 144 159 159 159 173 173 173 188 188 188 203 203 203 207 207 207 210 210 210 214 214 214 217 217 217 217 217 217 217 217 217 217 217 217 217 217 217 217 217 217 217 217 217 217 217 217 217 217 217 217 217 217 217 217 217 217 217 217 217 217 217 217 217 217 217 217 217 217 217 217 217 217 217 217 217 217 217 217 217 217 217 217 217 217 217 217 217 217 217 217 217 217 217 217 217 217 217 217 217 217 217 217 217 217 217 217 217 217 217 217 217 217 217 217 217 217 217 217 217 217 217 217 217 217 217 217 217 217 217 217 217 217 217 217 217 217 217 217 217 217 217 217 217 217 217 217 217 217 217 217 217 217 217 217 217 217 217 217 217 217 217 217 217 217 217 217 217 217 217 217 217 217 217 217 217 217 217 217 217 217 217 217 217 217 217 217 217 217 217 217 217 217 217 217 217 217 217 217 217 217 217 217 217 217 217 217 217 217 217 217 217 217 217 217 217 217 217 217 217 217 217 217 217 217 217 217 217 217 217 217 217 217 214 214 214 210 210 210 207 207 207 203 203 203 191 191 191 178 178 178 166 166 166 154 154 154 143 143 143 132 132 132 121 121 121 110 110 110 137 137 137 166 166 166 196 196 196 225 225 225 234 234 234 240 240 240 247 247 247 253 253 253 254 254 254 254 254 254 255 255 255 255 255 255 255 255 255 255 255 255 255 255 255 255 255 255 255 255 255 255 255 255 255 255 255 255 255 255 255 255 255 255 255 255 255 255 255 255 255 255 255 255 255 255 255 255 255 255 255 255 255 255 255 255 255 255 255 255 255 255 255 255 255 255 255 255 255 255 255 255 255 255 255 255 255 255 255 255 255 255 255 255 255 255 255 255 255 255 255 255 255 255 255 255 255 255 255 255 255 255 255 255 255 255 255 255 255 255 255 255 255 255 255 255 255 255 255 255 255 255 255 255 255 255 255 255 255 255 255 255 255 255 255 255 255 255 255 255 255 255 255 255 255 255 255 255 255 255 255 255 255 255 255 255 255 255 255 255 255 255 255 255 255 255 255 255 255 255 255 255 255 255 255 255 255 255 255 255 255 255 255 255 255 255 255 255 255 255 255 255 255 255 255 255 255 255 255 255 255 255 255 255 255 255 255 255 255 255 255 255 255 
255 255 255 255 255 255 255 255 255 255 255 255 255 255 255 255 255 255 255 255 255 255 255 255 255 255 255 255 255 255 255 255 255 255 255 255 255 255 255 255 255 255 255 255 255 255 255 255 255 255 255 255 255 255 255 255 255 255 255 255 255 255 255 255 255 255 255 255 255 255 255 255 255 255 255 255 255 255 255 255 255 255 255 255 255 255 255 255 255 255 255 255 255 255 255 255 255 255 255 255 255 255 255 255 255 255 255 255 255 255 255 255 255 255 255 255 255 255 255 255 255 255 255 255 255 255 255 255 255 255 255 255 255 255 255 255 255 255 255 255 255 255 255 255 255 255 255 255 255 255 255 255 255 255 255 255 255 255 255 255 255 255 255 255 255 255 255 255 255 255 255 255 255 255 255 255 255 255 255 255 255 255 255 255 255 255 255 255 255 255 255 255 255 255 255 255 255 255 255 255 255 255 255 255 255 255 255 255 255 255 255 255 255 254 254 254 254 254 254 252 252 252 234 234 234 217 217 217 200 200 200 181 181 181 147 147 147 112 112 112 77 77 77 46 46 46 79 79 79 111 111 111 144 144 144 176 176 176 185 185 185 194 194 194 203 203 203 212 212 212 213 213 213 213 213 213 214 214 214 215 215 215 215 215 215 215 215 215 215 215 215 215 215 215 215 215 215 215 215 215 215 215 215 215 215 215 215 215 215 215 215 215 215 215 215 215 215 215 215 215 215 215 215 215 215 215 215 215 215 215 215 215 215 215 215 215 215 215 215 215 215 215 215 215 215 215 215 215 215 215 215 215 215 215 215 215 215 215 215 215 215 215 215 215 215 215 215 215 215 215 215 215 215 215 215 215 215 215 215 215 215 215 215 215 215 215 215 215 215 215 215 215 215 215 215 215 215 215 215 215 215 215 215 215 215 215 215 215 215 215 215 215 215 215 215 215 215 215 215 215 215 215 215 215 215 215 215 215 215 215 215 215 215 215 215 215 215 215 215 215 215 215 215 215 215 215 215 215 215 215 215 215 215 215 215 215 215 215 215 215 215 215 215 215 215 215 215 215 215 215 215 215 215 215 215 215 215 215 215 215 215 215 215 215 215 215 215 215 215 214 214 214 213 213 213 213 213 213 212 212 212 203 203 203 195 195 195 187 187 187 178 178 178 151 151 151 123 123 123 96 96 96 68 68 68 103 103 103 140 140 140 177 177 177 215 215 215 226 226 226 235 235 235 244 244 244 253 253 253 254 254 254 254 254 254 255 255 255 255 255 255 255 255 255 255 255 255 255 255 255 255 255 255 255 255 255 255 255 255 255 255 255 255 255 255 255 255 255 255 255 255 255 255 255 255 255 255 255 255 255 255 255 255 255 255 255 255 255 255 255 255 255 255 255 255 255 255 255 255 255 255 255 255 255 255 255 255 255 255 255 255 255 255 255 255 255 255 255 255 255 255 255 255 255 255 255 255 255 255 255 255 255 255 255 255 255 255 255 255 255 255 255 255 255 255 255 255 255 255 255 255 255 255 255 255 255 255 255 255 255 255 255 255 255 255 255 255 255 255 255 255 255 255 255 255 255 255 255 255 255 255 255 255 255 255 255 255 255 255 255 255 255 255 255 255 255 255 255 255 255 255 255 255 255 255 255 255 255 255 255 255 255 255 255 255 255 255 255 255 255 255 255 255 255 255 255 255 255 255 255 255 255 255 255 255 255 255 255 255 255 255 255 255 255 255 255 255 255 
255 255 255 255 255 255 255 255 255 255 255 255 255 255 255 255 255 255 255 255 255 255 255 255 255 255 255 255 255 255 255 255 255 255 255 255 255 255 255 255 255 255 255 255 255 255 255 255 255 255 255 255 255 255 255 255 255 255 255 255 255 255 255 255 255 255 255 255 255 255 255 255 255 255 255 255 255 255 255 255 255 255 255 255 255 255 255 255 255 255 255 255 255 255 255 255 255 255 255 255 255 255 255 255 255 255 255 255 255 255 255 255 255 255 255 255 255 255 255 255 255 255 255 255 255 255 255 255 255 255 255 255 255 255 255 255 255 255 255 255 255 255 255 255 255 255 255 255 255 255 255 255 255 255 255 255 255 255 255 255 255 255 255 255 255 255 255 255 255 255 255 255 255 255 255 255 255 255 255 255 255 255 255 255 255 255 255 255 255 255 255 255 255 255 255 255 255 255 255 255 255 255 255 255 255 255 255 254 254 254 251 251 251 248 248 248 245 245 245 239 239 239 216 216 216 193 193 193 170 170 170 147 147 147 125 125 125 102 102 102 80 80 80 60 60 60 92 92 92 124 124 124 156 156 156 188 188 188 194 194 194 200 200 200 206 206 206 212 212 212 212 212 212 212 212 212 212 212 212 212 212 212 212 212 212 212 212 212 212 212 212 212 212 212 212 212 212 212 212 212 212 212 212 212 212 212 212 212 212 212 212 212 212 212 212 212 212 212 212 212 212 212 212 212 212 212 212 212 212 212 212 212 212 212 212 212 212 212 212 212 212 212 212 212 212 212 212 212 212 212 212 212 212 212 212 212 212 212 212 212 212 212 212 212 212 212 212 212 212 212 212 212 212 212 212 212 212 212 212 212 212 212 212 212 212 212 212 212 212 212 212 212 212 212 212 212 212 212 212 212 212 212 212 212 212 212 212 212 212 212 212 212 212 212 212 212 212 212 212 212 212 212 212 212 212 212 212 212 212 212 212 212 212 212 212 212 212 212 212 212 212 212 212 212 212 212 212 212 212 212 212 212 212 212 212 212 212 212 212 212 212 212 212 212 212 212 212 212 212 212 212 212 212 212 212 212 212 212 212 212 212 212 212 212 212 212 212 212 212 212 212 212 212 212 212 212 212 212 212 212 212 206 206 206 200 200 200 194 194 194 188 188 188 160 160 160 132 132 132 105 105 105 77 77 77 101 101 101 127 127 127 154 154 154 180 180 180 197 197 197 214 214 214 230 230 230 247 247 247 250 250 250 252 252 252 253 253 253 255 255 255 255 255 255 255 255 255 255 255 255 255 255 255 255 255 255 255 255 255 255 255 255 255 255 255 255 255 255 255 255 255 255 255 255 255 255 255 255 255 255 255 255 255 255 255 255 255 255 255 255 255 255 255 255 255 255 255 255 255 255 255 255 255 255 255 255 255 255 255 255 255 255 255 255 255 255 255 255 255 255 255 255 255 255 255 255 255 255 255 255 255 255 255 255 255 255 255 255 255 255 255 255 255 255 255 255 255 255 255 255 255 255 255 255 255 255 255 255 255 255 255 255 255 255 255 255 255 255 255 255 255 255 255 255 255 255 255 255 255 255 255 255 255 255 255 255 255 255 255 255 255 255 255 255 255 255 255 255 255 255 255 255 255 255 255 255 255 255 255 255 255 255 255 255 255 255 255 255 255 255 255 255 255 255 255 255 255 255 255 255 255 255 255 255 255 255 255 255 255 255 255 255 255 255 255 255 255 255 
255 255 255 255 255 255 255 255 255 255 255 255 255 255 255 255 255 255 255 255 255 255 255 255 255 255 255 255 255 255 255 255 255 255 255 255 255 255 255 255 255 255 255 255 255 255 255 255 255 255 255 255 255 255 255 255 255 255 255 255 255 255 255 255 255 255 255 255 255 255 255 255 255 255 255 255 255 255 255 255 255 255 255 255 255 255 255 255 255 255 255 255 255 255 255 255 255 255 255 255 255 255 255 255 255 255 255 255 255 255 255 255 255 255 255 255 255 255 255 255 255 255 255 255 255 255 255 255 255 255 255 255 255 255 255 255 255 255 255 255 255 255 255 255 255 255 255 255 255 255 255 255 255 255 255 255 255 255 255 255 255 255 255 255 255 255 255 255 255 255 255 255 255 255 255 255 255 255 255 255 255 255 255 255 255 255 255 255 255 255 255 255 255 255 255 255 255 255 255 255 255 255 255 255 255 255 255 253 253 253 246 246 246 239 239 239 233 233 233 222 222 222 193 193 193 164 164 164 135 135 135 108 108 108 103 103 103 98 98 98 93 93 93 90 90 90 115 115 115 141 141 141 167 167 167 192 192 192 196 196 196 201 201 201 205 205 205 209 209 209 209 209 209 209 209 209 209 209 209 209 209 209 209 209 209 209 209 209 209 209 209 209 209 209 209 209 209 209 209 209 209 209 209 209 209 209 209 209 209 209 209 209 209 209 209 209 209 209 209 209 209 209 209 209 209 209 209 209 209 209 209 209 209 209 209 209 209 209 209 209 209 209 209 209 209 209 209 209 209 209 209 209 209 209 209 209 209 209 209 209 209 209 209 209 209 209 209 209 209 209 209 209 209 209 209 209 209 209 209 209 209 209 209 209 209 209 209 209 209 209 209 209 209 209 209 209 209 209 209 209 209 209 209 209 209 209 209 209 209 209 209 209 209 209 209 209 209 209 209 209 209 209 209 209 209 209 209 209 209 209 209 209 209 209 209 209 209 209 209 209 209 209 209 209 209 209 209 209 209 209 209 209 209 209 209 209 209 209 209 209 209 209 209 209 209 209 209 209 209 209 209 209 209 209 209 209 209 209 209 209 209 209 209 209 209 209 209 209 209 209 209 209 209 209 209 209 209 209 209 209 209 205 205 205 201 201 201 196 196 196 192 192 192 170 170 170 147 147 147 125 125 125 102 102 102 110 110 110 119 119 119 129 129 129 138 138 138 162 162 162 188 188 188 213 213 213 239 239 239 245 245 245 248 248 248 251 251 251 254 254 254 255 255 255 255 255 255 255 255 255 255 255 255 255 255 255 255 255 255 255 255 255 255 255 255 255 255 255 255 255 255 255 255 255 255 255 255 255 255 255 255 255 255 255 255 255 255 255 255 255 255 255 255 255 255 255 255 255 255 255 255 255 255 255 255 255 255 255 255 255 255 255 255 255 255 255 255 255 255 255 255 255 255 255 255 255 255 255 255 255 255 255 255 255 255 255 255 255 255 255 255 255 255 255 255 255 255 255 255 255 255 255 255 255 255 255 255 255 255 255 255 255 255 255 255 255 255 255 255 255 255 255 255 255 255 255 255 255 255 255 255 255 255 255 255 255 255 255 255 255 255 255 255 255 255 255 255 255 255 255 255 255 255 255 255 255 255 255 255 255 255 255 255 255 255 255 255 255 255 255 255 255 255 255 255 255 255 255 255 255 255 255 255 255 255 255 255 255 255 255 255 255 255 255 255 255 255 255 
255 255 255 255 255 255 255 255 255 255 255 255 255 255 255 255 255 255 255 255 255 255 255 255 255 255 255 255 255 255 255 255 255 255 255 255 255 255 255 255 255 255 255 255 255 255 255 255 255 255 255 255 255 255 255 255 255 255 255 255 255 255 255 255 255 255 255 255 255 255 255 255 255 255 255 255 255 255 255 255 255 255 255 255 255 255 255 255 255 255 255 255 255 255 255 255 255 255 255 255 255 255 255 255 255 255 255 255 255 255 255 255 255 255 255 255 255 255 255 255 255 255 255 255 255 255 255 255 255 255 255 255 255 255 255 255 255 255 255 255 255 255 255 255 255 255 255 255 255 255 255 255 255 255 255 255 255 255 255 255 255 255 255 255 255 255 255 255 255 255 255 255 255 255 255 255 255 255 255 255 255 255 255 255 255 255 255 255 255 255 255 255 254 254 254 254 254 254 254 254 254 254 254 254 254 254 254 252 252 252 242 242 242 231 231 231 220 220 220 206 206 206 171 171 171 135 135 135 100 100 100 69 69 69 82 82 82 94 94 94 107 107 107 120 120 120 139 139 139 158 158 158 178 178 178 197 197 197 199 199 199 202 202 202 204 204 204 206 206 206 206 206 206 206 206 206 206 206 206 206 206 206 206 206 206 206 206 206 206 206 206 206 206 206 206 206 206 206 206 206 206 206 206 206 206 206 206 206 206 206 206 206 206 206 206 206 206 206 206 206 206 206 206 206 206 206 206 206 206 206 206 206 206 206 206 206 206 206 206 206 206 206 206 206 206 206 206 206 206 206 206 206 206 206 206 206 206 206 206 206 206 206 206 206 206 206 206 206 206 206 206 206 206 206 206 206 206 206 206 206 206 206 206 206 206 206 206 206 206 206 206 206 206 206 206 206 206 206 206 206 206 206 206 206 206 206 206 206 206 206 206 206 206 206 206 206 206 206 206 206 206 206 206 206 206 206 206 206 206 206 206 206 206 206 206 206 206 206 206 206 206 206 206 206 206 206 206 206 206 206 206 206 206 206 206 206 206 206 206 206 206 206 206 206 206 206 206 206 206 206 206 206 206 206 206 206 206 206 206 206 206 206 206 206 206 206 206 206 206 206 206 206 206 206 206 206 206 206 206 206 206 204 204 204 202 202 202 199 199 199 197 197 197 179 179 179 162 162 162 144 144 144 127 127 127 119 119 119 111 111 111 104 104 104 96 96 96 127 127 127 161 161 161 196 196 196 231 231 231 240 240 240 244 244 244 249 249 249 253 253 253 254 254 254 254 254 254 254 254 254 254 254 254 254 254 254 255 255 255 255 255 255 255 255 255 255 255 255 255 255 255 255 255 255 255 255 255 255 255 255 255 255 255 255 255 255 255 255 255 255 255 255 255 255 255 255 255 255 255 255 255 255 255 255 255 255 255 255 255 255 255 255 255 255 255 255 255 255 255 255 255 255 255 255 255 255 255 255 255 255 255 255 255 255 255 255 255 255 255 255 255 255 255 255 255 255 255 255 255 255 255 255 255 255 255 255 255 255 255 255 255 255 255 255 255 255 255 255 255 255 255 255 255 255 255 255 255 255 255 255 255 255 255 255 255 255 255 255 255 255 255 255 255 255 255 255 255 255 255 255 255 255 255 255 255 255 255 255 255 255 255 255 255 255 255 255 255 255 255 255 255 255 255 255 255 255 255 255 255 255 255 255 255 255 255 255 255 255 255 255 255 255 255 255 255 255 255 255 
255 255 255 255 255 255 255 255 255 255 255 255 255 255 255 255 255 255 255 255 255 255 255 255 255 255 255 255 255 255 255 255 255 255 255 255 255 255 255 255 255 255 255 255 255 255 255 255 255 255 255 255 255 255 255 255 255 255 255 255 255 255 255 255 255 255 255 255 255 255 255 255 255 255 255 255 255 255 255 255 255 255 255 255 255 255 255 255 255 255 255 255 255 255 255 255 255 255 255 255 255 255 255 255 255 255 255 255 255 255 255 255 255 255 255 255 255 255 255 255 255 255 255 255 255 255 255 255 255 255 255 255 255 255 255 255 255 255 255 255 255 255 255 255 255 255 255 255 255 255 255 255 255 255 255 255 255 255 255 255 255 255 255 255 255 255 255 255 255 255 255 255 255 255 255 255 255 255 255 255 255 255 255 255 255 255 255 255 255 254 254 254 254 254 254 254 254 254 254 254 254 254 254 254 254 254 254 251 251 251 237 237 237 222 222 222 208 208 208 190 190 190 148 148 148 107 107 107 65 65 65 30 30 30 61 61 61 91 91 91 121 121 121 150 150 150 163 163 163 176 176 176 189 189 189 202 202 202 202 202 202 203 203 203 203 203 203 204 204 204 204 204 204 204 204 204 204 204 204 204 204 204 204 204 204 204 204 204 204 204 204 204 204 204 204 204 204 204 204 204 204 204 204 204 204 204 204 204 204 204 204 204 204 204 204 204 204 204 204 204 204 204 204 204 204 204 204 204 204 204 204 204 204 204 204 204 204 204 204 204 204 204 204 204 204 204 204 204 204 204 204 204 204 204 204 204 204 204 204 204 204 204 204 204 204 204 204 204 204 204 204 204 204 204 204 204 204 204 204 204 204 204 204 204 204 204 204 204 204 204 204 204 204 204 204 204 204 204 204 204 204 204 204 204 204 204 204 204 204 204 204 204 204 204 204 204 204 204 204 204 204 204 204 204 204 204 204 204 204 204 204 204 204 204 204 204 204 204 204 204 204 204 204 204 204 204 204 204 204 204 204 204 204 204 204 204 204 204 204 204 204 204 204 204 204 204 204 204 204 204 204 204 204 204 204 204 204 204 204 204 204 204 204 204 204 204 204 204 204 204 204 204 204 204 204 204 204 204 204 204 204 203 203 203 203 203 203 202 202 202 202 202 202 189 189 189 177 177 177 164 164 164 151 151 151 127 127 127 103 103 103 78 78 78 54 54 54 91 91 91 135 135 135 179 179 179 223 223 223 234 234 234 240 240 240 247 247 247 253 253 253 254 254 254 254 254 254 254 254 254 254 254 254 254 254 254 254 254 254 255 255 255 255 255 255 255 255 255 255 255 255 255 255 255 255 255 255 255 255 255 255 255 255 255 255 255 255 255 255 255 255 255 255 255 255 255 255 255 255 255 255 255 255 255 255 255 255 255 255 255 255 255 255 255 255 255 255 255 255 255 255 255 255 255 255 255 255 255 255 255 255 255 255 255 255 255 255 255 255 255 255 255 255 255 255 255 255 255 255 255 255 255 255 255 255 255 255 255 255 255 255 255 255 255 255 255 255 255 255 255 255 255 255 255 255 255 255 255 255 255 255 255 255 255 255 255 255 255 255 255 255 255 255 255 255 255 255 255 255 255 255 255 255 255 255 255 255 255 255 255 255 255 255 255 255 255 255 255 255 255 255 255 255 255 255 255 255 255 255 255 255 255 255 255 255 255 255 255 255 255 255 255 255 255 255 255 255 255 
255 255 255 255 255 255 255 255 255 255 255 255 255 255 255 255 255 255 255 255 255 255 255 255 255 255 255 255 255 255 255 255 255 255 255 255 255 255 255 255 255 255 255 255 255 255 255 255 255 255 255 255 255 255 255 255 255 255 255 255 255 255 255 255 255 255 255 255 255 255 255 255 255 255 255 255 255 255 255 255 255 255 255 255 255 255 255 255 255 255 255 255 255 255 255 255 255 255 255 255 255 255 255 255 255 255 255 255 255 255 255 255 255 255 255 255 255 255 255 255 255 255 255 255 255 255 255 255 255 255 255 255 255 255 255 255 255 255 255 255 255 255 255 255 255 255 255 255 255 255 255 255 255 255 255 255 255 255 255 255 255 255 255 255 255 255 255 255 255 255 255 255 255 255 255 255 255 255 255 255 255 255 255 255 255 255 255 255 255 254 254 254 254 254 254 254 254 254 252 252 252 251 251 251 250 250 250 245 245 245 223 223 223 202 202 202 180 180 180 157 157 157 124 124 124 91 91 91 59 59 59 32 32 32 65 65 65 99 99 99 132 132 132 164 164 164 173 173 173 182 182 182 192 192 192 201 201 201 201 201 201 201 201 201 201 201 201 201 201 201 201 201 201 201 201 201 201 201 201 201 201 201 201 201 201 200 200 200 200 200 200 200 200 200 200 200 200 200 200 200 200 200 200 200 200 200 200 200 200 200 200 200 200 200 200 200 200 200 200 200 200 200 200 200 200 200 200 200 200 200 201 201 201 201 201 201 201 201 201 201 201 201 201 201 201 201 201 201 201 201 201 201 201 201 201 201 201 201 201 201 201 201 201 201 201 201 201 201 201 201 201 201 201 201 201 201 201 201 201 201 201 201 201 201 201 201 201 201 201 201 201 201 201 201 201 201 201 201 201 201 201 201 201 201 201 201 201 201 201 201 201 201 201 201 201 201 201 201 201 201 201 201 201 201 201 201 201 201 201 201 201 201 201 201 201 201 201 201 201 201 201 201 201 201 201 201 201 201 201 201 201 201 201 201 201 201 201 201 201 201 201 201 201 201 201 201 201 201 201 201 201 201 201 201 201 201 201 201 201 201 201 201 201 201 201 201 201 201 201 201 201 201 201 201 201 201 201 201 201 201 201 201 201 201 201 201 201 201 201 201 201 201 201 192 192 192 182 182 182 173 173 173 164 164 164 136 136 136 108 108 108 79 79 79 51 51 51 81 81 81 119 119 119 156 156 156 193 193 193 210 210 210 223 223 223 237 237 237 250 250 250 253 253 253 253 253 253 254 254 254 254 254 254 254 254 254 254 254 254 255 255 255 255 255 255 255 255 255 255 255 255 255 255 255 255 255 255 255 255 255 255 255 255 255 255 255 255 255 255 255 255 255 255 255 255 255 255 255 255 255 255 255 255 255 255 255 255 255 255 255 255 255 255 255 255 255 255 255 255 255 255 255 255 255 255 255 255 255 255 255 255 255 255 255 255 255 255 255 255 255 255 255 255 255 255 255 255 255 255 255 255 255 255 255 255 255 255 255 255 255 255 255 255 255 255 255 255 255 255 255 255 255 255 255 255 255 255 255 255 255 255 255 255 255 255 255 255 255 255 255 255 255 255 255 255 255 255 255 255 255 255 255 255 255 255 255 255 255 255 255 255 255 255 255 255 255 255 255 255 255 255 255 255 255 255 255 255 255 255 255 255 255 255 255 255 255 255 255 255 255 255 255 255 255 255 255 255 255 
255 255 255 255 255 255 255 255 255 255 255 255 255 255 255 255 255 255 255 255 255 255 255 255 255 255 255 255 255 255 255 255 255 255 255 255 255 255 255 255 255 255 255 255 255 255 255 255 255 255 255 255 255 255 255 255 255 255 255 255 255 255 255 255 255 255 255 255 255 255 255 255 255 255 255 255 255 255 255 255 255 255 255 255 255 255 255 255 255 255 255 255 255 255 255 255 255 255 255 255 255 255 255 255 255 255 255 255 255 255 255 255 255 255 255 255 255 255 255 255 255 255 255 255 255 255 255 255 255 255 255 255 255 255 255 255 255 255 255 255 255 255 255 255 255 255 255 255 255 255 255 255 255 255 255 255 255 255 255 255 255 255 255 255 255 255 255 255 255 255 255 255 255 255 255 255 255 255 255 255 255 255 255 255 255 255 255 255 255 254 254 254 254 254 254 253 253 253 250 250 250 247 247 247 244 244 244 236 236 236 206 206 206 176 176 176 146 146 146 118 118 118 100 100 100 82 82 82 64 64 64 50 50 50 81 81 81 112 112 112 142 142 142 172 172 172 178 178 178 185 185 185 191 191 191 197 197 197 197 197 197 197 197 197 197 197 197 197 197 197 197 197 197 197 197 197 197 197 197 197 197 197 197 197 197 197 197 197 197 197 197 196 196 196 196 196 196 196 196 196 195 195 195 195 195 195 195 195 195 195 195 195 195 195 195 195 195 195 196 196 196 196 196 196 197 197 197 197 197 197 197 197 197 197 197 197 197 197 197 197 197 197 197 197 197 197 197 197 197 197 197 197 197 197 197 197 197 197 197 197 197 197 197 197 197 197 197 197 197 197 197 197 197 197 197 197 197 197 197 197 197 197 197 197 197 197 197 197 197 197 197 197 197 197 197 197 197 197 197 197 197 197 197 197 197 197 197 197 197 197 197 197 197 197 197 197 197 197 197 197 197 197 197 197 197 197 197 197 197 197 197 197 197 197 197 197 197 197 197 197 197 197 197 197 197 197 197 197 197 197 197 197 197 197 197 197 197 197 197 197 197 197 197 197 197 197 197 197 197 197 197 197 197 197 197 197 197 197 197 197 197 197 197 197 197 197 197 197 197 197 197 197 197 197 197 197 197 197 197 197 197 197 197 197 197 197 197 197 197 197 197 197 197 191 191 191 185 185 185 178 178 178 172 172 172 145 145 145 118 118 118 90 90 90 63 63 63 82 82 82 106 106 106 131 131 131 155 155 155 178 178 178 201 201 201 224 224 224 247 247 247 252 252 252 253 253 253 253 253 253 254 254 254 254 254 254 254 254 254 255 255 255 255 255 255 255 255 255 255 255 255 255 255 255 255 255 255 255 255 255 255 255 255 255 255 255 255 255 255 255 255 255 255 255 255 255 255 255 255 255 255 255 255 255 255 255 255 255 255 255 255 255 255 255 255 255 255 255 255 255 255 255 255 255 255 255 255 255 255 255 255 255 255 255 255 255 255 255 255 255 255 255 255 255 255 255 255 255 255 255 255 255 255 255 255 255 255 255 255 255 255 255 255 255 255 255 255 255 255 255 255 255 255 255 255 255 255 255 255 255 255 255 255 255 255 255 255 255 255 255 255 255 255 255 255 255 255 255 255 255 255 255 255 255 255 255 255 255 255 255 255 255 255 255 255 255 255 255 255 255 255 255 255 255 255 255 255 255 255 255 255 255 255 255 255 255 255 255 255 255 255 255 255 255 255 255 255 255 
255 255 255 255 255 255 255 255 255 255 255 255 255 255 255 255 255 255 255 255 255 255 255 255 255 255 255 255 255 255 255 255 255 255 255 255 255 255 255 255 255 255 255 255 255 255 255 255 255 255 255 255 255 255 255 255 255 255 255 255 255 255 255 255 255 255 255 255 255 255 255 255 255 255 255 255 255 255 255 255 255 255 255 255 255 255 255 255 255 255 255 255 255 255 255 255 255 255 255 255 255 255 255 255 255 255 255 255 255 255 255 255 255 255 255 255 255 255 255 255 255 255 255 255 255 255 255 255 255 255 255 255 255 255 255 255 255 255 255 255 255 255 255 255 255 255 255 255 255 255 255 255 255 255 255 255 255 255 255 255 255 255 255 255 255 255 255 255 255 255 255 255 255 255 255 255 255 255 255 255 255 255 255 255 255 255 255 255 255 254 254 254 254 254 254 253 253 253 248 248 248 243 243 243 238 238 238 227 227 227 188 188 188 150 150 150 112 112 112 79 79 79 75 75 75 72 72 72 69 69 69 68 68 68 96 96 96 125 125 125 153 153 153 180 180 180 183 183 183 187 187 187 191 191 191 194 194 194 194 194 194 194 194 194 194 194 194 194 194 194 194 194 194 194 194 194 194 194 194 194 194 194 194 194 194 193 193 193 193 193 193 192 192 192 192 192 192 191 191 191 191 191 191 190 190 190 190 190 190 191 191 191 191 191 191 191 191 191 191 191 191 192 192 192 193 193 193 193 193 193 194 194 194 194 194 194 194 194 194 194 194 194 194 194 194 194 194 194 194 194 194 194 194 194 194 194 194 194 194 194 194 194 194 194 194 194 194 194 194 194 194 194 194 194 194 194 194 194 194 194 194 194 194 194 194 194 194 194 194 194 194 194 194 194 194 194 194 194 194 194 194 194 194 194 194 194 194 194 194 194 194 194 194 194 194 194 194 194 194 194 194 194 194 194 194 194 194 194 194 194 194 194 194 194 194 194 194 194 194 194 194 194 194 194 194 194 194 194 194 194 194 194 194 194 194 194 194 194 194 194 194 194 194 194 194 194 194 194 194 194 194 194 194 194 194 194 194 194 194 194 194 194 194 194 194 194 194 194 194 194 194 194 194 194 194 194 194 194 194 194 194 194 194 194 194 194 194 194 194 194 194 194 194 191 191 191 187 187 187 183 183 183 180 180 180 154 154 154 128 128 128 101 101 101 75 75 75 83 83 83 94 94 94 105 105 105 117 117 117 146 146 146 179 179 179 211 211 211 244 244 244 251 251 251 252 252 252 253 253 253 254 254 254 254 254 254 254 254 254 255 255 255 255 255 255 255 255 255 255 255 255 255 255 255 255 255 255 255 255 255 255 255 255 255 255 255 255 255 255 255 255 255 255 255 255 255 255 255 255 255 255 255 255 255 255 255 255 255 255 255 255 255 255 255 255 255 255 255 255 255 255 255 255 255 255 255 255 255 255 255 255 255 255 255 255 255 255 255 255 255 255 255 255 255 255 255 255 255 255 255 255 255 255 255 255 255 255 255 255 255 255 255 255 255 255 255 255 255 255 255 255 255 255 255 255 255 255 255 255 255 255 255 255 255 255 255 255 255 255 255 255 255 255 255 255 255 255 255 255 255 255 255 255 255 255 255 255 255 255 255 255 255 255 255 255 255 255 255 255 255 255 255 255 255 255 255 255 255 255 255 255 255 255 255 255 255 255 255 255 255 255 255 255 255 255 255 255 255 
255 255 255 255 255 255 255 255 255 255 255 255 255 255 255 255 255 255 255 255 255 255 255 255 255 255 255 255 255 255 255 255 255 255 255 255 255 255 255 255 255 255 255 255 255 255 255 255 255 255 255 255 255 255 255 255 255 255 255 255 255 255 255 255 255 255 255 255 255 255 255 255 255 255 255 255 255 255 255 255 255 255 255 255 255 255 255 255 255 255 255 255 255 255 255 255 255 255 255 255 255 255 255 255 255 255 255 255 255 255 255 255 255 255 255 255 255 255 255 255 255 255 255 255 255 255 255 255 255 255 255 255 255 255 255 255 255 255 255 255 255 255 255 255 255 255 255 255 255 255 255 255 255 255 255 255 255 255 255 255 255 255 255 255 255 255 255 255 255 255 255 255 255 255 255 255 255 255 255 255 255 255 255 255 255 255 255 255 255 254 254 254 254 254 254 252 252 252 246 246 246 239 239 239 232 232 232 218 218 218 171 171 171 124 124 124 78 78 78 39 39 39 51 51 51 62 62 62 74 74 74 86 86 86 112 112 112 137 137 137 163 163 163 187 187 187 188 188 188 189 189 189 190 190 190 191 191 191 191 191 191 191 191 191 191 191 191 191 191 191 191 191 191 191 191 191 191 191 191 191 191 191 190 190 190 190 190 190 189 189 189 188 188 188 188 188 188 187 187 187 186 186 186 186 186 186 186 186 186 186 186 186 186 186 186 186 186 186 187 187 187 188 188 188 189 189 189 190 190 190 190 190 190 191 191 191 191 191 191 191 191 191 191 191 191 191 191 191 191 191 191 191 191 191 191 191 191 191 191 191 191 191 191 191 191 191 191 191 191 191 191 191 191 191 191 191 191 191 191 191 191 191 191 191 191 191 191 191 191 191 191 191 191 191 191 191 191 191 191 191 191 191 191 191 191 191 191 191 191 191 191 191 191 191 191 191 191 191 191 191 191 191 191 191 191 191 191 191 191 191 191 191 191 191 191 191 191 191 191 191 191 191 191 191 191 191 191 191 191 191 191 191 191 191 191 191 191 191 191 191 191 191 191 191 191 191 191 191 191 191 191 191 191 191 191 191 191 191 191 191 191 191 191 191 191 191 191 191 191 191 191 191 191 191 191 191 191 191 191 191 191 191 191 191 191 191 191 191 191 191 191 191 191 190 190 190 189 189 189 188 188 188 187 187 187 163 163 163 138 138 138 113 113 113 87 87 87 83 83 83 82 82 82 80 80 80 79 79 79 114 114 114 156 156 156 198 198 198 240 240 240 250 250 250 251 251 251 252 252 252 254 254 254 254 254 254 254 254 254 255 255 255 255 255 255 255 255 255 255 255 255 255 255 255 255 255 255 255 255 255 255 255 255 255 255 255 255 255 255 255 255 255 255 255 255 255 255 255 255 255 255 255 255 255 255 255 255 255 255 255 255 255 255 255 255 255 255 255 255 255 255 255 255 255 255 255 255 255 255 255 255 255 255 255 255 255 255 255 255 255 255 255 255 255 255 255 255 255 255 255 255 255 255 255 255 255 255 255 255 255 255 255 255 255 255 255 255 255 255 255 255 255 255 255 255 255 255 255 255 255 255 255 255 255 255 255 255 255 255 255 255 255 255 255 255 255 255 255 255 255 255 255 255 255 255 255 255 255 255 255 255 255 255 255 255 255 255 255 255 255 255 255 255 255 255 255 255 255 255 255 255 255 255 255 255 255 255 255 255 255 255 255 255 255 255 255 255 255 
255 255 255 255 255 255 255 255 255 255 255 255 255 255 255 255 255 255 255 255 255 255 255 255 255 255 255 255 255 255 255 255 255 255 255 255 255 255 255 255 255 255 255 255 255 255 255 255 255 255 255 255 255 255 255 255 255 255 255 255 255 255 255 255 255 255 255 255 255 255 255 255 255 255 255 255 255 255 255 255 255 255 255 255 255 255 255 255 255 255 255 255 255 255 255 255 255 255 255 255 255 255 255 255 255 255 255 255 255 255 255 255 255 255 255 255 255 255 255 255 255 255 255 255 255 255 255 255 255 255 255 255 255 255 255 255 255 255 255 255 255 255 255 255 255 255 255 255 255 255 255 255 255 255 255 255 255 255 255 255 255 255 255 255 255 255 255 255 255 255 255 255 255 255 255 255 255 255 255 255 255 255 255 255 255 255 255 255 255 254 254 254 254 254 254 250 250 250 237 237 237 224 224 224 210 210 210 191 191 191 147 147 147 103 103 103 60 60 60 25 25 25 45 45 45 65 65 65 85 85 85 105 105 105 126 126 126 147 147 147 168 168 168 188 188 188 188 188 188 188 188 188 188 188 188 188 188 188 187 187 187 186 186 186 186 186 186 185 185 185 183 183 183 181 181 181 179 179 179 177 177 177 176 176 176 175 175 175 173 173 173 172 172 172 171 171 171 171 171 171 170 170 170 170 170 170 170 170 170 170 170 170 170 170 170 170 170 170 171 171 171 172 172 172 173 173 173 174 174 174 175 175 175 176 176 176 178 178 178 179 179 179 181 181 181 183 183 183 184 184 184 186 186 186 187 187 187 187 187 187 187 187 187 188 188 188 188 188 188 188 188 188 188 188 188 188 188 188 188 188 188 188 188 188 188 188 188 188 188 188 188 188 188 188 188 188 188 188 188 188 188 188 188 188 188 188 188 188 188 188 188 188 188 188 188 188 188 188 188 188 188 188 188 188 188 188 188 188 188 188 188 188 188 188 188 188 188 188 188 188 188 188 188 188 188 188 188 188 188 188 188 188 188 188 188 188 188 188 188 188 188 188 188 188 188 188 188 188 188 188 188 188 188 188 188 188 188 188 188 188 188 188 188 188 188 188 188 188 188 188 188 188 188 188 188 188 188 188 188 188 188 188 188 188 188 188 188 188 188 188 188 188 188 188 188 188 188 188 188 188 188 188 188 188 188 168 168 168 146 146 146 125 125 125 104 104 104 92 92 92 80 80 80 69 69 69 58 58 58 93 93 93 136 136 136 179 179 179 222 222 222 235 235 235 241 241 241 247 247 247 253 253 253 254 254 254 254 254 254 255 255 255 255 255 255 255 255 255 255 255 255 255 255 255 255 255 255 255 255 255 255 255 255 255 255 255 255 255 255 255 255 255 255 255 255 255 255 255 255 255 255 255 255 255 255 255 255 255 255 255 255 255 255 255 255 255 255 255 255 255 255 255 255 255 255 255 255 255 255 255 255 255 255 255 255 255 255 255 255 255 255 255 255 255 255 255 255 255 255 255 255 255 255 255 255 255 255 255 255 255 255 255 255 255 255 255 255 255 255 255 255 255 255 255 255 255 255 255 255 255 255 255 255 255 255 255 255 255 255 255 255 255 255 255 255 255 255 255 255 255 255 255 255 255 255 255 255 255 255 255 255 255 255 255 255 255 255 255 255 255 255 255 255 255 255 255 255 255 255 255 255 255 255 255 255 255 255 255 255 255 255 255 255 255 255 255 255 255 
255 255 255 255 255 255 255 255 255 255 255 255 255 255 255 255 255 255 255 255 255 255 255 255 255 255 255 255 255 255 255 255 255 255 255 255 255 255 255 255 255 255 255 255 255 255 255 255 255 255 255 255 255 255 255 255 255 255 255 255 255 255 255 255 255 255 255 255 255 255 255 255 255 255 255 255 255 255 255 255 255 255 255 255 255 255 255 255 255 255 255 255 255 255 255 255 255 255 255 255 255 255 255 255 255 255 255 255 255 255 255 255 255 255 255 255 255 255 255 255 255 255 255 255 255 255 255 255 255 255 255 255 255 255 255 255 255 255 255 255 255 255 255 255 255 255 255 255 255 255 255 255 255 255 255 255 255 255 255 255 255 255 255 255 255 255 255 255 255 255 255 255 255 255 255 255 255 255 255 255 255 255 255 255 255 255 254 254 254 254 254 254 254 254 254 248 248 248 226 226 226 203 203 203 181 181 181 156 156 156 121 121 121 85 85 85 49 49 49 22 22 22 48 48 48 73 73 73 99 99 99 123 123 123 139 139 139 154 154 154 170 170 170 185 185 185 185 185 185 185 185 185 185 185 185 185 185 185 183 183 183 181 181 181 179 179 179 177 177 177 173 173 173 168 168 168 163 163 163 159 159 159 156 156 156 154 154 154 151 151 151 149 149 149 149 149 149 148 148 148 148 148 148 148 148 148 148 148 148 148 148 148 148 148 148 148 148 148 149 149 149 149 149 149 150 150 150 151 151 151 153 153 153 157 157 157 160 160 160 163 163 163 167 167 167 171 171 171 176 176 176 180 180 180 182 182 182 183 183 183 183 183 183 184 184 184 185 185 185 185 185 185 185 185 185 185 185 185 185 185 185 185 185 185 185 185 185 185 185 185 185 185 185 185 185 185 185 185 185 185 185 185 185 185 185 185 185 185 185 185 185 185 185 185 185 185 185 185 185 185 185 185 185 185 185 185 185 185 185 185 185 185 185 185 185 185 185 185 185 185 185 185 185 185 185 185 185 185 185 185 185 185 185 185 185 185 185 185 185 185 185 185 185 185 185 185 185 185 185 185 185 185 185 185 185 185 185 185 185 185 185 185 185 185 185 185 185 185 185 185 185 185 185 185 185 185 185 185 185 185 185 185 185 185 185 185 185 185 185 185 185 185 185 185 185 185 185 185 185 185 185 185 185 185 185 170 170 170 154 154 154 138 138 138 123 123 123 104 104 104 84 84 84 65 65 65 46 46 46 77 77 77 117 117 117 156 156 156 196 196 196 213 213 213 226 226 226 238 238 238 251 251 251 254 254 254 254 254 254 255 255 255 255 255 255 255 255 255 255 255 255 255 255 255 255 255 255 255 255 255 255 255 255 255 255 255 255 255 255 255 255 255 255 255 255 255 255 255 255 255 255 255 255 255 255 255 255 255 255 255 255 255 255 255 255 255 255 255 255 255 255 255 255 255 255 255 255 255 255 255 255 255 255 255 255 255 255 255 255 255 255 255 255 255 255 255 255 255 255 255 255 255 255 255 255 255 255 255 255 255 255 255 255 255 255 255 255 255 255 255 255 255 255 255 255 255 255 255 255 255 255 255 255 255 255 255 255 255 255 255 255 255 255 255 255 255 255 255 255 255 255 255 255 255 255 255 255 255 255 255 255 255 255 255 255 255 255 255 255 255 255 255 255 255 255 255 255 255 255 255 255 255 255 255 255 255 255 255 255 255 255 255 255 255 255 255 255 255 
255 255 255 255 255 255 255 255 255 255 255 255 255 255 255 255 255 255 255 255 255 255 255 255 255 255 255 255 255 255 255 255 255 255 255 255 255 255 255 255 255 255 255 255 255 255 255 255 255 255 255 255 255 255 255 255 255 255 255 255 255 255 255 255 255 255 255 255 255 255 255 255 255 255 255 255 255 255 255 255 255 255 255 255 255 255 255 255 255 255 255 255 255 255 255 255 255 255 255 255 255 255 255 255 255 255 255 255 255 255 255 255 255 255 255 255 255 255 255 255 255 255 255 255 255 255 255 255 255 255 255 255 255 255 255 255 255 255 255 255 255 255 255 255 255 255 255 255 255 255 255 255 255 255 255 255 255 255 255 255 255 255 255 255 255 255 255 255 255 255 255 255 255 255 255 255 255 255 255 255 255 255 255 255 255 255 254 254 254 254 254 254 253 253 253 245 245 245 214 214 214 183 183 183 152 152 152 121 121 121 94 94 94 66 66 66 39 39 39 20 20 20 51 51 51 82 82 82 113 113 113 142 142 142 152 152 152 162 162 162 172 172 172 181 181 181 181 181 181 181 181 181 181 181 181 181 181 181 179 179 179 176 176 176 173 173 173 170 170 170 162 162 162 155 155 155 147 147 147 140 140 140 136 136 136 133 133 133 130 130 130 126 126 126 126 126 126 126 126 126 126 126 126 127 127 127 126 126 126 126 126 126 126 126 126 126 126 126 126 126 126 127 127 127 128 128 128 128 128 128 132 132 132 137 137 137 142 142 142 147 147 147 154 154 154 160 160 160 167 167 167 174 174 174 177 177 177 178 178 178 180 180 180 181 181 181 181 181 181 181 181 181 181 181 181 181 181 181 181 181 181 181 181 181 181 181 181 181 181 181 181 181 181 181 181 181 181 181 181 181 181 181 181 181 181 181 181 181 181 181 181 181 181 181 181 181 181 181 181 181 181 181 181 181 181 181 181 181 181 181 181 181 181 181 181 181 181 181 181 181 181 181 181 181 181 181 181 181 181 181 181 181 181 181 181 181 181 181 181 181 181 181 181 181 181 181 181 181 181 181 181 181 181 181 181 181 181 181 181 181 181 181 181 181 181 181 181 181 181 181 181 181 181 181 181 181 181 181 181 181 181 181 181 181 181 181 181 181 181 181 181 181 181 181 181 181 181 181 181 181 181 181 181 181 181 172 172 172 162 162 162 151 151 151 141 141 141 116 116 116 88 88 88 61 61 61 34 34 34 61 61 61 97 97 97 133 133 133 169 169 169 192 192 192 211 211 211 230 230 230 249 249 249 254 254 254 254 254 254 255 255 255 255 255 255 255 255 255 255 255 255 255 255 255 255 255 255 255 255 255 255 255 255 255 255 255 255 255 255 255 255 255 255 255 255 255 255 255 255 255 255 255 255 255 255 255 255 255 255 255 255 255 255 255 255 255 255 255 255 255 255 255 255 255 255 255 255 255 255 255 255 255 255 255 255 255 255 255 255 255 255 255 255 255 255 255 255 255 255 255 255 255 255 255 255 255 255 255 255 255 255 255 255 255 255 255 255 255 255 255 255 255 255 255 255 255 255 255 255 255 255 255 255 255 255 255 255 255 255 255 255 255 255 255 255 255 255 255 255 255 255 255 255 255 255 255 255 255 255 255 255 255 255 255 255 255 255 255 255 255 255 255 255 255 255 255 255 255 255 255 255 255 255 255 255 255 255 255 255 255 255 255 255 255 255 255 255 255 
255 255 255 255 255 255 255 255 255 255 255 255 255 255 255 255 255 255 255 255 255 255 255 255 255 255 255 255 255 255 255 255 255 255 255 255 255 255 255 255 255 255 255 255 255 255 255 255 255 255 255 255 255 255 255 255 255 255 255 255 255 255 255 255 255 255 255 255 255 255 255 255 255 255 255 255 255 255 255 255 255 255 255 255 255 255 255 255 255 255 255 255 255 255 255 255 255 255 255 255 255 255 255 255 255 255 255 255 255 255 255 255 255 255 255 255 255 255 255 255 255 255 255 255 255 255 255 255 255 255 255 255 255 255 255 255 255 255 255 255 255 255 255 255 255 255 255 255 255 255 255 255 255 255 255 255 255 255 255 255 255 255 255 255 255 255 255 255 255 255 255 255 255 255 255 255 255 255 255 255 255 255 255 255 255 255 254 254 254 253 253 253 253 253 253 243 243 243 203 203 203 162 162 162 122 122 122 86 86 86 67 67 67 48 48 48 29 29 29 17 17 17 54 54 54 90 90 90 127 127 127 160 160 160 165 165 165 169 169 169 174 174 174 178 178 178 178 178 178 178 178 178 178 178 178 178 178 178 174 174 174 170 170 170 166 166 166 162 162 162 152 152 152 142 142 142 132 132 132 121 121 121 116 116 116 112 112 112 108 108 108 103 103 103 103 103 103 104 104 104 104 104 104 105 105 105 105 105 105 104 104 104 104 104 104 104 104 104 104 104 104 104 104 104 105 105 105 106 106 106 111 111 111 118 118 118 125 125 125 132 132 132 140 140 140 149 149 149 158 158 158 167 167 167 172 172 172 174 174 174 176 176 176 177 177 177 178 178 178 178 178 178 178 178 178 178 178 178 178 178 178 178 178 178 178 178 178 178 178 178 178 178 178 178 178 178 178 178 178 178 178 178 178 178 178 178 178 178 178 178 178 178 178 178 178 178 178 178 178 178 178 178 178 178 178 178 178 178 178 178 178 178 178 178 178 178 178 178 178 178 178 178 178 178 178 178 178 178 178 178 178 178 178 178 178 178 178 178 178 178 178 178 178 178 178 178 178 178 178 178 178 178 178 178 178 178 178 178 178 178 178 178 178 178 178 178 178 178 178 178 178 178 178 178 178 178 178 178 178 178 178 178 178 178 178 178 178 178 178 178 178 178 178 178 178 178 178 178 178 178 178 178 178 178 178 174 174 174 169 169 169 165 165 165 160 160 160 128 128 128 93 93 93 57 57 57 22 22 22 45 45 45 78 78 78 110 110 110 143 143 143 170 170 170 196 196 196 222 222 222 248 248 248 254 254 254 254 254 254 255 255 255 255 255 255 255 255 255 255 255 255 255 255 255 255 255 255 255 255 255 255 255 255 255 255 255 255 255 255 255 255 255 255 255 255 255 255 255 255 255 255 255 255 255 255 255 255 255 255 255 255 255 255 255 255 255 255 255 255 255 255 255 255 255 255 255 255 255 255 255 255 255 255 255 255 255 255 255 255 255 255 255 255 255 255 255 255 255 255 255 255 255 255 255 255 255 255 255 255 255 255 255 255 255 255 255 255 255 255 255 255 255 255 255 255 255 255 255 255 255 255 255 255 255 255 255 255 255 255 255 255 255 255 255 255 255 255 255 255 255 255 255 255 255 255 255 255 255 255 255 255 255 255 255 255 255 255 255 255 255 255 255 255 255 255 255 255 255 255 255 255 255 255 255 255 255 255 255 255 255 255 255 255 255 255 255 255 255 
255 255 255 255 255 255 255 255 255 255 255 255 255 255 255 255 255 255 255 255 255 255 255 255 255 255 255 255 255 255 255 255 255 255 255 255 255 255 255 255 255 255 255 255 255 255 255 255 255 255 255 255 255 255 255 255 255 255 255 255 255 255 255 255 255 255 255 255 255 255 255 255 255 255 255 255 255 255 255 255 255 255 255 255 255 255 255 255 255 255 255 255 255 255 255 255 255 255 255 255 255 255 255 255 255 255 255 255 255 255 255 255 255 255 255 255 255 255 255 255 255 255 255 255 255 255 255 255 255 255 255 255 255 255 255 255 255 255 255 255 255 255 255 255 255 255 255 255 255 255 255 255 255 255 255 255 255 255 255 255 255 255 255 255 255 255 255 255 255 255 255 255 255 255 255 255 255 255 255 255 255 255 255 254 254 254 250 250 250 247 247 247 243 243 243 230 230 230 187 187 187 143 143 143 100 100 100 62 62 62 51 51 51 40 40 40 29 29 29 25 25 25 61 61 61 97 97 97 134 134 134 167 167 167 169 169 169 171 171 171 173 173 173 175 175 175 173 173 173 171 171 171 170 170 170 168 168 168 163 163 163 158 158 158 153 153 153 148 148 148 139 139 139 131 131 131 123 123 123 114 114 114 110 110 110 106 106 106 102 102 102 99 99 99 98 98 98 98 98 98 99 99 99 99 99 99 99 99 99 98 98 98 98 98 98 98 98 98 98 98 98 99 99 99 100 100 100 101 101 101 105 105 105 111 111 111 117 117 117 122 122 122 130 130 130 137 137 137 145 145 145 153 153 153 158 158 158 162 162 162 166 166 166 170 170 170 172 172 172 173 173 173 174 174 174 174 174 174 175 175 175 175 175 175 175 175 175 175 175 175 175 175 175 175 175 175 175 175 175 175 175 175 175 175 175 175 175 175 175 175 175 175 175 175 175 175 175 175 175 175 175 175 175 175 175 175 175 175 175 175 175 175 175 175 175 175 175 175 175 175 175 175 175 175 175 175 175 175 175 175 175 175 175 175 175 175 175 175 175 175 175 175 175 175 175 175 175 175 175 175 175 175 175 175 175 175 175 175 175 175 175 175 175 175 175 175 175 175 175 175 175 175 175 175 175 175 175 175 175 175 175 175 175 175 175 175 175 175 175 175 175 175 175 175 175 175 175 175 175 175 175 175 175 175 175 173 173 173 171 171 171 169 169 169 167 167 167 134 134 134 98 98 98 62 62 62 26 26 26 42 42 42 66 66 66 91 91 91 116 116 116 146 146 146 178 178 178 210 210 210 242 242 242 251 251 251 252 252 252 253 253 253 255 255 255 255 255 255 255 255 255 255 255 255 255 255 255 255 255 255 255 255 255 255 255 255 255 255 255 255 255 255 255 255 255 255 255 255 255 255 255 255 255 255 255 255 255 255 255 255 255 255 255 255 255 255 255 255 255 255 255 255 255 255 255 255 255 255 255 255 255 255 255 255 255 255 255 255 255 255 255 255 255 255 255 255 255 255 255 255 255 255 255 255 255 255 255 255 255 255 255 255 255 255 255 255 255 255 255 255 255 255 255 255 255 255 255 255 255 255 255 255 255 255 255 255 255 255 255 255 255 255 255 255 255 255 255 255 255 255 255 255 255 255 255 255 255 255 255 255 255 255 255 255 255 255 255 255 255 255 255 255 255 255 255 255 255 255 255 255 255 255 255 255 255 255 255 255 255 255 255 255 255 255 255 255 255 255 
255 255 255 255 255 255 255 255 255 255 255 255 255 255 255 255 255 255 255 255 255 255 255 255 255 255 255 255 255 255 255 255 255 255 255 255 255 255 255 255 255 255 255 255 255 255 255 255 255 255 255 255 255 255 255 255 255 255 255 255 255 255 255 255 255 255 255 255 255 255 255 255 255 255 255 255 255 255 255 255 255 255 255 255 255 255 255 255 255 255 255 255 255 255 255 255 255 255 255 255 255 255 255 255 255 255 255 255 255 255 255 255 255 255 255 255 255 255 255 255 255 255 255 255 255 255 255 255 255 255 255 255 255 255 255 255 255 255 255 255 255 255 255 255 255 255 255 255 255 255 255 255 255 255 255 255 255 255 255 255 255 255 255 255 255 255 255 255 255 255 255 255 255 255 255 255 255 255 255 255 255 255 255 253 253 253 245 245 245 236 236 236 228 228 228 212 212 212 168 168 168 125 125 125 81 81 81 45 45 45 42 42 42 39 39 39 36 36 36 38 38 38 71 71 71 104 104 104 136 136 136 166 166 166 167 167 167 168 168 168 170 170 170 171 171 171 166 166 166 162 162 162 157 157 157 153 153 153 147 147 147 141 141 141 135 135 135 129 129 129 125 125 125 122 122 122 118 118 118 115 115 115 112 112 112 110 110 110 107 107 107 105 105 105 104 104 104 103 103 103 103 103 103 102 102 102 102 102 102 102 102 102 102 102 102 102 102 102 103 103 103 104 104 104 105 105 105 107 107 107 109 109 109 112 112 112 115 115 115 117 117 117 121 121 121 125 125 125 129 129 129 133 133 133 139 139 139 146 146 146 152 152 152 159 159 159 163 163 163 166 166 166 168 168 168 170 170 170 171 171 171 172 172 172 172 172 172 172 172 172 172 172 172 172 172 172 172 172 172 172 172 172 172 172 172 172 172 172 172 172 172 172 172 172 172 172 172 172 172 172 172 172 172 172 172 172 172 172 172 172 172 172 172 172 172 172 172 172 172 172 172 172 172 172 172 172 172 172 172 172 172 172 172 172 172 172 172 172 172 172 172 172 172 172 172 172 172 172 172 172 172 172 172 172 172 172 172 172 172 172 172 172 172 172 172 172 172 172 172 172 172 172 172 172 172 172 172 172 172 172 172 172 172 172 172 172 172 172 172 172 172 172 172 172 172 172 172 172 172 172 172 172 172 172 172 170 170 170 169 169 169 167 167 167 166 166 166 137 137 137 104 104 104 72 72 72 39 39 39 46 46 46 60 60 60 74 74 74 87 87 87 121 121 121 159 159 159 197 197 197 235 235 235 246 246 246 249 249 249 251 251 251 254 254 254 255 255 255 255 255 255 255 255 255 255 255 255 255 255 255 255 255 255 255 255 255 255 255 255 255 255 255 255 255 255 255 255 255 255 255 255 255 255 255 255 255 255 255 255 255 255 255 255 255 255 255 255 255 255 255 255 255 255 255 255 255 255 255 255 255 255 255 255 255 255 255 255 255 255 255 255 255 255 255 255 255 255 255 255 255 255 255 255 255 255 255 255 255 255 255 255 255 255 255 255 255 255 255 255 255 255 255 255 255 255 255 255 255 255 255 255 255 255 255 255 255 255 255 255 255 255 255 255 255 255 255 255 255 255 255 255 255 255 255 255 255 255 255 255 255 255 255 255 255 255 255 255 255 255 255 255 255 255 255 255 255 255 255 255 255 255 255 255 255 255 255 255 255 255 255 255 255 255 255 255 255 255 255 
255 255 255 255 255 255 255 255 255 255 255 255 255 255 255 255 255 255 255 255 255 255 255 255 255 255 255 255 255 255 255 255 255 255 255 255 255 255 255 255 255 255 255 255 255 255 255 255 255 255 255 255 255 255 255 255 255 255 255 255 255 255 255 255 255 255 255 255 255 255 255 255 255 255 255 255 255 255 255 255 255 255 255 255 255 255 255 255 255 255 255 255 255 255 255 255 255 255 255 255 255 255 255 255 255 255 255 255 255 255 255 255 255 255 255 255 255 255 255 255 255 255 255 255 255 255 255 255 255 255 255 255 255 255 255 255 255 255 255 255 255 255 255 255 255 255 255 255 255 255 255 255 255 255 255 255 255 255 255 255 255 255 255 255 255 255 255 255 255 255 255 255 255 255 255 255 255 255 255 255 255 255 255 251 251 251 239 239 239 226 226 226 213 213 213 193 193 193 150 150 150 106 106 106 63 63 63 28 28 28 33 33 33 39 39 39 44 44 44 52 52 52 81 81 81 110 110 110 139 139 139 165 165 165 166 166 166 166 166 166 167 167 167 167 167 167 160 160 160 153 153 153 145 145 145 138 138 138 131 131 131 124 124 124 117 117 117 110 110 110 111 111 111 112 112 112 114 114 114 115 115 115 114 114 114 113 113 113 112 112 112 111 111 111 110 110 110 108 108 108 107 107 107 106 106 106 106 106 106 106 106 106 106 106 106 106 106 106 107 107 107 109 109 109 111 111 111 113 113 113 113 113 113 113 113 113 113 113 113 113 113 113 113 113 113 113 113 113 113 113 113 113 113 113 119 119 119 129 129 129 139 139 139 149 149 149 155 155 155 159 159 159 163 163 163 166 166 166 168 168 168 168 168 168 168 168 168 169 169 169 169 169 169 169 169 169 169 169 169 169 169 169 169 169 169 169 169 169 169 169 169 169 169 169 169 169 169 169 169 169 169 169 169 169 169 169 169 169 169 169 169 169 169 169 169 169 169 169 169 169 169 169 169 169 169 169 169 169 169 169 169 169 169 169 169 169 169 169 169 169 169 169 169 169 169 169 169 169 169 169 169 169 169 169 169 169 169 169 169 169 169 169 169 169 169 169 169 169 169 169 169 169 169 169 169 169 169 169 169 169 169 169 169 169 169 169 169 169 169 169 169 169 169 169 169 169 169 169 169 169 169 169 169 169 169 168 168 168 167 167 167 166 166 166 165 165 165 139 139 139 110 110 110 82 82 82 53 53 53 51 51 51 54 54 54 56 56 56 59 59 59 95 95 95 139 139 139 183 183 183 227 227 227 241 241 241 245 245 245 249 249 249 254 254 254 255 255 255 255 255 255 255 255 255 255 255 255 255 255 255 255 255 255 255 255 255 255 255 255 255 255 255 255 255 255 255 255 255 255 255 255 255 255 255 255 255 255 255 255 255 255 255 255 255 255 255 255 255 255 255 255 255 255 255 255 255 255 255 255 255 255 255 255 255 255 255 255 255 255 255 255 255 255 255 255 255 255 255 255 255 255 255 255 255 255 255 255 255 255 255 255 255 255 255 255 255 255 255 255 255 255 255 255 255 255 255 255 255 255 255 255 255 255 255 255 255 255 255 255 255 255 255 255 255 255 255 255 255 255 255 255 255 255 255 255 255 255 255 255 255 255 255 255 255 255 255 255 255 255 255 255 255 255 255 255 255 255 255 255 255 255 255 255 255 255 255 255 255 255 255 255 255 255 255 255 255 255 255 
255 255 255 255 255 255 255 255 255 255 255 255 255 255 255 255 255 255 255 255 255 255 255 255 255 255 255 255 255 255 255 255 255 255 255 255 255 255 255 255 255 255 255 255 255 255 255 255 255 255 255 255 255 255 255 255 255 255 255 255 255 255 255 255 255 255 255 255 255 255 255 255 255 255 255 255 255 255 255 255 255 255 255 255 255 255 255 255 255 255 255 255 255 255 255 255 255 255 255 255 255 255 255 255 255 255 255 255 255 255 255 255 255 255 255 255 255 255 255 255 255 255 255 255 255 255 255 255 255 255 255 255 255 255 255 255 255 255 255 255 255 255 255 255 255 255 255 255 255 255 255 255 255 255 255 255 255 255 255 255 255 255 255 255 255 255 255 255 255 255 255 255 255 255 255 255 255 255 255 255 255 255 255 250 250 250 233 233 233 215 215 215 198 198 198 175 175 175 131 131 131 88 88 88 44 44 44 11 11 11 25 25 25 38 38 38 51 51 51 66 66 66 91 91 91 116 116 116 141 141 141 164 164 164 164 164 164 164 164 164 164 164 164 163 163 163 153 153 153 143 143 143 133 133 133 123 123 123 115 115 115 107 107 107 99 99 99 91 91 91 97 97 97 103 103 103 109 109 109 115 115 115 116 116 116 116 116 116 117 117 117 117 117 117 115 115 115 113 113 113 111 111 111 109 109 109 109 109 109 109 109 109 110 110 110 110 110 110 112 112 112 114 114 114 116 116 116 119 119 119 117 117 117 114 114 114 111 111 111 108 108 108 104 104 104 101 101 101 97 97 97 93 93 93 100 100 100 113 113 113 126 126 126 138 138 138 147 147 147 152 152 152 157 157 157 162 162 162 165 165 165 165 165 165 165 165 165 165 165 165 165 165 165 165 165 165 165 165 165 165 165 165 165 165 165 165 165 165 165 165 165 165 165 165 165 165 165 165 165 165 165 165 165 165 165 165 165 165 165 165 165 165 165 165 165 165 165 165 165 165 165 165 165 165 165 165 165 165 165 165 165 165 165 165 165 165 165 165 165 165 165 165 165 165 165 165 165 165 165 165 165 165 165 165 165 165 165 165 165 165 165 165 165 165 165 165 165 165 165 165 165 165 165 165 165 165 165 165 165 165 165 165 165 165 165 165 165 165 165 165 165 165 165 165 165 165 165 165 165 165 165 165 165 165 165 165 165 165 165 165 165 165 165 165 164 164 164 142 142 142 117 117 117 92 92 92 67 67 67 56 56 56 47 47 47 39 39 39 31 31 31 69 69 69 119 119 119 169 169 169 219 219 219 235 235 235 241 241 241 247 247 247 253 253 253 255 255 255 255 255 255 255 255 255 255 255 255 255 255 255 255 255 255 255 255 255 255 255 255 255 255 255 255 255 255 255 255 255 255 255 255 255 255 255 255 255 255 255 255 255 255 255 255 255 255 255 255 255 255 255 255 255 255 255 255 255 255 255 255 255 255 255 255 255 255 255 255 255 255 255 255 255 255 255 255 255 255 255 255 255 255 255 255 255 255 255 255 255 255 255 255 255 255 255 255 255 255 255 255 255 255 255 255 255 255 255 255 255 255 255 255 255 255 255 255 255 255 255 255 255 255 255 255 255 255 255 255 255 255 255 255 255 255 255 255 255 255 255 255 255 255 255 255 255 255 255 255 255 255 255 255 255 255 255 255 255 255 255 255 255 255 255 255 255 255 255 255 255 255 255 255 255 255 255 255 255 255 255 
255 255 255 255 255 255 255 255 255 255 255 255 255 255 255 255 255 255 255 255 255 255 255 255 255 255 255 255 255 255 255 255 255 255 255 255 255 255 255 255 255 255 255 255 255 255 255 255 255 255 255 255 255 255 255 255 255 255 255 255 255 255 255 255 255 255 255 255 255 255 255 255 255 255 255 255 255 255 255 255 255 255 255 255 255 255 255 255 255 255 255 255 255 255 255 255 255 255 255 255 255 255 255 255 255 255 255 255 255 255 255 255 255 255 255 255 255 255 255 255 255 255 255 255 255 255 255 255 255 255 255 255 255 255 255 255 255 255 255 255 255 255 255 255 255 255 255 255 255 255 255 255 255 255 255 255 255 255 255 255 255 255 255 255 255 255 255 255 255 255 255 255 255 255 255 255 255 255 255 255 255 255 255 248 248 248 224 224 224 201 201 201 178 178 178 150 150 150 111 111 111 72 72 72 33 33 33 4 4 4 22 22 22 40 40 40 58 58 58 77 77 77 98 98 98 120 120 120 142 142 142 162 162 162 160 160 160 158 158 158 156 156 156 153 153 153 143 143 143 133 133 133 122 122 122 112 112 112 105 105 105 98 98 98 91 91 91 84 84 84 89 89 89 95 95 95 101 101 101 107 107 107 109 109 109 111 111 111 113 113 113 115 115 115 115 115 115 114 114 114 114 114 114 113 113 113 113 113 113 114 114 114 114 114 114 115 115 115 115 115 115 116 116 116 117 117 117 118 118 118 115 115 115 110 110 110 105 105 105 101 101 101 97 97 97 93 93 93 90 90 90 86 86 86 92 92 92 103 103 103 114 114 114 126 126 126 134 134 134 141 141 141 148 148 148 155 155 155 159 159 159 160 160 160 161 161 161 162 162 162 162 162 162 162 162 162 162 162 162 162 162 162 162 162 162 162 162 162 162 162 162 162 162 162 162 162 162 162 162 162 162 162 162 162 162 162 162 162 162 161 161 161 161 161 161 160 160 160 160 160 160 159 159 159 159 159 159 159 159 159 158 158 158 158 158 158 158 158 158 158 158 158 158 158 158 158 158 158 158 158 158 158 158 158 158 158 158 159 159 159 159 159 159 160 160 160 160 160 160 161 161 161 161 161 161 161 161 161 162 162 162 162 162 162 162 162 162 162 162 162 162 162 162 162 162 162 162 162 162 162 162 162 162 162 162 162 162 162 162 162 162 162 162 162 162 162 162 142 142 142 121 121 121 99 99 99 77 77 77 61 61 61 46 46 46 32 32 32 17 17 17 53 53 53 102 102 102 151 151 151 200 200 200 220 220 220 231 231 231 241 241 241 252 252 252 255 255 255 255 255 255 255 255 255 255 255 255 255 255 255 255 255 255 255 255 255 255 255 255 255 255 255 255 255 255 255 255 255 255 255 255 255 255 255 255 255 255 255 255 255 255 255 255 255 255 255 255 255 255 255 255 255 255 255 255 255 255 255 255 255 255 255 255 255 255 255 255 255 255 255 255 255 255 255 255 255 255 255 255 255 255 255 255 255 255 255 255 255 255 255 255 255 255 255 255 255 255 255 255 255 255 255 255 255 255 255 255 255 255 255 255 255 255 255 255 255 255 255 255 255 255 255 255 255 255 255 255 255 255 255 255 255 255 255 255 255 255 255 255 255 255 255 255 255 255 255 255 255 255 255 255 255 255 255 255 255 255 255 255 255 255 255 255 255 255 255 255 255 255 255 255 255 255 255 255 255 255 255 
255 255 255 255 255 255 255 255 255 255 255 255 255 255 255 255 255 255 255 255 255 255 255 255 255 255 255 255 255 255 255 255 255 255 255 255 255 255 255 255 255 255 255 255 255 255 255 255 255 255 255 255 255 255 255 255 255 255 255 255 255 255 255 255 255 255 255 255 255 255 255 255 255 255 255 255 255 255 255 255 255 255 255 255 255 255 255 255 255 255 255 255 255 255 255 255 255 255 255 255 255 255 255 255 255 255 255 255 255 255 255 255 255 255 255 255 255 255 255 255 255 255 255 255 255 255 255 255 255 255 255 255 255 255 255 255 255 255 255 255 255 255 255 255 255 255 255 255 255 255 255 255 255 255 255 255 255 255 255 255 255 255 255 255 255 255 255 255 255 255 255 255 255 255 254 254 254 254 254 254 254 254 254 245 245 245 214 214 214 184 184 184 153 153 153 122 122 122 90 90 90 58 58 58 26 26 26 4 4 4 25 25 25 45 45 45 66 66 66 86 86 86 104 104 104 123 123 123 141 141 141 158 158 158 153 153 153 148 148 148 144 144 144 139 139 139 130 130 130 121 121 121 112 112 112 103 103 103 99 99 99 94 94 94 90 90 90 86 86 86 87 87 87 88 88 88 90 90 90 91 91 91 95 95 95 99 99 99 103 103 103 107 107 107 110 110 110 113 113 113 115 115 115 118 118 118 118 118 118 119 119 119 119 119 119 120 120 120 118 118 118 116 116 116 114 114 114 112 112 112 107 107 107 102 102 102 97 97 97 92 92 92 90 90 90 89 89 89 89 89 89 88 88 88 92 92 92 98 98 98 105 105 105 111 111 111 119 119 119 128 128 128 136 136 136 145 145 145 151 151 151 153 153 153 155 155 155 157 157 157 159 159 159 159 159 159 159 159 159 159 159 159 159 159 159 159 159 159 159 159 159 159 159 159 158 158 158 158 158 158 158 158 158 158 158 158 157 157 157 156 156 156 155 155 155 154 154 154 152 152 152 151 151 151 150 150 150 149 149 149 148 148 148 148 148 148 147 147 147 147 147 147 147 147 147 147 147 147 148 148 148 148 148 148 149 149 149 150 150 150 151 151 151 152 152 152 154 154 154 155 155 155 156 156 156 157 157 157 158 158 158 158 158 158 158 158 158 158 158 158 159 159 159 159 159 159 159 159 159 159 159 159 159 159 159 159 159 159 159 159 159 159 159 159 159 159 159 142 142 142 123 123 123 105 105 105 86 86 86 68 68 68 50 50 50 31 31 31 13 13 13 45 45 45 88 88 88 131 131 131 174 174 174 197 197 197 215 215 215 232 232 232 250 250 250 255 255 255 255 255 255 255 255 255 255 255 255 255 255 255 255 255 255 255 255 255 255 255 255 255 255 255 255 255 255 255 255 255 255 255 255 255 255 255 255 255 255 255 255 255 255 255 255 255 255 255 255 255 255 255 255 255 255 255 255 255 255 255 255 255 255 255 255 255 255 255 255 255 255 255 255 255 255 255 255 255 255 255 255 255 255 255 255 255 255 255 255 255 255 255 255 255 255 255 255 255 255 255 255 255 255 255 255 255 255 255 255 255 255 255 255 255 255 255 255 255 255 255 255 255 255 255 255 255 255 255 255 255 255 255 255 255 255 255 255 255 255 255 255 255 255 255 255 255 255 255 255 255 255 255 255 255 255 255 255 255 255 255 255 255 255 255 255 255 255 255 255 255 255 255 255 255 255 255 255 255 255 255 
255 255 255 255 255 255 255 255 255 255 255 255 255 255 255 255 255 255 255 255 255 255 255 255 255 255 255 255 255 255 255 255 255 255 255 255 255 255 255 255 255 255 255 255 255 255 255 255 255 255 255 255 255 255 255 255 255 255 255 255 255 255 255 255 255 255 255 255 255 255 255 255 255 255 255 255 255 255 255 255 255 255 255 255 255 255 255 255 255 255 255 255 255 255 255 255 255 255 255 255 255 255 255 255 255 255 255 255 255 255 255 255 255 255 255 255 255 255 255 255 255 255 255 255 255 255 255 255 255 255 255 255 255 255 255 255 255 255 255 255 255 255 255 255 255 255 255 255 255 255 255 255 255 255 255 255 255 255 255 255 255 255 255 255 255 255 255 255 254 254 254 254 254 254 254 254 254 254 254 254 253 253 253 242 242 242 204 204 204 166 166 166 128 128 128 94 94 94 69 69 69 45 45 45 20 20 20 5 5 5 28 28 28 50 50 50 73 73 73 95 95 95 110 110 110 125 125 125 141 141 141 154 154 154 146 146 146 139 139 139 132 132 132 124 124 124 117 117 117 109 109 109 102 102 102 95 95 95 93 93 93 91 91 91 89 89 89 87 87 87 84 84 84 82 82 82 79 79 79 76 76 76 81 81 81 87 87 87 93 93 93 99 99 99 105 105 105 111 111 111 117 117 117 122 122 122 124 124 124 124 124 124 124 124 124 125 125 125 121 121 121 116 116 116 111 111 111 106 106 106 100 100 100 95 95 95 89 89 89 84 84 84 83 83 83 86 86 86 88 88 88 90 90 90 92 92 92 94 94 94 95 95 95 97 97 97 104 104 104 114 114 114 125 125 125 136 136 136 143 143 143 146 146 146 150 150 150 153 153 153 155 155 155 155 155 155 155 155 155 155 155 155 155 155 155 155 155 155 155 155 155 155 155 155 155 155 155 155 155 155 154 154 154 154 154 154 153 153 153 151 151 151 149 149 149 147 147 147 145 145 145 143 143 143 141 141 141 139 139 139 138 138 138 137 137 137 137 137 137 136 136 136 136 136 136 137 137 137 137 137 137 138 138 138 139 139 139 141 141 141 143 143 143 145 145 145 147 147 147 149 149 149 150 150 150 152 152 152 154 154 154 154 154 154 154 154 154 155 155 155 155 155 155 155 155 155 155 155 155 155 155 155 155 155 155 155 155 155 155 155 155 155 155 155 155 155 155 141 141 141 126 126 126 110 110 110 95 95 95 74 74 74 53 53 53 31 31 31 10 10 10 36 36 36 73 73 73 110 110 110 147 147 147 175 175 175 199 199 199 223 223 223 247 247 247 254 254 254 254 254 254 254 254 254 254 254 254 254 254 254 255 255 255 255 255 255 255 255 255 255 255 255 255 255 255 255 255 255 255 255 255 255 255 255 255 255 255 255 255 255 255 255 255 255 255 255 255 255 255 255 255 255 255 255 255 255 255 255 255 255 255 255 255 255 255 255 255 255 255 255 255 255 255 255 255 255 255 255 255 255 255 255 255 255 255 255 255 255 255 255 255 255 255 255 255 255 255 255 255 255 255 255 255 255 255 255 255 255 255 255 255 255 255 255 255 255 255 255 255 255 255 255 255 255 255 255 255 255 255 255 255 255 255 255 255 255 255 255 255 255 255 255 255 255 255 255 255 255 255 255 255 255 255 255 255 255 255 255 255 255 255 255 255 255 255 255 255 255 255 255 255 255 255 255 255 255 255 255 
255 255 255 255 255 255 255 255 255 255 255 255 255 255 255 255 255 255 255 255 255 255 255 255 255 255 255 255 255 255 255 255 255 255 255 255 255 255 255 255 255 255 255 255 255 255 255 255 255 255 255 255 255 255 255 255 255 255 255 255 255 255 255 255 255 255 255 255 255 255 255 255 255 255 255 255 255 255 255 255 255 255 255 255 255 255 255 255 255 255 255 255 255 255 255 255 255 255 255 255 255 255 255 255 255 255 255 255 255 255 255 255 255 255 255 255 255 255 255 255 255 255 255 255 255 255 255 255 255 255 255 255 255 255 255 255 255 255 255 255 255 255 255 255 255 255 255 255 255 255 255 255 255 255 255 255 255 255 255 255 255 255 255 255 255 254 254 254 254 254 254 254 254 254 254 254 254 253 253 253 253 253 253 239 239 239 194 194 194 149 149 149 104 104 104 65 65 65 48 48 48 31 31 31 14 14 14 5 5 5 30 30 30 55 55 55 81 81 81 104 104 104 116 116 116 128 128 128 140 140 140 150 150 150 140 140 140 130 130 130 120 120 120 110 110 110 104 104 104 98 98 98 92 92 92 86 86 86 87 87 87 87 87 87 88 88 88 88 88 88 82 82 82 75 75 75 68 68 68 61 61 61 68 68 68 76 76 76 84 84 84 92 92 92 100 100 100 109 109 109 118 118 118 127 127 127 129 129 129 129 129 129 129 129 129 130 130 130 124 124 124 116 116 116 108 108 108 100 100 100 93 93 93 87 87 87 81 81 81 75 75 75 77 77 77 82 82 82 87 87 87 92 92 92 92 92 92 89 89 89 86 86 86 82 82 82 88 88 88 101 101 101 113 113 113 126 126 126 135 135 135 139 139 139 144 144 144 149 149 149 152 152 152 152 152 152 152 152 152 152 152 152 152 152 152 152 152 152 152 152 152 152 152 152 151 151 151 151 151 151 151 151 151 150 150 150 149 149 149 146 146 146 143 143 143 140 140 140 138 138 138 135 135 135 132 132 132 130 130 130 128 128 128 127 127 127 126 126 126 126 126 126 125 125 125 126 126 126 127 127 127 128 128 128 129 129 129 132 132 132 135 135 135 138 138 138 140 140 140 143 143 143 145 145 145 148 148 148 150 150 150 150 150 150 151 151 151 151 151 151 152 152 152 152 152 152 152 152 152 152 152 152 152 152 152 152 152 152 152 152 152 152 152 152 152 152 152 140 140 140 128 128 128 116 116 116 103 103 103 81 81 81 56 56 56 31 31 31 7 7 7 27 27 27 58 58 58 90 90 90 121 121 121 152 152 152 183 183 183 214 214 214 245 245 245 254 254 254 254 254 254 254 254 254 254 254 254 254 254 254 254 254 254 255 255 255 255 255 255 255 255 255 255 255 255 255 255 255 255 255 255 255 255 255 255 255 255 255 255 255 255 255 255 255 255 255 255 255 255 255 255 255 255 255 255 255 255 255 255 255 255 255 255 255 255 255 255 255 255 255 255 255 255 255 255 255 255 255 255 255 255 255 255 255 255 255 255 255 255 255 255 255 255 255 255 255 255 255 255 255 255 255 255 255 255 255 255 255 255 255 255 255 255 255 255 255 255 255 255 255 255 255 255 255 255 255 255 255 255 255 255 255 255 255 255 255 255 255 255 255 255 255 255 255 255 255 255 255 255 255 255 255 255 255 255 255 255 255 255 255 255 255 255 255 255 255 255 255 255 255 255 255 255 255 255 255 255 255 
255 255 255 255 255 255 255 255 255 255 255 255 255 255 255 255 255 255 255 255 255 255 255 255 255 255 255 255 255 255 255 255 255 255 255 255 255 255 255 255 255 255 255 255 255 255 255 255 255 255 255 255 255 255 255 255 255 255 255 255 255 255 255 255 255 255 255 255 255 255 255 255 255 255 255 255 255 255 255 255 255 255 255 255 255 255 255 255 255 255 255 255 255 255 255 255 255 255 255 255 255 255 255 255 255 255 255 255 255 255 255 255 255 255 255 255 255 255 255 255 255 255 255 255 255 255 255 255 255 255 255 255 255 255 255 255 255 255 255 255 255 255 255 255 255 255 255 255 255 255 255 255 255 255 255 255 255 255 255 255 255 255 255 255 255 254 254 254 254 254 254 253 253 253 251 251 251 249 249 249 246 246 246 231 231 231 182 182 182 134 134 134 85 85 85 45 45 45 33 33 33 22 22 22 10 10 10 5 5 5 32 32 32 59 59 59 86 86 86 110 110 110 119 119 119 127 127 127 136 136 136 143 143 143 131 131 131 120 120 120 109 109 109 97 97 97 93 93 93 88 88 88 83 83 83 79 79 79 80 80 80 82 82 82 83 83 83 85 85 85 81 81 81 78 78 78 74 74 74 70 70 70 78 78 78 88 88 88 98 98 98 107 107 107 117 117 117 126 126 126 135 135 135 145 145 145 147 147 147 147 147 147 147 147 147 147 147 147 141 141 141 132 132 132 124 124 124 115 115 115 108 108 108 101 101 101 93 93 93 86 86 86 85 85 85 87 87 87 89 89 89 92 92 92 89 89 89 84 84 84 79 79 79 74 74 74 79 79 79 91 91 91 102 102 102 114 114 114 123 123 123 130 130 130 137 137 137 143 143 143 147 147 147 147 147 147 148 148 148 148 148 148 148 148 148 147 147 147 146 146 146 145 145 145 144 144 144 143 143 143 141 141 141 140 140 140 138 138 138 136 136 136 133 133 133 131 131 131 129 129 129 127 127 127 125 125 125 123 123 123 122 122 122 121 121 121 121 121 121 120 120 120 120 120 120 121 121 121 121 121 121 122 122 122 123 123 123 125 125 125 127 127 127 129 129 129 131 131 131 133 133 133 135 135 135 137 137 137 139 139 139 140 140 140 142 142 142 143 143 143 145 145 145 146 146 146 146 146 146 147 147 147 148 148 148 148 148 148 148 148 148 148 148 148 148 148 148 139 139 139 129 129 129 119 119 119 109 109 109 85 85 85 58 58 58 32 32 32 5 5 5 21 21 21 46 46 46 71 71 71 97 97 97 131 131 131 168 168 168 205 205 205 242 242 242 252 252 252 253 253 253 253 253 253 254 254 254 254 254 254 254 254 254 255 255 255 255 255 255 255 255 255 255 255 255 255 255 255 255 255 255 255 255 255 255 255 255 255 255 255 255 255 255 255 255 255 255 255 255 255 255 255 255 255 255 255 255 255 255 255 255 255 255 255 255 255 255 255 255 255 255 255 255 255 255 255 255 255 255 255 255 255 255 255 255 255 255 255 255 255 255 255 255 255 255 255 255 255 255 255 255 255 255 255 255 255 255 255 255 255 255 255 255 255 255 255 255 255 255 255 255 255 255 255 255 255 255 255 255 255 255 255 255 255 255 255 255 255 255 255 255 255 255 255 255 255 255 255 255 255 255 255 255 255 255 255 255 255 255 255 255 255 255 255 255 255 255 255 255 255 255 255 255 255 255 255 255 255 
255 255 255 255 255 255 255 255 255 255 255 255 255 255 255 255 255 255 255 255 255 255 255 255 255 255 255 255 255 255 255 255 255 255 255 255 255 255 255 255 255 255 255 255 255 255 255 255 255 255 255 255 255 255 255 255 255 255 255 255 255 255 255 255 255 255 255 255 255 255 255 255 255 255 255 255 255 255 255 255 255 255 255 255 255 255 255 255 255 255 255 255 255 255 255 255 255 255 255 255 255 255 255 255 255 255 255 255 255 255 255 255 255 255 255 255 255 255 255 255 255 255 255 255 255 255 255 255 255 255 255 255 255 255 255 255 255 255 255 255 255 255 255 255 255 255 255 255 255 255 255 255 255 255 255 255 255 255 255 255 255 255 255 255 255 254 254 254 254 254 254 252 252 252 246 246 246 241 241 241 235 235 235 217 217 217 169 169 169 120 120 120 72 72 72 33 33 33 24 24 24 16 16 16 7 7 7 5 5 5 33 33 33 61 61 61 89 89 89 113 113 113 119 119 119 124 124 124 129 129 129 133 133 133 121 121 121 110 110 110 98 98 98 87 87 87 83 83 83 80 80 80 76 76 76 72 72 72 73 73 73 75 75 75 76 76 76 77 77 77 83 83 83 89 89 89 95 95 95 101 101 101 111 111 111 122 122 122 133 133 133 144 144 144 152 152 152 160 160 160 167 167 167 175 175 175 176 176 176 176 176 176 177 177 177 177 177 177 172 172 172 165 165 165 158 158 158 151 151 151 142 142 142 133 133 133 124 124 124 115 115 115 108 108 108 101 101 101 94 94 94 88 88 88 83 83 83 80 80 80 76 76 76 73 73 73 76 76 76 84 84 84 92 92 92 100 100 100 109 109 109 118 118 118 127 127 127 136 136 136 142 142 142 142 142 142 143 143 143 144 144 144 143 143 143 140 140 140 138 138 138 135 135 135 133 133 133 130 130 130 126 126 126 123 123 123 121 121 121 120 120 120 120 120 120 119 119 119 118 118 118 119 119 119 119 119 119 119 119 119 119 119 119 119 119 119 120 120 120 120 120 120 120 120 120 120 120 120 120 120 120 120 120 120 119 119 119 119 119 119 119 119 119 119 119 119 119 119 119 119 119 119 120 120 120 121 121 121 122 122 122 125 125 125 129 129 129 132 132 132 135 135 135 138 138 138 140 140 140 142 142 142 144 144 144 144 144 144 145 145 145 145 145 145 145 145 145 137 137 137 129 129 129 121 121 121 113 113 113 88 88 88 61 61 61 33 33 33 5 5 5 16 16 16 35 35 35 55 55 55 75 75 75 111 111 111 153 153 153 195 195 195 236 236 236 249 249 249 251 251 251 252 252 252 254 254 254 254 254 254 254 254 254 255 255 255 255 255 255 255 255 255 255 255 255 255 255 255 255 255 255 255 255 255 255 255 255 255 255 255 255 255 255 255 255 255 255 255 255 255 255 255 255 255 255 255 255 255 255 255 255 255 255 255 255 255 255 255 255 255 255 255 255 255 255 255 255 255 255 255 255 255 255 255 255 255 255 255 255 255 255 255 255 255 255 255 255 255 255 255 255 255 255 255 255 255 255 255 255 255 255 255 255 255 255 255 255 255 255 255 255 255 255 255 255 255 255 255 255 255 255 255 255 255 255 255 255 255 255 255 255 255 255 255 255 255 255 255 255 255 255 255 255 255 255 255 255 255 255 255 255 255 255 255 255 255 255 255 255 255 255 255 255 255 255 255 255 255 
255 255 255 255 255 255 255 255 255 255 255 255 255 255 255 255 255 255 255 255 255 255 255 255 255 255 255 255 255 255 255 255 255 255 255 255 255 255 255 255 255 255 255 255 255 255 255 255 255 255 255 255 255 255 255 255 255 255 255 255 255 255 255 255 255 255 255 255 255 255 255 255 255 255 255 255 255 255 255 255 255 255 255 255 255 255 255 255 255 255 255 255 255 255 255 255 255 255 255 255 255 255 255 255 255 255 255 255 255 255 255 255 255 255 255 255 255 255 255 255 255 255 255 255 255 255 255 255 255 255 255 255 255 255 255 255 255 255 255 255 255 255 255 255 255 255 255 255 255 255 255 255 255 255 255 255 255 255 255 255 255 255 255 255 255 254 254 254 254 254 254 251 251 251 242 242 242 233 233 233 224 224 224 203 203 203 155 155 155 107 107 107 59 59 59 21 21 21 15 15 15 10 10 10 4 4 4 5 5 5 34 34 34 63 63 63 92 92 92 117 117 117 119 119 119 120 120 120 122 122 122 123 123 123 111 111 111 100 100 100 88 88 88 77 77 77 74 74 74 71 71 71 68 68 68 65 65 65 66 66 66 67 67 67 69 69 69 70 70 70 85 85 85 100 100 100 116 116 116 132 132 132 145 145 145 157 157 157 169 169 169 181 181 181 188 188 188 194 194 194 199 199 199 205 205 205 206 206 206 206 206 206 206 206 206 206 206 206 202 202 202 197 197 197 192 192 192 187 187 187 177 177 177 166 166 166 155 155 155 144 144 144 130 130 130 115 115 115 100 100 100 84 84 84 77 77 77 75 75 75 73 73 73 71 71 71 72 72 72 77 77 77 81 81 81 86 86 86 94 94 94 106 106 106 118 118 118 130 130 130 136 136 136 137 137 137 138 138 138 139 139 139 138 138 138 134 134 134 130 130 130 126 126 126 121 121 121 117 117 117 112 112 112 107 107 107 104 104 104 105 105 105 106 106 106 107 107 107 108 108 108 110 110 110 113 113 113 115 115 115 117 117 117 118 118 118 119 119 119 119 119 119 120 120 120 119 119 119 118 118 118 117 117 117 116 116 116 114 114 114 111 111 111 109 109 109 106 106 106 106 106 106 105 105 105 105 105 105 105 105 105 110 110 110 115 115 115 120 120 120 126 126 126 129 129 129 133 133 133 137 137 137 140 140 140 141 141 141 141 141 141 141 141 141 141 141 141 136 136 136 129 129 129 123 123 123 117 117 117 91 91 91 63 63 63 34 34 34 5 5 5 11 11 11 25 25 25 39 39 39 52 52 52 91 91 91 138 138 138 185 185 185 231 231 231 246 246 246 249 249 249 251 251 251 253 253 253 254 254 254 254 254 254 255 255 255 255 255 255 255 255 255 255 255 255 255 255 255 255 255 255 255 255 255 255 255 255 255 255 255 255 255 255 255 255 255 255 255 255 255 255 255 255 255 255 255 255 255 255 255 255 255 255 255 255 255 255 255 255 255 255 255 255 255 255 255 255 255 255 255 255 255 255 255 255 255 255 255 255 255 255 255 255 255 255 255 255 255 255 255 255 255 255 255 255 255 255 255 255 255 255 255 255 255 255 255 255 255 255 255 255 255 255 255 255 255 255 255 255 255 255 255 255 255 255 255 255 255 255 255 255 255 255 255 255 255 255 255 255 255 255 255 255 255 255 255 255 255 255 255 255 255 255 255 255 255 255 255 255 255 255 255 255 255 255 255 255 255 
255 255 255 255 255 255 255 255 255 255 255 255 255 255 255 255 255 255 255 255 255 255 255 255 255 255 255 255 255 255 255 255 255 255 255 255 255 255 255 255 255 255 255 255 255 255 255 255 255 255 255 255 255 255 255 255 255 255 255 255 255 255 255 255 255 255 255 255 255 255 255 255 255 255 255 255 255 255 255 255 255 255 255 255 255 255 255 255 255 255 255 255 255 255 255 255 255 255 255 255 255 255 255 255 255 255 255 255 255 255 255 255 255 255 255 255 255 255 255 255 255 255 255 255 255 255 255 255 255 255 255 255 255 255 255 255 255 255 255 255 255 255 255 255 255 255 255 255 255 255 255 255 255 255 255 255 255 255 255 255 255 255 255 255 255 254 254 254 254 254 254 250 250 250 237 237 237 225 225 225 212 212 212 190 190 190 142 142 142 93 93 93 45 45 45 8 8 8 6 6 6 4 4 4 2 2 2 6 6 6 35 35 35 65 65 65 95 95 95 120 120 120 118 118 118 117 117 117 115 115 115 113 113 113 101 101 101 90 90 90 78 78 78 67 67 67 65 65 65 63 63 63 61 61 61 58 58 58 59 59 59 60 60 60 61 61 61 62 62 62 86 86 86 112 112 112 137 137 137 163 163 163 178 178 178 191 191 191 205 205 205 219 219 219 224 224 224 227 227 227 231 231 231 235 235 235 235 235 235 236 236 236 236 236 236 236 236 236 233 233 233 229 229 229 226 226 226 222 222 222 212 212 212 199 199 199 186 186 186 173 173 173 152 152 152 128 128 128 105 105 105 81 81 81 71 71 71 70 70 70 70 70 70 69 69 69 69 69 69 70 70 70 71 71 71 72 72 72 80 80 80 94 94 94 108 108 108 123 123 123 131 131 131 132 132 132 134 134 134 135 135 135 134 134 134 128 128 128 122 122 122 116 116 116 110 110 110 104 104 104 97 97 97 91 91 91 87 87 87 90 90 90 92 92 92 95 95 95 98 98 98 102 102 102 107 107 107 111 111 111 115 115 115 116 116 116 117 117 117 119 119 119 120 120 120 118 118 118 117 117 117 115 115 115 113 113 113 108 108 108 103 103 103 99 99 99 94 94 94 92 92 92 91 91 91 89 89 89 87 87 87 95 95 95 102 102 102 109 109 109 116 116 116 121 121 121 126 126 126 132 132 132 137 137 137 137 137 137 137 137 137 138 138 138 138 138 138 134 134 134 129 129 129 125 125 125 121 121 121 95 95 95 65 65 65 35 35 35 6 6 6 6 6 6 14 14 14 22 22 22 30 30 30 72 72 72 123 123 123 175 175 175 226 226 226 243 243 243 246 246 246 250 250 250 253 253 253 254 254 254 254 254 254 255 255 255 255 255 255 255 255 255 255 255 255 255 255 255 255 255 255 255 255 255 255 255 255 255 255 255 255 255 255 255 255 255 255 255 255 255 255 255 255 255 255 255 255 255 255 255 255 255 255 255 255 255 255 255 255 255 255 255 255 255 255 255 255 255 255 255 255 255 255 255 255 255 255 255 255 255 255 255 255 255 255 255 255 255 255 255 255 255 255 255 255 255 255 255 255 255 255 255 255 255 255 255 255 255 255 255 255 255 255 255 255 255 255 255 255 255 255 255 255 255 255 255 255 255 255 255 255 255 255 255 255 255 255 255 255 255 255 255 255 255 255 255 255 255 255 255 255 255 255 255 255 255 255 255 255 255 255 255 255 255 255 255 255 255 
255 255 255 255 255 255 255 255 255 255 255 255 255 255 255 255 255 255 255 255 255 255 255 255 255 255 255 255 255 255 255 255 255 255 255 255 255 255 255 255 255 255 255 255 255 255 255 255 255 255 255 255 255 255 255 255 255 255 255 255 255 255 255 255 255 255 255 255 255 255 255 255 255 255 255 255 255 255 255 255 255 255 255 255 255 255 255 255 255 255 255 255 255 255 255 255 255 255 255 255 255 255 255 255 255 255 255 255 255 255 255 255 255 255 255 255 255 255 255 255 255 255 255 255 255 255 255 255 255 255 255 255 255 255 255 255 255 255 255 255 255 255 255 255 255 255 255 255 255 255 255 255 255 255 255 255 255 255 255 255 255 255 255 255 255 254 254 254 254 254 254 249 249 249 232 232 232 215 215 215 198 198 198 173 173 173 127 127 127 82 82 82 36 36 36 2 2 2 1 1 1 1 1 1 0 0 0 6 6 6 36 36 36 66 66 66 96 96 96 121 121 121 116 116 116 111 111 111 107 107 107 102 102 102 91 91 91 81 81 81 70 70 70 60 60 60 58 58 58 57 57 57 55 55 55 54 54 54 58 58 58 62 62 62 66 66 66 70 70 70 97 97 97 126 126 126 154 154 154 182 182 182 197 197 197 211 211 211 224 224 224 238 238 238 242 242 242 245 245 245 247 247 247 250 250 250 250 250 250 250 250 250 250 250 250 250 250 250 249 249 249 246 246 246 244 244 244 241 241 241 232 232 232 219 219 219 207 207 207 194 194 194 172 172 172 146 146 146 119 119 119 93 93 93 80 80 80 76 76 76 72 72 72 68 68 68 66 66 66 65 65 65 64 64 64 63 63 63 70 70 70 84 84 84 99 99 99 113 113 113 121 121 121 123 123 123 124 124 124 126 126 126 124 124 124 119 119 119 113 113 113 107 107 107 101 101 101 95 95 95 89 89 89 83 83 83 80 80 80 82 82 82 84 84 84 87 87 87 90 90 90 94 94 94 98 98 98 102 102 102 106 106 106 107 107 107 109 109 109 110 110 110 111 111 111 109 109 109 108 108 108 106 106 106 105 105 105 100 100 100 95 95 95 91 91 91 87 87 87 85 85 85 84 84 84 82 82 82 81 81 81 88 88 88 94 94 94 101 101 101 107 107 107 112 112 112 118 118 118 123 123 123 128 128 128 130 130 130 131 131 131 132 132 132 134 134 134 131 131 131 128 128 128 125 125 125 122 122 122 96 96 96 66 66 66 36 36 36 6 6 6 4 4 4 8 8 8 12 12 12 17 17 17 58 58 58 110 110 110 163 163 163 216 216 216 235 235 235 241 241 241 246 246 246 252 252 252 254 254 254 254 254 254 255 255 255 255 255 255 255 255 255 255 255 255 255 255 255 255 255 255 255 255 255 255 255 255 255 255 255 255 255 255 255 255 255 255 255 255 255 255 255 255 255 255 255 255 255 255 255 255 255 255 255 255 255 255 255 255 255 255 255 255 255 255 255 255 255 255 255 255 255 255 255 255 255 255 255 255 255 255 255 255 255 255 255 255 255 255 255 255 255 255 255 255 255 255 255 255 255 255 255 255 255 255 255 255 255 255 255 255 255 255 255 255 255 255 255 255 255 255 255 255 255 255 255 255 255 255 255 255 255 255 255 255 255 255 255 255 255 255 255 255 255 255 255 255 255 255 255 255 255 255 255 255 255 255 255 255 255 255 255 255 255 255 255 255 255 
255 255 255 255 255 255 255 255 255 255 255 255 255 255 255 255 255 255 255 255 255 255 255 255 255 255 255 255 255 255 255 255 255 255 255 255 255 255 255 255 255 255 255 255 255 255 255 255 255 255 255 255 255 255 255 255 255 255 255 255 255 255 255 255 255 255 255 255 255 255 255 255 255 255 255 255 255 255 255 255 255 255 255 255 255 255 255 255 255 255 255 255 255 255 255 255 255 255 255 255 255 255 255 255 255 255 255 255 255 255 255 255 255 255 255 255 255 255 255 255 255 255 255 255 255 255 255 255 255 255 255 255 255 255 255 255 255 255 255 255 255 255 255 255 255 255 255 255 255 255 255 255 255 255 255 255 255 255 255 255 255 255 255 255 255 255 255 255 254 254 254 247 247 247 225 225 225 203 203 203 181 181 181 153 153 153 113 113 113 73 73 73 32 32 32 1 1 1 1 1 1 1 1 1 0 0 0 6 6 6 35 35 35 65 65 65 94 94 94 118 118 118 111 111 111 103 103 103 96 96 96 89 89 89 80 80 80 72 72 72 63 63 63 55 55 55 54 54 54 53 53 53 52 52 52 51 51 51 62 62 62 73 73 73 84 84 84 95 95 95 118 118 118 142 142 142 165 165 165 189 189 189 202 202 202 213 213 213 225 225 225 237 237 237 241 241 241 243 243 243 246 246 246 249 249 249 249 249 249 249 249 249 249 249 249 249 249 249 248 248 248 246 246 246 244 244 244 242 242 242 235 235 235 226 226 226 217 217 217 208 208 208 190 190 190 168 168 168 145 145 145 123 123 123 106 106 106 94 94 94 81 81 81 68 68 68 62 62 62 61 61 61 60 60 60 59 59 59 64 64 64 77 77 77 89 89 89 101 101 101 108 108 108 109 109 109 110 110 110 111 111 111 110 110 110 107 107 107 103 103 103 99 99 99 95 95 95 92 92 92 88 88 88 85 85 85 83 83 83 83 83 83 83 83 83 83 83 83 84 84 84 85 85 85 87 87 87 89 89 89 90 90 90 91 91 91 91 91 91 92 92 92 92 92 92 92 92 92 91 91 91 91 91 91 91 91 91 89 89 89 87 87 87 86 86 86 84 84 84 85 85 85 85 85 85 86 86 86 87 87 87 90 90 90 93 93 93 96 96 96 99 99 99 103 103 103 107 107 107 111 111 111 114 114 114 118 118 118 122 122 122 125 125 125 129 129 129 128 128 128 126 126 126 124 124 124 122 122 122 96 96 96 66 66 66 36 36 36 6 6 6 3 3 3 6 6 6 9 9 9 12 12 12 51 51 51 100 100 100 150 150 150 200 200 200 221 221 221 231 231 231 241 241 241 251 251 251 254 254 254 254 254 254 255 255 255 255 255 255 255 255 255 255 255 255 255 255 255 255 255 255 255 255 255 255 255 255 255 255 255 255 255 255 255 255 255 255 255 255 255 255 255 255 255 255 255 255 255 255 255 255 255 255 255 255 255 255 255 255 255 255 255 255 255 255 255 255 255 255 255 255 255 255 255 255 255 255 255 255 255 255 255 255 255 255 255 255 255 255 255 255 255 255 255 255 255 255 255 255 255 255 255 255 255 255 255 255 255 255 255 255 255 255 255 255 255 255 255 255 255 255 255 255 255 255 255 255 255 255 255 255 255 255 255 255 255 255 255 255 255 255 255 255 255 255 255 255 255 255 255 255 255 255 255 255 255 255 255 255 255 255 255 255 255 255 255 255 255 
255 255 255 255 255 255 255 255 255 255 255 255 255 255 255 255 255 255 255 255 255 255 255 255 255 255 255 255 255 255 255 255 255 255 255 255 255 255 255 255 255 255 255 255 255 255 255 255 255 255 255 255 255 255 255 255 255 255 255 255 255 255 255 255 255 255 255 255 255 255 255 255 255 255 255 255 255 255 255 255 255 255 255 255 255 255 255 255 255 255 255 255 255 255 255 255 255 255 255 255 255 255 255 255 255 255 255 255 255 255 255 255 255 255 255 255 255 255 255 255 255 255 255 255 255 255 255 255 255 255 255 255 255 255 255 255 255 255 255 255 255 255 255 255 255 255 255 255 255 255 255 255 255 255 255 255 255 255 255 255 255 255 255 255 255 255 255 255 255 255 255 246 246 246 218 218 218 191 191 191 164 164 164 134 134 134 99 99 99 63 63 63 28 28 28 1 1 1 1 1 1 0 0 0 0 0 0 6 6 6 35 35 35 64 64 64 93 93 93 116 116 116 106 106 106 96 96 96 85 85 85 75 75 75 69 69 69 63 63 63 57 57 57 51 51 51 50 50 50 50 50 50 49 49 49 48 48 48 66 66 66 84 84 84 102 102 102 120 120 120 139 139 139 158 158 158 177 177 177 195 195 195 206 206 206 216 216 216 226 226 226 236 236 236 240 240 240 242 242 242 245 245 245 247 247 247 248 248 248 248 248 248 248 248 248 248 248 248 247 247 247 246 246 246 245 245 245 243 243 243 239 239 239 233 233 233 227 227 227 222 222 222 208 208 208 189 189 189 171 171 171 153 153 153 132 132 132 111 111 111 89 89 89 68 68 68 58 58 58 57 57 57 56 56 56 55 55 55 59 59 59 69 69 69 79 79 79 88 88 88 94 94 94 95 95 95 96 96 96 97 97 97 96 96 96 94 94 94 92 92 92 90 90 90 89 89 89 88 88 88 88 88 88 87 87 87 86 86 86 84 84 84 82 82 82 80 80 80 78 78 78 77 77 77 76 76 76 75 75 75 74 74 74 74 74 74 74 74 74 73 73 73 73 73 73 74 74 74 75 75 75 76 76 76 77 77 77 78 78 78 79 79 79 81 81 81 82 82 82 85 85 85 87 87 87 90 90 90 92 92 92 92 92 92 91 91 91 91 91 91 91 91 91 93 93 93 96 96 96 98 98 98 101 101 101 106 106 106 112 112 112 118 118 118 124 124 124 124 124 124 123 123 123 122 122 122 121 121 121 95 95 95 65 65 65 36 36 36 6 6 6 2 2 2 3 3 3 5 5 5 7 7 7 43 43 43 90 90 90 137 137 137 183 183 183 207 207 207 221 221 221 235 235 235 249 249 249 254 254 254 254 254 254 255 255 255 255 255 255 255 255 255 255 255 255 255 255 255 255 255 255 255 255 255 255 255 255 255 255 255 255 255 255 255 255 255 255 255 255 255 255 255 255 255 255 255 255 255 255 255 255 255 255 255 255 255 255 255 255 255 255 255 255 255 255 255 255 255 255 255 255 255 255 255 255 255 255 255 255 255 255 255 255 255 255 255 255 255 255 255 255 255 255 255 255 255 255 255 255 255 255 255 255 255 255 255 255 255 255 255 255 255 255 255 255 255 255 255 255 255 255 255 255 255 255 255 255 255 255 255 255 255 255 255 255 255 255 255 255 255 255 255 255 255 255 255 255 255 255 255 255 255 255 255 255 255 255 255 255 255 255 255 255 255 255 255 255 255 
255 255 255 255 255 255 255 255 255 255 255 255 255 255 255 255 255 255 255 255 255 255 255 255 255 255 255 255 255 255 255 255 255 255 255 255 255 255 255 255 255 255 255 255 255 255 255 255 255 255 255 255 255 255 255 255 255 255 255 255 255 255 255 255 255 255 255 255 255 255 255 255 255 255 255 255 255 255 255 255 255 255 255 255 255 255 255 255 255 255 255 255 255 255 255 255 255 255 255 255 255 255 255 255 255 255 255 255 255 255 255 255 255 255 255 255 255 255 255 255 255 255 255 255 255 255 255 255 255 255 255 255 255 255 255 255 255 255 255 255 255 255 255 255 255 255 255 255 255 255 255 255 255 255 255 255 255 255 255 255 255 255 255 255 255 255 255 255 255 255 255 244 244 244 211 211 211 179 179 179 146 146 146 114 114 114 84 84 84 54 54 54 23 23 23 0 0 0 0 0 0 0 0 0 0 0 0 5 5 5 34 34 34 63 63 63 91 91 91 114 114 114 101 101 101 88 88 88 75 75 75 62 62 62 58 58 58 54 54 54 50 50 50 47 47 47 46 46 46 46 46 46 46 46 46 46 46 46 70 70 70 95 95 95 120 120 120 145 145 145 160 160 160 174 174 174 188 188 188 202 202 202 211 211 211 219 219 219 227 227 227 235 235 235 239 239 239 241 241 241 244 244 244 246 246 246 247 247 247 247 247 247 247 247 247 247 247 247 246 246 246 246 246 246 245 245 245 244 244 244 243 243 243 240 240 240 238 238 238 235 235 235 225 225 225 211 211 211 197 197 197 182 182 182 158 158 158 128 128 128 98 98 98 68 68 68 54 54 54 53 53 53 52 52 52 51 51 51 54 54 54 61 61 61 69 69 69 76 76 76 80 80 80 81 81 81 81 81 81 82 82 82 82 82 82 82 82 82 82 82 82 82 82 82 83 83 83 85 85 85 87 87 87 89 89 89 89 89 89 85 85 85 80 80 80 76 76 76 72 72 72 68 68 68 65 65 65 62 62 62 59 59 59 57 57 57 56 56 56 55 55 55 54 54 54 56 56 56 58 58 58 60 60 60 63 63 63 67 67 67 71 71 71 76 76 76 80 80 80 84 84 84 89 89 89 93 93 93 98 98 98 94 94 94 90 90 90 86 86 86 83 83 83 84 84 84 85 85 85 86 86 86 87 87 87 95 95 95 103 103 103 111 111 111 120 120 120 120 120 120 120 120 120 120 120 120 120 120 120 95 95 95 65 65 65 35 35 35 6 6 6 1 1 1 1 1 1 2 2 2 3 3 3 36 36 36 80 80 80 124 124 124 167 167 167 193 193 193 211 211 211 230 230 230 248 248 248 254 254 254 254 254 254 255 255 255 255 255 255 255 255 255 255 255 255 255 255 255 255 255 255 255 255 255 255 255 255 255 255 255 255 255 255 255 255 255 255 255 255 255 255 255 255 255 255 255 255 255 255 255 255 255 255 255 255 255 255 255 255 255 255 255 255 255 255 255 255 255 255 255 255 255 255 255 255 255 255 255 255 255 255 255 255 255 255 255 255 255 255 255 255 255 255 255 255 255 255 255 255 255 255 255 255 255 255 255 255 255 255 255 255 255 255 255 255 255 255 255 255 255 255 255 255 255 255 255 255 255 255 255 255 255 255 255 255 255 255 255 255 255 255 255 255 255 255 255 255 255 255 255 255 255 255 255 255 255 255 255 255 255 255 255 255 255 255 255 255 255 
255 255 255 255 255 255 255 255 255 255 255 255 255 255 255 255 255 255 255 255 255 255 255 255 255 255 255 255 255 255 255 255 255 255 255 255 255 255 255 255 255 255 255 255 255 255 255 255 255 255 255 255 255 255 255 255 255 255 255 255 255 255 255 255 255 255 255 255 255 255 255 255 255 255 255 255 255 255 255 255 255 255 255 255 255 255 255 255 255 255 255 255 255 255 255 255 255 255 255 255 255 255 255 255 255 255 255 255 255 255 255 255 255 255 255 255 255 255 255 255 255 255 255 255 255 255 255 255 255 255 255 255 255 255 255 255 255 255 255 255 255 255 255 255 255 255 255 255 255 255 255 255 255 255 255 255 255 255 255 255 255 255 255 255 255 255 255 255 255 255 255 242 242 242 205 205 205 168 168 168 130 130 130 96 96 96 71 71 71 45 45 45 20 20 20 0 0 0 0 0 0 0 0 0 0 0 0 5 5 5 33 33 33 60 60 60 88 88 88 109 109 109 95 95 95 80 80 80 66 66 66 52 52 52 49 49 49 46 46 46 44 44 44 41 41 41 44 44 44 47 47 47 51 51 51 54 54 54 81 81 81 108 108 108 135 135 135 162 162 162 173 173 173 184 184 184 195 195 195 205 205 205 213 213 213 219 219 219 226 226 226 233 233 233 236 236 236 239 239 239 241 241 241 244 244 244 245 245 245 245 245 245 245 245 245 246 246 246 245 245 245 245 245 245 245 245 245 245 245 245 244 244 244 244 244 244 243 243 243 243 243 243 235 235 235 224 224 224 214 214 214 203 203 203 178 178 178 145 145 145 111 111 111 78 78 78 61 61 61 56 56 56 52 52 52 47 47 47 48 48 48 54 54 54 59 59 59 64 64 64 68 68 68 69 69 69 70 70 70 71 71 71 71 71 71 72 72 72 72 72 72 73 73 73 75 75 75 79 79 79 83 83 83 88 88 88 90 90 90 86 86 86 82 82 82 78 78 78 75 75 75 72 72 72 68 68 68 65 65 65 63 63 63 62 62 62 61 61 61 60 60 60 60 60 60 61 61 61 63 63 63 64 64 64 66 66 66 70 70 70 73 73 73 77 77 77 80 80 80 83 83 83 87 87 87 90 90 90 93 93 93 88 88 88 83 83 83 78 78 78 73 73 73 74 74 74 75 75 75 76 76 76 77 77 77 85 85 85 94 94 94 103 103 103 112 112 112 114 114 114 115 115 115 117 117 117 118 118 118 93 93 93 64 64 64 35 35 35 6 6 6 0 0 0 0 0 0 0 0 0 0 0 0 31 31 31 71 71 71 111 111 111 151 151 151 179 179 179 201 201 201 224 224 224 246 246 246 254 254 254 254 254 254 255 255 255 255 255 255 255 255 255 255 255 255 255 255 255 255 255 255 255 255 255 255 255 255 255 255 255 255 255 255 255 255 255 255 255 255 255 255 255 255 255 255 255 255 255 255 255 255 255 255 255 255 255 255 255 255 255 255 255 255 255 255 255 255 255 255 255 255 255 255 255 255 255 255 255 255 255 255 255 255 255 255 255 255 255 255 255 255 255 255 255 255 255 255 255 255 255 255 255 255 255 255 255 255 255 255 255 255 255 255 255 255 255 255 255 255 255 255 255 255 255 255 255 255 255 255 255 255 255 255 255 255 255 255 255 255 255 255 255 255 255 255 255 255 255 255 255 255 255 255 255 255 255 255 255 255 255 255 255 255 255 255 255 255 255 
255 255 255 255 255 255 255 255 255 255 255 255 255 255 255 255 255 255 255 255 255 255 255 255 255 255 255 255 255 255 255 255 255 255 255 255 255 255 255 255 255 255 255 255 255 255 255 255 255 255 255 255 255 255 255 255 255 255 255 255 255 255 255 255 255 255 255 255 255 255 255 255 255 255 255 255 255 255 255 255 255 255 255 255 255 255 255 255 255 255 255 255 255 255 255 255 255 255 255 255 255 255 255 255 255 255 255 255 255 255 255 255 255 255 255 255 255 255 255 255 255 255 255 255 255 255 255 255 255 255 255 255 255 255 255 255 255 255 255 255 255 255 255 255 255 255 255 255 255 255 255 255 255 255 255 255 255 255 255 255 255 255 255 255 255 255 255 255 254 254 254 240 240 240 199 199 199 158 158 158 116 116 116 81 81 81 59 59 59 38 38 38 16 16 16 0 0 0 0 0 0 0 0 0 0 0 0 5 5 5 30 30 30 55 55 55 80 80 80 100 100 100 86 86 86 73 73 73 59 59 59 47 47 47 43 43 43 40 40 40 36 36 36 34 34 34 44 44 44 55 55 55 66 66 66 76 76 76 99 99 99 122 122 122 145 145 145 167 167 167 177 177 177 186 186 186 195 195 195 204 204 204 210 210 210 216 216 216 222 222 222 227 227 227 231 231 231 234 234 234 237 237 237 240 240 240 241 241 241 242 242 242 244 244 244 245 245 245 245 245 245 245 245 245 244 244 244 244 244 244 243 243 243 243 243 243 242 242 242 241 241 241 236 236 236 227 227 227 219 219 219 211 211 211 189 189 189 160 160 160 130 130 130 100 100 100 81 81 81 69 69 69 57 57 57 45 45 45 41 41 41 46 46 46 50 50 50 54 54 54 57 57 57 59 59 59 61 61 61 63 63 63 64 64 64 63 63 63 62 62 62 61 61 61 63 63 63 69 69 69 75 75 75 81 81 81 86 86 86 87 87 87 88 88 88 89 89 89 90 90 90 90 90 90 91 91 91 92 92 92 93 93 93 94 94 94 95 95 95 96 96 96 97 97 97 96 96 96 95 95 95 94 94 94 92 92 92 90 90 90 88 88 88 86 86 86 83 83 83 81 81 81 79 79 79 77 77 77 75 75 75 71 71 71 68 68 68 65 65 65 62 62 62 64 64 64 66 66 66 69 69 69 71 71 71 78 78 78 85 85 85 92 92 92 99 99 99 103 103 103 106 106 106 110 110 110 113 113 113 90 90 90 62 62 62 34 34 34 5 5 5 0 0 0 0 0 0 0 0 0 0 0 0 27 27 27 63 63 63 99 99 99 135 135 135 164 164 164 191 191 191 218 218 218 245 245 245 254 254 254 254 254 254 255 255 255 255 255 255 255 255 255 255 255 255 255 255 255 255 255 255 255 255 255 255 255 255 255 255 255 255 255 255 255 255 255 255 255 255 255 255 255 255 255 255 255 255 255 255 255 255 255 255 255 255 255 255 255 255 255 255 255 255 255 255 255 255 255 255 255 255 255 255 255 255 255 255 255 255 255 255 255 255 255 255 255 255 255 255 255 255 255 255 255 255 255 255 255 255 255 255 255 255 255 255 255 255 255 255 255 255 255 255 255 255 255 255 255 255 255 255 255 255 255 255 255 255 255 255 255 255 255 255 255 255 255 255 255 255 255 255 255 255 255 255 255 255 255 255 255 255 255 255 255 255 255 255 255 255 255 255 255 255 255 255 255 255 255 
255 255 255 255 255 255 255 255 255 255 255 255 255 255 255 255 255 255 255 255 255 255 255 255 255 255 255 255 255 255 255 255 255 255 255 255 255 255 255 255 255 255 255 255 255 255 255 255 255 255 255 255 255 255 255 255 255 255 255 255 255 255 255 255 255 255 255 255 255 255 255 255 255 255 255 255 255 255 255 255 255 255 255 255 255 255 255 255 255 255 255 255 255 255 255 255 255 255 255 255 255 255 255 255 255 255 255 255 255 255 255 255 255 255 255 255 255 255 255 255 255 255 255 255 255 255 255 255 255 255 255 255 255 255 255 255 255 255 255 255 255 255 255 255 255 255 255 255 255 255 255 255 255 255 255 255 255 255 255 255 255 255 255 255 255 254 254 254 254 254 254 239 239 239 193 193 193 148 148 148 102 102 102 65 65 65 47 47 47 30 30 30 13 13 13 0 0 0 0 0 0 0 0 0 0 0 0 4 4 4 27 27 27 50 50 50 73 73 73 91 91 91 78 78 78 66 66 66 53 53 53 41 41 41 37 37 37 33 33 33 29 29 29 26 26 26 45 45 45 63 63 63 81 81 81 99 99 99 118 118 118 136 136 136 154 154 154 173 173 173 181 181 181 188 188 188 196 196 196 203 203 203 208 208 208 213 213 213 217 217 217 222 222 222 226 226 226 229 229 229 232 232 232 236 236 236 238 238 238 240 240 240 242 242 242 244 244 244 244 244 244 244 244 244 244 244 244 243 243 243 243 243 243 242 242 242 241 241 241 240 240 240 236 236 236 230 230 230 225 225 225 219 219 219 201 201 201 175 175 175 149 149 149 123 123 123 101 101 101 81 81 81 62 62 62 42 42 42 35 35 35 38 38 38 41 41 41 44 44 44 47 47 47 50 50 50 53 53 53 56 56 56 57 57 57 55 55 55 52 52 52 50 50 50 52 52 52 59 59 59 67 67 67 75 75 75 82 82 82 88 88 88 93 93 93 99 99 99 104 104 104 109 109 109 114 114 114 118 118 118 123 123 123 126 126 126 129 129 129 133 133 133 135 135 135 131 131 131 127 127 127 123 123 123 119 119 119 111 111 111 103 103 103 95 95 95 87 87 87 79 79 79 72 72 72 64 64 64 57 57 57 55 55 55 53 53 53 52 52 52 50 50 50 54 54 54 58 58 58 61 61 61 65 65 65 70 70 70 75 75 75 81 81 81 86 86 86 91 91 91 97 97 97 103 103 103 109 109 109 87 87 87 59 59 59 32 32 32 5 5 5 0 0 0 0 0 0 0 0 0 0 0 0 24 24 24 55 55 55 87 87 87 118 118 118 150 150 150 181 181 181 212 212 212 244 244 244 254 254 254 254 254 254 255 255 255 255 255 255 255 255 255 255 255 255 255 255 255 255 255 255 255 255 255 255 255 255 255 255 255 255 255 255 255 255 255 255 255 255 255 255 255 255 255 255 255 255 255 255 255 255 255 255 255 255 255 255 255 255 255 255 255 255 255 255 255 255 255 255 255 255 255 255 255 255 255 255 255 255 255 255 255 255 255 255 255 255 255 255 255 255 255 255 255 255 255 255 255 255 255 255 255 255 255 255 255 255 255 255 255 255 255 255 255 255 255 255 255 255 255 255 255 255 255 255 255 255 255 255 255 255 255 255 255 255 255 255 255 255 255 255 255 255 255 255 255 255 255 255 255 255 255 255 255 255 255 255 255 255 255 255 255 255 255 255 255 255 255 
255 255 255 255 255 255 255 255 255 255 255 255 255 255 255 255 255 255 255 255 255 255 255 255 255 255 255 255 255 255 255 255 255 255 255 255 255 255 255 255 255 255 255 255 255 255 255 255 255 255 255 255 255 255 255 255 255 255 255 255 255 255 255 255 255 255 255 255 255 255 255 255 255 255 255 255 255 255 255 255 255 255 255 255 255 255 255 255 255 255 255 255 255 255 255 255 255 255 255 255 255 255 255 255 255 255 255 255 255 255 255 255 255 255 255 255 255 255 255 255 255 255 255 255 255 255 255 255 255 255 255 255 255 255 255 255 255 255 255 255 255 255 255 255 255 255 255 255 255 255 255 255 255 255 255 255 255 255 255 255 255 255 254 254 254 254 254 254 254 254 254 237 237 237 187 187 187 138 138 138 88 88 88 49 49 49 36 36 36 23 23 23 10 10 10 0 0 0 0 0 0 0 0 0 0 0 0 4 4 4 25 25 25 45 45 45 66 66 66 82 82 82 70 70 70 59 59 59 47 47 47 36 36 36 31 31 31 27 27 27 22 22 22 19 19 19 45 45 45 70 70 70 96 96 96 122 122 122 136 136 136 150 150 150 164 164 164 178 178 178 184 184 184 190 190 190 196 196 196 202 202 202 206 206 206 210 210 210 213 213 213 217 217 217 221 221 221 224 224 224 228 228 228 232 232 232 235 235 235 237 237 237 240 240 240 243 243 243 243 243 243 243 243 243 243 243 243 243 243 243 242 242 242 241 241 241 240 240 240 239 239 239 237 237 237 233 233 233 230 230 230 227 227 227 212 212 212 190 190 190 168 168 168 145 145 145 121 121 121 94 94 94 67 67 67 40 40 40 28 28 28 30 30 30 32 32 32 34 34 34 37 37 37 41 41 41 45 45 45 49 49 49 50 50 50 46 46 46 42 42 42 39 39 39 40 40 40 50 50 50 59 59 59 69 69 69 79 79 79 89 89 89 99 99 99 109 109 109 119 119 119 128 128 128 136 136 136 145 145 145 153 153 153 158 158 158 164 164 164 169 169 169 172 172 172 166 166 166 159 159 159 153 153 153 145 145 145 131 131 131 118 118 118 104 104 104 90 90 90 77 77 77 64 64 64 51 51 51 38 38 38 39 39 39 39 39 39 39 39 39 39 39 39 44 44 44 49 49 49 54 54 54 59 59 59 63 63 63 66 66 66 69 69 69 73 73 73 80 80 80 88 88 88 96 96 96 104 104 104 83 83 83 57 57 57 31 31 31 5 5 5 0 0 0 0 0 0 0 0 0 0 0 0 21 21 21 48 48 48 75 75 75 102 102 102 135 135 135 171 171 171 207 207 207 242 242 242 254 254 254 254 254 254 255 255 255 255 255 255 255 255 255 255 255 255 255 255 255 255 255 255 255 255 255 255 255 255 255 255 255 255 255 255 255 255 255 255 255 255 255 255 255 255 255 255 255 255 255 255 255 255 255 255 255 255 255 255 255 255 255 255 255 255 255 255 255 255 255 255 255 255 255 255 255 255 255 255 255 255 255 255 255 255 255 255 255 255 255 255 255 255 255 255 255 255 255 255 255 255 255 255 255 255 255 255 255 255 255 255 255 255 255 255 255 255 255 255 255 255 255 255 255 255 255 255 255 255 255 255 255 255 255 255 255 255 255 255 255 255 255 255 255 255 255 255 255 255 255 255 255 255 255 255 255 255 255 255 255 255 255 255 255 255 255 255 255 255 255 
255 255 255 255 255 255 255 255 255 255 255 255 255 255 255 255 255 255 255 255 255 255 255 255 255 255 255 255 255 255 255 255 255 255 255 255 255 255 255 255 255 255 255 255 255 255 255 255 255 255 255 255 255 255 255 255 255 255 255 255 255 255 255 255 255 255 255 255 255 255 255 255 255 255 255 255 255 255 255 255 255 255 255 255 255 255 255 255 255 255 255 255 255 255 255 255 255 255 255 255 255 255 255 255 255 255 255 255 255 255 255 255 255 255 255 255 255 255 255 255 255 255 255 255 255 255 255 255 255 255 255 255 255 255 255 255 255 255 255 255 255 255 255 255 255 255 255 255 255 255 255 255 255 255 255 255 255 255 255 255 255 255 254 254 254 252 252 252 251 251 251 233 233 233 181 181 181 129 129 129 76 76 76 36 36 36 26 26 26 17 17 17 7 7 7 0 0 0 0 0 0 0 0 0 0 0 0 3 3 3 22 22 22 40 40 40 58 58 58 72 72 72 62 62 62 51 51 51 41 41 41 31 31 31 27 27 27 24 24 24 20 20 20 18 18 18 49 49 49 79 79 79 109 109 109 139 139 139 150 150 150 161 161 161 172 172 172 183 183 183 188 188 188 193 193 193 198 198 198 202 202 202 205 205 205 208 208 208 211 211 211 214 214 214 218 218 218 221 221 221 225 225 225 229 229 229 232 232 232 235 235 235 238 238 238 241 241 241 242 242 242 242 242 242 242 242 242 242 242 242 241 241 241 240 240 240 239 239 239 238 238 238 236 236 236 235 235 235 233 233 233 231 231 231 219 219 219 201 201 201 182 182 182 164 164 164 137 137 137 105 105 105 73 73 73 42 42 42 26 26 26 26 26 26 26 26 26 27 27 27 29 29 29 33 33 33 38 38 38 43 43 43 45 45 45 43 43 43 41 41 41 40 40 40 43 43 43 53 53 53 64 64 64 74 74 74 85 85 85 98 98 98 110 110 110 122 122 122 133 133 133 144 144 144 154 154 154 164 164 164 174 174 174 181 181 181 187 187 187 194 194 194 199 199 199 192 192 192 185 185 185 177 177 177 169 169 169 153 153 153 138 138 138 122 122 122 106 106 106 90 90 90 74 74 74 57 57 57 42 42 42 40 40 40 38 38 38 37 37 37 35 35 35 39 39 39 43 43 43 47 47 47 51 51 51 54 54 54 56 56 56 59 59 59 61 61 61 70 70 70 79 79 79 88 88 88 97 97 97 78 78 78 53 53 53 29 29 29 5 5 5 0 0 0 0 0 0 0 0 0 0 0 0 18 18 18 41 41 41 64 64 64 87 87 87 122 122 122 162 162 162 201 201 201 241 241 241 254 254 254 254 254 254 255 255 255 255 255 255 255 255 255 255 255 255 255 255 255 255 255 255 255 255 255 255 255 255 255 255 255 255 255 255 255 255 255 255 255 255 255 255 255 255 255 255 255 255 255 255 255 255 255 255 255 255 255 255 255 255 255 255 255 255 255 255 255 255 255 255 255 255 255 255 255 255 255 255 255 255 255 255 255 255 255 255 255 255 255 255 255 255 255 255 255 255 255 255 255 255 255 255 255 255 255 255 255 255 255 255 255 255 255 255 255 255 255 255 255 255 255 255 255 255 255 255 255 255 255 255 255 255 255 255 255 255 255 255 255 255 255 255 255 255 255 255 255 255 255 255 255 255 255 255 255 255 255 255 255 255 255 255 255 255 255 255 255 255 255 
255 255 255 255 255 255 255 255 255 255 255 255 255 255 255 255 255 255 255 255 255 255 255 255 255 255 255 255 255 255 255 255 255 255 255 255 255 255 255 255 255 255 255 255 255 255 255 255 255 255 255 255 255 255 255 255 255 255 255 255 255 255 255 255 255 255 255 255 255 255 255 255 255 255 255 255 255 255 255 255 255 255 255 255 255 255 255 255 255 255 255 255 255 255 255 255 255 255 255 255 255 255 255 255 255 255 255 255 255 255 255 255 255 255 255 255 255 255 255 255 255 255 255 255 255 255 255 255 255 255 255 255 255 255 255 255 255 255 255 255 255 255 255 255 255 255 255 255 255 255 255 255 255 255 255 255 255 255 255 254 254 254 252 252 252 249 249 249 246 246 246 227 227 227 174 174 174 121 121 121 68 68 68 28 28 28 21 21 21 13 13 13 6 6 6 0 0 0 0 0 0 0 0 0 0 0 0 3 3 3 19 19 19 34 34 34 50 50 50 62 62 62 53 53 53 44 44 44 35 35 35 27 27 27 27 27 27 27 27 27 27 27 27 28 28 28 58 58 58 88 88 88 118 118 118 148 148 148 157 157 157 167 167 167 176 176 176 186 186 186 191 191 191 195 195 195 200 200 200 205 205 205 208 208 208 210 210 210 213 213 213 216 216 216 218 218 218 221 221 221 224 224 224 227 227 227 229 229 229 232 232 232 235 235 235 238 238 238 239 239 239 239 239 239 240 240 240 240 240 240 240 240 240 239 239 239 238 238 238 237 237 237 235 235 235 234 234 234 232 232 232 230 230 230 220 220 220 205 205 205 190 190 190 175 175 175 149 149 149 116 116 116 83 83 83 51 51 51 33 33 33 30 30 30 27 27 27 24 24 24 25 25 25 29 29 29 34 34 34 38 38 38 43 43 43 49 49 49 55 55 55 61 61 61 69 69 69 79 79 79 89 89 89 99 99 99 109 109 109 119 119 119 129 129 129 138 138 138 147 147 147 155 155 155 163 163 163 171 171 171 179 179 179 186 186 186 194 194 194 201 201 201 207 207 207 203 203 203 199 199 199 194 194 194 189 189 189 177 177 177 165 165 165 153 153 153 141 141 141 126 126 126 111 111 111 96 96 96 81 81 81 71 71 71 62 62 62 52 52 52 42 42 42 41 41 41 40 40 40 40 40 40 39 39 39 42 42 42 45 45 45 48 48 48 51 51 51 59 59 59 68 68 68 77 77 77 86 86 86 69 69 69 47 47 47 26 26 26 4 4 4 0 0 0 0 0 0 0 0 0 0 0 0 15 15 15 35 35 35 55 55 55 74 74 74 111 111 111 153 153 153 196 196 196 239 239 239 254 254 254 254 254 254 255 255 255 255 255 255 255 255 255 255 255 255 255 255 255 255 255 255 255 255 255 255 255 255 255 255 255 255 255 255 255 255 255 255 255 255 255 255 255 255 255 255 255 255 255 255 255 255 255 255 255 255 255 255 255 255 255 255 255 255 255 255 255 255 255 255 255 255 255 255 255 255 255 255 255 255 255 255 255 255 255 255 255 255 255 255 255 255 255 255 255 255 255 255 255 255 255 255 255 255 255 255 255 255 255 255 255 255 255 255 255 255 255 255 255 255 255 255 255 255 255 255 255 255 255 255 255 255 255 255 255 255 255 255 255 255 255 255 255 255 255 255 255 255 255 255 255 255 255 255 255 255 255 255 255 255 255 255 255 255 255 255 255 255 255 
255 255 255 255 255 255 255 255 255 255 255 255 255 255 255 255 255 255 255 255 255 255 255 255 255 255 255 255 255 255 255 255 255 255 255 255 255 255 255 255 255 255 255 255 255 255 255 255 255 255 255 255 255 255 255 255 255 255 255 255 255 255 255 255 255 255 255 255 255 255 255 255 255 255 255 255 255 255 255 255 255 255 255 255 255 255 255 255 255 255 255 255 255 255 255 255 255 255 255 255 255 255 255 255 255 255 255 255 255 255 255 255 255 255 255 255 255 255 255 255 255 255 255 255 255 255 255 255 255 255 255 255 255 255 255 255 255 255 255 255 255 255 255 255 255 255 255 255 255 255 255 255 255 255 255 255 255 255 255 253 253 253 250 250 250 246 246 246 242 242 242 221 221 221 167 167 167 114 114 114 60 60 60 20 20 20 15 15 15 10 10 10 4 4 4 0 0 0 0 0 0 0 0 0 0 0 0 2 2 2 16 16 16 29 29 29 42 42 42 52 52 52 44 44 44 36 36 36 29 29 29 22 22 22 26 26 26 30 30 30 34 34 34 39 39 39 68 68 68 98 98 98 127 127 127 157 157 157 165 165 165 173 173 173 181 181 181 189 189 189 193 193 193 198 198 198 202 202 202 207 207 207 210 210 210 212 212 212 215 215 215 217 217 217 219 219 219 221 221 221 223 223 223 225 225 225 227 227 227 230 230 230 232 232 232 234 234 234 236 236 236 237 237 237 238 238 238 239 239 239 239 239 239 238 238 238 237 237 237 236 236 236 234 234 234 233 233 233 231 231 231 229 229 229 221 221 221 209 209 209 197 197 197 185 185 185 161 161 161 127 127 127 93 93 93 60 60 60 40 40 40 34 34 34 28 28 28 22 22 22 21 21 21 25 25 25 29 29 29 33 33 33 42 42 42 55 55 55 69 69 69 82 82 82 95 95 95 104 104 104 114 114 114 124 124 124 133 133 133 140 140 140 147 147 147 155 155 155 161 161 161 167 167 167 172 172 172 178 178 178 184 184 184 192 192 192 201 201 201 209 209 209 215 215 215 214 214 214 213 213 213 211 211 211 209 209 209 201 201 201 193 193 193 185 185 185 176 176 176 162 162 162 148 148 148 134 134 134 120 120 120 102 102 102 85 85 85 67 67 67 49 49 49 44 44 44 38 38 38 32 32 32 27 27 27 30 30 30 34 34 34 37 37 37 41 41 41 49 49 49 57 57 57 66 66 66 74 74 74 59 59 59 41 41 41 22 22 22 4 4 4 0 0 0 0 0 0 0 0 0 0 0 0 12 12 12 29 29 29 45 45 45 61 61 61 99 99 99 145 145 145 192 192 192 238 238 238 254 254 254 254 254 254 254 254 254 255 255 255 255 255 255 255 255 255 255 255 255 255 255 255 255 255 255 255 255 255 255 255 255 255 255 255 255 255 255 255 255 255 255 255 255 255 255 255 255 255 255 255 255 255 255 255 255 255 255 255 255 255 255 255 255 255 255 255 255 255 255 255 255 255 255 255 255 255 255 255 255 255 255 255 255 255 255 255 255 255 255 255 255 255 255 255 255 255 255 255 255 255 255 255 255 255 255 255 255 255 255 255 255 255 255 255 255 255 255 255 255 255 255 255 255 255 255 255 255 255 255 255 255 255 255 255 255 255 255 255 255 255 255 255 255 255 255 255 255 255 255 255 255 255 255 255 255 255 255 255 255 255 255 255 255 255 255 255 255 255 255 
255 255 255 255 255 255 255 255 255 255 255 255 255 255 255 255 255 255 255 255 255 255 255 255 255 255 255 255 255 255 255 255 255 255 255 255 255 255 255 255 255 255 255 255 255 255 255 255 255 255 255 255 255 255 255 255 255 255 255 255 255 255 255 255 255 255 255 255 255 255 255 255 255 255 255 255 255 255 255 255 255 255 255 255 255 255 255 255 255 255 255 255 255 255 255 255 255 255 255 255 255 255 255 255 255 255 255 255 255 255 255 255 255 255 255 255 255 255 255 255 255 255 255 255 255 255 255 255 255 255 255 255 255 255 255 255 255 255 255 255 255 255 255 255 255 255 255 255 255 255 255 255 255 255 255 255 255 255 255 253 253 253 247 247 247 242 242 242 237 237 237 215 215 215 161 161 161 107 107 107 52 52 52 13 13 13 9 9 9 6 6 6 3 3 3 0 0 0 0 0 0 0 0 0 0 0 0 2 2 2 12 12 12 23 23 23 33 33 33 41 41 41 35 35 35 29 29 29 23 23 23 18 18 18 25 25 25 33 33 33 40 40 40 49 49 49 78 78 78 107 107 107 136 136 136 165 165 165 172 172 172 178 178 178 185 185 185 192 192 192 196 196 196 200 200 200 205 205 205 209 209 209 212 212 212 214 214 214 216 216 216 219 219 219 220 220 220 221 221 221 222 222 222 223 223 223 225 225 225 227 227 227 229 229 229 231 231 231 233 233 233 235 235 235 236 236 236 238 238 238 238 238 238 237 237 237 236 236 236 235 235 235 233 233 233 231 231 231 229 229 229 228 228 228 222 222 222 213 213 213 205 205 205 196 196 196 173 173 173 138 138 138 103 103 103 69 69 69 47 47 47 38 38 38 29 29 29 20 20 20 17 17 17 21 21 21 25 25 25 29 29 29 40 40 40 61 61 61 82 82 82 104 104 104 120 120 120 130 130 130 140 140 140 149 149 149 157 157 157 162 162 162 166 166 166 171 171 171 175 175 175 178 178 178 182 182 182 185 185 185 190 190 190 198 198 198 207 207 207 216 216 216 223 223 223 225 225 225 227 227 227 228 228 228 229 229 229 225 225 225 221 221 221 216 216 216 211 211 211 199 199 199 186 186 186 173 173 173 159 159 159 134 134 134 108 108 108 82 82 82 56 56 56 46 46 46 35 35 35 25 25 25 15 15 15 18 18 18 23 23 23 27 27 27 31 31 31 39 39 39 47 47 47 55 55 55 63 63 63 50 50 50 34 34 34 19 19 19 3 3 3 0 0 0 0 0 0 0 0 0 0 0 0 10 10 10 23 23 23 36 36 36 49 49 49 88 88 88 137 137 137 187 187 187 237 237 237 253 253 253 254 254 254 254 254 254 255 255 255 255 255 255 255 255 255 255 255 255 255 255 255 255 255 255 255 255 255 255 255 255 255 255 255 255 255 255 255 255 255 255 255 255 255 255 255 255 255 255 255 255 255 255 255 255 255 255 255 255 255 255 255 255 255 255 255 255 255 255 255 255 255 255 255 255 255 255 255 255 255 255 255 255 255 255 255 255 255 255 255 255 255 255 255 255 255 255 255 255 255 255 255 255 255 255 255 255 255 255 255 255 255 255 255 255 255 255 255 255 255 255 255 255 255 255 255 255 255 255 255 255 255 255 255 255 255 255 255 255 255 255 255 255 255 255 255 255 255 255 255 255 255 255 255 255 255 255 255 255 255 255 255 255 255 255 255 255 255 255 
255 255 255 255 255 255 255 255 255 255 255 255 255 255 255 255 255 255 255 255 255 255 255 255 255 255 255 255 255 255 255 255 255 255 255 255 255 255 255 255 255 255 255 255 255 255 255 255 255 255 255 255 255 255 255 255 255 255 255 255 255 255 255 255 255 255 255 255 255 255 255 255 255 255 255 255 255 255 255 255 255 255 255 255 255 255 255 255 255 255 255 255 255 255 255 255 255 255 255 255 255 255 255 255 255 255 255 255 255 255 255 255 255 255 255 255 255 255 255 255 255 255 255 255 255 255 255 255 255 255 255 255 255 255 255 255 255 255 255 255 255 255 255 255 255 255 255 255 255 255 255 255 255 255 255 255 255 255 255 252 252 252 245 245 245 238 238 238 231 231 231 208 208 208 154 154 154 100 100 100 46 46 46 7 7 7 5 5 5 3 3 3 1 1 1 0 0 0 0 0 0 0 0 0 0 0 0 2 2 2 10 10 10 18 18 18 26 26 26 32 32 32 27 27 27 22 22 22 18 18 18 14 14 14 25 25 25 37 37 37 48 48 48 60 60 60 88 88 88 116 116 116 144 144 144 172 172 172 178 178 178 183 183 183 189 189 189 194 194 194 199 199 199 203 203 203 207 207 207 211 211 211 213 213 213 215 215 215 218 218 218 220 220 220 220 220 220 221 221 221 221 221 221 222 222 222 223 223 223 225 225 225 226 226 226 228 228 228 230 230 230 232 232 232 234 234 234 237 237 237 237 237 237 236 236 236 235 235 235 234 234 234 232 232 232 230 230 230 228 228 228 225 225 225 220 220 220 214 214 214 208 208 208 201 201 201 179 179 179 145 145 145 112 112 112 78 78 78 56 56 56 43 43 43 31 31 31 19 19 19 16 16 16 21 21 21 27 27 27 33 33 33 47 47 47 72 72 72 97 97 97 122 122 122 141 141 141 150 150 150 159 159 159 168 168 168 175 175 175 178 178 178 181 181 181 184 184 184 186 186 186 188 188 188 190 190 190 191 191 191 194 194 194 203 203 203 211 211 211 220 220 220 227 227 227 231 231 231 235 235 235 239 239 239 242 242 242 240 240 240 239 239 239 237 237 237 235 235 235 223 223 223 212 212 212 201 201 201 189 189 189 160 160 160 130 130 130 101 101 101 72 72 72 56 56 56 41 41 41 25 25 25 10 10 10 12 12 12 16 16 16 19 19 19 23 23 23 30 30 30 37 37 37 44 44 44 51 51 51 41 41 41 28 28 28 15 15 15 2 2 2 0 0 0 0 0 0 0 0 0 0 0 0 8 8 8 18 18 18 28 28 28 38 38 38 78 78 78 130 130 130 182 182 182 234 234 234 252 252 252 253 253 253 254 254 254 255 255 255 255 255 255 255 255 255 255 255 255 255 255 255 255 255 255 255 255 255 255 255 255 255 255 255 255 255 255 255 255 255 255 255 255 255 255 255 255 255 255 255 255 255 255 255 255 255 255 255 255 255 255 255 255 255 255 255 255 255 255 255 255 255 255 255 255 255 255 255 255 255 255 255 255 255 255 255 255 255 255 255 255 255 255 255 255 255 255 255 255 255 255 255 255 255 255 255 255 255 255 255 255 255 255 255 255 255 255 255 255 255 255 255 255 255 255 255 255 255 255 255 255 255 255 255 255 255 255 255 255 255 255 255 255 255 255 255 255 255 255 255 255 255 255 255 255 255 255 255 255 255 255 255 255 255 255 255 255 255 255 
255 255 255 255 255 255 255 255 255 255 255 255 255 255 255 255 255 255 255 255 255 255 255 255 255 255 255 255 255 255 255 255 255 255 255 255 255 255 255 255 255 255 255 255 255 255 255 255 255 255 255 255 255 255 255 255 255 255 255 255 255 255 255 255 255 255 255 255 255 255 255 255 255 255 255 255 255 255 255 255 255 255 255 255 255 255 255 255 255 255 255 255 255 255 255 255 255 255 255 255 255 255 255 255 255 255 255 255 255 255 255 255 255 255 255 255 255 255 255 255 255 255 255 255 255 255 255 255 255 255 255 255 255 255 255 255 255 255 255 255 255 255 255 255 255 255 255 255 255 255 255 255 255 255 255 255 255 255 255 251 251 251 242 242 242 232 232 232 223 223 223 199 199 199 147 147 147 95 95 95 43 43 43 5 5 5 4 4 4 2 2 2 1 1 1 0 0 0 0 0 0 0 0 0 0 0 0 1 1 1 8 8 8 14 14 14 21 21 21 26 26 26 22 22 22 18 18 18 14 14 14 12 12 12 27 27 27 42 42 42 57 57 57 73 73 73 98 98 98 124 124 124 149 149 149 175 175 175 180 180 180 186 186 186 191 191 191 196 196 196 200 200 200 204 204 204 208 208 208 212 212 212 214 214 214 216 216 216 218 218 218 220 220 220 220 220 220 221 221 221 221 221 221 222 222 222 223 223 223 224 224 224 225 225 225 226 226 226 228 228 228 230 230 230 232 232 232 234 234 234 234 234 234 234 234 234 233 233 233 233 233 233 230 230 230 227 227 227 224 224 224 221 221 221 215 215 215 208 208 208 201 201 201 194 194 194 174 174 174 145 145 145 116 116 116 88 88 88 66 66 66 51 51 51 35 35 35 20 20 20 18 18 18 31 31 31 43 43 43 55 55 55 71 71 71 92 92 92 113 113 113 134 134 134 150 150 150 158 158 158 166 166 166 174 174 174 180 180 180 183 183 183 186 186 186 189 189 189 191 191 191 193 193 193 194 194 194 196 196 196 198 198 198 205 205 205 211 211 211 217 217 217 223 223 223 227 227 227 232 232 232 236 236 236 240 240 240 238 238 238 237 237 237 236 236 236 234 234 234 226 226 226 217 217 217 208 208 208 199 199 199 175 175 175 151 151 151 127 127 127 103 103 103 83 83 83 62 62 62 41 41 41 20 20 20 18 18 18 18 18 18 18 18 18 17 17 17 22 22 22 28 28 28 34 34 34 40 40 40 32 32 32 22 22 22 12 12 12 2 2 2 0 0 0 0 0 0 0 0 0 0 0 0 6 6 6 14 14 14 22 22 22 30 30 30 71 71 71 124 124 124 177 177 177 230 230 230 249 249 249 251 251 251 253 253 253 254 254 254 255 255 255 255 255 255 255 255 255 255 255 255 255 255 255 255 255 255 255 255 255 255 255 255 255 255 255 255 255 255 255 255 255 255 255 255 255 255 255 255 255 255 255 255 255 255 255 255 255 255 255 255 255 255 255 255 255 255 255 255 255 255 255 255 255 255 255 255 255 255 255 255 255 255 255 255 255 255 255 255 255 255 255 255 255 255 255 255 255 255 255 255 255 255 255 255 255 255 255 255 255 255 255 255 255 255 255 255 255 255 255 255 255 255 255 255 255 255 255 255 255 255 255 255 255 255 255 255 255 255 255 255 255 255 255 255 255 255 255 255 255 255 255 255 255 255 255 255 255 255 255 255 255 255 255 255 255 255 255 
255 255 255 255 255 255 255 255 255 255 255 255 255 255 255 255 255 255 255 255 255 255 255 255 255 255 255 255 255 255 255 255 255 255 255 255 255 255 255 255 255 255 255 255 255 255 255 255 255 255 255 255 255 255 255 255 255 255 255 255 255 255 255 255 255 255 255 255 255 255 255 255 255 255 255 255 255 255 255 255 255 255 255 255 255 255 255 255 255 255 255 255 255 255 255 255 255 255 255 255 255 255 255 255 255 255 255 255 255 255 255 255 255 255 255 255 255 255 255 255 255 255 255 255 255 255 255 255 255 255 255 255 255 255 255 255 255 255 255 255 255 255 255 255 255 255 255 255 255 255 255 255 255 255 255 255 255 255 255 250 250 250 238 238 238 226 226 226 215 215 215 190 190 190 140 140 140 89 89 89 39 39 39 3 3 3 2 2 2 1 1 1 1 1 1 0 0 0 0 0 0 0 0 0 0 0 0 1 1 1 6 6 6 11 11 11 16 16 16 20 20 20 17 17 17 13 13 13 10 10 10 9 9 9 28 28 28 47 47 47 66 66 66 86 86 86 109 109 109 132 132 132 155 155 155 178 178 178 183 183 183 188 188 188 193 193 193 198 198 198 202 202 202 205 205 205 209 209 209 213 213 213 215 215 215 216 216 216 218 218 218 220 220 220 220 220 220 221 221 221 221 221 221 221 221 221 222 222 222 223 223 223 223 223 223 224 224 224 226 226 226 228 228 228 230 230 230 232 232 232 232 232 232 232 232 232 231 231 231 231 231 231 228 228 228 225 225 225 221 221 221 217 217 217 210 210 210 202 202 202 194 194 194 187 187 187 169 169 169 145 145 145 121 121 121 97 97 97 76 76 76 58 58 58 40 40 40 21 21 21 21 21 21 40 40 40 58 58 58 77 77 77 95 95 95 113 113 113 130 130 130 147 147 147 160 160 160 167 167 167 174 174 174 180 180 180 186 186 186 188 188 188 191 191 191 194 194 194 196 196 196 197 197 197 199 199 199 200 200 200 202 202 202 207 207 207 211 211 211 215 215 215 219 219 219 224 224 224 229 229 229 233 233 233 237 237 237 236 236 236 236 236 236 235 235 235 234 234 234 228 228 228 222 222 222 216 216 216 209 209 209 191 191 191 172 172 172 154 154 154 135 135 135 109 109 109 83 83 83 56 56 56 30 30 30 24 24 24 20 20 20 16 16 16 12 12 12 15 15 15 20 20 20 25 25 25 29 29 29 24 24 24 16 16 16 9 9 9 1 1 1 0 0 0 0 0 0 0 0 0 0 0 0 5 5 5 11 11 11 17 17 17 23 23 23 64 64 64 118 118 118 172 172 172 226 226 226 246 246 246 248 248 248 251 251 251 254 254 254 255 255 255 255 255 255 255 255 255 255 255 255 255 255 255 255 255 255 255 255 255 255 255 255 255 255 255 255 255 255 255 255 255 255 255 255 255 255 255 255 255 255 255 255 255 255 255 255 255 255 255 255 255 255 255 255 255 255 255 255 255 255 255 255 255 255 255 255 255 255 255 255 255 255 255 255 255 255 255 255 255 255 255 255 255 255 255 255 255 255 255 255 255 255 255 255 255 255 255 255 255 255 255 255 255 255 255 255 255 255 255 255 255 255 255 255 255 255 255 255 255 255 255 255 255 255 255 255 255 255 255 255 255 255 255 255 255 255 255 255 255 255 255 255 255 255 255 255 255 255 255 255 255 255 255 255 255 255 255 
255 255 255 255 255 255 255 255 255 255 255 255 255 255 255 255 255 255 255 255 255 255 255 255 255 255 255 255 255 255 255 255 255 255 255 255 255 255 255 255 255 255 255 255 255 255 255 255 255 255 255 255 255 255 255 255 255 255 255 255 255 255 255 255 255 255 255 255 255 255 255 255 255 255 255 255 255 255 255 255 255 255 255 255 255 255 255 255 255 255 255 255 255 255 255 255 255 255 255 255 255 255 255 255 255 255 255 255 255 255 255 255 255 255 255 255 255 255 255 255 255 255 255 255 255 255 255 255 255 255 255 255 255 255 255 255 255 255 255 255 255 255 255 255 255 255 255 255 255 255 255 255 255 255 255 255 255 255 255 250 250 250 235 235 235 221 221 221 206 206 206 181 181 181 132 132 132 84 84 84 36 36 36 1 1 1 1 1 1 1 1 1 0 0 0 0 0 0 0 0 0 0 0 0 0 0 0 1 1 1 4 4 4 7 7 7 11 11 11 13 13 13 11 11 11 9 9 9 7 7 7 7 7 7 30 30 30 53 53 53 76 76 76 99 99 99 119 119 119 140 140 140 160 160 160 181 181 181 186 186 186 190 190 190 195 195 195 200 200 200 203 203 203 207 207 207 210 210 210 214 214 214 216 216 216 217 217 217 218 218 218 220 220 220 220 220 220 221 221 221 221 221 221 221 221 221 221 221 221 222 222 222 222 222 222 222 222 222 224 224 224 226 226 226 227 227 227 229 229 229 230 230 230 230 230 230 230 230 230 230 230 230 227 227 227 222 222 222 217 217 217 212 212 212 205 205 205 196 196 196 188 188 188 179 179 179 164 164 164 145 145 145 126 126 126 107 107 107 86 86 86 65 65 65 44 44 44 23 23 23 23 23 23 49 49 49 74 74 74 99 99 99 119 119 119 133 133 133 146 146 146 159 159 159 170 170 170 175 175 175 181 181 181 186 186 186 191 191 191 194 194 194 196 196 196 199 199 199 201 201 201 202 202 202 203 203 203 205 205 205 206 206 206 208 208 208 210 210 210 212 212 212 215 215 215 220 220 220 225 225 225 230 230 230 235 235 235 234 234 234 234 234 234 234 234 234 233 233 233 230 230 230 226 226 226 223 223 223 219 219 219 206 206 206 193 193 193 180 180 180 167 167 167 135 135 135 103 103 103 72 72 72 40 40 40 30 30 30 22 22 22 14 14 14 6 6 6 8 8 8 12 12 12 15 15 15 18 18 18 15 15 15 10 10 10 6 6 6 1 1 1 0 0 0 0 0 0 0 0 0 0 0 0 3 3 3 8 8 8 12 12 12 16 16 16 57 57 57 112 112 112 167 167 167 222 222 222 242 242 242 246 246 246 250 250 250 254 254 254 255 255 255 255 255 255 255 255 255 255 255 255 255 255 255 255 255 255 255 255 255 255 255 255 255 255 255 255 255 255 255 255 255 255 255 255 255 255 255 255 255 255 255 255 255 255 255 255 255 255 255 255 255 255 255 255 255 255 255 255 255 255 255 255 255 255 255 255 255 255 255 255 255 255 255 255 255 255 255 255 255 255 255 255 255 255 255 255 255 255 255 255 255 255 255 255 255 255 255 255 255 255 255 255 255 255 255 255 255 255 255 255 255 255 255 255 255 255 255 255 255 255 255 255 255 255 255 255 255 255 255 255 255 255 255 255 255 255 255 255 255 255 255 255 255 255 255 255 255 255 255 255 255 255 255 255 255 255 255 
255 255 255 255 255 255 255 255 255 255 255 255 255 255 255 255 255 255 255 255 255 255 255 255 255 255 255 255 255 255 255 255 255 255 255 255 255 255 255 255 255 255 255 255 255 255 255 255 255 255 255 255 255 255 255 255 255 255 255 255 255 255 255 255 255 255 255 255 255 255 255 255 255 255 255 255 255 255 255 255 255 255 255 255 255 255 255 255 255 255 255 255 255 255 255 255 255 255 255 255 255 255 255 255 255 255 255 255 255 255 255 255 255 255 255 255 255 255 255 255 255 255 255 255 255 255 255 255 255 255 255 255 255 255 255 255 255 255 255 255 255 255 255 255 255 255 255 255 255 255 255 255 255 255 255 255 255 255 255 249 249 249 232 232 232 215 215 215 199 199 199 172 172 172 126 126 126 79 79 79 33 33 33 0 0 0 0 0 0 0 0 0 0 0 0 0 0 0 0 0 0 0 0 0 0 0 0 0 0 0 3 3 3 5 5 5 7 7 7 8 8 8 7 7 7 5 5 5 4 4 4 5 5 5 32 32 32 58 58 58 84 84 84 110 110 110 129 129 129 147 147 147 165 165 165 183 183 183 188 188 188 192 192 192 197 197 197 201 201 201 204 204 204 208 208 208 211 211 211 215 215 215 216 216 216 217 217 217 218 218 218 220 220 220 220 220 220 220 220 220 221 221 221 221 221 221 221 221 221 221 221 221 221 221 221 221 221 221 222 222 222 224 224 224 225 225 225 227 227 227 227 227 227 228 228 228 228 228 228 228 228 228 223 223 223 215 215 215 208 208 208 200 200 200 194 194 194 188 188 188 182 182 182 176 176 176 164 164 164 148 148 148 132 132 132 115 115 115 96 96 96 72 72 72 49 49 49 26 26 26 28 28 28 57 57 57 86 86 86 115 115 115 135 135 135 146 146 146 156 156 156 166 166 166 174 174 174 180 180 180 185 185 185 191 191 191 195 195 195 198 198 198 200 200 200 203 203 203 205 205 205 206 206 206 208 208 208 209 209 209 210 210 210 210 210 210 211 211 211 211 211 211 212 212 212 218 218 218 223 223 223 228 228 228 232 232 232 232 232 232 232 232 232 233 233 233 233 233 233 231 231 231 229 229 229 228 228 228 226 226 226 217 217 217 209 209 209 200 200 200 191 191 191 157 157 157 122 122 122 88 88 88 53 53 53 40 40 40 27 27 27 15 15 15 2 2 2 3 3 3 5 5 5 8 8 8 10 10 10 8 8 8 6 6 6 3 3 3 0 0 0 0 0 0 0 0 0 0 0 0 0 0 0 2 2 2 5 5 5 8 8 8 10 10 10 51 51 51 106 106 106 162 162 162 217 217 217 239 239 239 243 243 243 248 248 248 253 253 253 255 255 255 255 255 255 255 255 255 255 255 255 255 255 255 255 255 255 255 255 255 255 255 255 255 255 255 255 255 255 255 255 255 255 255 255 255 255 255 255 255 255 255 255 255 255 255 255 255 255 255 255 255 255 255 255 255 255 255 255 255 255 255 255 255 255 255 255 255 255 255 255 255 255 255 255 255 255 255 255 255 255 255 255 255 255 255 255 255 255 255 255 255 255 255 255 255 255 255 255 255 255 255 255 255 255 255 255 255 255 255 255 255 255 255 255 255 255 255 255 255 255 255 255 255 255 255 255 255 255 255 255 255 255 255 255 255 255 255 255 255 255 255 255 255 255 255 255 255 255 255 255 255 255 255 255 255 255 255 
255 255 255 255 255 255 255 255 255 255 255 255 255 255 255 255 255 255 255 255 255 255 255 255 255 255 255 255 255 255 255 255 255 255 255 255 255 255 255 255 255 255 255 255 255 255 255 255 255 255 255 255 255 255 255 255 255 255 255 255 255 255 255 255 255 255 255 255 255 255 255 255 255 255 255 255 255 255 255 255 255 255 255 255 255 255 255 255 255 255 255 255 255 255 255 255 255 255 255 255 255 255 255 255 255 255 255 255 255 255 255 255 255 255 255 255 255 255 255 255 255 255 255 255 255 255 255 255 255 255 255 255 255 255 255 255 255 255 255 255 255 255 255 255 255 255 255 255 255 255 255 255 255 255 255 255 255 255 255 248 248 248 229 229 229 211 211 211 192 192 192 165 165 165 120 120 120 76 76 76 32 32 32 0 0 0 0 0 0 0 0 0 0 0 0 0 0 0 0 0 0 0 0 0 0 0 0 0 0 0 2 2 2 4 4 4 5 5 5 7 7 7 5 5 5 4 4 4 3 3 3 5 5 5 34 34 34 62 62 62 91 91 91 119 119 119 136 136 136 152 152 152 168 168 168 185 185 185 189 189 189 193 193 193 197 197 197 201 201 201 205 205 205 208 208 208 211 211 211 215 215 215 216 216 216 217 217 217 218 218 218 219 219 219 220 220 220 220 220 220 220 220 220 220 220 220 220 220 220 220 220 220 220 220 220 220 220 220 221 221 221 222 222 222 224 224 224 225 225 225 225 225 225 224 224 224 224 224 224 223 223 223 213 213 213 199 199 199 185 185 185 170 170 170 168 168 168 172 172 172 177 177 177 181 181 181 173 173 173 156 156 156 139 139 139 122 122 122 102 102 102 80 80 80 58 58 58 36 36 36 37 37 37 62 62 62 88 88 88 113 113 113 131 131 131 140 140 140 148 148 148 156 156 156 165 165 165 174 174 174 182 182 182 191 191 191 198 198 198 200 200 200 203 203 203 206 206 206 208 208 208 209 209 209 210 210 210 211 211 211 212 212 212 212 212 212 213 213 213 213 213 213 214 214 214 218 218 218 222 222 222 226 226 226 230 230 230 230 230 230 231 231 231 231 231 231 231 231 231 230 230 230 228 228 228 226 226 226 224 224 224 217 217 217 210 210 210 202 202 202 195 195 195 165 165 165 135 135 135 106 106 106 76 76 76 57 57 57 39 39 39 21 21 21 3 3 3 2 2 2 4 4 4 6 6 6 7 7 7 6 6 6 4 4 4 2 2 2 0 0 0 0 0 0 0 0 0 0 0 0 0 0 0 2 2 2 4 4 4 6 6 6 8 8 8 48 48 48 102 102 102 157 157 157 211 211 211 234 234 234 240 240 240 246 246 246 253 253 253 255 255 255 255 255 255 255 255 255 255 255 255 255 255 255 255 255 255 255 255 255 255 255 255 255 255 255 255 255 255 255 255 255 255 255 255 255 255 255 255 255 255 255 255 255 255 255 255 255 255 255 255 255 255 255 255 255 255 255 255 255 255 255 255 255 255 255 255 255 255 255 255 255 255 255 255 255 255 255 255 255 255 255 255 255 255 255 255 255 255 255 255 255 255 255 255 255 255 255 255 255 255 255 255 255 255 255 255 255 255 255 255 255 255 255 255 255 255 255 255 255 255 255 255 255 255 255 255 255 255 255 255 255 255 255 255 255 255 255 255 255 255 255 255 255 255 255 255 255 255 255 255 255 255 255 255 255 255 255 
255 255 255 255 255 255 255 255 255 255 255 255 255 255 255 255 255 255 255 255 255 255 255 255 255 255 255 255 255 255 255 255 255 255 255 255 255 255 255 255 255 255 255 255 255 255 255 255 255 255 255 255 255 255 255 255 255 255 255 255 255 255 255 255 255 255 255 255 255 255 255 255 255 255 255 255 255 255 255 255 255 255 255 255 255 255 255 255 255 255 255 255 255 255 255 255 255 255 255 255 255 255 255 255 255 255 255 255 255 255 255 255 255 255 255 255 255 255 255 255 255 255 255 255 255 255 255 255 255 255 255 255 255 255 255 255 255 255 255 255 255 255 255 255 255 255 255 255 255 255 255 255 255 255 255 255 255 255 255 247 247 247 226 226 226 206 206 206 185 185 185 157 157 157 115 115 115 73 73 73 30 30 30 0 0 0 0 0 0 0 0 0 0 0 0 0 0 0 0 0 0 0 0 0 0 0 0 0 0 0 1 1 1 3 3 3 4 4 4 5 5 5 4 4 4 3 3 3 2 2 2 4 4 4 35 35 35 67 67 67 98 98 98 128 128 128 143 143 143 157 157 157 172 172 172 186 186 186 190 190 190 194 194 194 198 198 198 202 202 202 205 205 205 208 208 208 212 212 212 215 215 215 216 216 216 217 217 217 218 218 218 219 219 219 219 219 219 219 219 219 220 220 220 220 220 220 220 220 220 220 220 220 219 219 219 219 219 219 220 220 220 221 221 221 222 222 222 223 223 223 223 223 223 221 221 221 220 220 220 219 219 219 204 204 204 183 183 183 161 161 161 140 140 140 141 141 141 156 156 156 172 172 172 187 187 187 183 183 183 165 165 165 147 147 147 129 129 129 109 109 109 88 88 88 67 67 67 46 46 46 45 45 45 68 68 68 90 90 90 112 112 112 127 127 127 134 134 134 141 141 141 147 147 147 156 156 156 168 168 168 179 179 179 191 191 191 200 200 200 203 203 203 205 205 205 208 208 208 210 210 210 211 211 211 212 212 212 213 213 213 214 214 214 214 214 214 215 215 215 215 215 215 216 216 216 218 218 218 221 221 221 224 224 224 227 227 227 228 228 228 229 229 229 229 229 229 230 230 230 228 228 228 226 226 226 225 225 225 223 223 223 217 217 217 211 211 211 205 205 205 199 199 199 174 174 174 149 149 149 123 123 123 98 98 98 74 74 74 51 51 51 27 27 27 3 3 3 2 2 2 3 3 3 4 4 4 5 5 5 4 4 4 3 3 3 1 1 1 0 0 0 0 0 0 0 0 0 0 0 0 0 0 0 1 1 1 3 3 3 4 4 4 6 6 6 45 45 45 98 98 98 152 152 152 206 206 206 229 229 229 236 236 236 244 244 244 252 252 252 255 255 255 255 255 255 255 255 255 255 255 255 255 255 255 255 255 255 255 255 255 255 255 255 255 255 255 255 255 255 255 255 255 255 255 255 255 255 255 255 255 255 255 255 255 255 255 255 255 255 255 255 255 255 255 255 255 255 255 255 255 255 255 255 255 255 255 255 255 255 255 255 255 255 255 255 255 255 255 255 255 255 255 255 255 255 255 255 255 255 255 255 255 255 255 255 255 255 255 255 255 255 255 255 255 255 255 255 255 255 255 255 255 255 255 255 255 255 255 255 255 255 255 255 255 255 255 255 255 255 255 255 255 255 255 255 255 255 255 255 255 255 255 255 255 255 255 255 255 255 255 255 255 255 255 255 255 255 255 
255 255 255 255 255 255 255 255 255 255 255 255 255 255 255 255 255 255 255 255 255 255 255 255 255 255 255 255 255 255 255 255 255 255 255 255 255 255 255 255 255 255 255 255 255 255 255 255 255 255 255 255 255 255 255 255 255 255 255 255 255 255 255 255 255 255 255 255 255 255 255 255 255 255 255 255 255 255 255 255 255 255 255 255 255 255 255 255 255 255 255 255 255 255 255 255 255 255 255 255 255 255 255 255 255 255 255 255 255 255 255 255 255 255 255 255 255 255 255 255 255 255 255 255 255 255 255 255 255 255 255 255 255 255 255 255 255 255 255 255 255 255 255 255 255 255 255 255 255 255 255 255 255 255 255 255 255 255 255 246 246 246 224 224 224 201 201 201 178 178 178 150 150 150 109 109 109 69 69 69 29 29 29 0 0 0 0 0 0 0 0 0 0 0 0 0 0 0 0 0 0 0 0 0 0 0 0 0 0 0 1 1 1 2 2 2 3 3 3 3 3 3 3 3 3 2 2 2 1 1 1 4 4 4 37 37 37 71 71 71 104 104 104 137 137 137 150 150 150 162 162 162 175 175 175 188 188 188 192 192 192 195 195 195 199 199 199 202 202 202 206 206 206 209 209 209 212 212 212 215 215 215 216 216 216 217 217 217 217 217 217 218 218 218 219 219 219 219 219 219 219 219 219 219 219 219 219 219 219 219 219 219 219 219 219 219 219 219 219 219 219 220 220 220 221 221 221 221 221 221 220 220 220 218 218 218 216 216 216 214 214 214 195 195 195 166 166 166 138 138 138 110 110 110 115 115 115 141 141 141 166 166 166 192 192 192 192 192 192 173 173 173 154 154 154 135 135 135 116 116 116 96 96 96 76 76 76 56 56 56 54 54 54 73 73 73 92 92 92 111 111 111 124 124 124 128 128 128 133 133 133 138 138 138 147 147 147 162 162 162 176 176 176 191 191 191 202 202 202 205 205 205 208 208 208 211 211 211 213 213 213 214 214 214 215 215 215 216 216 216 216 216 216 216 216 216 217 217 217 217 217 217 217 217 217 219 219 219 221 221 221 223 223 223 224 224 224 225 225 225 227 227 227 228 228 228 229 229 229 227 227 227 225 225 225 223 223 223 221 221 221 217 217 217 212 212 212 208 208 208 203 203 203 182 182 182 162 162 162 141 141 141 121 121 121 92 92 92 62 62 62 33 33 33 4 4 4 1 1 1 2 2 2 2 2 2 2 2 2 2 2 2 1 1 1 1 1 1 0 0 0 0 0 0 0 0 0 0 0 0 0 0 0 1 1 1 2 2 2 3 3 3 4 4 4 42 42 42 94 94 94 147 147 147 200 200 200 224 224 224 233 233 233 242 242 242 251 251 251 255 255 255 255 255 255 255 255 255 255 255 255 255 255 255 255 255 255 255 255 255 255 255 255 255 255 255 255 255 255 255 255 255 255 255 255 255 255 255 255 255 255 255 255 255 255 255 255 255 255 255 255 255 255 255 255 255 255 255 255 255 255 255 255 255 255 255 255 255 255 255 255 255 255 255 255 255 255 255 255 255 255 255 255 255 255 255 255 255 255 255 255 255 255 255 255 255 255 255 255 255 255 255 255 255 255 255 255 255 255 255 255 255 255 255 255 255 255 255 255 255 255 255 255 255 255 255 255 255 255 255 255 255 255 255 255 255 255 255 255 255 255 255 255 255 255 255 255 255 255 255 255 255 255 255 255 255 255 255 
255 255 255 255 255 255 255 255 255 255 255 255 255 255 255 255 255 255 255 255 255 255 255 255 255 255 255 255 255 255 255 255 255 255 255 255 255 255 255 255 255 255 255 255 255 255 255 255 255 255 255 255 255 255 255 255 255 255 255 255 255 255 255 255 255 255 255 255 255 255 255 255 255 255 255 255 255 255 255 255 255 255 255 255 255 255 255 255 255 255 255 255 255 255 255 255 255 255 255 255 255 255 255 255 255 255 255 255 255 255 255 255 255 255 255 255 255 255 255 255 255 255 255 255 255 255 255 255 255 255 255 255 255 255 255 255 255 255 255 255 255 255 255 255 255 255 255 255 255 255 255 255 255 255 255 255 255 255 255 246 246 246 221 221 221 197 197 197 172 172 172 143 143 143 104 104 104 66 66 66 27 27 27 0 0 0 0 0 0 0 0 0 0 0 0 0 0 0 0 0 0 0 0 0 0 0 0 0 0 0 1 1 1 1 1 1 1 1 1 2 2 2 1 1 1 1 1 1 0 0 0 3 3 3 39 39 39 75 75 75 110 110 110 145 145 145 156 156 156 167 167 167 178 178 178 189 189 189 193 193 193 196 196 196 199 199 199 203 203 203 206 206 206 209 209 209 212 212 212 215 215 215 216 216 216 216 216 216 217 217 217 218 218 218 218 218 218 218 218 218 219 219 219 219 219 219 219 219 219 218 218 218 218 218 218 218 218 218 218 218 218 219 219 219 219 219 219 220 220 220 217 217 217 214 214 214 211 211 211 207 207 207 184 184 184 150 150 150 117 117 117 83 83 83 91 91 91 124 124 124 158 158 158 191 191 191 195 195 195 176 176 176 157 157 157 139 139 139 120 120 120 100 100 100 81 81 81 62 62 62 59 59 59 75 75 75 92 92 92 108 108 108 119 119 119 124 124 124 128 128 128 133 133 133 142 142 142 158 158 158 174 174 174 189 189 189 201 201 201 205 205 205 209 209 209 212 212 212 215 215 215 216 216 216 217 217 217 217 217 217 218 218 218 218 218 218 218 218 218 218 218 218 218 218 218 219 219 219 220 220 220 221 221 221 222 222 222 223 223 223 225 225 225 226 226 226 227 227 227 225 225 225 223 223 223 221 221 221 219 219 219 216 216 216 212 212 212 209 209 209 205 205 205 189 189 189 172 172 172 156 156 156 139 139 139 107 107 107 73 73 73 39 39 39 6 6 6 2 2 2 1 1 1 1 1 1 0 0 0 0 0 0 0 0 0 0 0 0 0 0 0 0 0 0 0 0 0 0 0 0 0 0 0 0 0 0 1 1 1 1 1 1 2 2 2 39 39 39 91 91 91 143 143 143 194 194 194 219 219 219 230 230 230 240 240 240 251 251 251 255 255 255 255 255 255 255 255 255 255 255 255 255 255 255 255 255 255 255 255 255 255 255 255 255 255 255 255 255 255 255 255 255 255 255 255 255 255 255 255 255 255 255 255 255 255 255 255 255 255 255 255 255 255 255 255 255 255 255 255 255 255 255 255 255 255 255 255 255 255 255 255 255 255 255 255 255 255 255 255 255 255 255 255 255 255 255 255 255 255 255 255 255 255 255 255 255 255 255 255 255 255 255 255 255 255 255 255 255 255 255 255 255 255 255 255 255 255 255 255 255 255 255 255 255 255 255 255 255 255 255 255 255 255 255 255 255 255 255 255 255 255 255 255 255 255 255 255 255 255 255 255 255 255 255 255 255 255 255 
255 255 255 255 255 255 255 255 255 255 255 255 255 255 255 255 255 255 255 255 255 255 255 255 255 255 255 255 255 255 255 255 255 255 255 255 255 255 255 255 255 255 255 255 255 255 255 255 255 255 255 255 255 255 255 255 255 255 255 255 255 255 255 255 255 255 255 255 255 255 255 255 255 255 255 255 255 255 255 255 255 255 255 255 255 255 255 255 255 255 255 255 255 255 255 255 255 255 255 255 255 255 255 255 255 255 255 255 255 255 255 255 255 255 255 255 255 255 255 255 255 255 255 255 255 255 255 255 255 255 255 255 255 255 255 255 255 255 255 255 255 255 255 255 255 255 255 255 255 255 255 255 255 255 255 255 255 255 255 245 245 245 219 219 219 193 193 193 167 167 167 137 137 137 100 100 100 63 63 63 26 26 26 0 0 0 0 0 0 0 0 0 0 0 0 0 0 0 0 0 0 0 0 0 0 0 0 0 0 0 0 0 0 1 1 1 1 1 1 1 1 1 1 1 1 1 1 1 0 0 0 3 3 3 40 40 40 77 77 77 113 113 113 149 149 149 159 159 159 169 169 169 180 180 180 190 190 190 193 193 193 197 197 197 200 200 200 203 203 203 206 206 206 209 209 209 212 212 212 214 214 214 215 215 215 216 216 216 217 217 217 217 217 217 218 218 218 218 218 218 218 218 218 218 218 218 218 218 218 218 218 218 218 218 218 217 217 217 218 218 218 218 218 218 218 218 218 219 219 219 214 214 214 206 206 206 199 199 199 192 192 192 167 167 167 134 134 134 101 101 101 68 68 68 74 74 74 106 106 106 137 137 137 169 169 169 174 174 174 160 160 160 146 146 146 132 132 132 115 115 115 95 95 95 76 76 76 56 56 56 53 53 53 69 69 69 84 84 84 100 100 100 113 113 113 122 122 122 131 131 131 141 141 141 150 150 150 161 161 161 171 171 171 181 181 181 190 190 190 197 197 197 204 204 204 211 211 211 216 216 216 216 216 216 217 217 217 218 218 218 218 218 218 218 218 218 218 218 218 218 218 218 218 218 218 219 219 219 220 220 220 220 220 220 221 221 221 222 222 222 223 223 223 224 224 224 225 225 225 223 223 223 221 221 221 219 219 219 217 217 217 214 214 214 210 210 210 207 207 207 203 203 203 189 189 189 175 175 175 161 161 161 147 147 147 113 113 113 79 79 79 45 45 45 11 11 11 6 6 6 4 4 4 2 2 2 0 0 0 0 0 0 0 0 0 0 0 0 0 0 0 0 0 0 0 0 0 0 0 0 0 0 0 0 0 0 1 1 1 1 1 1 1 1 1 38 38 38 88 88 88 139 139 139 190 190 190 215 215 215 227 227 227 238 238 238 250 250 250 255 255 255 255 255 255 255 255 255 255 255 255 255 255 255 255 255 255 255 255 255 255 255 255 255 255 255 255 255 255 255 255 255 255 255 255 255 255 255 255 255 255 255 255 255 255 255 255 255 255 255 255 255 255 255 255 255 255 255 255 255 255 255 255 255 255 255 255 255 255 255 255 255 255 255 255 255 255 255 255 255 255 255 255 255 255 255 255 255 255 255 255 255 255 255 255 255 255 255 255 255 255 255 255 255 255 255 255 255 255 255 255 255 255 255 255 255 255 255 255 255 255 255 255 255 255 255 255 255 255 255 255 255 255 255 255 255 255 255 255 255 255 255 255 255 255 255 255 255 255 255 255 255 255 255 255 255 255 255 
255 255 255 255 255 255 255 255 255 255 255 255 255 255 255 255 255 255 255 255 255 255 255 255 255 255 255 255 255 255 255 255 255 255 255 255 255 255 255 255 255 255 255 255 255 255 255 255 255 255 255 255 255 255 255 255 255 255 255 255 255 255 255 255 255 255 255 255 255 255 255 255 255 255 255 255 255 255 255 255 255 255 255 255 255 255 255 255 255 255 255 255 255 255 255 255 255 255 255 255 255 255 255 255 255 255 255 255 255 255 255 255 255 255 255 255 255 255 255 255 255 255 255 255 255 255 255 255 255 255 255 255 255 255 255 255 255 255 255 255 255 255 255 255 255 255 255 255 255 255 255 255 255 255 255 255 255 255 255 245 245 245 217 217 217 190 190 190 162 162 162 132 132 132 96 96 96 61 61 61 25 25 25 0 0 0 0 0 0 0 0 0 0 0 0 0 0 0 0 0 0 0 0 0 0 0 0 0 0 0 0 0 0 0 0 0 1 1 1 1 1 1 1 1 1 0 0 0 0 0 0 4 4 4 41 41 41 79 79 79 117 117 117 153 153 153 162 162 162 172 172 172 182 182 182 191 191 191 194 194 194 197 197 197 200 200 200 203 203 203 206 206 206 209 209 209 211 211 211 214 214 214 215 215 215 216 216 216 216 216 216 217 217 217 217 217 217 217 217 217 217 217 217 217 217 217 217 217 217 217 217 217 217 217 217 217 217 217 217 217 217 217 217 217 218 218 218 218 218 218 210 210 210 199 199 199 188 188 188 177 177 177 151 151 151 118 118 118 85 85 85 52 52 52 58 58 58 87 87 87 117 117 117 146 146 146 154 154 154 144 144 144 135 135 135 126 126 126 110 110 110 90 90 90 70 70 70 50 50 50 46 46 46 62 62 62 77 77 77 92 92 92 107 107 107 121 121 121 135 135 135 149 149 149 159 159 159 164 164 164 168 168 168 173 173 173 179 179 179 189 189 189 199 199 199 209 209 209 216 216 216 217 217 217 217 217 217 218 218 218 218 218 218 218 218 218 218 218 218 218 218 218 218 218 218 219 219 219 219 219 219 219 219 219 220 220 220 221 221 221 222 222 222 223 223 223 223 223 223 221 221 221 219 219 219 217 217 217 215 215 215 212 212 212 208 208 208 204 204 204 200 200 200 189 189 189 177 177 177 165 165 165 154 154 154 120 120 120 86 86 86 51 51 51 16 16 16 10 10 10 7 7 7 4 4 4 0 0 0 0 0 0 0 0 0 0 0 0 0 0 0 0 0 0 0 0 0 0 0 0 0 0 0 0 0 0 0 0 0 1 1 1 1 1 1 36 36 36 86 86 86 135 135 135 185 185 185 210 210 210 223 223 223 237 237 237 250 250 250 255 255 255 255 255 255 255 255 255 255 255 255 255 255 255 255 255 255 255 255 255 255 255 255 255 255 255 255 255 255 255 255 255 255 255 255 255 255 255 255 255 255 255 255 255 255 255 255 255 255 255 255 255 255 255 255 255 255 255 255 255 255 255 255 255 255 255 255 255 255 255 255 255 255 255 255 255 255 255 255 255 255 255 255 255 255 255 255 255 255 255 255 255 255 255 255 255 255 255 255 255 255 255 255 255 255 255 255 255 255 255 255 255 255 255 255 255 255 255 255 255 255 255 255 255 255 255 255 255 255 255 255 255 255 255 255 255 255 255 255 255 255 255 255 255 255 255 255 255 255 255 255 255 255 255 255 255 255 255 
255 255 255 255 255 255 255 255 255 255 255 255 255 255 255 255 255 255 255 255 255 255 255 255 255 255 255 255 255 255 255 255 255 255 255 255 255 255 255 255 255 255 255 255 255 255 255 255 255 255 255 255 255 255 255 255 255 255 255 255 255 255 255 255 255 255 255 255 255 255 255 255 255 255 255 255 255 255 255 255 255 255 255 255 255 255 255 255 255 255 255 255 255 255 255 255 255 255 255 255 255 255 255 255 255 255 255 255 255 255 255 255 255 255 255 255 255 255 255 255 255 255 255 255 255 255 255 255 255 255 255 255 255 255 255 255 255 255 255 255 255 255 255 255 255 255 255 255 255 255 255 255 255 255 255 255 255 255 255 244 244 244 215 215 215 186 186 186 157 157 157 126 126 126 92 92 92 58 58 58 24 24 24 0 0 0 0 0 0 0 0 0 0 0 0 0 0 0 0 0 0 0 0 0 0 0 0 0 0 0 0 0 0 0 0 0 0 0 0 0 0 0 0 0 0 0 0 0 0 0 0 4 4 4 42 42 42 81 81 81 120 120 120 157 157 157 166 166 166 175 175 175 183 183 183 192 192 192 195 195 195 198 198 198 200 200 200 203 203 203 206 206 206 208 208 208 211 211 211 214 214 214 215 215 215 215 215 215 216 216 216 216 216 216 216 216 216 216 216 216 217 217 217 217 217 217 217 217 217 217 217 217 216 216 216 216 216 216 216 216 216 217 217 217 217 217 217 217 217 217 206 206 206 191 191 191 176 176 176 161 161 161 135 135 135 102 102 102 69 69 69 37 37 37 41 41 41 69 69 69 96 96 96 124 124 124 133 133 133 128 128 128 124 124 124 119 119 119 106 106 106 85 85 85 64 64 64 44 44 44 40 40 40 55 55 55 69 69 69 84 84 84 101 101 101 119 119 119 138 138 138 157 157 157 168 168 168 167 167 167 166 166 166 165 165 165 168 168 168 181 181 181 194 194 194 207 207 207 217 217 217 217 217 217 217 217 217 218 218 218 218 218 218 218 218 218 218 218 218 218 218 218 218 218 218 218 218 218 218 218 218 219 219 219 219 219 219 220 220 220 220 220 220 221 221 221 221 221 221 219 219 219 217 217 217 215 215 215 213 213 213 210 210 210 206 206 206 202 202 202 198 198 198 189 189 189 179 179 179 170 170 170 161 161 161 127 127 127 92 92 92 57 57 57 22 22 22 14 14 14 10 10 10 5 5 5 1 1 1 0 0 0 0 0 0 0 0 0 0 0 0 0 0 0 0 0 0 0 0 0 0 0 0 0 0 0 0 0 0 0 0 0 0 0 0 35 35 35 83 83 83 132 132 132 180 180 180 206 206 206 220 220 220 235 235 235 249 249 249 255 255 255 255 255 255 255 255 255 255 255 255 255 255 255 255 255 255 255 255 255 255 255 255 255 255 255 255 255 255 255 255 255 255 255 255 255 255 255 255 255 255 255 255 255 255 255 255 255 255 255 255 255 255 255 255 255 255 255 255 255 255 255 255 255 255 255 255 255 255 255 255 255 255 255 255 255 255 255 255 255 255 255 255 255 255 255 255 255 255 255 255 255 255 255 255 255 255 255 255 255 255 255 255 255 255 255 255 255 255 255 255 255 255 255 255 255 255 255 255 255 255 255 255 255 255 255 255 255 255 255 255 255 255 255 255 255 255 255 255 255 255 255 255 255 255 255 255 255 255 255 255 255 255 255 255 255 255 255 
255 255 255 255 255 255 255 255 255 255 255 255 255 255 255 255 255 255 255 255 255 255 255 255 255 255 255 255 255 255 255 255 255 255 255 255 255 255 255 255 255 255 255 255 255 255 255 255 255 255 255 255 255 255 255 255 255 255 255 255 255 255 255 255 255 255 255 255 255 255 255 255 255 255 255 255 255 255 255 255 255 255 255 255 255 255 255 255 255 255 255 255 255 255 255 255 255 255 255 255 255 255 255 255 255 255 255 255 255 255 255 255 255 255 255 255 255 255 255 255 255 255 255 255 255 255 255 255 255 255 255 255 255 255 255 255 255 255 255 255 255 255 255 255 255 255 255 255 255 255 255 255 255 255 255 255 255 255 255 243 243 243 213 213 213 183 183 183 152 152 152 121 121 121 88 88 88 56 56 56 23 23 23 0 0 0 0 0 0 0 0 0 0 0 0 0 0 0 0 0 0 0 0 0 0 0 0 0 0 0 0 0 0 0 0 0 0 0 0 0 0 0 0 0 0 0 0 0 0 0 0 4 4 4 43 43 43 83 83 83 122 122 122 160 160 160 169 169 169 177 177 177 185 185 185 193 193 193 196 196 196 198 198 198 200 200 200 203 203 203 206 206 206 208 208 208 211 211 211 214 214 214 214 214 214 215 215 215 215 215 215 216 216 216 216 216 216 216 216 216 216 216 216 216 216 216 216 216 216 216 216 216 216 216 216 216 216 216 216 216 216 216 216 216 216 216 216 216 216 216 203 203 203 185 185 185 166 166 166 148 148 148 121 121 121 89 89 89 57 57 57 25 25 25 28 28 28 52 52 52 77 77 77 101 101 101 111 111 111 110 110 110 109 109 109 108 108 108 97 97 97 78 78 78 58 58 58 38 38 38 34 34 34 48 48 48 61 61 61 75 75 75 92 92 92 113 113 113 135 135 135 156 156 156 168 168 168 163 163 163 159 159 159 155 155 155 157 157 157 173 173 173 189 189 189 205 205 205 217 217 217 217 217 217 217 217 217 218 218 218 218 218 218 218 218 218 218 218 218 218 218 218 218 218 218 218 218 218 218 218 218 218 218 218 218 218 218 218 218 218 219 219 219 219 219 219 219 219 219 217 217 217 215 215 215 214 214 214 211 211 211 207 207 207 203 203 203 200 200 200 196 196 196 188 188 188 181 181 181 173 173 173 166 166 166 132 132 132 97 97 97 62 62 62 27 27 27 18 18 18 12 12 12 7 7 7 1 1 1 0 0 0 0 0 0 0 0 0 0 0 0 0 0 0 0 0 0 0 0 0 0 0 0 0 0 0 0 0 0 0 0 0 0 0 0 34 34 34 81 81 81 128 128 128 175 175 175 201 201 201 217 217 217 233 233 233 249 249 249 255 255 255 255 255 255 255 255 255 255 255 255 255 255 255 255 255 255 255 255 255 255 255 255 255 255 255 255 255 255 255 255 255 255 255 255 255 255 255 255 255 255 255 255 255 255 255 255 255 255 255 255 255 255 255 255 255 255 255 255 255 255 255 255 255 255 255 255 255 255 255 255 255 255 255 255 255 255 255 255 255 255 255 255 255 255 255 255 255 255 255 255 255 255 255 255 255 255 255 255 255 255 255 255 255 255 255 255 255 255 255 255 255 255 255 255 255 255 255 255 255 255 255 255 255 255 255 255 255 255 255 255 255 255 255 255 255 255 255 255 255 255 255 255 255 255 255 255 255 255 255 255 255 255 255 255 255 255 255 
255 255 255 255 255 255 255 255 255 255 255 255 255 255 255 255 255 255 255 255 255 255 255 255 255 255 255 255 255 255 255 255 255 255 255 255 255 255 255 255 255 255 255 255 255 255 255 255 255 255 255 255 255 255 255 255 255 255 255 255 255 255 255 255 255 255 255 255 255 255 255 255 255 255 255 255 255 255 255 255 255 255 255 255 255 255 255 255 255 255 255 255 255 255 255 255 255 255 255 255 255 255 255 255 255 255 255 255 255 255 255 255 255 255 255 255 255 255 255 255 255 255 255 255 255 255 255 255 255 255 255 255 255 255 255 255 255 255 255 255 255 255 255 255 255 255 255 255 255 255 255 255 255 255 255 255 255 255 255 243 243 243 211 211 211 179 179 179 147 147 147 115 115 115 84 84 84 53 53 53 22 22 22 0 0 0 0 0 0 0 0 0 0 0 0 0 0 0 0 0 0 0 0 0 0 0 0 0 0 0 0 0 0 0 0 0 0 0 0 0 0 0 0 0 0 0 0 0 0 0 0 4 4 4 43 43 43 83 83 83 122 122 122 160 160 160 168 168 168 177 177 177 185 185 185 194 194 194 196 196 196 198 198 198 200 200 200 203 203 203 205 205 205 208 208 208 211 211 211 213 213 213 214 214 214 214 214 214 215 215 215 215 215 215 215 215 215 215 215 215 215 215 215 215 215 215 215 215 215 215 215 215 215 215 215 215 215 215 215 215 215 215 215 215 215 215 215 215 215 215 201 201 201 182 182 182 163 163 163 143 143 143 117 117 117 87 87 87 57 57 57 27 27 27 26 26 26 43 43 43 59 59 59 76 76 76 82 82 82 81 81 81 81 81 81 80 80 80 73 73 73 59 59 59 46 46 46 32 32 32 30 30 30 40 40 40 50 50 50 59 59 59 72 72 72 88 88 88 103 103 103 119 119 119 130 130 130 133 133 133 136 136 136 140 140 140 148 148 148 166 166 166 185 185 185 203 203 203 216 216 216 216 216 216 217 217 217 217 217 217 217 217 217 217 217 217 217 217 217 217 217 217 217 217 217 217 217 217 217 217 217 217 217 217 217 217 217 217 217 217 217 217 217 218 218 218 217 217 217 215 215 215 214 214 214 212 212 212 209 209 209 205 205 205 201 201 201 197 197 197 193 193 193 186 186 186 179 179 179 171 171 171 164 164 164 131 131 131 97 97 97 63 63 63 29 29 29 20 20 20 14 14 14 7 7 7 1 1 1 0 0 0 0 0 0 0 0 0 0 0 0 0 0 0 0 0 0 0 0 0 0 0 0 0 0 0 0 0 0 0 0 0 0 0 0 33 33 33 78 78 78 124 124 124 169 169 169 196 196 196 213 213 213 231 231 231 248 248 248 255 255 255 255 255 255 255 255 255 255 255 255 255 255 255 255 255 255 255 255 255 255 255 255 255 255 255 255 255 255 255 255 255 255 255 255 255 255 255 255 255 255 255 255 255 255 255 255 255 255 255 255 255 255 255 255 255 255 255 255 255 255 255 255 255 255 255 255 255 255 255 255 255 255 255 255 255 255 255 255 255 255 255 255 255 255 255 255 255 255 255 255 255 255 255 255 255 255 255 255 255 255 255 255 255 255 255 255 255 255 255 255 255 255 255 255 255 255 255 255 255 255 255 255 255 255 255 255 255 255 255 255 255 255 255 255 255 255 255 255 255 255 255 255 255 255 255 255 255 255 255 255 255 255 255 255 255 255 255 
255 255 255 255 255 255 255 255 255 255 255 255 255 255 255 255 255 255 255 255 255 255 255 255 255 255 255 255 255 255 255 255 255 255 255 255 255 255 255 255 255 255 255 255 255 255 255 255 255 255 255 255 255 255 255 255 255 255 255 255 255 255 255 255 255 255 255 255 255 255 255 255 255 255 255 255 255 255 255 255 255 255 255 255 255 255 255 255 255 255 255 255 255 255 255 255 255 255 255 255 255 255 255 255 255 255 255 255 255 255 255 255 255 255 255 255 255 255 255 255 255 255 255 255 255 255 255 255 255 255 255 255 255 255 255 255 255 255 255 255 255 255 255 255 255 255 255 255 255 255 255 255 255 255 255 255 255 255 255 242 242 242 209 209 209 175 175 175 141 141 141 109 109 109 80 80 80 50 50 50 21 21 21 0 0 0 0 0 0 0 0 0 0 0 0 0 0 0 0 0 0 0 0 0 0 0 0 0 0 0 0 0 0 0 0 0 0 0 0 0 0 0 0 0 0 0 0 0 0 0 0 4 4 4 43 43 43 82 82 82 122 122 122 159 159 159 168 168 168 177 177 177 186 186 186 195 195 195 197 197 197 198 198 198 200 200 200 202 202 202 205 205 205 208 208 208 210 210 210 213 213 213 213 213 213 214 214 214 214 214 214 215 215 215 215 215 215 215 215 215 215 215 215 215 215 215 215 215 215 215 215 215 215 215 215 215 215 215 215 215 215 215 215 215 215 215 215 215 215 215 200 200 200 179 179 179 159 159 159 138 138 138 113 113 113 85 85 85 57 57 57 30 30 30 24 24 24 33 33 33 41 41 41 50 50 50 53 53 53 53 53 53 53 53 53 52 52 52 48 48 48 41 41 41 34 34 34 26 26 26 26 26 26 32 32 32 38 38 38 44 44 44 52 52 52 62 62 62 72 72 72 82 82 82 92 92 92 103 103 103 114 114 114 124 124 124 138 138 138 159 159 159 180 180 180 201 201 201 215 215 215 216 216 216 216 216 216 216 216 216 216 216 216 216 216 216 216 216 216 216 216 216 216 216 216 216 216 216 216 216 216 216 216 216 216 216 216 216 216 216 216 216 216 216 216 216 215 215 215 214 214 214 212 212 212 210 210 210 207 207 207 203 203 203 199 199 199 195 195 195 191 191 191 183 183 183 176 176 176 169 169 169 162 162 162 130 130 130 97 97 97 64 64 64 32 32 32 22 22 22 15 15 15 8 8 8 1 1 1 0 0 0 0 0 0 0 0 0 0 0 0 0 0 0 0 0 0 0 0 0 0 0 0 0 0 0 0 0 0 0 0 0 0 0 0 31 31 31 75 75 75 119 119 119 163 163 163 191 191 191 210 210 210 229 229 229 248 248 248 255 255 255 255 255 255 255 255 255 255 255 255 255 255 255 255 255 255 255 255 255 255 255 255 255 255 255 255 255 255 255 255 255 255 255 255 255 255 255 255 255 255 255 255 255 255 255 255 255 255 255 255 255 255 255 255 255 255 255 255 255 255 255 255 255 255 255 255 255 255 255 255 255 255 255 255 255 255 255 255 255 255 255 255 255 255 255 255 255 255 255 255 255 255 255 255 255 255 255 255 255 255 255 255 255 255 255 255 255 255 255 255 255 255 255 255 255 255 255 255 255 255 255 255 255 255 255 255 255 255 255 255 255 255 255 255 255 255 255 255 255 255 255 255 255 255 255 255 255 255 255 255 255 255 255 255 255 255 255 
255 255 255 255 255 255 255 255 255 255 255 255 255 255 255 255 255 255 255 255 255 255 255 255 255 255 255 255 255 255 255 255 255 255 255 255 255 255 255 255 255 255 255 255 255 255 255 255 255 255 255 255 255 255 255 255 255 255 255 255 255 255 255 255 255 255 255 255 255 255 255 255 255 255 255 255 255 255 255 255 255 255 255 255 255 255 255 255 255 255 255 255 255 255 255 255 255 255 255 255 255 255 255 255 255 255 255 255 255 255 255 255 255 255 255 255 255 255 255 255 255 255 255 255 255 255 255 255 255 255 255 255 255 255 255 255 255 255 255 255 255 255 255 255 255 255 255 255 255 255 255 255 255 255 255 255 255 255 255 242 242 242 206 206 206 171 171 171 136 136 136 103 103 103 75 75 75 48 48 48 20 20 20 0 0 0 0 0 0 0 0 0 0 0 0 0 0 0 0 0 0 0 0 0 0 0 0 0 0 0 0 0 0 0 0 0 0 0 0 0 0 0 0 0 0 0 0 0 0 0 0 4 4 4 43 43 43 82 82 82 121 121 121 159 159 159 168 168 168 177 177 177 186 186 186 195 195 195 197 197 197 199 199 199 200 200 200 202 202 202 205 205 205 207 207 207 210 210 210 212 212 212 213 213 213 213 213 213 214 214 214 214 214 214 214 214 214 214 214 214 214 214 214 214 214 214 214 214 214 214 214 214 214 214 214 214 214 214 214 214 214 214 214 214 214 214 214 214 214 214 199 199 199 177 177 177 155 155 155 133 133 133 109 109 109 83 83 83 58 58 58 32 32 32 23 23 23 23 23 23 24 24 24 25 25 25 25 25 25 24 24 24 24 24 24 24 24 24 23 23 23 22 22 22 22 22 22 21 21 21 21 21 21 24 24 24 26 26 26 29 29 29 32 32 32 36 36 36 41 41 41 45 45 45 55 55 55 73 73 73 91 91 91 109 109 109 129 129 129 152 152 152 175 175 175 198 198 198 215 215 215 215 215 215 215 215 215 215 215 215 216 216 216 216 216 216 216 216 216 216 216 216 216 216 216 216 216 216 216 216 216 216 216 216 216 216 216 215 215 215 215 215 215 214 214 214 214 214 214 212 212 212 210 210 210 208 208 208 205 205 205 201 201 201 197 197 197 192 192 192 188 188 188 181 181 181 174 174 174 167 167 167 160 160 160 129 129 129 98 98 98 66 66 66 34 34 34 24 24 24 16 16 16 9 9 9 1 1 1 0 0 0 0 0 0 0 0 0 0 0 0 0 0 0 0 0 0 0 0 0 0 0 0 0 0 0 0 0 0 0 0 0 0 0 0 30 30 30 73 73 73 115 115 115 157 157 157 185 185 185 206 206 206 227 227 227 247 247 247 255 255 255 255 255 255 255 255 255 255 255 255 255 255 255 255 255 255 255 255 255 255 255 255 255 255 255 255 255 255 255 255 255 255 255 255 255 255 255 255 255 255 255 255 255 255 255 255 255 255 255 255 255 255 255 255 255 255 255 255 255 255 255 255 255 255 255 255 255 255 255 255 255 255 255 255 255 255 255 255 255 255 255 255 255 255 255 255 255 255 255 255 255 255 255 255 255 255 255 255 255 255 255 255 255 255 255 255 255 255 255 255 255 255 255 255 255 255 255 255 255 255 255 255 255 255 255 255 255 255 255 255 255 255 255 255 255 255 255 255 255 255 255 255 255 255 255 255 255 255 255 255 255 255 255 255 255 255 255 
255 255 255 255 255 255 255 255 255 255 255 255 255 255 255 255 255 255 255 255 255 255 255 255 255 255 255 255 255 255 255 255 255 255 255 255 255 255 255 255 255 255 255 255 255 255 255 255 255 255 255 255 255 255 255 255 255 255 255 255 255 255 255 255 255 255 255 255 255 255 255 255 255 255 255 255 255 255 255 255 255 255 255 255 255 255 255 255 255 255 255 255 255 255 255 255 255 255 255 255 255 255 255 255 255 255 255 255 255 255 255 255 255 255 255 255 255 255 255 255 255 255 255 255 255 255 255 255 255 255 255 255 255 255 255 255 255 255 255 255 255 255 255 255 255 255 255 255 255 255 255 255 255 255 255 255 255 255 255 241 241 241 204 204 204 167 167 167 130 130 130 97 97 97 71 71 71 45 45 45 19 19 19 0 0 0 0 0 0 0 0 0 0 0 0 0 0 0 0 0 0 0 0 0 0 0 0 0 0 0 0 0 0 0 0 0 0 0 0 0 0 0 0 0 0 0 0 0 0 0 0 4 4 4 43 43 43 81 81 81 120 120 120 158 158 158 167 167 167 177 177 177 186 186 186 196 196 196 197 197 197 199 199 199 201 201 201 202 202 202 204 204 204 207 207 207 209 209 209 212 212 212 212 212 212 213 213 213 213 213 213 214 214 214 214 214 214 214 214 214 214 214 214 214 214 214 214 214 214 214 214 214 214 214 214 214 214 214 214 214 214 214 214 214 214 214 214 214 214 214 198 198 198 175 175 175 152 152 152 129 129 129 106 106 106 82 82 82 59 59 59 35 35 35 22 22 22 16 16 16 9 9 9 3 3 3 0 0 0 0 0 0 0 0 0 0 0 0 2 2 2 7 7 7 11 11 11 16 16 16 18 18 18 17 17 17 17 17 17 16 16 16 15 15 15 14 14 14 14 14 14 13 13 13 22 22 22 47 47 47 71 71 71 96 96 96 121 121 121 146 146 146 171 171 171 196 196 196 214 214 214 214 214 214 214 214 214 215 215 215 215 215 215 215 215 215 215 215 215 215 215 215 215 215 215 215 215 215 215 215 215 215 215 215 215 215 215 214 214 214 213 213 213 212 212 212 212 212 212 210 210 210 208 208 208 206 206 206 204 204 204 199 199 199 195 195 195 190 190 190 186 186 186 179 179 179 172 172 172 165 165 165 158 158 158 128 128 128 97 97 97 66 66 66 35 35 35 25 25 25 17 17 17 9 9 9 1 1 1 0 0 0 0 0 0 0 0 0 0 0 0 0 0 0 0 0 0 0 0 0 0 0 0 0 0 0 0 0 0 0 0 0 0 0 0 29 29 29 70 70 70 111 111 111 151 151 151 180 180 180 202 202 202 224 224 224 247 247 247 255 255 255 255 255 255 255 255 255 255 255 255 255 255 255 255 255 255 255 255 255 255 255 255 255 255 255 255 255 255 255 255 255 255 255 255 255 255 255 255 255 255 255 255 255 255 255 255 255 255 255 255 255 255 255 255 255 255 255 255 255 255 255 255 255 255 255 255 255 255 255 255 255 255 255 255 255 255 255 255 255 255 255 255 255 255 255 255 255 255 255 255 255 255 255 255 255 255 255 255 255 255 255 255 255 255 255 255 255 255 255 255 255 255 255 255 255 255 255 255 255 255 255 255 255 255 255 255 255 255 255 255 255 255 255 255 255 255 255 255 255 255 255 255 255 255 255 255 255 255 255 255 255 255 255 255 255 255 255 
255 255 255 255 255 255 255 255 255 255 255 255 255 255 255 255 255 255 255 255 255 255 255 255 255 255 255 255 255 255 255 255 255 255 255 255 255 255 255 255 255 255 255 255 255 255 255 255 255 255 255 255 255 255 255 255 255 255 255 255 255 255 255 255 255 255 255 255 255 255 255 255 255 255 255 255 255 255 255 255 255 255 255 255 255 255 255 255 255 255 255 255 255 255 255 255 255 255 255 255 255 255 255 255 255 255 255 255 255 255 255 255 255 255 255 255 255 255 255 255 255 255 255 255 255 255 255 255 255 255 255 255 255 255 255 255 255 255 255 255 255 255 255 255 255 255 255 255 255 255 255 255 255 255 255 255 255 255 255 240 240 240 202 202 202 163 163 163 124 124 124 90 90 90 66 66 66 42 42 42 17 17 17 0 0 0 0 0 0 0 0 0 0 0 0 0 0 0 0 0 0 0 0 0 0 0 0 0 0 0 0 0 0 0 0 0 0 0 0 0 0 0 0 0 0 0 0 0 0 0 0 4 4 4 41 41 41 79 79 79 116 116 116 153 153 153 163 163 163 174 174 174 185 185 185 196 196 196 197 197 197 199 199 199 201 201 201 203 203 203 205 205 205 207 207 207 209 209 209 211 211 211 211 211 211 212 212 212 213 213 213 213 213 213 213 213 213 213 213 213 213 213 213 213 213 213 213 213 213 213 213 213 213 213 213 213 213 213 213 213 213 213 213 213 213 213 213 213 213 213 198 198 198 177 177 177 156 156 156 134 134 134 112 112 112 88 88 88 65 65 65 42 42 42 28 28 28 20 20 20 12 12 12 4 4 4 1 1 1 1 1 1 1 1 1 1 1 1 3 3 3 8 8 8 13 13 13 18 18 18 20 20 20 20 20 20 19 19 19 19 19 19 18 18 18 15 15 15 13 13 13 11 11 11 19 19 19 46 46 46 73 73 73 100 100 100 125 125 125 149 149 149 172 172 172 196 196 196 213 213 213 213 213 213 213 213 213 214 214 214 214 214 214 214 214 214 214 214 214 214 214 214 214 214 214 214 214 214 214 214 214 214 214 214 213 213 213 213 213 213 212 212 212 211 211 211 210 210 210 208 208 208 206 206 206 204 204 204 202 202 202 197 197 197 192 192 192 188 188 188 183 183 183 177 177 177 170 170 170 163 163 163 156 156 156 126 126 126 94 94 94 63 63 63 31 31 31 22 22 22 15 15 15 8 8 8 1 1 1 0 0 0 0 0 0 0 0 0 0 0 0 0 0 0 0 0 0 0 0 0 0 0 0 0 0 0 0 0 0 0 0 0 0 0 0 28 28 28 67 67 67 105 105 105 144 144 144 173 173 173 197 197 197 222 222 222 246 246 246 255 255 255 255 255 255 255 255 255 255 255 255 255 255 255 255 255 255 255 255 255 255 255 255 255 255 255 255 255 255 255 255 255 255 255 255 255 255 255 255 255 255 255 255 255 255 255 255 255 255 255 255 255 255 255 255 255 255 255 255 255 255 255 255 255 255 255 255 255 255 255 255 255 255 255 255 255 255 255 255 255 255 255 255 255 255 255 255 255 255 255 255 255 255 255 255 255 255 255 255 255 255 255 255 255 255 255 255 255 255 255 255 255 255 255 255 255 255 255 255 255 255 255 255 255 255 255 255 255 255 255 255 255 255 255 255 255 255 255 255 255 255 255 255 255 255 255 255 255 255 255 255 255 255 255 255 255 255 255 
255 255 255 255 255 255 255 255 255 255 255 255 255 255 255 255 255 255 255 255 255 255 255 255 255 255 255 255 255 255 255 255 255 255 255 255 255 255 255 255 255 255 255 255 255 255 255 255 255 255 255 255 255 255 255 255 255 255 255 255 255 255 255 255 255 255 255 255 255 255 255 255 255 255 255 255 255 255 255 255 255 255 255 255 255 255 255 255 255 255 255 255 255 255 255 255 255 255 255 255 255 255 255 255 255 255 255 255 255 255 255 255 255 255 255 255 255 255 255 255 255 255 255 255 255 255 255 255 255 255 255 255 255 255 255 255 255 255 255 255 255 255 255 255 255 255 255 255 255 255 255 255 255 255 255 255 255 255 255 240 240 240 199 199 199 158 158 158 118 118 118 83 83 83 61 61 61 38 38 38 16 16 16 0 0 0 0 0 0 0 0 0 0 0 0 0 0 0 0 0 0 0 0 0 0 0 0 0 0 0 0 0 0 0 0 0 0 0 0 0 0 0 0 0 0 0 0 0 0 0 0 3 3 3 40 40 40 76 76 76 112 112 112 147 147 147 159 159 159 171 171 171 183 183 183 195 195 195 197 197 197 199 199 199 201 201 201 203 203 203 205 205 205 207 207 207 208 208 208 210 210 210 210 210 210 211 211 211 212 212 212 212 212 212 213 213 213 213 213 213 213 213 213 213 213 213 213 213 213 213 213 213 213 213 213 213 213 213 213 213 213 213 213 213 213 213 213 212 212 212 198 198 198 179 179 179 159 159 159 139 139 139 117 117 117 95 95 95 72 72 72 49 49 49 34 34 34 25 25 25 15 15 15 5 5 5 1 1 1 1 1 1 1 1 1 1 1 1 4 4 4 9 9 9 15 15 15 20 20 20 23 23 23 22 22 22 22 22 22 22 22 22 20 20 20 16 16 16 12 12 12 9 9 9 17 17 17 46 46 46 74 74 74 103 103 103 129 129 129 152 152 152 174 174 174 196 196 196 212 212 212 212 212 212 212 212 212 213 213 213 213 213 213 213 213 213 213 213 213 213 213 213 213 213 213 213 213 213 213 213 213 212 212 212 212 212 212 211 211 211 210 210 210 210 210 210 209 209 209 206 206 206 204 204 204 202 202 202 200 200 200 195 195 195 190 190 190 186 186 186 181 181 181 174 174 174 167 167 167 160 160 160 154 154 154 123 123 123 91 91 91 59 59 59 27 27 27 19 19 19 13 13 13 7 7 7 1 1 1 0 0 0 0 0 0 0 0 0 0 0 0 0 0 0 0 0 0 0 0 0 0 0 0 0 0 0 0 0 0 0 0 0 0 0 0 26 26 26 63 63 63 100 100 100 137 137 137 167 167 167 193 193 193 219 219 219 245 245 245 255 255 255 255 255 255 255 255 255 255 255 255 255 255 255 255 255 255 255 255 255 255 255 255 255 255 255 255 255 255 255 255 255 255 255 255 255 255 255 255 255 255 255 255 255 255 255 255 255 255 255 255 255 255 255 255 255 255 255 255 255 255 255 255 255 255 255 255 255 255 255 255 255 255 255 255 255 255 255 255 255 255 255 255 255 255 255 255 255 255 255 255 255 255 255 255 255 255 255 255 255 255 255 255 255 255 255 255 255 255 255 255 255 255 255 255 255 255 255 255 255 255 255 255 255 255 255 255 255 255 255 255 255 255 255 255 255 255 255 255 255 255 255 255 255 255 255 255 255 255 255 255 255 255 255 255 255 255 255 
255 255 255 255 255 255 255 255 255 255 255 255 255 255 255 255 255 255 255 255 255 255 255 255 255 255 255 255 255 255 255 255 255 255 255 255 255 255 255 255 255 255 255 255 255 255 255 255 255 255 255 255 255 255 255 255 255 255 255 255 255 255 255 255 255 255 255 255 255 255 255 255 255 255 255 255 255 255 255 255 255 255 255 255 255 255 255 255 255 255 255 255 255 255 255 255 255 255 255 255 255 255 255 255 255 255 255 255 255 255 255 255 255 255 255 255 255 255 255 255 255 255 255 255 255 255 255 255 255 255 255 255 255 255 255 255 255 255 255 255 255 255 255 255 255 255 255 255 255 255 255 255 255 255 255 255 255 255 255 239 239 239 196 196 196 154 154 154 111 111 111 76 76 76 56 56 56 35 35 35 15 15 15 0 0 0 0 0 0 0 0 0 0 0 0 0 0 0 0 0 0 0 0 0 0 0 0 0 0 0 0 0 0 0 0 0 0 0 0 0 0 0 0 0 0 0 0 0 0 0 0 3 3 3 38 38 38 73 73 73 108 108 108 142 142 142 156 156 156 169 169 169 182 182 182 195 195 195 197 197 197 200 200 200 202 202 202 204 204 204 205 205 205 207 207 207 208 208 208 209 209 209 210 210 210 210 210 210 211 211 211 212 212 212 212 212 212 212 212 212 212 212 212 212 212 212 212 212 212 212 212 212 212 212 212 212 212 212 212 212 212 212 212 212 212 212 212 212 212 212 199 199 199 181 181 181 162 162 162 144 144 144 123 123 123 101 101 101 78 78 78 56 56 56 40 40 40 29 29 29 18 18 18 6 6 6 2 2 2 2 2 2 2 2 2 2 2 2 5 5 5 10 10 10 16 16 16 22 22 22 25 25 25 25 25 25 25 25 25 25 25 25 23 23 23 17 17 17 12 12 12 6 6 6 15 15 15 45 45 45 76 76 76 106 106 106 134 134 134 154 154 154 175 175 175 196 196 196 211 211 211 211 211 211 211 211 211 212 212 212 212 212 212 212 212 212 212 212 212 212 212 212 212 212 212 212 212 212 211 211 211 211 211 211 211 211 211 210 210 210 209 209 209 208 208 208 207 207 207 205 205 205 202 202 202 200 200 200 198 198 198 193 193 193 188 188 188 184 184 184 179 179 179 172 172 172 165 165 165 158 158 158 151 151 151 120 120 120 88 88 88 55 55 55 23 23 23 15 15 15 10 10 10 6 6 6 1 1 1 0 0 0 0 0 0 0 0 0 0 0 0 0 0 0 0 0 0 0 0 0 0 0 0 0 0 0 0 0 0 0 0 0 0 0 0 25 25 25 60 60 60 95 95 95 130 130 130 161 161 161 188 188 188 216 216 216 244 244 244 255 255 255 255 255 255 255 255 255 255 255 255 255 255 255 255 255 255 255 255 255 255 255 255 255 255 255 255 255 255 255 255 255 255 255 255 255 255 255 255 255 255 255 255 255 255 255 255 255 255 255 255 255 255 255 255 255 255 255 255 255 255 255 255 255 255 255 255 255 255 255 255 255 255 255 255 255 255 255 255 255 255 255 255 255 255 255 255 255 255 255 255 255 255 255 255 255 255 255 255 255 255 255 255 255 255 255 255 255 255 255 255 255 255 255 255 255 255 255 255 255 255 255 255 255 255 255 255 255 255 255 255 255 255 255 255 255 255 255 255 255 255 255 255 255 255 255 255 255 255 255 255 255 255 255 255 255 255 255 
255 255 255 255 255 255 255 255 255 255 255 255 255 255 255 255 255 255 255 255 255 255 255 255 255 255 255 255 255 255 255 255 255 255 255 255 255 255 255 255 255 255 255 255 255 255 255 255 255 255 255 255 255 255 255 255 255 255 255 255 255 255 255 255 255 255 255 255 255 255 255 255 255 255 255 255 255 255 255 255 255 255 255 255 255 255 255 255 255 255 255 255 255 255 255 255 255 255 255 255 255 255 255 255 255 255 255 255 255 255 255 255 255 255 255 255 255 255 255 255 255 255 255 255 255 255 255 255 255 255 255 255 255 255 255 255 255 255 255 255 255 255 255 255 255 255 255 255 255 255 255 255 255 255 255 255 255 255 255 238 238 238 194 194 194 149 149 149 105 105 105 69 69 69 50 50 50 32 32 32 13 13 13 0 0 0 0 0 0 0 0 0 0 0 0 0 0 0 0 0 0 0 0 0 0 0 0 0 0 0 0 0 0 0 0 0 0 0 0 0 0 0 0 0 0 0 0 0 0 0 0 3 3 3 37 37 37 70 70 70 104 104 104 137 137 137 151 151 151 166 166 166 180 180 180 195 195 195 197 197 197 200 200 200 202 202 202 205 205 205 206 206 206 206 206 206 207 207 207 208 208 208 209 209 209 209 209 209 210 210 210 211 211 211 211 211 211 211 211 211 212 212 212 212 212 212 212 212 212 212 212 212 212 212 212 212 212 212 212 212 212 211 211 211 211 211 211 211 211 211 199 199 199 183 183 183 166 166 166 150 150 150 129 129 129 107 107 107 85 85 85 63 63 63 47 47 47 34 34 34 21 21 21 9 9 9 3 3 3 3 3 3 3 3 3 3 3 3 6 6 6 12 12 12 18 18 18 24 24 24 27 27 27 28 28 28 28 28 28 28 28 28 26 26 26 19 19 19 12 12 12 6 6 6 14 14 14 46 46 46 78 78 78 111 111 111 139 139 139 158 158 158 177 177 177 196 196 196 210 210 210 210 210 210 210 210 210 211 211 211 211 211 211 211 211 211 211 211 211 211 211 211 211 211 211 211 211 211 210 210 210 210 210 210 210 210 210 209 209 209 208 208 208 207 207 207 206 206 206 203 203 203 201 201 201 198 198 198 196 196 196 191 191 191 186 186 186 182 182 182 177 177 177 170 170 170 163 163 163 155 155 155 148 148 148 117 117 117 84 84 84 51 51 51 19 19 19 12 12 12 8 8 8 4 4 4 1 1 1 0 0 0 0 0 0 0 0 0 0 0 0 0 0 0 0 0 0 0 0 0 0 0 0 0 0 0 0 0 0 0 0 0 0 0 0 24 24 24 57 57 57 90 90 90 123 123 123 154 154 154 184 184 184 214 214 214 244 244 244 255 255 255 255 255 255 255 255 255 255 255 255 255 255 255 255 255 255 255 255 255 255 255 255 255 255 255 255 255 255 255 255 255 255 255 255 255 255 255 255 255 255 255 255 255 255 255 255 255 255 255 255 255 255 255 255 255 255 255 255 255 255 255 255 255 255 255 255 255 255 255 255 255 255 255 255 255 255 255 255 255 255 255 255 255 255 255 255 255 255 255 255 255 255 255 255 255 255 255 255 255 255 255 255 255 255 255 255 255 255 255 255 255 255 255 255 255 255 255 255 255 255 255 255 255 255 255 255 255 255 255 255 255 255 255 255 255 255 255 255 255 255 255 255 255 255 255 255 255 255 255 255 255 255 255 255 255 255 255 
255 255 255 255 255 255 255 255 255 255 255 255 255 255 255 255 255 255 255 255 255 255 255 255 255 255 255 255 255 255 255 255 255 255 255 255 255 255 255 255 255 255 255 255 255 255 255 255 255 255 255 255 255 255 255 255 255 255 255 255 255 255 255 255 255 255 255 255 255 255 255 255 255 255 255 255 255 255 255 255 255 255 255 255 255 255 255 255 255 255 255 255 255 255 255 255 255 255 255 255 255 255 255 255 255 255 255 255 255 255 255 255 255 255 255 255 255 255 255 255 255 255 255 255 255 255 255 255 255 255 255 255 255 255 255 255 255 255 255 255 255 255 255 255 255 255 255 255 255 255 255 255 255 255 255 255 255 255 255 237 237 237 190 190 190 143 143 143 97 97 97 60 60 60 44 44 44 28 28 28 12 12 12 0 0 0 0 0 0 0 0 0 0 0 0 0 0 0 0 0 0 0 0 0 0 0 0 0 0 0 0 0 0 0 0 0 0 0 0 0 0 0 0 0 0 0 0 0 0 0 0 3 3 3 34 34 34 65 65 65 96 96 96 126 126 126 143 143 143 160 160 160 177 177 177 194 194 194 197 197 197 200 200 200 202 202 202 205 205 205 206 206 206 207 207 207 207 207 207 208 208 208 208 208 208 209 209 209 209 209 209 210 210 210 210 210 210 211 211 211 211 211 211 211 211 211 211 211 211 211 211 211 211 211 211 211 211 211 211 211 211 211 211 211 211 211 211 210 210 210 201 201 201 187 187 187 174 174 174 160 160 160 141 141 141 117 117 117 94 94 94 71 71 71 55 55 55 44 44 44 33 33 33 21 21 21 15 16 15 13 14 13 12 12 12 10 10 10 11 11 11 15 16 16 20 20 20 24 24 24 28 28 28 30 30 30 32 32 32 34 34 34 34 34 34 29 29 29 25 25 25 21 21 21 30 30 30 61 61 61 92 92 92 124 124 124 150 150 150 165 165 165 181 181 181 196 196 196 207 207 207 208 208 208 208 208 208 209 209 209 209 209 209 209 209 209 209 209 209 209 209 209 209 209 209 208 208 208 208 208 208 208 208 208 207 207 207 206 206 206 205 205 205 204 204 204 203 203 203 201 201 201 198 198 198 195 195 195 193 193 193 189 189 189 184 184 184 180 180 180 176 176 176 166 166 166 157 157 157 148 148 148 138 138 138 108 108 108 77 77 77 46 46 46 15 15 15 9 9 9 6 6 6 3 3 3 0 0 0 0 0 0 0 0 0 0 0 0 0 0 0 0 0 0 0 0 0 0 0 0 0 0 0 0 0 0 0 0 0 0 0 0 0 0 0 22 22 22 53 53 53 83 83 83 114 114 114 146 146 146 178 178 178 210 210 210 243 243 243 255 255 255 255 255 255 255 255 255 255 255 255 255 255 255 255 255 255 255 255 255 255 255 255 255 255 255 255 255 255 255 255 255 255 255 255 255 255 255 255 255 255 255 255 255 255 255 255 255 255 255 255 255 255 255 255 255 255 255 255 255 255 255 255 255 255 255 255 255 255 255 255 255 255 255 255 255 255 255 255 255 255 255 255 255 255 255 255 255 255 255 255 255 255 255 255 255 255 255 255 255 255 255 255 255 255 255 255 255 255 255 255 255 255 255 255 255 255 255 255 255 255 255 255 255 255 255 255 255 255 255 255 255 255 255 255 255 255 255 255 255 255 255 255 255 255 255 255 255 255 255 255 255 255 255 255 255 255 255 
255 255 255 255 255 255 255 255 255 255 255 255 255 255 255 255 255 255 255 255 255 255 255 255 255 255 255 255 255 255 255 255 255 255 255 255 255 255 255 255 255 255 255 255 255 255 255 255 255 255 255 255 255 255 255 255 255 255 255 255 255 255 255 255 255 255 255 255 255 255 255 255 255 255 255 255 255 255 255 255 255 255 255 255 255 255 255 255 255 255 255 255 255 255 255 255 255 255 255 255 255 255 255 255 255 255 255 255 255 255 255 255 255 255 255 255 255 255 255 255 255 255 255 255 255 255 255 255 255 255 255 255 255 255 255 255 255 255 255 255 255 255 255 255 255 255 255 254 254 254 254 254 254 254 254 254 254 254 254 235 235 235 187 187 187 138 138 138 89 89 89 52 52 52 38 38 38 24 24 24 10 10 10 0 0 0 0 0 0 0 0 0 0 0 0 0 0 0 0 0 0 0 0 0 0 0 0 0 0 0 0 0 0 0 0 0 0 0 0 0 0 0 0 0 0 0 0 0 0 0 0 3 3 3 31 31 31 60 60 60 88 88 88 116 116 116 135 135 135 154 154 154 173 173 173 192 192 192 196 196 196 199 199 199 203 203 203 206 206 206 206 206 206 207 207 207 207 207 207 207 207 207 208 208 208 208 208 208 209 209 209 209 209 209 210 210 210 210 210 210 210 210 210 210 210 210 210 210 210 210 210 210 210 210 210 210 210 210 210 210 210 210 210 210 210 210 210 210 210 210 202 202 202 192 192 192 182 182 182 171 171 171 152 152 152 128 128 128 103 103 103 79 79 79 64 64 64 54 54 54 44 44 44 34 34 34 27 28 27 24 24 24 20 20 20 17 17 17 16 16 16 19 19 19 22 22 22 25 25 25 28 28 28 32 32 32 36 36 36 40 40 40 42 42 42 40 40 40 37 37 37 35 35 35 46 46 46 76 76 76 106 106 106 137 137 137 161 161 161 173 173 173 185 185 185 196 196 196 205 205 205 205 205 205 206 206 206 206 206 206 207 207 207 207 207 207 207 207 207 207 207 207 207 207 207 206 206 206 206 206 206 206 206 206 205 205 205 204 204 204 203 203 203 202 202 202 201 201 201 198 198 198 195 195 195 193 193 193 190 190 190 186 186 186 183 183 183 179 179 179 175 175 175 163 163 163 151 151 151 140 140 140 128 128 128 99 99 99 70 70 70 40 40 40 11 11 11 6 6 6 4 4 4 2 2 2 0 0 0 0 0 0 0 0 0 0 0 0 0 0 0 0 0 0 0 0 0 0 0 0 0 0 0 0 0 0 0 0 0 0 0 0 0 0 0 20 20 20 49 49 49 77 77 77 105 105 105 138 138 138 173 173 173 207 207 207 242 242 242 255 255 255 255 255 255 255 255 255 255 255 255 255 255 255 255 255 255 255 255 255 255 255 255 255 255 255 255 255 255 255 255 255 255 255 255 255 255 255 255 255 255 255 255 255 255 255 255 255 255 255 255 255 255 255 255 255 255 255 255 255 255 255 255 255 255 255 255 255 255 255 255 255 255 255 255 255 255 255 255 255 255 255 255 255 255 255 255 255 255 255 255 255 255 255 255 255 255 255 255 255 255 255 255 255 255 255 255 255 255 255 255 255 255 255 255 255 255 255 255 255 255 255 255 255 255 255 255 255 255 255 255 255 255 255 255 255 255 255 255 255 255 255 255 255 255 255 255 255 255 255 255 255 255 255 255 255 255 255 
255 255 255 255 255 255 255 255 255 255 255 255 255 255 255 255 255 255 255 255 255 255 255 255 255 255 255 255 255 255 255 255 255 255 255 255 255 255 255 255 255 255 255 255 255 255 255 255 255 255 255 255 255 255 255 255 255 255 255 255 255 255 255 255 255 255 255 255 255 255 255 255 255 255 255 255 255 255 255 255 255 255 255 255 255 255 255 255 255 255 255 255 255 255 255 255 255 255 255 255 255 255 255 255 255 255 255 255 255 255 255 255 255 255 255 255 255 255 255 255 255 255 255 255 255 255 255 255 255 255 255 255 255 255 255 255 255 255 255 255 255 255 255 255 254 254 254 254 254 254 254 254 254 254 254 254 254 254 254 234 234 234 183 183 183 132 132 132 81 81 81 43 43 43 31 31 31 20 20 20 8 8 8 0 0 0 0 0 0 0 0 0 0 0 0 0 0 0 0 0 0 0 0 0 0 0 0 0 0 0 0 0 0 0 0 0 0 0 0 0 0 0 0 0 0 0 0 0 0 0 0 2 2 2 28 28 28 54 54 54 80 80 80 106 106 106 127 127 127 149 149 149 170 170 170 191 191 191 195 195 195 199 199 199 203 203 203 206 206 206 207 207 207 207 207 207 207 207 207 207 207 207 208 208 208 208 208 208 208 208 208 209 209 209 209 209 209 209 209 209 209 209 209 210 210 210 210 210 210 210 210 210 210 210 210 210 210 210 210 210 210 209 209 209 209 209 209 209 209 209 204 204 204 196 196 196 189 189 189 182 182 182 163 163 163 138 138 138 113 113 113 87 87 87 72 72 72 64 64 64 55 55 55 46 47 46 40 40 40 34 35 34 29 29 29 24 24 24 22 22 22 23 23 23 24 24 24 25 26 26 28 29 29 34 35 35 40 40 40 46 46 46 50 50 50 50 50 50 50 50 50 50 50 50 62 62 62 91 91 91 120 120 120 150 150 150 172 172 172 180 180 180 188 188 188 197 197 197 203 203 203 203 203 203 204 204 204 204 204 204 205 205 205 205 205 205 205 205 205 205 205 205 205 205 205 204 204 204 204 204 204 203 203 203 203 203 203 202 202 202 201 201 201 199 199 199 198 198 198 195 195 195 193 193 193 190 190 190 187 187 187 184 184 184 181 181 181 177 177 177 174 174 174 160 160 160 146 146 146 132 132 132 118 118 118 90 90 90 62 62 62 34 34 34 6 6 6 3 3 3 2 2 2 1 1 1 0 0 0 0 0 0 0 0 0 0 0 0 0 0 0 0 0 0 0 0 0 0 0 0 0 0 0 0 0 0 0 0 0 0 0 0 0 0 0 19 19 19 45 45 45 71 71 71 97 97 97 130 130 130 167 167 167 204 204 204 241 241 241 255 255 255 255 255 255 255 255 255 255 255 255 255 255 255 255 255 255 255 255 255 255 255 255 255 255 255 255 255 255 255 255 255 255 255 255 255 255 255 255 255 255 255 255 255 255 255 255 255 255 255 255 255 255 255 255 255 255 255 255 255 255 255 255 255 255 255 255 255 255 255 255 255 255 255 255 255 255 255 255 255 255 255 255 255 255 255 255 255 255 255 255 255 255 255 255 255 255 255 255 255 255 255 255 255 255 255 255 255 255 255 255 255 255 255 255 255 255 255 255 255 255 255 255 255 255 255 255 255 255 255 255 255 255 255 255 255 255 255 255 255 255 255 255 255 255 255 255 255 255 255 255 255 255 255 255 255 255 255 
255 255 255 255 255 255 255 255 255 255 255 255 255 255 255 255 255 255 255 255 255 255 255 255 255 255 255 255 255 255 255 255 255 255 255 255 255 255 255 255 255 255 255 255 255 255 255 255 255 255 255 255 255 255 255 255 255 255 255 255 255 255 255 255 255 255 255 255 255 255 255 255 255 255 255 255 255 255 255 255 255 255 255 255 255 255 255 255 255 255 255 255 255 255 255 255 255 255 255 255 255 255 255 255 255 255 255 255 255 255 255 255 255 255 255 255 255 255 255 255 255 255 255 255 255 255 255 255 255 255 255 255 255 255 255 255 255 255 255 255 255 254 254 254 254 254 254 254 254 254 254 254 254 253 253 253 253 253 253 233 233 233 179 179 179 126 126 126 73 73 73 35 35 35 25 25 25 16 16 16 7 7 7 0 0 0 0 0 0 0 0 0 0 0 0 0 0 0 0 0 0 0 0 0 0 0 0 0 0 0 0 0 0 0 0 0 0 0 0 0 0 0 0 0 0 0 0 0 0 0 0 2 2 2 26 26 26 49 49 49 72 72 72 95 95 95 119 119 119 143 143 143 166 166 166 190 190 190 194 194 194 198 198 198 202 202 202 207 207 207 207 207 207 207 207 207 207 207 207 207 207 207 207 207 207 207 207 207 208 208 208 208 208 208 208 208 208 208 208 208 209 209 209 209 209 209 209 209 209 209 209 209 209 209 209 209 209 209 209 209 209 209 209 209 208 208 208 208 208 208 205 205 205 201 201 201 197 197 197 192 192 192 174 174 174 148 148 148 122 122 122 96 96 96 81 82 81 74 74 74 67 67 66 59 60 58 52 53 51 45 46 44 38 38 37 31 31 30 28 28 27 27 27 27 27 27 26 26 27 26 30 30 29 37 38 37 45 45 44 53 53 52 58 58 57 61 61 60 63 63 63 66 66 65 78 78 78 106 106 106 134 134 134 162 162 162 183 183 183 187 187 187 192 192 192 197 197 197 200 200 200 201 201 201 202 202 202 202 202 202 203 203 203 203 203 203 203 203 203 203 203 203 203 203 203 202 202 202 202 202 202 201 201 201 201 201 201 200 200 200 198 198 198 197 197 197 196 196 196 193 193 193 190 190 190 188 188 188 185 185 185 182 182 182 179 179 179 176 176 176 173 173 173 156 156 156 140 140 140 123 123 123 107 107 107 81 81 81 55 55 55 29 29 29 2 2 2 0 0 0 0 0 0 0 0 0 0 0 0 0 0 0 0 0 0 0 0 0 0 0 0 0 0 0 0 0 0 0 0 0 0 0 0 0 0 0 0 0 0 0 0 0 0 0 0 17 17 17 40 40 40 64 64 64 88 88 88 122 122 122 161 161 161 201 201 201 240 240 240 255 255 255 255 255 255 255 255 255 255 255 255 255 255 255 255 255 255 255 255 255 255 255 255 255 255 255 255 255 255 255 255 255 255 255 255 255 255 255 255 255 255 255 255 255 255 255 255 255 255 255 255 255 255 255 255 255 255 255 255 255 255 255 255 255 255 255 255 255 255 255 255 255 255 255 255 255 255 255 255 255 255 255 255 255 255 255 255 255 255 255 255 255 255 255 255 255 255 255 255 255 255 255 255 255 255 255 255 255 255 255 255 255 255 255 255 255 255 255 255 255 255 255 255 255 255 255 255 255 255 255 255 255 255 255 255 255 255 255 255 255 255 255 255 255 255 255 255 255 255 255 255 255 255 255 255 255 255 255 
255 255 255 255 255 255 255 255 255 255 255 255 255 255 255 255 255 255 255 255 255 255 255 255 255 255 255 255 255 255 255 255 255 255 255 255 255 255 255 255 255 255 255 255 255 255 255 255 255 255 255 255 255 255 255 255 255 255 255 255 255 255 255 255 255 255 255 255 255 255 255 255 255 255 255 255 255 255 255 255 255 255 255 255 255 255 255 255 255 255 255 255 255 255 255 255 255 255 255 255 255 255 255 255 255 255 255 255 255 255 255 255 255 255 255 255 255 255 255 255 255 255 255 255 255 255 255 255 255 255 255 255 255 255 255 255 255 255 255 255 255 254 254 254 254 254 254 253 253 253 252 252 252 251 251 251 249 249 249 228 228 228 174 174 174 121 121 121 67 67 67 28 28 28 21 21 21 13 13 13 5 5 5 0 0 0 0 0 0 0 0 0 0 0 0 0 0 0 0 0 0 0 0 0 0 0 0 0 0 0 0 0 0 0 0 0 0 0 0 0 0 0 0 0 0 0 0 0 0 0 0 2 2 2 22 22 22 42 42 42 62 62 62 82 82 82 108 108 108 134 134 134 160 160 160 186 186 186 191 191 191 196 196 196 200 200 200 205 205 205 206 206 206 207 207 207 207 207 207 208 208 208 208 208 208 208 208 208 208 208 208 208 208 208 208 208 208 208 208 208 208 208 208 208 208 208 208 208 208 208 208 208 208 208 208 208 208 208 208 208 208 208 208 208 207 207 207 207 207 207 204 204 204 201 200 200 197 197 197 193 193 193 178 178 177 158 157 154 137 136 132 116 114 109 104 102 94 97 94 84 90 86 74 83 79 64 76 72 55 69 64 47 62 57 39 55 50 31 51 46 26 49 44 24 47 42 23 45 41 21 49 44 25 58 54 35 67 63 45 76 72 56 83 79 64 86 83 71 90 87 77 93 91 84 103 102 97 125 124 120 147 146 144 168 168 167 184 184 184 188 188 188 192 192 192 196 196 196 199 199 199 199 199 199 200 200 200 201 201 201 201 201 201 202 202 202 202 202 202 202 202 202 202 202 202 201 201 201 201 201 201 200 200 200 200 200 200 199 199 199 198 198 198 196 196 196 195 195 195 193 193 193 190 190 190 188 188 188 185 185 185 180 180 180 175 175 175 170 170 170 165 165 165 146 146 146 126 126 126 106 106 106 86 86 86 65 65 65 44 44 44 23 23 23 2 2 2 0 0 0 0 0 0 0 0 0 0 0 0 0 0 0 0 0 0 0 0 0 0 0 0 0 0 0 0 0 0 0 0 0 0 0 0 0 0 0 0 0 0 0 0 0 0 0 0 15 15 15 36 36 36 57 57 57 78 78 78 113 113 113 155 155 155 197 197 197 239 239 239 255 255 255 255 255 255 255 255 255 255 255 255 255 255 255 255 255 255 255 255 255 255 255 255 255 255 255 255 255 255 255 255 255 255 255 255 255 255 255 255 255 255 255 255 255 255 255 255 255 255 255 255 255 255 255 255 255 255 255 255 255 255 255 255 255 255 255 255 255 255 255 255 255 255 255 255 255 255 255 255 255 255 255 255 255 255 255 255 255 255 255 255 255 255 255 255 255 255 255 255 255 255 255 255 255 255 255 255 255 255 255 255 255 255 255 255 255 255 255 255 255 255 255 255 255 255 255 255 255 255 255 255 255 255 255 255 255 255 255 255 255 255 255 255 255 255 255 255 255 255 255 255 255 255 255 255 255 255 255 
255 255 255 255 255 255 255 255 255 255 255 255 255 255 255 255 255 255 255 255 255 255 255 255 255 255 255 255 255 255 255 255 255 255 255 255 255 255 255 255 255 255 255 255 255 255 255 255 255 255 255 255 255 255 255 255 255 255 255 255 255 255 255 255 255 255 255 255 255 255 255 255 255 255 255 255 255 255 255 255 255 255 255 255 255 255 255 255 255 255 255 255 255 255 255 255 255 255 255 255 255 255 255 255 255 255 255 255 255 255 255 255 255 255 255 255 255 255 255 255 255 255 255 255 255 255 255 255 255 255 255 255 255 255 255 255 255 255 255 255 255 254 254 254 254 254 254 253 253 253 251 251 251 248 248 248 246 246 246 224 224 224 169 169 169 115 115 115 61 61 61 22 22 22 16 16 16 10 10 10 4 4 4 0 0 0 0 0 0 0 0 0 0 0 0 0 0 0 0 0 0 0 0 0 0 0 0 0 0 0 0 0 0 0 0 0 0 0 0 0 0 0 0 0 0 0 0 0 0 0 0 2 2 2 18 18 18 35 35 35 51 51 51 69 69 69 97 97 97 125 125 125 154 154 154 182 182 182 187 187 187 193 193 193 198 198 198 204 204 204 205 205 205 206 206 206 208 208 208 209 209 209 209 209 209 208 208 208 208 208 208 207 207 207 207 207 207 207 207 207 207 207 207 207 207 207 207 207 207 207 207 207 207 207 207 207 207 207 207 207 207 207 207 207 206 206 206 206 206 206 203 203 203 200 200 200 197 197 197 195 194 194 183 182 180 167 166 161 152 149 142 136 133 123 126 122 108 119 114 95 113 106 82 106 98 70 99 90 59 92 83 50 85 76 41 78 69 31 73 64 25 70 61 22 67 58 19 64 55 16 67 59 21 78 69 33 89 80 46 99 91 59 107 100 71 111 106 82 116 111 92 120 117 103 129 127 116 144 142 135 159 158 153 174 174 172 186 185 185 189 188 188 192 191 191 195 195 195 197 197 197 198 198 198 199 199 199 199 199 199 200 200 200 200 200 200 200 200 200 200 200 200 200 200 200 200 200 200 200 200 200 199 199 199 199 199 199 198 198 198 197 197 197 196 196 196 195 195 195 192 192 192 190 190 190 188 188 188 185 185 185 178 178 178 172 172 172 165 165 165 158 158 158 135 135 135 112 112 112 88 88 88 65 65 65 49 49 49 33 33 33 17 17 17 2 2 2 0 0 0 0 0 0 0 0 0 0 0 0 0 0 0 0 0 0 0 0 0 0 0 0 0 0 0 0 0 0 0 0 0 0 0 0 0 0 0 0 0 0 0 0 0 0 0 0 13 13 13 31 31 31 50 50 50 68 68 68 104 104 104 148 148 148 193 193 193 237 237 237 254 254 254 254 254 254 255 255 255 255 255 255 255 255 255 255 255 255 255 255 255 255 255 255 255 255 255 255 255 255 255 255 255 255 255 255 255 255 255 255 255 255 255 255 255 255 255 255 255 255 255 255 255 255 255 255 255 255 255 255 255 255 255 255 255 255 255 255 255 255 255 255 255 255 255 255 255 255 255 255 255 255 255 255 255 255 255 255 255 255 255 255 255 255 255 255 255 255 255 255 255 255 255 255 255 255 255 255 255 255 255 255 255 255 255 255 255 255 255 255 255 255 255 255 255 255 255 255 255 255 255 255 255 255 255 255 255 255 255 255 255 255 255 255 255 255 255 255 255 255 255 255 255 255 255 255 255 255 255 
255 255 255 255 255 255 255 255 255 255 255 255 255 255 255 255 255 255 255 255 255 255 255 255 255 255 255 255 255 255 255 255 255 255 255 255 255 255 255 255 255 255 255 255 255 255 255 255 255 255 255 255 255 255 255 255 255 255 255 255 255 255 255 255 255 255 255 255 255 255 255 255 255 255 255 255 255 255 255 255 255 255 255 255 255 255 255 255 255 255 255 255 255 255 255 255 255 255 255 255 255 255 255 255 255 255 255 255 255 255 255 255 255 255 255 255 255 255 255 255 255 255 255 255 255 255 255 255 255 255 255 255 255 255 255 255 255 255 255 255 255 254 254 254 254 254 254 253 253 253 249 249 249 246 246 246 242 242 242 219 219 219 164 164 164 109 109 109 54 54 54 16 16 16 12 12 12 7 7 7 3 3 3 0 0 0 0 0 0 0 0 0 0 0 0 0 0 0 0 0 0 0 0 0 0 0 0 0 0 0 0 0 0 0 0 0 0 0 0 0 0 0 0 0 0 0 0 0 0 0 0 1 1 1 15 15 15 28 28 28 41 41 41 55 55 55 86 86 86 117 117 117 147 147 147 178 178 178 184 184 184 190 190 190 196 196 196 202 202 202 204 204 204 206 206 206 208 208 208 210 210 210 209 209 209 208 208 208 207 207 207 207 207 207 207 207 207 207 207 207 207 207 207 207 207 207 207 207 207 207 207 207 207 207 207 207 207 207 206 206 206 206 206 206 205 205 205 204 204 204 203 202 202 200 200 200 198 197 197 196 195 194 188 186 183 177 175 167 167 163 152 156 151 136 148 142 121 142 133 106 136 125 90 129 117 75 123 109 63 116 102 52 109 95 42 102 88 32 96 82 25 92 78 20 87 73 16 83 69 11 86 73 16 98 85 32 110 98 47 122 111 63 131 121 78 137 128 92 142 135 107 148 143 121 154 151 135 163 160 149 172 170 163 180 179 176 187 186 186 189 189 189 192 191 191 194 194 194 196 196 196 196 196 196 197 197 197 198 198 198 199 199 199 199 199 199 199 199 199 199 199 199 199 199 199 199 199 199 199 199 199 198 198 198 198 198 198 197 197 197 196 196 196 195 195 195 194 194 194 192 192 192 190 190 190 188 188 188 185 185 185 177 177 177 168 168 168 160 160 160 151 151 151 124 124 124 98 98 98 71 71 71 44 44 44 33 33 33 22 22 22 12 12 12 1 1 1 0 0 0 0 0 0 0 0 0 0 0 0 0 0 0 0 0 0 0 0 0 0 0 0 0 0 0 0 0 0 0 0 0 0 0 0 0 0 0 0 0 0 0 0 0 0 0 0 11 11 11 27 27 27 43 43 43 58 58 58 95 95 95 142 142 142 189 189 189 236 236 236 254 254 254 254 254 254 254 254 254 255 255 255 255 255 255 255 255 255 255 255 255 255 255 255 255 255 255 255 255 255 255 255 255 255 255 255 255 255 255 255 255 255 255 255 255 255 255 255 255 255 255 255 255 255 255 255 255 255 255 255 255 255 255 255 255 255 255 255 255 255 255 255 255 255 255 255 255 255 255 255 255 255 255 255 255 255 255 255 255 255 255 255 255 255 255 255 255 255 255 255 255 255 255 255 255 255 255 255 255 255 255 255 255 255 255 255 255 255 255 255 255 255 255 255 255 255 255 255 255 255 255 255 255 255 255 255 255 255 255 255 255 255 255 255 255 255 255 255 255 255 255 255 255 255 255 255 255 255 255 
255 255 255 255 255 255 255 255 255 255 255 255 255 255 255 255 255 255 255 255 255 255 255 255 255 255 255 255 255 255 255 255 255 255 255 255 255 255 255 255 255 255 255 255 255 255 255 255 255 255 255 255 255 255 255 255 255 255 255 255 255 255 255 255 255 255 255 255 255 255 255 255 255 255 255 255 255 255 255 255 255 255 255 255 255 255 255 255 255 255 255 255 255 255 255 255 255 255 255 255 255 255 255 255 255 255 255 255 255 255 255 255 255 255 255 255 255 255 255 255 255 255 255 255 255 255 255 255 255 255 255 255 255 255 255 255 255 255 255 255 255 254 254 254 254 254 254 252 252 252 248 248 248 243 243 243 239 239 239 215 215 215 159 159 159 104 104 104 48 48 48 10 10 10 7 7 7 5 5 5 2 2 2 0 0 0 0 0 0 0 0 0 0 0 0 0 0 0 0 0 0 0 0 0 0 0 0 0 0 0 0 0 0 0 0 0 0 0 0 0 0 0 0 0 0 0 0 0 0 0 0 1 1 1 11 11 11 21 21 21 31 31 31 42 42 42 75 75 75 108 108 108 141 141 141 174 174 174 181 181 181 187 187 187 194 194 194 201 201 201 203 203 203 206 206 206 208 208 208 211 211 211 210 210 210 209 209 209 207 207 207 206 206 206 206 206 206 206 206 206 206 206 206 206 206 206 206 206 206 206 206 206 206 206 206 206 206 206 205 205 205 205 205 205 204 204 204 203 203 203 202 202 201 200 200 199 198 198 197 197 196 195 192 190 186 187 183 174 182 177 162 176 170 150 170 162 134 164 153 116 158 144 98 153 136 81 146 128 67 139 121 55 132 114 44 125 106 32 119 100 24 113 94 18 108 89 12 102 83 6 105 87 12 119 101 30 132 115 48 145 130 67 156 142 85 162 151 103 169 160 121 175 168 140 180 175 154 182 178 163 184 182 172 187 185 181 188 188 188 190 189 189 191 191 191 193 193 193 194 194 194 195 195 195 196 196 196 196 196 196 197 197 197 197 197 197 198 198 198 198 198 198 198 198 198 198 198 198 197 197 197 197 197 197 197 197 197 196 196 196 195 195 195 195 195 195 194 194 194 192 192 192 190 190 190 188 188 188 186 186 186 175 175 175 165 165 165 154 154 154 144 144 144 114 114 114 84 84 84 54 54 54 23 23 23 17 17 17 11 11 11 6 6 6 1 1 1 0 0 0 0 0 0 0 0 0 0 0 0 0 0 0 0 0 0 0 0 0 0 0 0 0 0 0 0 0 0 0 0 0 0 0 0 0 0 0 0 0 0 0 0 0 0 0 0 9 9 9 22 22 22 36 36 36 49 49 49 86 86 86 135 135 135 185 185 185 234 234 234 253 253 253 254 254 254 254 254 254 255 255 255 255 255 255 255 255 255 255 255 255 255 255 255 255 255 255 255 255 255 255 255 255 255 255 255 255 255 255 255 255 255 255 255 255 255 255 255 255 255 255 255 255 255 255 255 255 255 255 255 255 255 255 255 255 255 255 255 255 255 255 255 255 255 255 255 255 255 255 255 255 255 255 255 255 255 255 255 255 255 255 255 255 255 255 255 255 255 255 255 255 255 255 255 255 255 255 255 255 255 255 255 255 255 255 255 255 255 255 255 255 255 255 255 255 255 255 255 255 255 255 255 255 255 255 255 255 255 255 255 255 255 255 255 255 255 255 255 255 255 255 255 255 255 255 255 255 255 255 
255 255 255 255 255 255 255 255 255 255 255 255 255 255 255 255 255 255 255 255 255 255 255 255 255 255 255 255 255 255 255 255 255 255 255 255 255 255 255 255 255 255 255 255 255 255 255 255 255 255 255 255 255 255 255 255 255 255 255 255 255 255 255 255 255 255 255 255 255 255 255 255 255 255 255 255 255 255 255 255 255 255 255 255 255 255 255 255 255 255 255 255 255 255 255 255 255 255 255 255 255 255 255 255 255 255 255 255 255 255 255 255 255 255 255 255 255 255 255 255 255 255 255 255 255 255 255 255 255 255 255 255 255 255 255 255 255 255 255 255 255 254 254 254 254 254 254 251 251 251 244 244 244 237 237 237 230 230 230 205 205 205 152 152 152 98 98 98 44 44 44 8 8 8 6 6 6 4 4 4 2 2 2 0 0 0 0 0 0 0 0 0 0 0 0 0 0 0 0 0 0 0 0 0 0 0 0 0 0 0 0 0 0 0 0 0 0 0 0 0 0 0 0 0 0 0 0 0 0 0 0 1 1 1 8 8 8 16 16 16 23 23 23 32 32 32 64 64 64 96 96 96 128 128 128 160 160 160 169 169 169 179 179 179 188 188 188 198 198 198 201 201 201 204 204 204 207 207 207 209 209 209 209 209 209 209 209 209 208 208 208 208 208 208 207 207 207 207 207 207 206 206 206 206 206 206 205 205 205 205 205 204 204 204 204 204 204 203 204 203 199 204 201 194 204 200 189 204 198 183 203 197 178 203 195 173 203 194 168 202 192 163 200 189 156 197 185 149 194 181 141 190 177 133 187 172 124 183 167 114 178 162 104 174 157 94 170 152 87 165 147 81 160 143 75 155 138 69 151 134 64 147 130 61 142 126 58 138 122 54 141 125 59 151 136 72 161 146 84 171 157 97 178 165 109 183 171 120 187 177 131 192 183 142 195 187 150 195 188 154 196 189 157 197 190 161 197 191 165 197 191 168 196 192 171 196 192 174 196 193 177 196 193 182 196 194 187 196 195 191 196 195 195 196 196 195 196 196 196 196 196 196 196 196 196 196 196 196 195 195 195 195 195 195 194 194 194 193 193 193 191 191 191 190 190 190 188 188 188 184 184 184 179 179 179 175 175 175 170 170 170 156 156 156 143 143 143 129 129 129 115 115 115 91 91 91 66 66 66 42 42 42 18 18 18 13 13 13 9 9 9 4 4 4 0 0 0 0 0 0 0 0 0 0 0 0 0 0 0 0 0 0 0 0 0 0 0 0 0 0 0 0 0 0 0 0 0 0 0 0 0 0 0 0 0 0 0 0 0 0 0 0 0 0 0 8 8 8 18 18 18 29 29 29 40 40 40 78 78 78 129 129 129 180 180 180 231 231 231 251 251 251 252 252 252 253 253 253 254 254 254 255 255 255 255 255 255 255 255 255 255 255 255 255 255 255 255 255 255 255 255 255 255 255 255 255 255 255 255 255 255 255 255 255 255 255 255 255 255 255 255 255 255 255 255 255 255 255 255 255 255 255 255 255 255 255 255 255 255 255 255 255 255 255 255 255 255 255 255 255 255 255 255 255 255 255 255 255 255 255 255 255 255 255 255 255 255 255 255 255 255 255 255 255 255 255 255 255 255 255 255 255 255 255 255 255 255 255 255 255 255 255 255 255 255 255 255 255 255 255 255 255 255 255 255 255 255 255 255 255 255 255 255 255 255 255 255 255 255 255 255 255 255 255 255 255 255 255 
255 255 255 255 255 255 255 255 255 255 255 255 255 255 255 255 255 255 255 255 255 255 255 255 255 255 255 255 255 255 255 255 255 255 255 255 255 255 255 255 255 255 255 255 255 255 255 255 255 255 255 255 255 255 255 255 255 255 255 255 255 255 255 255 255 255 255 255 255 255 255 255 255 255 255 255 255 255 255 255 255 255 255 255 255 255 255 255 255 255 255 255 255 255 255 255 255 255 255 255 255 255 255 255 255 255 255 255 255 255 255 255 255 255 255 255 255 255 255 255 255 255 255 255 255 255 255 255 255 255 255 255 255 255 255 255 255 255 255 255 255 254 254 254 254 254 254 250 250 250 240 240 240 231 231 231 222 222 222 196 196 196 144 144 144 92 92 92 41 41 41 6 6 6 4 4 4 3 3 3 1 1 1 0 0 0 0 0 0 0 0 0 0 0 0 0 0 0 0 0 0 0 0 0 0 0 0 0 0 0 0 0 0 0 0 0 0 0 0 0 0 0 0 0 0 0 0 0 0 0 0 0 0 0 6 6 6 11 11 11 16 16 16 23 23 23 53 53 53 84 84 84 115 115 115 145 145 145 158 158 158 170 170 170 183 183 183 195 195 195 199 199 199 202 202 202 205 205 205 208 208 208 208 208 208 208 208 208 209 209 209 209 209 209 208 208 208 207 207 207 206 206 206 205 205 205 204 204 204 203 203 203 203 203 202 202 202 200 202 200 193 203 198 183 204 195 173 204 193 163 205 192 155 206 191 147 207 190 139 208 189 131 208 188 127 207 187 123 206 185 120 205 184 117 203 183 114 201 181 112 199 179 110 196 178 108 194 176 107 191 174 106 188 172 106 185 170 105 182 168 105 180 166 104 177 163 103 174 161 103 176 163 106 183 170 113 189 177 121 196 184 128 201 189 134 203 191 137 206 194 140 208 197 144 209 198 145 208 197 144 208 196 143 207 195 141 206 194 142 204 193 146 201 192 151 199 192 155 198 191 160 197 192 169 196 192 178 195 193 186 194 194 193 194 194 194 194 194 194 194 194 194 194 194 194 194 194 194 193 193 193 193 193 193 192 192 192 190 190 190 187 187 187 185 185 185 182 182 182 176 176 176 169 169 169 162 162 162 155 155 155 137 137 137 120 120 120 103 103 103 86 86 86 68 68 68 49 49 49 31 31 31 12 12 12 9 9 9 6 6 6 3 3 3 0 0 0 0 0 0 0 0 0 0 0 0 0 0 0 0 0 0 0 0 0 0 0 0 0 0 0 0 0 0 0 0 0 0 0 0 0 0 0 0 0 0 0 0 0 0 0 0 0 0 0 6 6 6 14 14 14 23 23 23 31 31 31 69 69 69 122 122 122 174 174 174 227 227 227 248 248 248 250 250 250 252 252 252 254 254 254 255 255 255 255 255 255 255 255 255 255 255 255 255 255 255 255 255 255 255 255 255 255 255 255 255 255 255 255 255 255 255 255 255 255 255 255 255 255 255 255 255 255 255 255 255 255 255 255 255 255 255 255 255 255 255 255 255 255 255 255 255 255 255 255 255 255 255 255 255 255 255 255 255 255 255 255 255 255 255 255 255 255 255 255 255 255 255 255 255 255 255 255 255 255 255 255 255 255 255 255 255 255 255 255 255 255 255 255 255 255 255 255 255 255 255 255 255 255 255 255 255 255 255 255 255 255 255 255 255 255 255 255 255 255 255 255 255 255 255 255 255 255 255 255 255 255 255 
255 255 255 255 255 255 255 255 255 255 255 255 255 255 255 255 255 255 255 255 255 255 255 255 255 255 255 255 255 255 255 255 255 255 255 255 255 255 255 255 255 255 255 255 255 255 255 255 255 255 255 255 255 255 255 255 255 255 255 255 255 255 255 255 255 255 255 255 255 255 255 255 255 255 255 255 255 255 255 255 255 255 255 255 255 255 255 255 255 255 255 255 255 255 255 255 255 255 255 255 255 255 255 255 255 255 255 255 255 255 255 255 255 255 255 255 255 255 255 255 255 255 255 255 255 255 255 255 255 255 255 255 255 255 255 255 255 255 255 255 255 254 254 254 254 254 254 249 249 249 237 237 237 225 225 225 213 213 213 187 187 187 137 137 137 87 87 87 37 37 37 3 3 3 2 2 2 2 2 2 1 1 1 0 0 0 0 0 0 0 0 0 0 0 0 0 0 0 0 0 0 0 0 0 0 0 0 0 0 0 0 0 0 0 0 0 0 0 0 0 0 0 0 0 0 0 0 0 0 0 0 0 0 0 3 3 3 6 6 6 9 9 9 13 13 13 43 43 43 72 72 72 102 102 102 131 131 131 146 146 146 162 162 162 177 177 177 193 193 193 197 197 197 200 200 200 203 203 203 206 206 206 207 207 207 208 208 208 209 209 209 210 210 210 209 209 209 208 208 208 206 206 206 205 205 205 203 203 203 202 202 201 201 201 199 200 200 198 200 197 186 202 194 172 203 191 158 205 188 143 207 187 132 209 187 121 211 186 110 214 186 100 215 186 97 216 188 98 218 190 99 219 192 100 219 193 104 219 195 110 219 197 116 218 199 122 218 200 127 217 201 132 216 201 137 215 202 142 214 202 145 213 201 147 212 201 149 211 200 151 212 201 153 215 204 155 218 207 157 221 210 159 223 212 158 223 212 154 224 211 150 225 211 145 224 210 140 222 207 134 219 203 128 217 200 122 214 197 119 210 195 125 206 193 130 203 191 136 199 190 144 198 190 156 196 191 169 194 191 181 193 192 191 193 192 192 193 192 192 193 193 192 193 193 193 192 192 192 191 191 191 190 190 190 189 189 189 186 186 186 183 183 183 180 180 180 177 177 177 168 168 168 158 158 158 149 149 149 139 139 139 119 119 119 98 98 98 78 78 78 57 57 57 45 45 45 32 32 32 19 19 19 6 6 6 4 4 4 3 3 3 2 2 2 0 0 0 0 0 0 0 0 0 0 0 0 0 0 0 0 0 0 0 0 0 0 0 0 0 0 0 0 0 0 0 0 0 0 0 0 0 0 0 0 0 0 0 0 0 0 0 0 0 0 0 4 4 4 11 11 11 17 17 17 23 23 23 61 61 61 115 115 115 169 169 169 223 223 223 246 246 246 248 248 248 251 251 251 253 253 253 254 254 254 255 255 255 255 255 255 255 255 255 255 255 255 255 255 255 255 255 255 255 255 255 255 255 255 255 255 255 255 255 255 255 255 255 255 255 255 255 255 255 255 255 255 255 255 255 255 255 255 255 255 255 255 255 255 255 255 255 255 255 255 255 255 255 255 255 255 255 255 255 255 255 255 255 255 255 255 255 255 255 255 255 255 255 255 255 255 255 255 255 255 255 255 255 255 255 255 255 255 255 255 255 255 255 255 255 255 255 255 255 255 255 255 255 255 255 255 255 255 255 255 255 255 255 255 255 255 255 255 255 255 255 255 255 255 255 255 255 255 255 255 255 255 255 255 
255 255 255 255 255 255 255 255 255 255 255 255 255 255 255 255 255 255 255 255 255 255 255 255 255 255 255 255 255 255 255 255 255 255 255 255 255 255 255 255 255 255 255 255 255 255 255 255 255 255 255 255 255 255 255 255 255 255 255 255 255 255 255 255 255 255 255 255 255 255 255 255 255 255 255 255 255 255 255 255 255 255 255 255 255 255 255 255 255 255 255 255 255 255 255 255 255 255 255 255 255 255 255 255 255 255 255 255 255 255 255 255 255 255 255 255 255 255 255 255 255 255 255 255 255 255 255 255 255 255 255 255 255 255 255 255 255 255 255 255 255 254 254 254 254 254 254 248 248 248 233 233 233 219 219 219 204 204 204 177 177 177 129 129 129 81 81 81 33 33 33 1 1 1 1 1 1 0 0 0 0 0 0 0 0 0 0 0 0 0 0 0 0 0 0 0 0 0 0 0 0 0 0 0 0 0 0 0 0 0 0 0 0 0 0 0 0 0 0 0 0 0 0 0 0 0 0 0 0 0 0 0 0 0 1 1 1 1 1 1 2 2 2 4 4 4 32 32 32 60 60 60 88 88 88 117 117 117 135 135 135 153 153 153 172 172 172 190 190 190 194 194 194 198 198 198 201 201 201 205 205 205 207 207 207 208 208 208 210 210 210 212 212 212 210 210 210 208 208 208 206 206 206 204 204 204 203 203 202 201 201 200 199 199 197 198 198 195 199 194 180 201 191 161 203 187 142 205 183 123 209 182 108 212 182 95 216 182 81 219 182 68 223 185 67 226 190 73 230 194 78 233 199 84 235 204 94 237 209 108 239 214 122 240 220 135 242 224 147 243 227 157 244 231 168 245 234 178 246 236 186 246 237 190 247 238 195 247 239 199 247 240 200 247 239 197 246 238 193 246 237 190 245 235 183 244 232 171 243 229 159 241 225 147 239 221 136 235 216 124 231 211 113 227 205 102 223 201 96 217 197 103 212 194 110 206 190 117 201 188 127 198 189 143 196 189 160 193 190 176 191 190 189 191 190 190 191 191 190 191 191 191 191 191 191 190 190 190 189 189 189 188 188 188 187 187 187 183 183 183 179 179 179 176 176 176 171 171 171 159 159 159 148 148 148 136 136 136 124 124 124 100 100 100 76 76 76 52 52 52 28 28 28 21 21 21 14 14 14 8 8 8 1 1 1 0 0 0 0 0 0 0 0 0 0 0 0 0 0 0 0 0 0 0 0 0 0 0 0 0 0 0 0 0 0 0 0 0 0 0 0 0 0 0 0 0 0 0 0 0 0 0 0 0 0 0 0 0 0 0 0 0 0 0 0 3 3 3 7 7 7 10 10 10 14 14 14 53 53 53 108 108 108 164 164 164 220 220 220 243 243 243 246 246 246 249 249 249 253 253 253 254 254 254 254 254 254 255 255 255 255 255 255 255 255 255 255 255 255 255 255 255 255 255 255 255 255 255 255 255 255 255 255 255 255 255 255 255 255 255 255 255 255 255 255 255 255 255 255 255 255 255 255 255 255 255 255 255 255 255 255 255 255 255 255 255 255 255 255 255 255 255 255 255 255 255 255 255 255 255 255 255 255 255 255 255 255 255 255 255 255 255 255 255 255 255 255 255 255 255 255 255 255 255 255 255 255 255 255 255 255 255 255 255 255 255 255 255 255 255 255 255 255 255 255 255 255 255 255 255 255 255 255 255 255 255 255 255 255 255 255 255 255 255 255 255 255 255 
255 255 255 255 255 255 255 255 255 255 255 255 255 255 255 255 255 255 255 255 255 255 255 255 255 255 255 255 255 255 255 255 255 255 255 255 255 255 255 255 255 255 255 255 255 255 255 255 255 255 255 255 255 255 255 255 255 255 255 255 255 255 255 255 255 255 255 255 255 255 255 255 255 255 255 255 255 255 255 255 255 255 255 255 255 255 255 255 255 255 255 255 255 255 255 255 255 255 255 255 255 255 255 255 255 255 255 255 255 255 255 255 255 255 255 255 255 255 255 255 255 255 255 255 255 255 255 255 255 255 255 255 255 255 255 255 255 255 255 255 255 254 254 254 254 254 254 246 246 246 228 228 228 211 211 211 193 193 193 165 165 165 120 120 120 75 75 75 31 31 31 1 1 1 1 1 1 0 0 0 0 0 0 0 0 0 0 0 0 0 0 0 0 0 0 0 0 0 0 0 0 0 0 0 0 0 0 0 0 0 0 0 0 0 0 0 0 0 0 0 0 0 0 0 0 0 0 0 0 0 0 0 0 0 0 0 0 1 1 1 1 1 1 3 3 3 25 25 25 48 48 48 71 71 71 94 94 94 115 115 115 137 137 137 158 158 158 180 180 180 186 186 186 191 191 191 196 196 196 202 202 202 204 204 204 206 206 206 208 208 208 209 209 209 209 209 209 207 207 207 206 206 206 205 205 205 204 202 198 203 199 189 202 197 181 201 194 172 203 190 155 205 187 136 207 183 116 210 180 97 212 180 84 216 180 74 219 181 63 222 182 53 225 186 54 228 190 61 231 195 67 234 200 74 236 205 86 238 210 100 240 216 115 241 221 130 243 225 142 244 229 154 245 232 165 247 236 177 247 238 185 248 239 189 248 240 194 249 242 199 249 242 201 249 242 200 249 241 198 248 241 196 248 239 192 247 237 184 246 234 175 244 232 167 243 229 159 240 225 151 237 221 143 234 217 135 230 213 130 225 209 131 220 205 132 216 201 132 210 197 135 205 194 143 199 190 151 193 187 160 188 184 167 186 183 170 184 182 174 182 181 178 180 180 180 179 179 179 177 177 177 176 176 176 174 174 174 166 166 166 158 158 158 150 150 150 142 142 142 130 130 130 119 119 119 107 107 107 95 95 95 76 76 76 58 58 58 39 39 39 21 21 21 16 16 16 10 10 10 5 5 5 0 0 0 0 0 0 0 0 0 0 0 0 0 0 0 0 0 0 0 0 0 0 0 0 0 0 0 0 0 0 0 0 0 0 0 0 0 0 0 0 0 0 0 0 0 0 0 0 0 0 0 0 0 0 0 0 0 0 0 0 0 0 0 2 2 2 5 5 5 8 8 8 11 11 11 47 47 47 100 100 100 153 153 153 207 207 207 231 231 231 238 238 238 244 244 244 251 251 251 254 254 254 254 254 254 255 255 255 255 255 255 255 255 255 255 255 255 255 255 255 255 255 255 255 255 255 255 255 255 255 255 255 255 255 255 255 255 255 255 255 255 255 255 255 255 255 255 255 255 255 255 255 255 255 255 255 255 255 255 255 255 255 255 255 255 255 255 255 255 255 255 255 255 255 255 255 255 255 255 255 255 255 255 255 255 255 255 255 255 255 255 255 255 255 255 255 255 255 255 255 255 255 255 255 255 255 255 255 255 255 255 255 255 255 255 255 255 255 255 255 255 255 255 255 255 255 255 255 255 255 255 255 255 255 255 255 255 255 255 255 255 255 255 255 255 255 
255 255 255 255 255 255 255 255 255 255 255 255 255 255 255 255 255 255 255 255 255 255 255 255 255 255 255 255 255 255 255 255 255 255 255 255 255 255 255 255 255 255 255 255 255 255 255 255 255 255 255 255 255 255 255 255 255 255 255 255 255 255 255 255 255 255 255 255 255 255 255 255 255 255 255 255 255 255 255 255 255 255 255 255 255 255 255 255 255 255 255 255 255 255 255 255 255 255 255 255 255 255 255 255 255 255 255 255 255 255 255 255 255 255 255 255 255 255 255 255 255 255 255 255 255 255 255 255 255 255 255 255 255 255 255 255 255 255 255 255 255 254 254 254 254 254 254 245 245 245 223 223 223 202 202 202 181 181 181 152 152 152 111 111 111 69 69 69 28 28 28 0 0 0 0 0 0 0 0 0 0 0 0 0 0 0 0 0 0 0 0 0 0 0 0 0 0 0 0 0 0 0 0 0 0 0 0 0 0 0 0 0 0 0 0 0 0 0 0 0 0 0 0 0 0 0 0 0 0 0 0 0 0 0 0 0 0 1 1 1 1 1 1 2 2 2 19 19 19 36 36 36 53 53 53 71 71 71 95 95 95 120 120 120 144 144 144 169 169 169 177 177 177 184 184 184 191 191 191 199 199 199 201 201 201 203 203 203 205 205 205 207 207 207 207 207 207 206 206 206 206 206 206 205 205 205 205 202 193 205 198 178 205 194 164 205 190 149 207 186 130 209 183 110 212 180 90 214 177 70 216 177 59 219 179 52 222 181 45 224 182 39 227 186 42 229 191 49 232 195 57 234 200 65 236 205 77 238 211 92 240 216 108 241 221 123 243 225 136 244 229 149 245 232 161 247 236 173 248 238 181 248 239 187 249 241 192 249 242 197 249 243 200 249 243 201 249 243 201 249 243 202 249 242 200 248 241 196 248 239 192 247 238 188 246 236 184 244 233 179 242 231 175 240 228 171 237 225 166 233 221 160 229 217 155 226 212 150 220 207 145 211 199 144 202 191 143 192 183 142 184 177 143 180 175 150 177 173 157 173 171 164 169 169 169 167 167 167 166 166 166 164 164 164 160 160 160 148 148 148 136 136 136 124 124 124 112 112 112 100 100 100 89 89 89 77 77 77 65 65 65 52 52 52 40 40 40 27 27 27 14 14 14 11 11 11 7 7 7 4 4 4 0 0 0 0 0 0 0 0 0 0 0 0 0 0 0 0 0 0 0 0 0 0 0 0 0 0 0 0 0 0 0 0 0 0 0 0 0 0 0 0 0 0 0 0 0 0 0 0 0 0 0 0 0 0 0 0 0 0 0 0 0 0 0 1 1 1 3 3 3 5 5 5 7 7 7 41 41 41 92 92 92 142 142 142 193 193 193 218 218 218 229 229 229 239 239 239 250 250 250 254 254 254 254 254 254 255 255 255 255 255 255 255 255 255 255 255 255 255 255 255 255 255 255 255 255 255 255 255 255 255 255 255 255 255 255 255 255 255 255 255 255 255 255 255 255 255 255 255 255 255 255 255 255 255 255 255 255 255 255 255 255 255 255 255 255 255 255 255 255 255 255 255 255 255 255 255 255 255 255 255 255 255 255 255 255 255 255 255 255 255 255 255 255 255 255 255 255 255 255 255 255 255 255 255 255 255 255 255 255 255 255 255 255 255 255 255 255 255 255 255 255 255 255 255 255 255 255 255 255 255 255 255 255 255 255 255 255 255 255 255 255 255 255 255 255 255 
255 255 255 255 255 255 255 255 255 255 255 255 255 255 255 255 255 255 255 255 255 255 255 255 255 255 255 255 255 255 255 255 255 255 255 255 255 255 255 255 255 255 255 255 255 255 255 255 255 255 255 255 255 255 255 255 255 255 255 255 255 255 255 255 255 255 255 255 255 255 255 255 255 255 255 255 255 255 255 255 255 255 255 255 255 255 255 255 255 255 255 255 255 255 255 255 255 255 255 255 255 255 255 255 255 255 255 255 255 255 255 255 255 255 255 255 255 255 255 255 255 255 255 255 255 255 255 255 255 255 255 255 255 255 255 255 255 255 255 255 255 254 254 254 254 254 254 243 243 243 219 219 219 194 194 194 169 169 169 139 139 139 101 101 101 63 63 63 25 25 25 0 0 0 0 0 0 0 0 0 0 0 0 0 0 0 0 0 0 0 0 0 0 0 0 0 0 0 0 0 0 0 0 0 0 0 0 0 0 0 0 0 0 0 0 0 0 0 0 0 0 0 0 0 0 0 0 0 0 0 0 0 0 0 0 0 0 0 0 0 0 0 0 1 1 1 13 13 13 24 24 24 36 36 36 47 47 47 75 75 75 103 103 103 130 130 130 158 158 158 168 168 168 177 177 177 186 186 186 195 195 195 198 198 198 200 200 200 202 202 202 204 204 204 205 205 205 205 205 205 205 205 205 205 205 205 206 201 188 207 196 167 208 191 146 209 186 125 211 182 105 214 179 84 216 176 63 218 173 43 220 174 34 222 177 31 224 180 28 226 183 24 228 187 29 230 191 38 232 196 47 234 201 55 236 206 69 238 211 84 240 216 100 241 221 116 243 226 130 244 229 143 246 233 156 247 236 169 248 238 178 248 240 184 249 241 189 249 242 195 250 243 199 250 244 202 250 244 204 251 245 207 251 245 209 250 245 209 250 244 209 250 244 209 249 243 208 248 242 208 247 241 207 246 240 206 244 238 202 241 233 190 238 228 178 235 223 167 230 217 155 217 205 145 204 192 135 192 180 125 181 170 119 175 167 130 169 164 140 164 161 150 158 158 158 156 156 156 154 154 154 151 151 151 147 147 147 130 130 130 114 114 114 98 98 98 82 82 82 70 70 70 59 59 59 47 47 47 35 35 35 28 28 28 21 21 21 14 14 14 7 7 7 6 6 6 4 4 4 2 2 2 0 0 0 0 0 0 0 0 0 0 0 0 0 0 0 0 0 0 0 0 0 0 0 0 0 0 0 0 0 0 0 0 0 0 0 0 0 0 0 0 0 0 0 0 0 0 0 0 0 0 0 0 0 0 0 0 0 0 0 0 0 0 0 1 1 1 2 2 2 3 3 3 4 4 4 36 36 36 84 84 84 131 131 131 179 179 179 206 206 206 220 220 220 234 234 234 248 248 248 254 254 254 254 254 254 255 255 255 255 255 255 255 255 255 255 255 255 255 255 255 255 255 255 255 255 255 255 255 255 255 255 255 255 255 255 255 255 255 255 255 255 255 255 255 255 255 255 255 255 255 255 255 255 255 255 255 255 255 255 255 255 255 255 255 255 255 255 255 255 255 255 255 255 255 255 255 255 255 255 255 255 255 255 255 255 255 255 255 255 255 255 255 255 255 255 255 255 255 255 255 255 255 255 255 255 255 255 255 255 255 255 255 255 255 255 255 255 255 255 255 255 255 255 255 255 255 255 255 255 255 255 255 255 255 255 255 255 255 255 255 255 255 255 255 255 255 
255 255 255 255 255 255 255 255 255 255 255 255 255 255 255 255 255 255 255 255 255 255 255 255 255 255 255 255 255 255 255 255 255 255 255 255 255 255 255 255 255 255 255 255 255 255 255 255 255 255 255 255 255 255 255 255 255 255 255 255 255 255 255 255 255 255 255 255 255 255 255 255 255 255 255 255 255 255 255 255 255 255 255 255 255 255 255 255 255 255 255 255 255 255 255 255 255 255 255 255 255 255 255 255 255 255 255 255 255 255 255 255 255 255 255 255 255 255 255 255 255 255 255 255 255 255 255 255 255 255 255 255 255 255 255 255 255 255 255 255 255 254 254 254 254 254 254 242 242 242 214 214 214 185 185 185 157 157 157 126 126 126 92 92 92 57 57 57 23 23 23 0 0 0 0 0 0 0 0 0 0 0 0 0 0 0 0 0 0 0 0 0 0 0 0 0 0 0 0 0 0 0 0 0 0 0 0 0 0 0 0 0 0 0 0 0 0 0 0 0 0 0 0 0 0 0 0 0 0 0 0 0 0 0 0 0 0 0 0 0 0 0 0 0 0 0 6 6 6 12 12 12 18 18 18 24 24 24 55 55 55 85 85 85 116 116 116 147 147 147 159 159 159 170 170 170 181 181 181 192 192 192 195 195 195 197 197 197 200 200 200 202 202 202 203 203 203 204 204 204 205 205 205 206 206 206 207 201 184 209 195 157 211 188 129 213 182 102 215 178 79 218 176 58 220 173 37 223 170 16 225 172 10 226 176 10 227 179 10 228 183 10 230 187 17 231 192 27 233 196 36 234 201 46 236 206 60 238 211 77 240 217 93 241 222 110 243 226 124 244 229 138 246 233 152 247 236 166 248 239 175 249 240 181 249 241 187 250 242 192 250 244 198 251 245 203 251 246 208 252 247 213 252 248 217 252 249 221 252 249 225 253 250 229 253 250 233 253 251 236 252 251 239 252 252 242 252 250 238 250 245 220 248 240 202 245 235 184 239 226 165 223 210 146 207 193 126 191 177 107 177 164 96 170 160 109 162 155 123 154 151 137 147 147 147 145 145 145 142 142 142 139 139 139 133 133 133 113 113 113 92 92 92 72 72 72 52 52 52 40 40 40 29 29 29 17 17 17 6 6 6 4 4 4 3 3 3 2 2 2 1 1 1 0 0 0 0 0 0 0 0 0 0 0 0 0 0 0 0 0 0 0 0 0 0 0 0 0 0 0 0 0 0 0 0 0 0 0 0 0 0 0 0 0 0 0 0 0 0 0 0 0 0 0 0 0 0 0 0 0 0 0 0 0 0 0 0 0 0 0 0 0 0 0 0 0 0 0 0 0 0 0 0 0 0 0 0 30 30 30 75 75 75 120 120 120 165 165 165 193 193 193 211 211 211 229 229 229 246 246 246 254 254 254 254 254 254 255 255 255 255 255 255 255 255 255 255 255 255 255 255 255 255 255 255 255 255 255 255 255 255 255 255 255 255 255 255 255 255 255 255 255 255 255 255 255 255 255 255 255 255 255 255 255 255 255 255 255 255 255 255 255 255 255 255 255 255 255 255 255 255 255 255 255 255 255 255 255 255 255 255 255 255 255 255 255 255 255 255 255 255 255 255 255 255 255 255 255 255 255 255 255 255 255 255 255 255 255 255 255 255 255 255 255 255 255 255 255 255 255 255 255 255 255 255 255 255 255 255 255 255 255 255 255 255 255 255 255 255 255 255 255 255 255 255 255 255 255 
255 255 255 255 255 255 255 255 255 255 255 255 255 255 255 255 255 255 255 255 255 255 255 255 255 255 255 255 255 255 255 255 255 255 255 255 255 255 255 255 255 255 255 255 255 255 255 255 255 255 255 255 255 255 255 255 255 255 255 255 255 255 255 255 255 255 255 255 255 255 255 255 255 255 255 255 255 255 255 255 255 255 255 255 255 255 255 255 255 255 255 255 255 255 255 255 255 255 255 255 255 255 255 255 255 255 255 255 255 255 255 255 255 255 255 255 255 255 255 255 255 255 255 255 255 255 255 255 255 255 255 255 255 255 255 255 255 255 255 255 255 254 254 254 254 254 254 240 240 240 207 207 207 173 173 173 140 140 140 108 108 108 79 79 79 49 49 49 20 20 20 0 0 0 0 0 0 0 0 0 0 0 0 0 0 0 0 0 0 0 0 0 0 0 0 0 0 0 0 0 0 0 0 0 0 0 0 0 0 0 0 0 0 0 0 0 0 0 0 0 0 0 0 0 0 0 0 0 0 0 0 0 0 0 0 0 0 0 0 0 0 0 0 0 0 0 4 4 4 9 9 9 13 13 13 17 17 17 44 44 44 70 70 70 96 96 96 123 123 123 138 138 138 153 153 153 167 167 167 182 182 182 186 186 186 189 189 189 193 193 193 196 196 196 198 198 198 199 199 199 201 201 201 202 202 202 205 198 179 209 192 151 212 186 122 215 181 93 218 178 73 220 177 56 222 175 39 225 174 21 226 175 15 227 178 12 228 181 10 229 184 8 230 187 12 231 192 20 233 196 27 234 200 35 235 204 46 237 209 59 238 213 72 240 217 85 241 221 98 242 225 111 244 228 125 245 231 138 246 234 150 247 236 160 248 238 170 249 240 180 250 242 188 250 243 194 251 245 200 251 246 206 251 247 212 252 248 216 252 249 221 252 250 226 253 250 230 253 251 234 253 251 237 253 252 241 252 251 239 251 247 224 249 243 210 247 239 195 242 231 178 226 214 154 210 197 130 195 179 105 181 166 91 173 162 107 165 158 122 157 154 138 150 150 150 149 149 149 147 147 147 145 145 145 141 141 141 124 124 124 107 107 107 90 90 90 73 73 73 57 57 57 42 42 42 26 26 26 11 11 11 8 8 8 6 6 6 3 3 3 0 0 0 0 0 0 0 0 0 0 0 0 0 0 0 0 0 0 0 0 0 0 0 0 0 0 0 0 0 0 0 0 0 0 0 0 0 0 0 0 0 0 0 0 0 0 0 0 0 0 0 0 0 0 0 0 0 0 0 0 0 0 0 0 0 0 0 0 0 0 0 0 0 0 0 0 0 0 0 0 0 0 0 0 0 0 0 25 25 25 64 64 64 102 102 102 140 140 140 170 170 170 194 194 194 219 219 219 243 243 243 254 254 254 254 254 254 255 255 255 255 255 255 255 255 255 255 255 255 255 255 255 255 255 255 255 255 255 255 255 255 255 255 255 255 255 255 255 255 255 255 255 255 255 255 255 255 255 255 255 255 255 255 255 255 255 255 255 255 255 255 255 255 255 255 255 255 255 255 255 255 255 255 255 255 255 255 255 255 255 255 255 255 255 255 255 255 255 255 255 255 255 255 255 255 255 255 255 255 255 255 255 255 255 255 255 255 255 255 255 255 255 255 255 255 255 255 255 255 255 255 255 255 255 255 255 255 255 255 255 255 255 255 255 255 255 255 255 255 255 255 255 255 255 255 255 255 255 
255 255 255 255 255 255 255 255 255 255 255 255 255 255 255 255 255 255 255 255 255 255 255 255 255 255 255 255 255 255 255 255 255 255 255 255 255 255 255 255 255 255 255 255 255 255 255 255 255 255 255 255 255 255 255 255 255 255 255 255 255 255 255 255 255 255 255 255 255 255 255 255 255 255 255 255 255 255 255 255 255 255 255 255 255 255 255 255 255 255 255 255 255 255 255 255 255 255 255 255 255 255 255 255 255 255 255 255 255 255 255 255 255 255 255 255 255 255 255 255 255 255 255 255 255 255 255 255 255 255 255 255 255 255 255 255 255 255 255 255 255 254 254 254 254 254 254 238 238 238 199 199 199 161 161 161 123 123 123 90 90 90 65 65 65 41 41 41 16 16 16 0 0 0 0 0 0 0 0 0 0 0 0 0 0 0 0 0 0 0 0 0 0 0 0 0 0 0 0 0 0 0 0 0 0 0 0 0 0 0 0 0 0 0 0 0 0 0 0 0 0 0 0 0 0 0 0 0 0 0 0 0 0 0 0 0 0 0 0 0 0 0 0 0 0 0 3 3 3 6 6 6 9 9 9 12 12 12 33 33 33 55 55 55 76 76 76 98 98 98 116 116 116 134 134 134 152 152 152 171 171 171 176 176 176 181 181 181 185 185 185 190 190 190 192 192 192 194 194 194 196 196 196 199 199 199 203 195 175 207 190 145 212 185 115 217 180 86 220 179 69 222 179 56 224 178 43 227 178 30 228 180 23 228 181 17 229 183 12 229 185 7 230 188 8 231 191 13 232 195 19 234 199 24 235 202 31 236 206 40 237 209 49 238 212 58 239 216 69 240 219 82 242 223 95 243 226 108 244 229 122 246 232 137 247 235 151 248 238 166 249 240 177 249 242 184 250 243 192 250 245 199 251 246 205 251 247 210 251 248 214 252 249 219 252 249 224 252 250 228 252 251 232 252 251 236 252 251 236 251 248 226 250 245 216 249 242 206 243 235 191 228 217 162 213 200 134 198 182 106 185 168 88 177 165 105 169 161 123 161 157 140 154 154 154 154 154 154 154 154 154 154 154 154 152 152 152 139 139 139 126 126 126 113 113 113 99 99 99 79 79 79 59 59 59 39 39 39 20 20 20 15 15 15 10 10 10 5 5 5 0 0 0 0 0 0 0 0 0 0 0 0 0 0 0 0 0 0 0 0 0 0 0 0 0 0 0 0 0 0 0 0 0 0 0 0 0 0 0 0 0 0 0 0 0 0 0 0 0 0 0 0 0 0 0 0 0 0 0 0 0 0 0 0 0 0 0 0 0 0 0 0 0 0 0 0 0 0 0 0 0 0 0 0 0 0 0 21 21 21 52 52 52 83 83 83 114 114 114 145 145 145 177 177 177 208 208 208 240 240 240 254 254 254 254 254 254 254 254 254 255 255 255 255 255 255 255 255 255 255 255 255 255 255 255 255 255 255 255 255 255 255 255 255 255 255 255 255 255 255 255 255 255 255 255 255 255 255 255 255 255 255 255 255 255 255 255 255 255 255 255 255 255 255 255 255 255 255 255 255 255 255 255 255 255 255 255 255 255 255 255 255 255 255 255 255 255 255 255 255 255 255 255 255 255 255 255 255 255 255 255 255 255 255 255 255 255 255 255 255 255 255 255 255 255 255 255 255 255 255 255 255 255 255 255 255 255 255 255 255 255 255 255 255 255 255 255 255 255 255 255 255 255 255 255 255 255 255 
255 255 255 255 255 255 255 255 255 255 255 255 255 255 255 255 255 255 255 255 255 255 255 255 255 255 255 255 255 255 255 255 255 255 255 255 255 255 255 255 255 255 255 255 255 255 255 255 255 255 255 255 255 255 255 255 255 255 255 255 255 255 255 255 255 255 255 255 255 255 255 255 255 255 255 255 255 255 255 255 255 255 255 255 255 255 255 255 255 255 255 255 255 255 255 255 255 255 255 255 255 255 255 255 255 255 255 255 255 255 255 255 255 255 255 255 255 255 255 255 255 255 255 255 255 255 255 255 255 255 255 255 255 255 255 255 255 255 255 255 255 254 254 254 254 254 254 235 235 235 192 192 192 149 149 149 105 105 105 71 71 71 52 52 52 32 32 32 13 13 13 0 0 0 0 0 0 0 0 0 0 0 0 0 0 0 0 0 0 0 0 0 0 0 0 0 0 0 0 0 0 0 0 0 0 0 0 0 0 0 0 0 0 0 0 0 0 0 0 0 0 0 0 0 0 0 0 0 0 0 0 0 0 0 0 0 0 0 0 0 0 0 0 0 0 0 2 2 2 3 3 3 5 5 5 6 6 6 23 23 23 40 40 40 56 56 56 73 73 73 94 94 94 116 116 116 138 138 138 159 159 159 166 166 166 172 172 172 178 178 178 183 183 183 186 186 186 189 189 189 192 192 192 195 195 195 200 192 170 206 187 140 212 183 109 218 179 78 221 179 64 224 180 56 226 182 48 228 183 40 229 184 31 229 185 22 229 185 14 230 186 5 230 188 4 231 191 7 232 194 10 233 198 13 234 200 17 235 203 22 235 205 27 236 207 31 237 210 41 238 214 53 240 217 65 241 221 78 242 224 94 244 228 113 245 232 133 247 236 152 248 239 167 249 240 175 249 242 183 250 244 191 250 245 198 250 246 203 251 247 208 251 248 213 252 248 218 252 249 222 252 250 227 252 250 231 252 250 233 251 248 227 251 247 222 250 245 217 245 238 204 231 221 171 216 203 138 202 185 106 189 171 85 181 168 104 173 164 124 165 161 143 159 159 159 160 160 160 161 161 161 162 162 162 162 162 162 153 153 153 145 145 145 136 136 136 126 126 126 102 102 102 77 77 77 53 53 53 29 29 29 22 22 22 15 15 15 7 7 7 0 0 0 0 0 0 0 0 0 0 0 0 0 0 0 0 0 0 0 0 0 0 0 0 0 0 0 0 0 0 0 0 0 0 0 0 0 0 0 0 0 0 0 0 0 0 0 0 0 0 0 0 0 0 0 0 0 0 0 0 0 0 0 0 0 0 0 0 0 0 0 0 0 0 0 0 0 0 0 0 0 0 0 0 0 0 0 16 16 16 40 40 40 63 63 63 87 87 87 120 120 120 159 159 159 198 198 198 237 237 237 254 254 254 254 254 254 254 254 254 255 255 255 255 255 255 255 255 255 255 255 255 255 255 255 255 255 255 255 255 255 255 255 255 255 255 255 255 255 255 255 255 255 255 255 255 255 255 255 255 255 255 255 255 255 255 255 255 255 255 255 255 255 255 255 255 255 255 255 255 255 255 255 255 255 255 255 255 255 255 255 255 255 255 255 255 255 255 255 255 255 255 255 255 255 255 255 255 255 255 255 255 255 255 255 255 255 255 255 255 255 255 255 255 255 255 255 255 255 255 255 255 255 255 255 255 255 255 255 255 255 255 255 255 255 255 255 255 255 255 255 255 255 255 255 255 255 255 
255 255 255 255 255 255 255 255 255 255 255 255 255 255 255 255 255 255 255 255 255 255 255 255 255 255 255 255 255 255 255 255 255 255 255 255 255 255 255 255 255 255 255 255 255 255 255 255 255 255 255 255 255 255 255 255 255 255 255 255 255 255 255 255 255 255 255 255 255 255 255 255 255 255 255 255 255 255 255 255 255 255 255 255 255 255 255 255 255 255 255 255 255 255 255 255 255 255 255 255 255 255 255 255 255 255 255 255 255 255 255 255 255 255 255 255 255 255 255 255 255 255 255 255 255 255 255 255 255 255 255 255 255 255 255 255 255 255 255 255 255 254 254 254 254 254 254 233 233 233 185 185 185 136 136 136 88 88 88 52 52 52 38 38 38 24 24 24 10 10 10 0 0 0 0 0 0 0 0 0 0 0 0 0 0 0 0 0 0 0 0 0 0 0 0 0 0 0 0 0 0 0 0 0 0 0 0 0 0 0 0 0 0 0 0 0 0 0 0 0 0 0 0 0 0 0 0 0 0 0 0 0 0 0 0 0 0 0 0 0 0 0 0 0 0 0 0 0 0 0 0 0 1 1 1 1 1 1 13 13 13 24 24 24 36 36 36 48 48 48 73 73 73 98 98 98 123 123 123 148 148 148 157 157 157 163 163 163 170 170 170 177 177 177 181 181 181 184 184 184 188 188 188 191 191 191 198 189 166 205 185 134 212 182 102 220 178 71 223 179 60 226 182 56 228 185 52 230 188 49 231 188 39 230 188 28 230 187 16 230 187 4 230 189 1 231 191 1 232 194 1 233 196 2 233 198 2 234 199 3 234 201 4 234 202 5 235 205 12 236 208 24 237 212 36 239 215 48 240 219 66 242 224 90 244 229 115 246 234 139 247 237 156 248 239 165 248 240 174 249 242 184 249 244 191 250 245 196 250 246 202 251 247 207 251 247 212 251 248 217 252 249 222 252 250 226 252 250 229 252 249 229 251 249 228 251 248 227 247 242 216 233 224 179 219 206 143 205 188 106 193 174 82 185 171 103 177 168 124 169 165 145 163 163 163 165 165 165 168 168 168 170 170 170 172 172 172 168 168 168 163 163 163 159 159 159 152 152 152 124 124 124 95 95 95 66 66 66 38 38 38 29 29 29 19 19 19 10 10 10 0 0 0 0 0 0 0 0 0 0 0 0 0 0 0 0 0 0 0 0 0 0 0 0 0 0 0 0 0 0 0 0 0 0 0 0 0 0 0 0 0 0 0 0 0 0 0 0 0 0 0 0 0 0 0 0 0 0 0 0 0 0 0 0 0 0 0 0 0 0 0 0 0 0 0 0 0 0 0 0 0 0 0 0 0 0 0 11 11 11 28 28 28 44 44 44 61 61 61 96 96 96 142 142 142 187 187 187 233 233 233 253 253 253 254 254 254 254 254 254 255 255 255 255 255 255 255 255 255 255 255 255 255 255 255 255 255 255 255 255 255 255 255 255 255 255 255 255 255 255 255 255 255 255 255 255 255 255 255 255 255 255 255 255 255 255 255 255 255 255 255 255 255 255 255 255 255 255 255 255 255 255 255 255 255 255 255 255 255 255 255 255 255 255 255 255 255 255 255 255 255 255 255 255 255 255 255 255 255 255 255 255 255 255 255 255 255 255 255 255 255 255 255 255 255 255 255 255 255 255 255 255 255 255 255 255 255 255 255 255 255 255 255 255 255 255 255 255 255 255 255 255 255 255 255 255 255 255 
255 255 255 255 255 255 255 255 255 255 255 255 255 255 255 255 255 255 255 255 255 255 255 255 255 255 255 255 255 255 255 255 255 255 255 255 255 255 255 255 255 255 255 255 255 255 255 255 255 255 255 255 255 255 255 255 255 255 255 255 255 255 255 255 255 255 255 255 255 255 255 255 255 255 255 255 255 255 255 255 255 255 255 255 255 255 255 255 255 255 255 255 255 255 255 255 255 255 255 255 255 255 255 255 255 255 255 255 255 255 255 255 255 255 255 255 255 255 255 255 255 255 255 255 255 255 255 255 255 255 255 255 255 255 255 253 253 253 249 249 249 246 246 246 242 242 242 219 219 219 171 171 171 122 122 122 74 74 74 39 39 39 29 29 29 18 18 18 7 7 7 0 0 0 0 0 0 0 0 0 0 0 0 0 0 0 0 0 0 0 0 0 0 0 0 0 0 0 0 0 0 0 0 0 0 0 0 0 0 0 0 0 0 0 0 0 0 0 0 0 0 0 0 0 0 0 0 0 0 0 0 0 0 0 0 0 0 0 0 0 0 0 0 0 0 0 3 3 3 5 5 5 8 8 8 10 10 10 26 26 26 41 41 41 56 56 56 72 72 72 91 91 91 111 111 111 131 131 131 151 151 151 156 156 156 161 161 161 165 165 165 170 170 170 172 172 172 174 174 174 177 177 177 179 179 179 185 177 156 193 174 127 200 171 99 208 169 70 213 172 62 219 178 60 225 184 59 230 189 57 231 190 48 231 190 35 231 189 23 231 188 10 231 189 5 231 192 3 232 194 2 233 196 1 233 197 0 233 199 0 234 200 1 234 201 1 235 203 6 236 206 15 237 209 25 238 212 34 239 216 49 241 220 70 242 224 91 244 229 112 245 232 129 246 235 143 247 237 156 248 240 170 249 242 180 249 243 187 250 244 193 250 245 199 251 246 205 251 247 210 251 248 215 251 248 220 251 248 221 250 246 216 249 243 211 247 241 205 243 235 193 229 219 166 215 203 139 202 186 112 190 174 96 185 173 116 180 172 135 175 172 155 172 172 172 174 174 174 177 177 177 180 180 180 182 182 182 179 179 179 177 177 177 174 174 174 170 170 170 147 147 147 123 123 123 100 100 100 78 78 78 62 62 62 47 47 47 32 32 32 17 17 17 13 13 13 8 8 8 4 4 4 0 0 0 0 0 0 0 0 0 0 0 0 0 0 0 0 0 0 0 0 0 0 0 0 0 0 0 0 0 0 0 0 0 0 0 0 0 0 0 0 0 0 0 0 0 0 0 0 0 0 0 0 0 0 0 0 0 0 0 0 0 0 0 0 0 0 0 0 0 0 0 0 0 0 0 9 9 9 22 22 22 35 35 35 48 48 48 81 81 81 126 126 126 172 172 172 217 217 217 239 239 239 244 244 244 248 248 248 253 253 253 255 255 255 255 255 255 255 255 255 255 255 255 255 255 255 255 255 255 255 255 255 255 255 255 255 255 255 255 255 255 255 255 255 255 255 255 255 255 255 255 255 255 255 255 255 255 255 255 255 255 255 255 255 255 255 255 255 255 255 255 255 255 255 255 255 255 255 255 255 255 255 255 255 255 255 255 255 255 255 255 255 255 255 255 255 255 255 255 255 255 255 255 255 255 255 255 255 255 255 255 255 255 255 255 255 255 255 255 255 255 255 255 255 255 255 255 255 255 255 255 255 255 255 255 255 255 255 255 255 255 255 255 255 255 255 
255 255 255 255 255 255 255 255 255 255 255 255 255 255 255 255 255 255 255 255 255 255 255 255 255 255 255 255 255 255 255 255 255 255 255 255 255 255 255 255 255 255 255 255 255 255 255 255 255 255 255 255 255 255 255 255 255 255 255 255 255 255 255 255 255 255 255 255 255 255 255 255 255 255 255 255 255 255 255 255 255 255 255 255 255 255 255 255 255 255 255 255 255 255 255 255 255 255 255 255 255 255 255 255 255 255 255 255 255 255 255 255 255 255 255 255 255 255 255 255 255 255 255 255 255 255 255 255 255 255 255 255 255 255 255 251 251 251 243 243 243 236 236 236 228 228 228 203 203 203 155 155 155 107 107 107 60 60 60 27 27 27 20 20 20 12 12 12 5 5 5 0 0 0 0 0 0 0 0 0 0 0 0 0 0 0 0 0 0 0 0 0 0 0 0 0 0 0 0 0 0 0 0 0 0 0 0 0 0 0 0 0 0 0 0 0 0 0 0 0 0 0 0 0 0 0 0 0 0 0 0 0 0 0 0 0 0 0 0 0 0 0 0 0 0 0 6 6 6 11 11 11 17 17 17 22 22 22 43 43 43 63 63 63 83 83 83 104 104 104 117 117 117 130 130 130 142 142 142 155 155 155 158 158 158 159 159 159 161 161 161 163 163 163 163 163 163 164 164 164 165 165 165 165 165 165 171 164 145 178 162 120 186 160 96 193 158 71 202 164 65 211 173 65 220 182 65 230 190 65 232 192 56 232 191 43 231 190 30 231 190 17 231 190 11 232 192 8 232 194 4 233 195 1 233 197 0 234 198 0 234 200 0 234 201 0 235 203 4 236 205 11 236 208 17 237 210 23 238 213 35 239 216 51 240 220 66 242 223 82 243 227 99 244 230 118 246 234 137 247 237 155 248 240 169 248 241 176 249 243 184 250 244 191 250 245 198 250 246 203 251 246 208 251 247 213 250 246 213 248 241 201 245 237 189 243 233 177 238 226 165 224 212 149 211 198 134 197 184 119 186 174 112 185 175 130 183 177 148 182 179 166 181 181 181 184 184 184 187 187 187 189 189 189 192 192 192 191 191 191 189 189 189 188 188 188 185 185 185 170 170 170 154 154 154 138 138 138 122 122 122 101 101 101 79 79 79 58 58 58 36 36 36 27 27 27 18 18 18 9 9 9 0 0 0 0 0 0 0 0 0 0 0 0 0 0 0 0 0 0 0 0 0 0 0 0 0 0 0 0 0 0 0 0 0 0 0 0 0 0 0 0 0 0 0 0 0 0 0 0 0 0 0 0 0 0 0 0 0 0 0 0 0 0 0 0 0 0 0 0 0 0 0 0 0 0 0 7 7 7 17 17 17 27 27 27 37 37 37 68 68 68 111 111 111 155 155 155 199 199 199 223 223 223 232 232 232 241 241 241 251 251 251 255 255 255 255 255 255 255 255 255 255 255 255 255 255 255 255 255 255 255 255 255 255 255 255 255 255 255 255 255 255 255 255 255 255 255 255 255 255 255 255 255 255 255 255 255 255 255 255 255 255 255 255 255 255 255 255 255 255 255 255 255 255 255 255 255 255 255 255 255 255 255 255 255 255 255 255 255 255 255 255 255 255 255 255 255 255 255 255 255 255 255 255 255 255 255 255 255 255 255 255 255 255 255 255 255 255 255 255 255 255 255 255 255 255 255 255 255 255 255 255 255 255 255 255 255 255 255 255 255 255 255 255 255 255 255 
255 255 255 255 255 255 255 255 255 255 255 255 255 255 255 255 255 255 255 255 255 255 255 255 255 255 255 255 255 255 255 255 255 255 255 255 255 255 255 255 255 255 255 255 255 255 255 255 255 255 255 255 255 255 255 255 255 255 255 255 255 255 255 255 255 255 255 255 255 255 255 255 255 255 255 255 255 255 255 255 255 255 255 255 255 255 255 255 255 255 255 255 255 255 255 255 255 255 255 255 255 255 255 255 255 255 255 255 255 255 255 255 255 255 255 255 255 255 255 255 255 255 255 255 255 255 255 255 255 255 255 255 255 255 255 249 249 249 237 237 237 225 225 225 214 214 214 187 187 187 140 140 140 93 93 93 46 46 46 15 15 15 11 11 11 7 7 7 3 3 3 0 0 0 0 0 0 0 0 0 0 0 0 0 0 0 0 0 0 0 0 0 0 0 0 0 0 0 0 0 0 0 0 0 0 0 0 0 0 0 0 0 0 0 0 0 0 0 0 0 0 0 0 0 0 0 0 0 0 0 0 0 0 0 0 0 0 0 0 0 0 0 0 0 0 0 9 9 9 17 17 17 26 26 26 35 35 35 60 60 60 85 85 85 110 110 110 136 136 136 142 142 142 148 148 148 154 154 154 160 160 160 159 159 159 158 158 158 157 157 157 155 155 155 154 154 154 153 153 153 153 153 153 152 152 152 157 151 134 164 150 113 171 149 92 178 148 71 190 156 68 203 168 70 216 180 72 229 191 74 233 194 65 232 193 51 232 192 38 232 191 24 232 191 17 232 193 12 232 194 7 233 195 2 233 196 0 234 198 0 234 199 0 235 201 0 235 202 2 235 204 6 236 206 9 236 207 13 237 210 20 238 212 31 239 215 42 239 218 53 241 221 70 242 226 93 244 230 117 246 235 141 247 238 158 248 240 166 249 241 175 249 243 183 250 244 191 250 244 196 250 245 201 250 245 206 249 244 204 246 237 186 242 231 168 239 224 149 232 216 136 219 205 133 206 193 130 192 181 127 183 173 128 185 178 144 186 182 161 188 186 177 190 190 190 193 193 193 196 196 196 199 199 199 202 202 202 202 202 202 202 202 202 202 202 202 201 201 201 193 193 193 184 184 184 176 176 176 166 166 166 139 139 139 111 111 111 83 83 83 56 56 56 42 42 42 28 28 28 14 14 14 1 1 1 0 0 0 0 0 0 0 0 0 0 0 0 0 0 0 0 0 0 0 0 0 0 0 0 0 0 0 0 0 0 0 0 0 0 0 0 0 0 0 0 0 0 0 0 0 0 0 0 0 0 0 0 0 0 0 0 0 0 0 0 0 0 0 0 0 0 0 0 0 0 0 0 5 5 5 12 12 12 19 19 19 26 26 26 54 54 54 96 96 96 138 138 138 180 180 180 206 206 206 220 220 220 234 234 234 248 248 248 255 255 255 255 255 255 255 255 255 255 255 255 255 255 255 255 255 255 255 255 255 255 255 255 255 255 255 255 255 255 255 255 255 255 255 255 255 255 255 255 255 255 255 255 255 255 255 255 255 255 255 255 255 255 255 255 255 255 255 255 255 255 255 255 255 255 255 255 255 255 255 255 255 255 255 255 255 255 255 255 255 255 255 255 255 255 255 255 255 255 255 255 255 255 255 255 255 255 255 255 255 255 255 255 255 255 255 255 255 255 255 255 255 255 255 255 255 255 255 255 255 255 255 255 255 255 255 255 255 255 255 255 255 255 255 
255 255 255 255 255 255 255 255 255 255 255 255 255 255 255 255 255 255 255 255 255 255 255 255 255 255 255 255 255 255 255 255 255 255 255 255 255 255 255 255 255 255 255 255 255 255 255 255 255 255 255 255 255 255 255 255 255 255 255 255 255 255 255 255 255 255 255 255 255 255 255 255 255 255 255 255 255 255 255 255 255 255 255 255 255 255 255 255 255 255 255 255 255 255 255 255 255 255 255 255 255 255 255 255 255 255 255 255 255 255 255 255 255 255 255 255 255 255 255 255 255 255 255 255 255 255 255 255 255 255 255 255 255 255 255 247 247 247 231 231 231 215 215 215 199 199 199 170 170 170 124 124 124 78 78 78 32 32 32 3 3 3 2 2 2 1 1 1 1 1 1 0 0 0 0 0 0 0 0 0 0 0 0 0 0 0 0 0 0 0 0 0 0 0 0 0 0 0 0 0 0 0 0 0 0 0 0 0 0 0 0 0 0 0 0 0 0 0 0 0 0 0 0 0 0 0 0 0 0 0 0 0 0 0 0 0 0 0 0 0 0 0 0 1 1 1 12 12 12 24 24 24 35 35 35 47 47 47 77 77 77 107 107 107 137 137 137 167 167 167 168 168 168 167 167 167 166 166 166 164 164 164 160 160 160 156 156 156 152 152 152 148 148 148 145 145 145 143 143 143 141 141 141 138 138 138 143 138 124 150 137 106 157 137 89 163 137 72 178 148 71 195 163 75 212 178 78 229 192 82 234 196 73 233 195 59 233 193 45 232 192 31 232 192 22 232 193 16 233 194 9 233 195 3 233 196 0 234 197 0 234 199 0 235 200 0 235 202 0 235 203 1 235 204 1 235 205 2 235 207 5 236 208 11 237 210 17 237 212 23 238 216 40 241 221 68 243 227 97 245 232 126 246 236 146 247 238 156 248 239 166 249 241 175 249 242 183 249 243 189 250 243 194 250 244 200 249 241 195 244 233 171 239 224 146 234 216 122 227 207 107 214 198 116 201 188 125 188 178 134 179 173 144 184 180 159 190 187 173 195 194 188 200 200 200 203 203 203 206 206 206 209 209 209 211 211 211 213 213 213 214 214 214 216 216 216 217 217 217 216 216 216 215 215 215 214 214 214 211 211 211 177 177 177 143 143 143 109 109 109 75 75 75 57 57 57 38 38 38 19 19 19 1 1 1 0 0 0 0 0 0 0 0 0 0 0 0 0 0 0 0 0 0 0 0 0 0 0 0 0 0 0 0 0 0 0 0 0 0 0 0 0 0 0 0 0 0 0 0 0 0 0 0 0 0 0 0 0 0 0 0 0 0 0 0 0 0 0 0 0 0 0 0 0 0 0 0 3 3 3 7 7 7 11 11 11 15 15 15 41 41 41 81 81 81 121 121 121 161 161 161 189 189 189 208 208 208 227 227 227 246 246 246 255 255 255 255 255 255 255 255 255 255 255 255 255 255 255 255 255 255 255 255 255 255 255 255 255 255 255 255 255 255 255 255 255 255 255 255 255 255 255 255 255 255 255 255 255 255 255 255 255 255 255 255 255 255 255 255 255 255 255 255 255 255 255 255 255 255 255 255 255 255 255 255 255 255 255 255 255 255 255 255 255 255 255 255 255 255 255 255 255 255 255 255 255 255 255 255 255 255 255 255 255 255 255 255 255 255 255 255 255 255 255 255 255 255 255 255 255 255 255 255 255 255 255 255 255 255 255 255 255 255 255 255 255 255 255 
255 255 255 255 255 255 255 255 255 255 255 255 255 255 255 255 255 255 255 255 255 255 255 255 255 255 255 255 255 255 255 255 255 255 255 255 255 255 255 255 255 255 255 255 255 255 255 255 255 255 255 255 255 255 255 255 255 255 255 255 255 255 255 255 255 255 255 255 255 255 255 255 255 255 255 255 255 255 255 255 255 255 255 255 255 255 255 255 255 255 255 255 255 255 255 255 255 255 255 255 255 255 255 255 255 255 255 255 255 255 255 255 255 255 255 255 255 255 255 255 255 255 255 254 254 254 254 254 254 253 253 253 252 252 252 241 241 241 218 218 218 195 195 195 172 172 172 142 142 142 103 103 103 64 64 64 25 25 25 1 1 1 1 1 1 0 0 0 0 0 0 0 0 0 0 0 0 0 0 0 0 0 0 0 0 0 0 0 0 0 0 0 0 0 0 0 0 0 0 0 0 0 0 0 0 0 0 0 0 0 0 0 0 0 0 0 0 0 0 0 0 0 0 0 0 0 0 0 0 0 0 0 0 0 3 3 3 6 6 6 9 9 9 13 13 13 31 31 31 48 48 48 66 66 66 84 84 84 109 109 109 133 133 133 158 158 158 183 183 183 181 181 181 178 178 178 175 175 175 173 173 173 168 168 168 164 164 164 159 159 159 155 155 155 151 151 151 148 148 148 146 146 146 143 143 143 145 141 130 149 139 115 152 137 100 156 136 85 169 145 81 185 157 80 201 170 79 217 182 78 224 187 71 226 189 62 229 191 53 232 193 43 233 194 34 233 194 26 233 194 17 233 195 8 233 195 4 234 197 3 234 198 2 234 199 0 235 201 0 235 202 0 235 203 0 235 204 0 235 205 2 235 207 6 236 208 10 236 210 14 237 213 28 239 218 53 241 223 78 243 228 103 244 231 124 245 234 137 247 236 151 248 239 165 248 240 174 248 239 176 248 239 178 247 238 181 245 235 175 238 225 155 231 215 134 223 205 113 216 197 103 207 192 117 198 187 131 189 181 145 184 179 159 190 187 172 196 194 184 202 201 197 208 208 208 210 210 210 213 213 213 216 216 216 218 218 218 220 220 220 221 221 221 223 223 223 224 224 224 225 225 225 225 225 225 225 225 225 224 224 224 196 196 196 168 168 168 140 140 140 112 112 112 89 89 89 66 66 66 43 43 43 20 20 20 15 15 15 10 10 10 5 5 5 0 0 0 0 0 0 0 0 0 0 0 0 0 0 0 0 0 0 0 0 0 0 0 0 0 0 0 0 0 0 0 0 0 0 0 0 0 0 0 0 0 0 0 0 0 0 0 0 0 0 0 0 0 0 0 0 0 0 0 0 0 0 0 2 2 2 5 5 5 8 8 8 10 10 10 33 33 33 68 68 68 104 104 104 139 139 139 167 167 167 191 191 191 215 215 215 238 238 238 250 250 250 251 251 251 253 253 253 254 254 254 255 255 255 255 255 255 255 255 255 255 255 255 255 255 255 255 255 255 255 255 255 255 255 255 255 255 255 255 255 255 255 255 255 255 255 255 255 255 255 255 255 255 255 255 255 255 255 255 255 255 255 255 255 255 255 255 255 255 255 255 255 255 255 255 255 255 255 255 255 255 255 255 255 255 255 255 255 255 255 255 255 255 255 255 255 255 255 255 255 255 255 255 255 255 255 255 255 255 255 255 255 255 255 255 255 255 255 255 255 255 255 255 255 255 255 255 255 255 255 255 255 255 255 
255 255 255 255 255 255 255 255 255 255 255 255 255 255 255 255 255 255 255 255 255 255 255 255 255 255 255 255 255 255 255 255 255 255 255 255 255 255 255 255 255 255 255 255 255 255 255 255 255 255 255 255 255 255 255 255 255 255 255 255 255 255 255 255 255 255 255 255 255 255 255 255 255 255 255 255 255 255 255 255 255 255 255 255 255 255 255 255 255 255 255 255 255 255 255 255 255 255 255 255 255 255 255 255 255 255 255 255 255 255 255 255 255 255 255 255 255 255 255 255 255 255 255 254 254 254 252 252 252 251 251 251 249 249 249 234 234 234 203 203 203 173 173 173 142 142 142 112 112 112 81 81 81 50 50 50 20 20 20 1 1 1 0 0 0 0 0 0 0 0 0 0 0 0 0 0 0 0 0 0 0 0 0 0 0 0 0 0 0 0 0 0 0 0 0 0 0 0 0 0 0 0 0 0 0 0 0 0 0 0 0 0 0 0 0 0 0 0 0 0 0 0 0 0 0 0 0 0 0 0 0 1 1 1 7 7 7 14 14 14 21 21 21 28 28 28 53 53 53 78 78 78 102 102 102 127 127 127 144 144 144 160 160 160 177 177 177 194 194 194 192 192 192 188 188 188 185 185 185 182 182 182 178 178 178 173 173 173 169 169 169 165 165 165 161 161 161 158 158 158 155 155 155 151 151 151 151 148 140 151 144 127 151 140 114 151 136 101 161 142 93 175 151 86 189 160 79 202 169 71 211 176 67 218 182 64 225 188 60 232 194 57 234 196 48 233 195 37 233 195 25 233 194 14 233 195 8 233 196 6 234 197 3 234 198 1 234 199 0 234 201 0 234 202 0 235 203 0 235 204 1 235 206 4 236 207 7 236 209 10 237 211 20 238 215 40 239 219 60 241 223 79 242 226 98 244 229 116 245 232 135 246 236 153 247 237 164 246 235 162 245 233 160 244 232 159 240 227 153 231 216 139 221 205 124 211 194 110 203 186 104 199 186 122 195 186 139 192 186 157 190 187 173 197 194 184 203 202 195 210 209 206 215 215 215 217 217 217 220 220 220 222 222 222 224 224 224 225 225 225 227 227 227 228 228 228 229 229 229 230 230 230 230 230 230 231 231 231 230 230 230 211 211 211 192 192 192 172 172 172 153 153 153 126 126 126 98 98 98 71 71 71 44 44 44 33 33 33 22 22 22 12 12 12 1 1 1 0 0 0 0 0 0 0 0 0 0 0 0 0 0 0 0 0 0 0 0 0 0 0 0 0 0 0 0 0 0 0 0 0 0 0 0 0 0 0 0 0 0 0 0 0 0 0 0 0 0 0 0 0 0 0 0 0 0 0 0 1 1 1 3 3 3 5 5 5 7 7 7 26 26 26 56 56 56 85 85 85 115 115 115 144 144 144 172 172 172 201 201 201 229 229 229 244 244 244 247 247 247 250 250 250 253 253 253 255 255 255 255 255 255 255 255 255 255 255 255 255 255 255 255 255 255 255 255 255 255 255 255 255 255 255 255 255 255 255 255 255 255 255 255 255 255 255 255 255 255 255 255 255 255 255 255 255 255 255 255 255 255 255 255 255 255 255 255 255 255 255 255 255 255 255 255 255 255 255 255 255 255 255 255 255 255 255 255 255 255 255 255 255 255 255 255 255 255 255 255 255 255 255 255 255 255 255 255 255 255 255 255 255 255 255 255 255 255 255 255 255 255 255 255 255 255 255 255 255 255 255 
255 255 255 255 255 255 255 255 255 255 255 255 255 255 255 255 255 255 255 255 255 255 255 255 255 255 255 255 255 255 255 255 255 255 255 255 255 255 255 255 255 255 255 255 255 255 255 255 255 255 255 255 255 255 255 255 255 255 255 255 255 255 255 255 255 255 255 255 255 255 255 255 255 255 255 255 255 255 255 255 255 255 255 255 255 255 255 255 255 255 255 255 255 255 255 255 255 255 255 255 255 255 255 255 255 255 255 255 255 255 255 255 255 255 255 255 255 255 255 255 254 254 254 253 253 253 251 251 251 248 248 248 246 246 246 226 226 226 188 188 188 150 150 150 112 112 112 81 81 81 59 59 59 36 36 36 14 14 14 0 0 0 0 0 0 0 0 0 0 0 0 0 0 0 0 0 0 0 0 0 0 0 0 0 0 0 0 0 0 0 0 0 0 0 0 0 0 0 0 0 0 0 0 0 0 0 0 0 0 0 0 0 0 0 0 0 0 0 0 0 0 0 0 0 0 0 0 0 0 0 0 1 1 1 11 11 11 22 22 22 32 32 32 44 44 44 75 75 75 107 107 107 138 138 138 170 170 170 179 179 179 187 187 187 196 196 196 205 205 205 202 202 202 198 198 198 195 195 195 191 191 191 187 187 187 183 183 183 179 179 179 174 174 174 171 171 171 167 167 167 164 164 164 160 160 160 156 155 150 153 149 140 149 143 129 146 137 118 153 140 105 165 145 91 176 151 78 188 156 65 199 165 63 210 175 65 220 185 68 231 196 70 234 198 62 234 197 48 233 195 34 233 194 21 233 194 13 233 195 9 233 196 5 233 197 2 234 198 0 234 200 0 234 201 0 234 202 0 234 204 1 235 205 2 235 206 4 235 207 5 236 209 13 237 212 27 238 215 41 239 217 55 240 221 73 242 225 96 243 229 119 245 233 142 246 234 154 244 231 148 243 228 143 241 225 137 236 219 131 224 207 122 211 195 114 199 183 106 190 176 106 191 181 127 193 185 148 194 190 169 197 195 187 203 202 196 210 209 206 217 217 215 223 223 223 225 225 225 226 226 226 228 228 228 230 230 230 231 231 231 232 232 232 233 233 233 235 235 235 235 235 235 236 236 236 236 236 236 236 236 236 226 226 226 215 215 215 204 204 204 194 194 194 162 162 162 131 131 131 99 99 99 68 68 68 51 51 51 34 34 34 18 18 18 2 2 2 0 0 0 0 0 0 0 0 0 0 0 0 0 0 0 0 0 0 0 0 0 0 0 0 0 0 0 0 0 0 0 0 0 0 0 0 0 0 0 0 0 0 0 0 0 0 0 0 0 0 0 0 0 0 0 0 0 0 0 0 1 1 1 2 2 2 3 3 3 5 5 5 20 20 20 44 44 44 67 67 67 91 91 91 120 120 120 154 154 154 187 187 187 220 220 220 238 238 238 243 243 243 247 247 247 252 252 252 254 254 254 255 255 255 255 255 255 255 255 255 255 255 255 255 255 255 255 255 255 255 255 255 255 255 255 255 255 255 255 255 255 255 255 255 255 255 255 255 255 255 255 255 255 255 255 255 255 255 255 255 255 255 255 255 255 255 255 255 255 255 255 255 255 255 255 255 255 255 255 255 255 255 255 255 255 255 255 255 255 255 255 255 255 255 255 255 255 255 255 255 255 255 255 255 255 255 255 255 255 255 255 255 255 255 255 255 255 255 255 255 255 255 255 255 255 255 255 255 255 255 255 
255 255 255 255 255 255 255 255 255 255 255 255 255 255 255 255 255 255 255 255 255 255 255 255 255 255 255 255 255 255 255 255 255 255 255 255 255 255 255 255 255 255 255 255 255 255 255 255 255 255 255 255 255 255 255 255 255 255 255 255 255 255 255 255 255 255 255 255 255 255 255 255 255 255 255 255 255 255 255 255 255 255 255 255 255 255 255 255 255 255 255 255 255 255 255 255 255 255 255 255 255 255 255 255 255 255 255 255 255 255 255 255 255 255 255 255 255 254 254 254 254 254 254 252 252 252 249 249 249 246 246 246 243 243 243 219 219 219 174 174 174 128 128 128 82 82 82 50 50 50 36 36 36 23 23 23 9 9 9 0 0 0 0 0 0 0 0 0 0 0 0 0 0 0 0 0 0 0 0 0 0 0 0 0 0 0 0 0 0 0 0 0 0 0 0 0 0 0 0 0 0 0 0 0 0 0 0 0 0 0 0 0 0 0 0 0 0 0 0 0 0 0 0 0 0 0 0 0 0 0 0 1 1 1 16 16 16 30 30 30 44 44 44 59 59 59 98 98 98 136 136 136 174 174 174 213 213 213 214 214 214 215 215 215 215 215 215 216 216 216 213 213 213 208 208 208 204 204 204 200 200 200 196 196 196 192 192 192 188 188 188 184 184 184 180 180 180 176 176 176 173 173 173 169 169 169 162 162 161 155 154 152 147 146 143 140 138 134 145 137 117 155 139 97 164 141 77 173 143 58 186 154 58 201 168 67 216 182 75 231 197 84 235 200 76 234 198 59 233 196 43 232 194 27 232 194 18 232 194 12 233 195 7 233 196 2 233 197 0 233 199 0 234 200 0 234 201 0 234 203 0 234 204 0 235 205 1 235 206 1 235 207 5 236 209 14 236 211 22 236 212 31 238 215 47 240 220 75 242 225 102 244 230 130 244 231 143 242 227 134 240 223 125 238 219 115 232 211 108 217 198 106 201 185 104 186 172 102 177 166 108 184 175 132 190 184 157 197 194 181 203 203 201 210 210 209 217 217 216 224 224 224 230 230 230 232 232 232 233 233 233 234 234 234 236 236 236 237 237 237 238 238 238 239 239 239 240 240 240 241 241 241 241 241 241 242 242 242 243 243 243 240 240 240 238 238 238 236 236 236 234 234 234 199 199 199 163 163 163 128 128 128 92 92 92 69 69 69 47 47 47 24 24 24 2 2 2 0 0 0 0 0 0 0 0 0 0 0 0 0 0 0 0 0 0 0 0 0 0 0 0 0 0 0 0 0 0 0 0 0 0 0 0 0 0 0 0 0 0 0 0 0 0 0 0 0 0 0 0 0 0 0 0 0 0 0 0 0 0 0 1 1 1 1 1 1 2 2 2 13 13 13 31 31 31 49 49 49 67 67 67 97 97 97 135 135 135 173 173 173 211 211 211 232 232 232 238 238 238 244 244 244 251 251 251 254 254 254 254 254 254 255 255 255 255 255 255 255 255 255 255 255 255 255 255 255 255 255 255 255 255 255 255 255 255 255 255 255 255 255 255 255 255 255 255 255 255 255 255 255 255 255 255 255 255 255 255 255 255 255 255 255 255 255 255 255 255 255 255 255 255 255 255 255 255 255 255 255 255 255 255 255 255 255 255 255 255 255 255 255 255 255 255 255 255 255 255 255 255 255 255 255 255 255 255 255 255 255 255 255 255 255 255 255 255 255 255 255 255 255 255 255 255 255 255 255 255 255 
255 255 255 255 255 255 255 255 255 255 255 255 255 255 255 255 255 255 255 255 255 255 255 255 255 255 255 255 255 255 255 255 255 255 255 255 255 255 255 255 255 255 255 255 255 255 255 255 255 255 255 255 255 255 255 255 255 255 255 255 255 255 255 255 255 255 255 255 255 255 255 255 255 255 255 255 255 255 255 255 255 255 255 255 255 255 255 255 255 255 255 255 255 255 255 255 255 255 255 255 255 255 255 255 255 255 255 255 255 255 255 255 255 255 254 254 254 254 254 254 254 254 254 248 248 248 238 238 238 229 229 229 219 219 219 194 194 194 153 153 153 112 112 112 71 71 71 42 42 42 31 31 31 19 19 19 7 7 7 0 0 0 0 0 0 0 0 0 0 0 0 0 0 0 0 0 0 0 0 0 0 0 0 0 0 0 0 0 0 0 0 0 0 0 0 0 0 0 0 0 0 0 0 0 0 0 0 0 0 0 0 0 0 0 0 0 0 0 0 0 0 0 2 2 2 4 4 4 6 6 6 10 10 10 31 31 31 52 52 52 73 73 73 94 94 94 127 127 127 161 161 161 194 194 194 227 227 227 226 226 226 225 225 225 223 223 223 222 222 222 219 219 219 215 215 215 211 211 211 207 207 207 204 204 204 200 200 200 196 196 196 193 193 193 189 189 189 186 186 186 182 182 182 179 179 179 172 172 172 164 164 164 157 156 156 149 148 148 151 145 132 156 144 112 161 143 92 166 141 73 177 150 70 192 162 74 207 175 77 221 188 81 227 192 74 229 193 63 230 194 51 232 195 39 233 195 30 233 195 22 233 195 15 233 196 7 233 196 3 233 198 2 233 199 1 234 200 0 234 202 0 234 202 0 234 203 0 235 204 0 235 205 3 235 207 9 235 208 14 235 209 20 236 211 35 238 215 60 240 220 86 242 224 112 240 224 124 234 216 115 228 209 106 222 201 97 213 192 91 199 181 94 184 170 97 170 158 100 162 153 108 170 163 130 178 173 153 186 184 175 193 193 193 200 200 200 207 207 207 213 213 213 219 219 219 221 221 221 223 223 223 225 225 225 227 227 227 230 230 230 232 232 232 234 234 234 236 236 236 238 238 238 240 240 240 242 242 242 244 244 244 244 244 244 244 244 244 245 245 245 245 245 245 215 215 215 185 185 185 155 155 155 125 125 125 98 98 98 71 71 71 44 44 44 17 17 17 11 11 11 7 7 7 4 4 4 0 0 0 0 0 0 0 0 0 0 0 0 0 0 0 0 0 0 0 0 0 0 0 0 0 0 0 0 0 0 0 0 0 0 0 0 0 0 0 0 0 0 0 0 0 0 0 0 0 0 0 0 0 0 0 0 0 1 1 1 1 1 1 11 11 11 27 27 27 43 43 43 59 59 59 85 85 85 119 119 119 153 153 153 187 187 187 210 210 210 222 222 222 234 234 234 246 246 246 252 252 252 253 253 253 254 254 254 255 255 255 255 255 255 255 255 255 255 255 255 255 255 255 255 255 255 255 255 255 255 255 255 255 255 255 255 255 255 255 255 255 255 255 255 255 255 255 255 255 255 255 255 255 255 255 255 255 255 255 255 255 255 255 255 255 255 255 255 255 255 255 255 255 255 255 255 255 255 255 255 255 255 255 255 255 255 255 255 255 255 255 255 255 255 255 255 255 255 255 255 255 255 255 255 255 255 255 255 255 255 255 255 255 255 255 255 255 255 255 255 255 255 
255 255 255 255 255 255 255 255 255 255 255 255 255 255 255 255 255 255 255 255 255 255 255 255 255 255 255 255 255 255 255 255 255 255 255 255 255 255 255 255 255 255 255 255 255 255 255 255 255 255 255 255 255 255 255 255 255 255 255 255 255 255 255 255 255 255 255 255 255 255 255 255 255 255 255 255 255 255 255 255 255 255 255 255 255 255 255 255 255 255 255 255 255 255 255 255 255 255 255 255 255 255 255 255 255 255 255 255 255 255 255 255 255 255 254 254 254 254 254 254 253 253 253 243 243 243 225 225 225 207 207 207 188 188 188 163 163 163 130 130 130 98 98 98 65 65 65 41 41 41 30 30 30 19 19 19 7 7 7 0 0 0 0 0 0 0 0 0 0 0 0 0 0 0 0 0 0 0 0 0 0 0 0 0 0 0 0 0 0 0 0 0 0 0 0 0 0 0 0 0 0 0 0 0 0 0 0 0 0 0 0 0 0 0 0 0 0 0 0 1 1 1 5 5 5 9 9 9 14 14 14 21 21 21 49 49 49 78 78 78 107 107 107 136 136 136 160 160 160 184 184 184 208 208 208 232 232 232 230 230 230 229 229 229 228 228 228 226 226 226 223 223 223 220 220 220 217 217 217 214 214 214 211 211 211 207 207 207 204 204 204 201 201 201 198 198 198 195 195 195 192 192 192 189 189 189 183 183 183 176 176 176 169 169 169 163 162 162 161 157 147 161 152 130 160 148 112 160 143 95 170 148 87 183 157 82 196 166 78 209 175 74 216 182 69 221 186 64 227 191 59 232 196 54 234 197 45 233 196 34 233 196 23 233 195 13 233 196 7 233 197 5 233 198 3 233 199 1 234 200 0 234 201 0 234 202 0 234 203 0 234 204 2 234 204 6 234 205 10 234 206 14 234 207 26 236 211 48 237 214 70 239 217 91 235 215 102 224 203 94 213 192 87 202 181 79 190 170 76 177 161 84 165 152 91 152 143 98 146 139 108 154 149 126 162 159 145 170 169 163 178 178 178 184 184 184 190 191 190 197 197 197 202 202 202 205 205 205 208 208 208 212 212 212 215 215 215 218 218 218 222 222 222 225 225 225 228 228 228 233 233 233 237 237 237 241 241 241 245 245 245 245 245 245 245 245 245 245 245 245 245 245 245 224 224 224 203 203 203 182 182 182 161 161 161 130 130 130 99 99 99 67 67 67 36 36 36 25 25 25 17 17 17 9 9 9 1 1 1 0 0 0 0 0 0 0 0 0 0 0 0 0 0 0 0 0 0 0 0 0 0 0 0 0 0 0 0 0 0 0 0 0 0 0 0 0 0 0 0 0 0 0 0 0 0 0 0 0 0 0 0 0 0 0 0 0 1 1 1 10 10 10 25 25 25 40 40 40 55 55 55 77 77 77 105 105 105 132 132 132 160 160 160 183 183 183 202 202 202 221 221 221 239 239 239 250 250 250 251 251 251 253 253 253 254 254 254 255 255 255 255 255 255 255 255 255 255 255 255 255 255 255 255 255 255 255 255 255 255 255 255 255 255 255 255 255 255 255 255 255 255 255 255 255 255 255 255 255 255 255 255 255 255 255 255 255 255 255 255 255 255 255 255 255 255 255 255 255 255 255 255 255 255 255 255 255 255 255 255 255 255 255 255 255 255 255 255 255 255 255 255 255 255 255 255 255 255 255 255 255 255 255 255 255 255 255 255 255 255 255 255 255 255 255 255 255 255 255 
255 255 255 255 255 255 255 255 255 255 255 255 255 255 255 255 255 255 255 255 255 255 255 255 255 255 255 255 255 255 255 255 255 255 255 255 255 255 255 255 255 255 255 255 255 255 255 255 255 255 255 255 255 255 255 255 255 255 255 255 255 255 255 255 255 255 255 255 255 255 255 255 255 255 255 255 255 255 255 255 255 255 255 255 255 255 255 255 255 255 255 255 255 255 255 255 255 255 255 255 255 255 255 255 255 255 255 255 255 255 255 255 255 255 254 254 254 253 253 253 252 252 252 238 238 238 211 211 211 185 185 185 158 158 158 132 132 132 108 108 108 84 84 84 59 59 59 40 40 40 29 29 29 18 18 18 7 7 7 0 0 0 0 0 0 0 0 0 0 0 0 0 0 0 0 0 0 0 0 0 0 0 0 0 0 0 0 0 0 0 0 0 0 0 0 0 0 0 0 0 0 0 0 0 0 0 0 0 0 0 0 0 0 0 0 0 0 0 0 1 1 1 8 8 8 15 15 15 22 22 22 31 31 31 68 68 68 105 105 105 141 141 141 177 177 177 192 192 192 207 207 207 222 222 222 237 237 237 235 235 235 234 234 234 232 232 232 231 231 231 228 228 228 225 225 225 223 223 223 220 220 220 217 217 217 215 215 215 212 212 212 210 210 210 207 207 207 204 204 204 202 202 202 199 199 199 194 194 194 188 188 188 182 182 182 176 176 176 171 168 163 165 161 147 160 153 132 155 145 117 162 147 104 173 152 91 185 158 79 196 163 66 206 171 63 214 179 65 223 188 67 231 197 68 234 199 60 234 198 46 233 196 32 233 195 18 232 195 11 233 196 8 233 197 4 233 198 1 233 199 0 234 200 0 234 201 0 234 201 0 234 202 1 234 202 3 233 202 6 233 202 8 233 203 17 234 206 35 235 208 53 236 210 71 231 206 80 214 190 74 198 175 68 181 160 61 167 148 61 156 141 73 145 134 84 135 128 96 129 126 108 138 136 123 146 145 137 155 155 151 163 163 163 168 169 168 174 174 174 180 180 180 185 185 185 189 189 189 194 194 194 198 198 198 202 202 202 207 207 207 212 212 212 216 216 216 221 221 221 227 227 227 233 233 233 240 240 240 245 245 245 246 246 246 246 246 246 246 246 246 246 246 246 234 234 234 221 221 221 209 209 209 197 197 197 162 162 162 126 126 126 90 90 90 55 55 55 40 40 40 27 27 27 14 14 14 2 2 2 0 0 0 0 0 0 0 0 0 0 0 0 0 0 0 0 0 0 0 0 0 0 0 0 0 0 0 0 0 0 0 0 0 0 0 0 0 0 0 0 0 0 0 0 0 0 0 0 0 0 0 0 0 0 0 0 0 0 0 0 9 9 9 23 23 23 37 37 37 51 51 51 69 69 69 90 90 90 111 111 111 132 132 132 156 156 156 182 182 182 207 207 207 233 233 233 247 247 247 250 250 250 252 252 252 254 254 254 255 255 255 255 255 255 255 255 255 255 255 255 255 255 255 255 255 255 255 255 255 255 255 255 255 255 255 255 255 255 255 255 255 255 255 255 255 255 255 255 255 255 255 255 255 255 255 255 255 255 255 255 255 255 255 255 255 255 255 255 255 255 255 255 255 255 255 255 255 255 255 255 255 255 255 255 255 255 255 255 255 255 255 255 255 255 255 255 255 255 255 255 255 255 255 255 255 255 255 255 255 255 255 255 255 255 255 255 255 255 255 
255 255 255 255 255 255 255 255 255 255 255 255 255 255 255 255 255 255 255 255 255 255 255 255 255 255 255 255 255 255 255 255 255 255 255 255 255 255 255 255 255 255 255 255 255 255 255 255 255 255 255 255 255 255 255 255 255 255 255 255 255 255 255 255 255 255 255 255 255 255 255 255 255 255 255 255 255 255 255 255 255 255 255 255 255 255 255 255 255 255 255 255 255 255 255 255 255 255 255 255 255 255 255 255 255 255 255 255 255 255 255 254 254 254 254 254 254 253 253 253 252 252 252 233 233 233 198 198 198 163 163 163 127 127 127 101 101 101 85 85 85 69 69 69 53 53 53 40 40 40 29 29 29 18 18 18 7 7 7 0 0 0 0 0 0 0 0 0 0 0 0 0 0 0 0 0 0 0 0 0 0 0 0 0 0 0 0 0 0 0 0 0 0 0 0 0 0 0 0 0 0 0 0 0 0 0 0 0 0 0 0 0 0 0 0 0 0 0 0 1 1 1 11 11 11 20 20 20 30 30 30 42 42 42 87 87 87 131 131 131 176 176 176 218 218 218 224 224 224 230 230 230 236 236 236 242 242 242 240 240 240 238 238 238 237 237 237 235 235 235 233 233 233 231 231 231 229 229 229 226 226 226 224 224 224 222 222 222 220 220 220 218 218 218 216 216 216 214 214 214 212 212 212 209 209 209 205 205 205 200 200 200 195 194 194 189 189 189 180 180 178 170 169 165 160 158 152 150 147 139 154 145 121 164 147 100 174 149 79 183 151 59 195 160 58 207 173 66 219 185 74 231 198 83 235 201 76 234 199 58 233 197 41 232 195 24 232 195 14 232 195 10 233 196 6 233 197 2 233 198 0 233 199 0 234 199 0 234 200 0 234 200 0 233 200 1 232 200 1 232 199 2 232 200 8 232 201 22 233 202 37 233 203 51 226 197 58 204 178 53 183 159 48 161 139 44 144 125 46 135 121 62 126 117 78 117 113 94 113 112 109 122 122 119 131 131 129 140 140 139 148 148 148 153 153 153 158 158 158 163 163 163 168 168 168 173 173 173 179 179 179 184 184 184 190 190 190 196 196 196 202 202 202 208 208 208 214 214 214 222 222 222 230 230 230 238 238 238 246 246 246 246 246 246 246 246 246 247 247 247 247 247 247 243 243 243 240 240 240 236 236 236 233 233 233 194 194 194 154 154 154 114 114 114 74 74 74 54 54 54 37 37 37 20 20 20 2 2 2 0 0 0 0 0 0 0 0 0 0 0 0 0 0 0 0 0 0 0 0 0 0 0 0 0 0 0 0 0 0 0 0 0 0 0 0 0 0 0 0 0 0 0 0 0 0 0 0 0 0 0 0 0 0 0 0 0 0 0 0 8 8 8 21 21 21 34 34 34 48 48 48 61 61 61 76 76 76 90 90 90 105 105 105 129 129 129 161 161 161 194 194 194 227 227 227 245 245 245 248 248 248 251 251 251 253 253 253 255 255 255 255 255 255 255 255 255 255 255 255 255 255 255 255 255 255 255 255 255 255 255 255 255 255 255 255 255 255 255 255 255 255 255 255 255 255 255 255 255 255 255 255 255 255 255 255 255 255 255 255 255 255 255 255 255 255 255 255 255 255 255 255 255 255 255 255 255 255 255 255 255 255 255 255 255 255 255 255 255 255 255 255 255 255 255 255 255 255 255 255 255 255 255 255 255 255 255 255 255 255 255 255 255 255 255 255 255 255 255 
255 255 255 255 255 255 255 255 255 255 255 255 255 255 255 255 255 255 255 255 255 255 255 255 255 255 255 255 255 255 255 255 255 255 255 255 255 255 255 255 255 255 255 255 255 255 255 255 255 255 255 255 255 255 255 255 255 255 255 255 255 255 255 255 255 255 255 255 255 255 255 255 255 255 255 255 255 255 255 255 255 255 255 255 255 255 255 255 255 255 255 255 255 255 255 255 255 255 255 255 255 255 255 255 255 255 255 255 255 255 255 251 251 251 244 244 244 237 237 237 231 231 231 211 211 211 181 181 181 151 151 151 120 120 120 97 97 97 80 80 80 64 64 64 48 48 48 34 34 34 25 25 25 15 15 15 6 6 6 0 0 0 0 0 0 0 0 0 0 0 0 0 0 0 0 0 0 0 0 0 0 0 0 0 0 0 0 0 0 0 0 0 0 0 0 0 0 0 0 0 0 0 0 0 0 0 0 0 0 0 1 1 1 1 1 1 2 2 2 5 5 5 22 22 22 38 38 38 55 55 55 74 74 74 114 114 114 154 154 154 194 194 194 233 233 233 235 235 235 238 238 238 241 241 241 243 243 243 242 242 242 240 240 240 239 239 239 237 237 237 236 236 236 234 234 234 232 232 232 230 230 230 229 229 229 227 227 227 225 225 225 223 223 223 222 222 222 220 220 220 218 218 218 217 217 217 213 213 213 208 208 208 204 204 204 200 200 200 190 190 190 179 179 178 169 168 167 158 157 155 158 153 137 164 151 115 169 149 94 175 148 72 185 155 68 197 166 72 209 177 76 222 188 81 227 193 74 229 194 62 230 195 49 232 195 36 233 196 27 233 196 20 233 196 13 233 196 6 233 196 2 233 197 2 233 197 1 233 198 0 233 198 0 232 197 0 231 197 0 231 196 0 229 195 5 226 193 16 223 191 27 220 188 38 209 179 43 184 158 40 159 137 37 135 116 34 116 101 37 109 98 52 103 96 66 96 93 81 93 93 93 101 101 101 108 108 108 115 116 115 122 123 122 126 127 126 131 131 131 135 135 135 139 139 139 145 145 145 150 150 150 155 155 155 160 160 160 165 165 165 171 171 171 176 176 176 183 183 183 195 195 195 207 207 207 219 219 219 230 230 230 235 235 235 239 239 239 243 243 243 247 247 247 246 246 246 245 245 245 244 244 244 244 244 244 210 210 210 175 175 175 140 140 140 106 106 106 81 81 81 57 57 57 33 33 33 9 9 9 5 5 5 3 3 3 2 2 2 0 0 0 0 0 0 0 0 0 0 0 0 0 0 0 0 0 0 0 0 0 0 0 0 0 0 0 0 0 0 0 0 0 0 0 0 0 0 0 0 0 0 0 0 0 0 0 0 0 0 0 7 7 7 17 17 17 28 28 28 39 39 39 53 53 53 69 69 69 85 85 85 101 101 101 123 123 123 150 150 150 177 177 177 204 204 204 223 223 223 231 231 231 240 240 240 248 248 248 253 253 253 254 254 254 254 254 254 255 255 255 255 255 255 255 255 255 255 255 255 255 255 255 255 255 255 255 255 255 255 255 255 255 255 255 255 255 255 255 255 255 255 255 255 255 255 255 255 255 255 255 255 255 255 255 255 255 255 255 255 255 255 255 255 255 255 255 255 255 255 255 255 255 255 255 255 255 255 255 255 255 255 255 255 255 255 255 255 255 255 255 255 255 255 255 255 255 255 255 255 255 255 255 255 255 255 255 255 255 255 
255 255 255 255 255 255 255 255 255 255 255 255 255 255 255 255 255 255 255 255 255 255 255 255 255 255 255 255 255 255 255 255 255 255 255 255 255 255 255 255 255 255 255 255 255 255 255 255 255 255 255 255 255 255 255 255 255 255 255 255 255 255 255 255 255 255 255 255 255 255 255 255 255 255 255 255 255 255 255 255 255 255 255 255 255 255 255 255 255 255 255 255 255 255 255 255 255 255 255 254 254 254 254 254 254 254 254 254 254 254 254 245 245 245 231 231 231 216 216 216 201 201 201 184 184 184 163 163 163 143 143 143 123 123 123 102 102 102 82 82 82 62 62 62 42 42 42 27 27 27 19 19 19 12 12 12 5 5 5 0 0 0 0 0 0 0 0 0 0 0 0 0 0 0 0 0 0 0 0 0 0 0 0 0 0 0 0 0 0 0 0 0 0 0 0 0 0 0 0 0 0 0 0 0 0 0 0 0 0 0 2 2 2 3 3 3 5 5 5 10 10 10 36 36 36 62 62 62 88 88 88 115 115 115 145 145 145 176 176 176 207 207 207 236 236 236 238 238 238 240 240 240 242 242 242 244 244 244 243 243 243 241 241 241 240 240 240 239 239 239 238 238 238 236 236 236 235 235 235 234 234 234 232 232 232 231 231 231 229 229 229 228 228 228 226 226 226 225 225 225 224 224 224 222 222 222 219 219 219 216 216 216 212 212 212 209 209 209 200 200 200 190 190 190 181 180 179 171 170 169 168 164 152 167 158 133 167 153 113 167 148 94 174 151 85 186 159 80 197 167 76 208 175 72 216 181 67 221 186 62 226 191 56 231 196 51 233 198 43 233 197 32 233 196 22 232 195 11 232 195 6 232 195 4 232 195 2 232 195 1 232 195 0 231 194 0 230 194 0 230 193 0 226 190 3 218 183 11 210 177 19 202 170 27 187 158 32 160 136 30 133 113 29 106 91 28 86 75 31 82 74 41 78 73 52 73 71 62 72 72 72 77 77 77 82 83 82 88 88 88 92 93 92 96 96 96 99 100 99 103 103 103 106 106 106 111 111 111 115 115 115 119 119 119 123 123 123 127 127 127 132 132 132 136 136 136 141 141 141 158 158 158 175 175 175 192 192 192 209 209 209 218 218 218 228 228 228 237 237 237 247 247 247 246 246 246 245 245 245 245 245 245 244 244 244 220 220 220 194 194 194 168 168 168 143 143 143 112 112 112 81 81 81 50 50 50 18 18 18 11 11 11 8 8 8 4 4 4 1 1 1 0 0 0 0 0 0 0 0 0 0 0 0 0 0 0 0 0 0 0 0 0 0 0 0 0 0 0 0 0 0 0 0 0 0 0 0 0 0 0 0 0 0 0 0 0 0 0 0 5 5 5 13 13 13 20 20 20 28 28 28 44 44 44 65 65 65 86 86 86 108 108 108 126 126 126 143 143 143 159 159 159 176 176 176 192 192 192 208 208 208 225 225 225 241 241 241 251 251 251 252 252 252 253 253 253 254 254 254 255 255 255 255 255 255 255 255 255 255 255 255 255 255 255 255 255 255 255 255 255 255 255 255 255 255 255 255 255 255 255 255 255 255 255 255 255 255 255 255 255 255 255 255 255 255 255 255 255 255 255 255 255 255 255 255 255 255 255 255 255 255 255 255 255 255 255 255 255 255 255 255 255 255 255 255 255 255 255 255 255 255 255 255 255 255 255 255 255 255 255 255 255 255 255 255 255 255 255 
255 255 255 255 255 255 255 255 255 255 255 255 255 255 255 255 255 255 255 255 255 255 255 255 255 255 255 255 255 255 255 255 255 255 255 255 255 255 255 255 255 255 255 255 255 255 255 255 255 255 255 255 255 255 255 255 255 255 255 255 255 255 255 255 255 255 255 255 255 255 255 255 255 255 255 255 255 255 255 255 255 255 255 255 255 255 255 255 255 255 255 255 255 255 255 255 254 254 254 254 254 254 254 254 254 253 253 253 253 253 253 240 240 240 217 217 217 195 195 195 172 172 172 156 156 156 146 146 146 135 135 135 125 125 125 108 108 108 84 84 84 60 60 60 36 36 36 20 20 20 14 14 14 9 9 9 3 3 3 0 0 0 0 0 0 0 0 0 0 0 0 0 0 0 0 0 0 0 0 0 0 0 0 0 0 0 0 0 0 0 0 0 0 0 0 0 0 0 0 0 0 0 0 0 0 0 0 0 0 0 3 3 3 5 5 5 7 7 7 14 14 14 50 50 50 85 85 85 121 121 121 155 155 155 177 177 177 198 198 198 220 220 220 240 240 240 241 241 241 242 242 242 243 243 243 244 244 244 243 243 243 243 243 243 242 242 242 241 241 241 240 240 240 239 239 239 238 238 238 237 237 237 236 236 236 235 235 235 233 233 233 232 232 232 231 231 231 230 230 230 229 229 229 228 228 228 226 226 226 223 223 223 220 220 220 217 217 217 210 210 210 201 201 201 193 192 192 184 183 183 177 174 168 171 166 150 165 157 133 159 148 116 164 148 101 175 153 89 185 157 76 195 162 63 205 170 59 213 179 61 222 188 63 231 197 65 234 200 58 234 198 44 233 196 31 232 194 17 232 193 9 232 193 6 231 193 4 231 193 1 231 192 0 230 191 0 229 191 0 229 190 0 223 185 2 210 174 7 197 163 12 184 152 17 165 137 20 136 113 21 106 90 21 77 66 22 57 50 24 55 50 31 53 50 38 51 49 44 50 50 50 53 53 53 56 57 56 60 60 60 63 63 63 65 66 65 68 68 68 71 71 71 73 73 73 77 77 77 80 80 80 83 83 83 86 86 86 89 89 89 92 92 92 96 96 96 100 100 100 122 122 122 144 144 144 166 166 166 187 187 187 202 202 202 217 217 217 232 232 232 246 246 246 246 246 246 246 246 246 245 245 245 245 245 245 229 229 229 213 213 213 196 196 196 180 180 180 143 143 143 105 105 105 66 66 66 28 28 28 17 17 17 12 12 12 7 7 7 1 1 1 0 0 0 0 0 0 0 0 0 0 0 0 0 0 0 0 0 0 0 0 0 0 0 0 0 0 0 0 0 0 0 0 0 0 0 0 0 0 0 0 0 0 0 0 0 0 0 0 3 3 3 8 8 8 13 13 13 18 18 18 35 35 35 61 61 61 88 88 88 114 114 114 129 129 129 135 135 135 141 141 141 147 147 147 161 161 161 186 186 186 210 210 210 234 234 234 249 249 249 250 250 250 252 252 252 253 253 253 254 254 254 255 255 255 255 255 255 255 255 255 255 255 255 255 255 255 255 255 255 255 255 255 255 255 255 255 255 255 255 255 255 255 255 255 255 255 255 255 255 255 255 255 255 255 255 255 255 255 255 255 255 255 255 255 255 255 255 255 255 255 255 255 255 255 255 255 255 255 255 255 255 255 255 255 255 255 255 255 255 255 255 255 255 255 255 255 255 255 255 255 255 255 255 255 255 255 255 
255 255 255 255 255 255 255 255 255 255 255 255 255 255 255 255 255 255 255 255 255 255 255 255 255 255 255 255 255 255 255 255 255 255 255 255 255 255 255 255 255 255 255 255 255 255 255 255 255 255 255 255 255 255 255 255 255 255 255 255 255 255 255 255 255 255 255 255 255 255 255 255 255 255 255 255 255 255 255 255 255 255 255 255 255 255 255 255 255 255 255 255 255 254 254 254 254 254 254 254 254 254 253 253 253 253 253 253 252 252 252 235 235 235 204 204 204 173 173 173 143 143 143 128 128 128 128 128 128 128 128 128 128 128 128 114 114 114 86 86 86 58 58 58 30 30 30 12 12 12 9 9 9 5 5 5 2 2 2 0 0 0 0 0 0 0 0 0 0 0 0 0 0 0 0 0 0 0 0 0 0 0 0 0 0 0 0 0 0 0 0 0 0 0 0 0 0 0 0 0 0 0 0 0 0 0 0 1 1 1 4 4 4 7 7 7 10 10 10 19 19 19 64 64 64 109 109 109 154 154 154 195 195 195 208 208 208 220 220 220 232 232 232 244 244 244 244 244 244 244 244 244 245 245 245 245 245 245 244 244 244 244 244 244 243 243 243 242 242 242 242 242 242 241 241 241 241 241 241 240 240 240 239 239 239 238 238 238 237 237 237 237 237 237 236 236 236 235 235 235 235 235 235 234 234 234 232 232 232 230 230 230 228 228 228 226 226 226 220 220 220 212 212 212 205 204 204 197 197 197 186 185 183 175 173 168 163 160 153 152 148 138 154 144 118 164 146 97 173 148 76 182 149 54 193 158 52 206 171 61 218 184 71 230 198 80 235 202 74 234 199 57 233 196 39 232 193 22 231 191 12 231 191 9 231 191 5 230 190 2 230 189 0 229 189 0 228 188 0 228 187 0 220 180 1 202 164 3 184 149 5 166 134 7 143 115 9 111 91 11 80 66 13 48 41 15 27 25 18 27 26 20 28 27 23 28 27 26 28 28 28 30 30 30 31 31 31 32 32 32 33 33 33 35 35 35 37 37 37 39 39 39 40 40 40 43 43 43 45 45 45 47 47 47 49 49 49 51 51 51 53 53 53 55 55 55 59 59 59 86 86 86 112 112 112 139 139 139 165 165 165 185 185 185 206 206 206 226 226 226 246 246 246 246 246 246 246 246 246 246 246 246 246 246 246 239 239 239 232 232 232 224 224 224 217 217 217 175 175 175 129 129 129 83 83 83 37 37 37 24 24 24 16 16 16 9 9 9 1 1 1 0 0 0 0 0 0 0 0 0 0 0 0 0 0 0 0 0 0 0 0 0 0 0 0 0 0 0 0 0 0 0 0 0 0 0 0 0 0 0 0 0 0 0 0 0 0 0 0 1 1 1 3 3 3 5 5 5 7 7 7 26 26 26 57 57 57 89 89 89 120 120 120 133 133 133 128 128 128 123 123 123 118 118 118 131 131 131 163 163 163 195 195 195 227 227 227 247 247 247 249 249 249 251 251 251 253 253 253 254 254 254 254 254 254 255 255 255 255 255 255 255 255 255 255 255 255 255 255 255 255 255 255 255 255 255 255 255 255 255 255 255 255 255 255 255 255 255 255 255 255 255 255 255 255 255 255 255 255 255 255 255 255 255 255 255 255 255 255 255 255 255 255 255 255 255 255 255 255 255 255 255 255 255 255 255 255 255 255 255 255 255 255 255 255 255 255 255 255 255 255 255 255 255 255 255 255 255 
255 255 255 255 255 255 255 255 255 255 255 255 255 255 255 255 255 255 255 255 255 255 255 255 255 255 255 255 255 255 255 255 255 255 255 255 255 255 255 255 255 255 255 255 255 255 255 255 255 255 255 255 255 255 255 255 255 255 255 255 255 255 255 255 255 255 255 255 255 255 255 255 255 255 255 255 255 255 255 255 255 255 255 255 255 255 255 255 255 255 254 254 254 254 254 254 253 253 253 250 250 250 244 244 244 238 238 238 232 232 232 214 214 214 187 187 187 160 160 160 133 133 133 121 121 121 121 121 121 122 122 122 123 123 123 110 110 110 82 82 82 53 53 53 25 25 25 8 8 8 6 6 6 4 4 4 1 1 1 0 0 0 0 0 0 0 0 0 0 0 0 0 0 0 0 0 0 0 0 0 0 0 0 0 0 0 0 0 0 0 0 0 0 0 0 0 0 0 0 0 0 0 0 0 0 0 0 2 2 2 10 10 10 19 19 19 27 27 27 41 41 41 85 85 85 130 130 130 174 174 174 214 214 214 222 222 222 230 230 230 237 237 237 245 245 245 245 245 245 245 245 245 245 245 245 245 245 245 244 244 244 244 244 244 243 243 243 243 243 243 243 243 243 242 242 242 242 242 242 241 241 241 241 241 241 240 240 240 240 240 240 239 239 239 238 238 238 238 238 238 238 238 238 237 237 237 236 236 236 234 234 234 233 233 233 231 231 231 224 224 224 216 216 216 207 207 207 198 198 198 185 184 184 169 169 168 154 153 151 139 137 135 137 131 115 143 129 92 149 128 70 154 126 48 167 136 45 183 152 55 200 168 64 217 184 74 225 191 71 227 192 58 229 192 45 231 192 32 231 192 23 231 190 18 230 189 12 230 188 7 228 186 4 225 184 3 222 181 2 220 178 1 208 169 1 186 150 2 164 132 4 141 114 5 117 94 7 90 73 10 63 53 12 36 32 15 19 18 17 20 19 19 21 21 20 22 22 22 23 23 23 23 23 23 23 23 23 23 23 23 24 24 24 25 25 25 26 26 26 27 27 27 28 28 28 30 30 30 32 32 32 33 33 33 35 35 35 36 36 36 37 37 37 39 39 39 42 42 42 72 72 72 101 101 101 130 130 130 159 159 159 180 180 180 202 202 202 224 224 224 246 246 246 246 246 246 246 246 246 246 246 246 246 246 246 242 242 242 239 239 239 235 235 235 232 232 232 192 192 192 149 149 149 106 106 106 63 63 63 44 44 44 31 31 31 17 17 17 3 3 3 0 0 0 0 0 0 0 0 0 0 0 0 0 0 0 0 0 0 0 0 0 0 0 0 0 0 0 0 0 0 0 0 0 0 0 0 0 0 0 0 0 0 0 0 0 0 0 0 1 1 1 1 1 1 2 2 2 3 3 3 20 20 20 50 50 50 80 80 80 110 110 110 123 123 123 120 120 120 117 117 117 114 114 114 125 125 125 152 152 152 179 179 179 206 206 206 225 225 225 232 232 232 239 239 239 247 247 247 252 252 252 253 253 253 254 254 254 254 254 254 255 255 255 255 255 255 255 255 255 255 255 255 255 255 255 255 255 255 255 255 255 255 255 255 255 255 255 255 255 255 255 255 255 255 255 255 255 255 255 255 255 255 255 255 255 255 255 255 255 255 255 255 255 255 255 255 255 255 255 255 255 255 255 255 255 255 255 255 255 255 255 255 255 255 255 255 255 255 255 255 255 255 255 255 255 255 255 
255 255 255 255 255 255 255 255 255 255 255 255 255 255 255 255 255 255 255 255 255 255 255 255 255 255 255 255 255 255 255 255 255 255 255 255 255 255 255 255 255 255 255 255 255 255 255 255 255 255 255 255 255 255 255 255 255 255 255 255 255 255 255 255 255 255 255 255 255 255 255 255 255 255 255 255 255 255 255 255 255 255 255 255 255 255 255 255 255 255 254 254 254 253 253 253 253 253 253 244 244 244 230 230 230 216 216 216 202 202 202 186 186 186 169 169 169 151 151 151 134 134 134 124 124 124 121 121 121 118 118 118 115 115 115 101 101 101 74 74 74 48 48 48 22 22 22 6 6 6 4 4 4 3 3 3 1 1 1 0 0 0 0 0 0 0 0 0 0 0 0 0 0 0 0 0 0 0 0 0 0 0 0 0 0 0 0 0 0 0 0 0 0 0 0 0 0 0 0 0 0 0 0 0 0 0 0 3 3 3 19 19 19 36 36 36 52 52 52 71 71 71 110 110 110 149 149 149 187 187 187 223 223 223 228 228 228 234 234 234 239 239 239 244 244 244 244 244 244 244 244 244 244 244 244 244 244 244 244 244 244 244 244 244 243 243 243 243 243 243 243 243 243 242 242 242 242 242 242 242 242 242 241 241 241 241 241 241 241 241 241 240 240 240 240 240 240 240 240 240 239 239 239 239 239 239 238 238 238 237 237 237 236 236 236 235 235 235 226 226 226 215 215 215 205 205 205 194 194 194 178 177 177 159 159 158 141 140 139 123 122 120 117 112 101 118 108 81 118 103 62 119 99 42 132 109 39 154 127 45 175 146 52 197 164 58 210 175 58 216 180 54 223 186 50 229 191 45 232 193 39 231 191 31 230 189 23 229 187 14 226 183 9 220 178 7 214 172 5 208 167 2 193 155 2 166 134 4 140 113 6 113 91 8 90 73 10 71 59 13 52 44 15 33 30 18 21 21 20 22 22 22 23 23 23 25 25 24 25 25 25 25 25 25 25 25 25 25 25 25 25 25 25 25 25 25 26 26 26 26 26 26 27 27 27 28 28 28 29 29 29 31 31 31 32 32 32 33 33 33 33 33 33 34 34 34 38 38 38 68 68 68 99 99 99 129 129 129 160 160 160 181 181 181 202 202 202 224 224 224 245 245 245 245 245 245 245 245 245 245 245 245 245 245 245 242 242 242 240 240 240 237 237 237 235 235 235 203 203 203 167 167 167 132 132 132 97 97 97 72 72 72 50 50 50 27 27 27 5 5 5 0 0 0 0 0 0 0 0 0 0 0 0 0 0 0 0 0 0 0 0 0 0 0 0 0 0 0 0 0 0 0 0 0 0 0 0 0 0 0 0 0 0 0 0 0 0 0 0 0 0 0 1 1 1 2 2 2 2 2 2 17 17 17 42 42 42 67 67 67 92 92 92 107 107 107 112 112 112 117 117 117 123 123 123 133 133 133 148 148 148 163 163 163 178 178 178 193 193 193 208 208 208 223 223 223 238 238 238 248 248 248 250 250 250 252 252 252 254 254 254 255 255 255 255 255 255 255 255 255 255 255 255 255 255 255 255 255 255 255 255 255 255 255 255 255 255 255 255 255 255 255 255 255 255 255 255 255 255 255 255 255 255 255 255 255 255 255 255 255 255 255 255 255 255 255 255 255 255 255 255 255 255 255 255 255 255 255 255 255 255 255 255 255 255 255 255 255 255 255 255 255 255 255 255 255 255 255 
255 255 255 255 255 255 255 255 255 255 255 255 255 255 255 255 255 255 255 255 255 255 255 255 255 255 255 255 255 255 255 255 255 255 255 255 255 255 255 255 255 255 255 255 255 255 255 255 255 255 255 255 255 255 255 255 255 255 255 255 255 255 255 255 255 255 255 255 255 255 255 255 255 255 255 255 255 255 255 255 255 255 255 255 255 255 255 254 254 254 254 254 254 253 253 253 252 252 252 238 238 238 216 216 216 194 194 194 172 172 172 158 158 158 150 150 150 142 142 142 134 134 134 127 127 127 120 120 120 113 113 113 107 107 107 91 91 91 67 67 67 42 42 42 18 18 18 3 3 3 2 2 2 2 2 2 1 1 1 0 0 0 0 0 0 0 0 0 0 0 0 0 0 0 0 0 0 0 0 0 0 0 0 0 0 0 0 0 0 0 0 0 0 0 0 0 0 0 0 0 0 0 0 0 0 0 0 5 5 5 29 29 29 53 53 53 76 76 76 102 102 102 135 135 135 168 168 168 201 201 201 231 231 231 234 234 234 238 238 238 241 241 241 244 244 244 244 244 244 244 244 244 244 244 244 244 244 244 244 244 244 243 243 243 243 243 243 243 243 243 243 243 243 243 243 243 243 243 243 242 242 242 242 242 242 242 242 242 242 242 242 241 241 241 241 241 241 241 241 241 241 241 241 241 241 241 240 240 240 239 239 239 238 238 238 238 238 238 228 228 228 215 215 215 202 202 202 189 189 189 171 170 170 149 149 149 128 128 127 107 106 105 97 94 87 92 86 70 88 79 53 84 71 37 98 81 32 124 102 35 151 123 39 177 144 42 194 159 46 205 169 50 217 180 54 228 191 58 232 194 55 231 191 44 230 188 33 229 185 22 224 180 14 214 172 11 205 164 7 196 155 4 178 141 3 147 117 5 116 93 8 85 69 10 62 52 13 52 44 15 41 36 18 30 28 21 23 24 23 25 25 24 26 26 26 27 27 27 28 28 28 27 27 27 27 27 27 26 26 26 26 26 26 26 26 26 26 26 26 26 26 26 26 26 26 27 27 27 27 27 27 28 28 28 28 28 28 29 29 29 29 29 29 30 30 30 33 33 33 65 65 65 97 97 97 129 129 129 161 161 161 182 182 182 203 203 203 224 224 224 245 245 245 245 245 245 244 244 244 244 244 244 244 244 244 243 243 243 241 241 241 240 240 240 238 238 238 213 213 213 186 186 186 158 158 158 130 130 130 100 100 100 69 69 69 38 38 38 7 7 7 1 1 1 0 0 0 0 0 0 0 0 0 0 0 0 0 0 0 0 0 0 0 0 0 0 0 0 0 0 0 0 0 0 0 0 0 0 0 0 0 0 0 0 0 0 0 0 0 0 0 0 1 1 1 1 1 1 1 1 1 13 13 13 33 33 33 53 53 53 74 74 74 90 90 90 104 104 104 118 118 118 131 131 131 140 140 140 143 143 143 146 146 146 149 149 149 161 161 161 183 183 183 206 206 206 229 229 229 245 245 245 247 247 247 250 250 250 253 253 253 255 255 255 255 255 255 255 255 255 255 255 255 255 255 255 255 255 255 255 255 255 255 255 255 255 255 255 255 255 255 255 255 255 255 255 255 255 255 255 255 255 255 255 255 255 255 255 255 255 255 255 255 255 255 255 255 255 255 255 255 255 255 255 255 255 255 255 255 255 255 255 255 255 255 255 255 255 255 255 255 255 255 255 255 255 255 255 
255 255 255 255 255 255 255 255 255 255 255 255 255 255 255 255 255 255 255 255 255 255 255 255 255 255 255 255 255 255 255 255 255 255 255 255 255 255 255 255 255 255 255 255 255 255 255 255 255 255 255 255 255 255 255 255 255 255 255 255 255 255 255 255 255 255 255 255 255 255 255 255 255 255 255 255 255 255 255 255 255 255 255 255 255 255 255 254 254 254 253 253 253 252 252 252 251 251 251 232 232 232 202 202 202 172 172 172 142 142 142 130 130 130 131 131 131 133 133 133 134 134 134 130 130 130 119 119 119 109 109 109 98 98 98 82 82 82 59 59 59 37 37 37 14 14 14 1 1 1 1 1 1 0 0 0 0 0 0 0 0 0 0 0 0 0 0 0 0 0 0 0 0 0 0 0 0 0 0 0 0 0 0 0 0 0 0 0 0 0 0 0 0 0 0 0 0 0 0 0 0 0 0 0 0 0 0 6 6 6 38 38 38 69 69 69 101 101 101 132 132 132 160 160 160 187 187 187 215 215 215 240 240 240 241 241 241 242 242 242 242 242 242 243 243 243 243 243 243 243 243 243 243 243 243 243 243 243 243 243 243 243 243 243 243 243 243 243 243 243 243 243 243 243 243 243 243 243 243 243 243 243 243 243 243 243 243 243 243 243 243 243 243 243 242 242 242 242 242 242 242 242 242 242 242 242 242 242 242 242 242 242 241 241 241 241 241 241 230 230 230 215 215 215 200 200 200 185 185 185 164 163 163 139 139 139 115 115 115 91 90 90 76 75 73 67 65 59 58 54 45 49 44 31 64 54 26 95 77 26 126 100 26 157 123 26 179 142 33 195 158 46 210 174 59 226 190 71 233 195 70 231 191 57 230 188 43 228 184 29 221 177 20 209 166 15 197 155 10 184 144 5 162 127 4 127 100 7 92 74 10 57 47 13 35 31 16 32 29 18 29 28 21 27 27 23 26 26 25 27 28 27 29 29 28 30 30 30 31 31 31 30 30 30 29 29 29 27 27 27 26 26 26 26 26 26 25 25 25 25 25 25 25 25 25 25 25 25 25 25 25 25 25 25 25 25 25 25 25 25 25 25 25 25 25 25 28 28 28 62 62 62 95 95 95 129 129 129 162 162 162 182 182 182 203 203 203 224 224 224 244 244 244 244 244 244 244 244 244 244 244 244 243 243 243 243 243 243 243 243 243 242 242 242 242 242 242 224 224 224 204 204 204 184 184 184 164 164 164 128 128 128 88 88 88 48 48 48 8 8 8 1 1 1 1 1 1 0 0 0 0 0 0 0 0 0 0 0 0 0 0 0 0 0 0 0 0 0 0 0 0 0 0 0 0 0 0 0 0 0 0 0 0 0 0 0 0 0 0 0 0 0 0 0 0 0 0 0 0 0 0 9 9 9 25 25 25 40 40 40 55 55 55 74 74 74 96 96 96 118 118 118 140 140 140 147 147 147 138 138 138 129 129 129 120 120 120 129 129 129 159 159 159 190 190 190 221 221 221 241 241 241 245 245 245 249 249 249 252 252 252 255 255 255 255 255 255 255 255 255 255 255 255 255 255 255 255 255 255 255 255 255 255 255 255 255 255 255 255 255 255 255 255 255 255 255 255 255 255 255 255 255 255 255 255 255 255 255 255 255 255 255 255 255 255 255 255 255 255 255 255 255 255 255 255 255 255 255 255 255 255 255 255 255 255 255 255 255 255 255 255 255 255 255 255 255 255 255 
255 255 255 255 255 255 255 255 255 255 255 255 255 255 255 255 255 255 255 255 255 255 255 255 255 255 255 255 255 255 255 255 255 255 255 255 255 255 255 255 255 255 255 255 255 255 255 255 255 255 255 255 255 255 255 255 255 255 255 255 255 255 255 255 255 255 255 255 255 255 255 255 255 255 255 254 254 254 254 254 254 253 253 253 252 252 252 247 247 247 241 241 241 235 235 235 229 229 229 210 210 210 184 184 184 158 158 158 132 132 132 122 122 122 125 125 125 128 128 128 131 131 131 125 125 125 111 111 111 97 97 97 83 83 83 67 67 67 48 48 48 29 29 29 11 11 11 0 0 0 0 0 0 0 0 0 0 0 0 0 0 0 0 0 0 0 0 0 0 0 0 0 0 0 0 0 0 0 0 0 0 0 0 0 0 0 0 0 0 0 0 0 0 0 0 0 0 0 2 2 2 3 3 3 5 5 5 13 13 13 50 50 50 87 87 87 123 123 123 158 158 158 179 179 179 201 201 201 223 223 223 243 243 243 243 243 243 243 243 243 243 243 243 243 243 243 243 243 243 243 243 243 243 243 243 243 243 243 243 243 243 243 243 243 243 243 243 243 243 243 243 243 243 243 243 243 243 243 243 243 243 243 243 243 243 243 243 243 243 243 243 243 243 243 242 242 242 241 241 241 239 239 239 238 238 238 234 234 234 230 230 230 226 226 226 221 221 221 209 209 209 193 193 193 178 178 178 162 162 162 142 142 142 120 120 120 97 97 97 75 75 75 61 61 60 52 51 49 42 41 38 33 31 27 47 40 23 75 61 22 104 83 22 132 104 22 156 123 30 175 142 44 194 161 59 214 179 74 223 187 74 222 184 62 222 181 50 221 179 38 215 172 31 202 162 29 188 151 27 175 141 24 155 125 25 126 104 30 96 82 34 67 60 39 50 48 43 51 51 47 53 53 51 55 56 54 57 58 57 59 59 59 60 60 60 62 62 62 62 62 62 60 60 60 59 59 59 57 57 57 56 56 56 55 55 55 55 55 55 54 54 54 53 53 53 51 51 51 49 49 49 47 47 47 44 44 44 41 41 41 38 38 38 35 35 35 35 35 35 68 68 68 101 101 101 134 134 134 167 167 167 186 186 186 205 205 205 224 224 224 244 244 244 243 243 243 243 243 243 243 243 243 243 243 243 243 243 243 243 243 243 243 243 243 243 243 243 230 230 230 216 216 216 201 201 201 187 187 187 148 148 148 105 105 105 62 62 62 19 19 19 9 9 9 6 6 6 3 3 3 1 1 1 0 0 0 0 0 0 0 0 0 0 0 0 0 0 0 0 0 0 0 0 0 0 0 0 0 0 0 0 0 0 0 0 0 0 0 0 0 0 0 0 0 0 0 0 0 0 0 0 7 7 7 18 18 18 30 30 30 41 41 41 59 59 59 83 83 83 106 106 106 130 130 130 139 139 139 131 131 131 123 123 123 115 115 115 122 122 122 148 148 148 173 173 173 199 199 199 218 218 218 226 226 226 234 234 234 243 243 243 249 249 249 250 250 250 252 252 252 254 254 254 255 255 255 255 255 255 255 255 255 255 255 255 255 255 255 255 255 255 255 255 255 255 255 255 255 255 255 255 255 255 255 255 255 255 255 255 255 255 255 255 255 255 255 255 255 255 255 255 255 255 255 255 255 255 255 255 255 255 255 255 255 255 255 255 255 255 255 255 255 255 255 255 255 255 255 
255 255 255 255 255 255 255 255 255 255 255 255 255 255 255 255 255 255 255 255 255 255 255 255 255 255 255 255 255 255 255 255 255 255 255 255 255 255 255 255 255 255 255 255 255 255 255 255 255 255 255 255 255 255 255 255 255 255 255 255 255 255 255 255 255 255 255 255 255 255 255 255 255 255 255 253 253 253 251 251 251 249 249 249 247 247 247 237 237 237 222 222 222 208 208 208 193 193 193 179 179 179 164 164 164 149 149 149 134 134 134 127 127 127 126 126 126 126 126 126 125 125 125 115 115 115 98 98 98 81 81 81 63 63 63 48 48 48 34 34 34 21 21 21 8 8 8 0 0 0 0 0 0 0 0 0 0 0 0 0 0 0 0 0 0 0 0 0 0 0 0 0 0 0 0 0 0 0 0 0 0 0 0 0 0 0 0 0 0 0 0 0 0 0 0 1 1 1 5 5 5 9 9 9 13 13 13 24 24 24 64 64 64 104 104 104 144 144 144 181 181 181 196 196 196 212 212 212 228 228 228 242 242 242 242 242 242 242 242 242 242 242 242 242 242 242 242 242 242 242 242 242 242 242 242 242 242 242 242 242 242 242 242 242 242 242 242 242 242 242 242 242 242 242 242 242 242 242 242 242 242 242 242 242 242 242 242 242 242 242 242 243 243 243 240 240 240 237 237 237 233 233 233 230 230 230 221 221 221 210 210 210 199 199 199 188 188 188 174 174 174 159 159 159 143 143 143 128 128 128 111 111 111 94 94 94 77 77 77 60 60 60 50 49 49 42 42 41 35 35 33 28 27 24 39 35 22 61 51 23 83 68 24 105 84 25 127 103 33 150 123 45 172 143 57 195 163 69 206 172 71 207 172 64 209 172 56 210 172 49 205 167 46 193 159 49 181 150 52 169 142 54 154 132 59 136 120 66 118 107 73 100 95 80 90 89 86 95 94 92 99 99 97 103 103 102 106 107 106 108 108 108 109 110 109 111 111 111 111 111 111 109 109 109 107 107 107 104 104 104 103 103 103 102 102 102 102 102 102 101 101 101 100 100 100 95 95 95 89 89 89 84 84 84 78 78 78 69 69 69 61 61 61 53 53 53 49 49 49 80 80 80 112 112 112 143 143 143 174 174 174 191 191 191 208 208 208 226 226 226 243 243 243 243 243 243 242 242 242 242 242 242 242 242 242 242 242 242 242 242 242 242 242 242 242 242 242 233 233 233 223 223 223 213 213 213 202 202 202 164 164 164 121 121 121 78 78 78 36 36 36 22 22 22 15 15 15 8 8 8 2 2 2 0 0 0 0 0 0 0 0 0 0 0 0 0 0 0 0 0 0 0 0 0 0 0 0 0 0 0 0 0 0 0 0 0 0 0 0 0 0 0 0 0 0 0 0 0 0 0 0 5 5 5 13 13 13 21 21 21 29 29 29 44 44 44 66 66 66 88 88 88 109 109 109 121 121 121 123 123 123 124 124 124 125 125 125 131 131 131 144 144 144 157 157 157 170 170 170 183 183 183 198 198 198 212 212 212 227 227 227 238 238 238 243 243 243 247 247 247 251 251 251 255 255 255 255 255 255 255 255 255 255 255 255 255 255 255 255 255 255 255 255 255 255 255 255 255 255 255 255 255 255 255 255 255 255 255 255 255 255 255 255 255 255 255 255 255 255 255 255 255 255 255 255 255 255 255 255 255 255 255 255 255 255 255 255 255 255 255 255 255 255 255 255 255 255 255 
255 255 255 255 255 255 255 255 255 255 255 255 255 255 255 255 255 255 255 255 255 255 255 255 255 255 255 255 255 255 255 255 255 255 255 255 255 255 255 255 255 255 255 255 255 255 255 255 255 255 255 255 255 255 255 255 255 255 255 255 255 255 255 255 255 255 255 255 255 255 255 255 255 255 255 252 252 252 249 249 249 245 245 245 242 242 242 226 226 226 203 203 203 181 181 181 158 158 158 147 147 147 144 144 144 140 140 140 136 136 136 132 132 132 128 128 128 123 123 123 119 119 119 106 106 106 85 85 85 64 64 64 44 44 44 29 29 29 21 21 21 13 13 13 5 5 5 0 0 0 0 0 0 0 0 0 0 0 0 0 0 0 0 0 0 0 0 0 0 0 0 0 0 0 0 0 0 0 0 0 0 0 0 0 0 0 0 0 0 0 0 0 0 0 0 2 2 2 8 8 8 15 15 15 21 21 21 35 35 35 78 78 78 122 122 122 165 165 165 203 203 203 213 213 213 223 223 223 232 232 232 241 241 241 241 241 241 241 241 241 242 242 242 242 242 242 242 242 242 242 242 242 242 242 242 242 242 242 242 242 242 242 242 242 242 242 242 242 242 242 242 242 242 242 242 242 242 242 242 242 242 242 242 242 242 242 242 242 242 242 242 242 242 242 238 238 238 233 233 233 227 227 227 222 222 222 207 207 207 190 190 190 172 172 172 155 155 155 139 139 139 124 124 124 109 109 109 93 93 93 81 81 81 69 69 69 57 57 57 45 45 45 38 38 38 33 33 32 28 28 27 24 23 22 32 29 21 47 41 24 63 53 26 78 65 29 99 83 36 125 104 45 150 125 55 175 146 65 189 158 68 192 160 65 196 162 62 199 164 59 195 162 61 184 156 69 173 150 76 162 143 84 152 138 92 146 135 102 139 133 111 133 130 120 131 131 129 138 138 136 144 144 143 151 151 151 156 156 156 157 158 157 159 159 159 160 160 160 161 161 161 158 158 158 155 155 155 152 152 152 149 149 149 149 149 149 149 149 149 149 149 149 147 147 147 138 138 138 129 129 129 120 120 120 111 111 111 98 98 98 85 85 85 72 72 72 63 63 63 92 92 92 122 122 122 152 152 152 181 181 181 196 196 196 212 212 212 227 227 227 242 242 242 242 242 242 242 242 242 241 241 241 241 241 241 241 241 241 241 241 241 242 242 242 242 242 242 236 236 236 230 230 230 224 224 224 218 218 218 180 180 180 138 138 138 95 95 95 52 52 52 35 35 35 24 24 24 13 13 13 3 3 3 0 0 0 0 0 0 0 0 0 0 0 0 0 0 0 0 0 0 0 0 0 0 0 0 0 0 0 0 0 0 0 0 0 0 0 0 0 0 0 0 0 0 0 0 0 0 0 0 3 3 3 8 8 8 12 12 12 17 17 17 30 30 30 49 49 49 69 69 69 89 89 89 104 104 104 114 114 114 124 124 124 134 134 134 140 140 140 140 140 140 140 140 140 140 140 140 148 148 148 169 169 169 190 190 190 211 211 211 228 228 228 235 235 235 242 242 242 249 249 249 254 254 254 255 255 255 255 255 255 255 255 255 255 255 255 255 255 255 255 255 255 255 255 255 255 255 255 255 255 255 255 255 255 255 255 255 255 255 255 255 255 255 255 255 255 255 255 255 255 255 255 255 255 255 255 255 255 255 255 255 255 255 255 255 255 255 255 255 255 255 255 255 255 255 255 
255 255 255 255 255 255 255 255 255 255 255 255 255 255 255 255 255 255 255 255 255 255 255 255 255 255 255 255 255 255 255 255 255 255 255 255 255 255 255 255 255 255 255 255 255 255 255 255 255 255 255 255 255 255 255 255 255 255 255 255 255 255 255 255 255 255 255 255 255 255 255 255 255 255 255 252 252 252 247 247 247 242 242 242 237 237 237 215 215 215 184 184 184 154 154 154 123 123 123 116 116 116 124 124 124 131 131 131 139 139 139 137 137 137 129 129 129 121 121 121 113 113 113 97 97 97 72 72 72 48 48 48 24 24 24 10 10 10 7 7 7 4 4 4 2 2 2 0 0 0 0 0 0 0 0 0 0 0 0 0 0 0 0 0 0 0 0 0 0 0 0 0 0 0 0 0 0 0 0 0 0 0 0 0 0 0 0 0 0 0 0 0 0 0 0 2 2 2 11 11 11 20 20 20 29 29 29 46 46 46 92 92 92 139 139 139 186 186 186 226 226 226 230 230 230 234 234 234 237 237 237 240 240 240 241 241 241 241 241 241 241 241 241 241 241 241 241 241 241 241 241 241 241 241 241 241 241 241 241 241 241 241 241 241 241 241 241 241 241 241 241 241 241 241 241 241 241 241 241 241 241 241 241 241 241 242 242 242 242 242 242 242 242 242 236 236 236 229 229 229 221 221 221 214 214 214 193 193 193 169 169 169 145 145 145 122 122 122 104 104 104 89 89 89 74 74 74 59 59 59 50 50 50 43 43 43 37 37 37 30 30 30 26 26 26 24 24 24 22 21 21 19 19 19 24 23 20 33 31 24 42 38 28 51 46 32 71 62 38 99 85 46 128 107 53 156 130 60 172 143 64 177 148 66 183 152 68 188 157 70 185 157 76 175 153 89 165 149 101 155 144 114 151 145 126 156 151 138 161 158 149 166 165 161 172 172 171 181 181 181 190 190 190 199 199 199 205 205 205 207 207 207 208 208 208 210 210 210 210 210 210 206 206 206 202 202 202 199 199 199 196 196 196 196 196 196 196 196 196 196 196 196 194 194 194 182 182 182 169 169 169 157 157 157 144 144 144 126 126 126 108 108 108 90 90 90 77 77 77 105 105 105 133 133 133 161 161 161 188 188 188 202 202 202 215 215 215 228 228 228 241 241 241 241 241 241 241 241 241 241 241 241 240 240 240 241 241 241 241 241 241 241 241 241 241 241 241 239 239 239 237 237 237 235 235 235 233 233 233 196 196 196 154 154 154 111 111 111 68 68 68 48 48 48 33 33 33 18 18 18 4 4 4 0 0 0 0 0 0 0 0 0 0 0 0 0 0 0 0 0 0 0 0 0 0 0 0 0 0 0 0 0 0 0 0 0 0 0 0 0 0 0 0 0 0 0 0 0 0 0 0 1 1 1 2 2 2 4 4 4 5 5 5 15 15 15 33 33 33 50 50 50 68 68 68 86 86 86 106 106 106 125 125 125 144 144 144 149 149 149 136 136 136 124 124 124 111 111 111 113 113 113 141 141 141 168 168 168 196 196 196 217 217 217 227 227 227 237 237 237 247 247 247 254 254 254 254 254 254 255 255 255 255 255 255 255 255 255 255 255 255 255 255 255 255 255 255 255 255 255 255 255 255 255 255 255 255 255 255 255 255 255 255 255 255 255 255 255 255 255 255 255 255 255 255 255 255 255 255 255 255 255 255 255 255 255 255 255 255 255 255 255 255 255 255 255 255 255 
255 255 255 255 255 255 255 255 255 255 255 255 255 255 255 255 255 255 255 255 255 255 255 255 255 255 255 255 255 255 255 255 255 255 255 255 255 255 255 255 255 255 255 255 255 255 255 255 255 255 255 255 255 255 255 255 255 255 255 255 255 255 255 253 253 253 251 251 251 249 249 249 247 247 247 240 240 240 232 232 232 223 223 223 215 215 215 195 195 195 168 168 168 142 142 142 115 115 115 110 110 110 118 118 118 126 126 126 134 134 134 131 131 131 120 120 120 108 108 108 97 97 97 80 80 80 58 58 58 35 35 35 13 13 13 2 2 2 1 1 1 1 1 1 0 0 0 0 0 0 0 0 0 0 0 0 0 0 0 0 0 0 0 0 0 0 0 0 0 0 0 0 0 0 0 0 0 0 0 0 0 0 0 0 0 0 0 0 0 0 0 0 0 0 0 3 3 3 17 17 17 31 31 31 45 45 45 65 65 65 109 109 109 154 154 154 198 198 198 236 236 236 237 237 237 238 238 238 239 239 239 240 240 240 240 240 240 240 240 240 240 240 240 241 241 241 241 241 241 241 241 241 241 241 241 241 241 241 241 241 241 241 241 241 241 241 241 241 241 241 241 241 241 241 241 241 241 241 241 240 240 240 238 238 238 235 235 235 232 232 232 229 229 229 220 220 220 209 209 209 199 199 199 188 188 188 167 167 167 143 143 143 120 120 120 96 96 96 81 81 81 68 68 68 55 55 55 42 42 42 38 38 38 37 37 37 36 36 36 35 35 35 36 36 36 37 37 37 38 38 38 39 39 39 43 43 42 49 48 47 54 53 51 60 58 55 77 72 60 102 91 65 126 110 69 151 130 74 166 142 78 171 147 81 176 152 85 181 157 88 180 158 96 172 156 109 164 153 122 157 151 135 156 154 148 166 164 159 175 174 171 185 184 183 194 194 194 203 203 203 212 212 212 221 221 221 227 227 227 226 226 226 226 226 226 225 225 225 222 222 222 215 215 215 208 208 208 201 201 201 196 196 196 199 199 199 201 201 201 204 204 204 204 204 204 191 191 191 179 179 179 167 167 167 154 154 154 140 140 140 125 125 125 110 110 110 99 99 99 124 124 124 149 149 149 174 174 174 199 199 199 209 209 209 220 220 220 230 230 230 241 241 241 240 240 240 240 240 240 240 240 240 240 240 240 240 240 240 240 240 240 240 240 240 241 241 241 240 240 240 240 240 240 240 240 240 240 240 240 206 206 206 168 168 168 129 129 129 90 90 90 66 66 66 46 46 46 26 26 26 5 5 5 0 0 0 0 0 0 0 0 0 0 0 0 0 0 0 0 0 0 0 0 0 0 0 0 0 0 0 0 0 0 0 0 0 0 0 0 0 0 0 0 0 0 0 0 0 0 0 0 0 0 0 0 0 0 0 0 0 0 0 0 8 8 8 22 22 22 36 36 36 51 51 51 69 69 69 91 91 91 112 112 112 134 134 134 142 142 142 130 130 130 118 118 118 106 106 106 108 108 108 131 131 131 155 155 155 178 178 178 198 198 198 209 209 209 221 221 221 232 232 232 242 242 242 245 245 245 249 249 249 252 252 252 255 255 255 255 255 255 255 255 255 255 255 255 255 255 255 255 255 255 255 255 255 255 255 255 255 255 255 255 255 255 255 255 255 255 255 255 255 255 255 255 255 255 255 255 255 255 255 255 255 255 255 255 255 255 255 255 255 255 255 255 255 255 255 
255 255 255 255 255 255 255 255 255 255 255 255 255 255 255 255 255 255 255 255 255 255 255 255 255 255 255 255 255 255 255 255 255 255 255 255 255 255 255 255 255 255 255 255 255 255 255 255 255 255 255 255 255 255 255 255 255 255 255 255 255 255 255 250 250 250 245 245 245 239 239 239 233 233 233 221 221 221 207 207 207 194 194 194 180 180 180 167 167 167 154 154 154 141 141 141 128 128 128 124 124 124 124 124 124 125 125 125 125 125 125 117 117 117 102 102 102 87 87 87 73 73 73 57 57 57 41 41 41 25 25 25 10 10 10 1 1 1 1 1 1 0 0 0 0 0 0 0 0 0 0 0 0 0 0 0 0 0 0 0 0 0 0 0 0 0 0 0 0 0 0 0 0 0 0 0 0 0 0 0 0 0 0 0 0 0 0 0 0 0 0 0 0 0 0 5 5 5 25 25 25 46 46 46 67 67 67 91 91 91 128 128 128 166 166 166 204 204 204 237 237 237 237 237 237 238 238 238 239 239 239 239 239 239 239 239 239 240 240 240 240 240 240 240 240 240 240 240 240 240 240 240 240 240 240 240 240 240 240 240 240 240 240 240 240 240 240 240 240 240 240 240 240 240 240 240 240 240 240 239 239 239 232 232 232 223 223 223 215 215 215 206 206 206 193 193 193 178 178 178 164 164 164 149 149 149 131 131 131 113 113 113 94 94 94 76 76 76 65 65 65 56 56 56 48 48 48 39 39 39 40 40 40 45 45 45 50 50 50 56 56 56 61 61 61 66 66 66 71 71 71 77 77 77 82 81 81 86 86 85 91 90 89 96 95 93 107 104 96 124 117 98 141 129 100 158 142 103 167 150 105 171 154 107 175 157 109 178 161 112 178 163 118 174 162 129 169 162 139 165 161 150 166 165 160 175 174 171 184 183 181 193 192 192 201 201 201 209 209 209 217 217 217 224 224 224 228 228 228 224 224 224 219 219 219 215 215 215 208 208 208 195 195 195 182 182 182 169 169 169 161 161 161 168 168 168 175 175 175 182 182 182 185 185 185 176 176 176 166 166 166 156 156 156 147 147 147 142 142 142 137 137 137 131 131 131 129 129 129 149 149 149 170 170 170 191 191 191 211 211 211 218 218 218 225 225 225 233 233 233 240 240 240 240 240 240 240 240 240 239 239 239 239 239 239 239 239 239 240 240 240 240 240 240 240 240 240 240 240 240 240 240 240 239 239 239 239 239 239 212 212 212 180 180 180 148 148 148 115 115 115 88 88 88 61 61 61 35 35 35 8 8 8 1 1 1 1 1 1 0 0 0 0 0 0 0 0 0 0 0 0 0 0 0 0 0 0 0 0 0 0 0 0 0 0 0 0 0 0 0 0 0 0 0 0 0 0 0 0 0 0 0 0 0 0 0 0 0 0 0 0 0 0 5 5 5 16 16 16 26 26 26 36 36 36 51 51 51 71 71 71 90 90 90 110 110 110 121 121 121 120 120 120 120 120 120 119 119 119 123 123 123 135 135 135 147 147 147 159 159 159 171 171 171 184 184 184 196 196 196 208 208 208 220 220 220 229 229 229 238 238 238 247 247 247 254 254 254 254 254 254 255 255 255 255 255 255 255 255 255 255 255 255 255 255 255 255 255 255 255 255 255 255 255 255 255 255 255 255 255 255 255 255 255 255 255 255 255 255 255 255 255 255 255 255 255 255 255 255 255 255 255 255 255 255 255 255 255 
255 255 255 255 255 255 255 255 255 255 255 255 255 255 255 255 255 255 255 255 255 255 255 255 255 255 255 255 255 255 255 255 255 255 255 255 255 255 255 255 255 255 255 255 255 255 255 255 255 255 255 255 255 255 255 255 255 255 255 255 255 255 255 248 248 248 238 238 238 228 228 228 218 218 218 202 202 202 183 183 183 164 164 164 145 145 145 139 139 139 140 140 140 141 141 141 141 141 141 137 137 137 130 130 130 123 123 123 116 116 116 102 102 102 84 84 84 66 66 66 48 48 48 35 35 35 25 25 25 15 15 15 6 6 6 1 1 1 0 0 0 0 0 0 0 0 0 0 0 0 0 0 0 0 0 0 0 0 0 0 0 0 0 0 0 0 0 0 0 0 0 0 0 0 0 0 0 0 0 0 0 0 0 0 0 0 0 0 0 0 0 0 0 0 0 6 6 6 34 34 34 61 61 61 88 88 88 116 116 116 148 148 148 179 179 179 210 210 210 237 237 237 238 238 238 238 238 238 238 238 238 239 239 239 239 239 239 239 239 239 239 239 239 239 239 239 239 239 239 239 239 239 239 239 239 239 239 239 239 239 239 239 239 239 240 240 240 240 240 240 239 239 239 239 239 239 239 239 239 238 238 238 226 226 226 212 212 212 198 198 198 184 184 184 166 166 166 147 147 147 129 129 129 110 110 110 96 96 96 83 83 83 69 69 69 56 56 56 49 49 49 45 45 45 40 40 40 36 36 36 42 42 42 54 54 54 65 65 65 76 76 76 86 86 86 96 96 96 105 105 105 114 114 114 120 120 120 124 124 123 128 128 127 132 131 130 138 136 131 147 142 131 155 148 131 164 154 131 169 158 132 171 161 133 173 163 134 175 165 136 176 167 140 175 169 148 175 170 157 174 171 165 177 176 173 185 184 182 193 192 191 201 201 200 208 208 208 215 215 215 221 221 221 227 227 227 229 229 229 221 221 221 212 212 212 204 204 204 193 193 193 175 175 175 156 156 156 138 138 138 126 126 126 137 137 137 148 148 148 159 159 159 167 167 167 160 160 160 153 153 153 146 146 146 141 141 141 145 145 145 149 149 149 153 153 153 158 158 158 174 174 174 191 191 191 207 207 207 223 223 223 227 227 227 231 231 231 236 236 236 240 240 240 239 239 239 239 239 239 239 239 239 239 239 239 239 239 239 239 239 239 239 239 239 239 239 239 239 239 239 239 239 239 239 239 239 239 239 239 217 217 217 192 192 192 166 166 166 141 141 141 110 110 110 76 76 76 43 43 43 10 10 10 2 2 2 1 1 1 1 1 1 0 0 0 0 0 0 0 0 0 0 0 0 0 0 0 0 0 0 0 0 0 0 0 0 0 0 0 0 0 0 0 0 0 0 0 0 0 0 0 0 0 0 0 0 0 0 0 0 0 0 0 3 3 3 9 9 9 15 15 15 22 22 22 33 33 33 51 51 51 68 68 68 86 86 86 101 101 101 111 111 111 122 122 122 133 133 133 139 139 139 140 140 140 140 140 140 140 140 140 145 145 145 158 158 158 171 171 171 184 184 184 198 198 198 213 213 213 228 228 228 242 242 242 254 254 254 254 254 254 254 254 254 255 255 255 255 255 255 255 255 255 255 255 255 255 255 255 255 255 255 255 255 255 255 255 255 255 255 255 255 255 255 255 255 255 255 255 255 255 255 255 255 255 255 255 255 255 255 255 255 255 255 255 255 255 255 
255 255 255 255 255 255 255 255 255 255 255 255 255 255 255 255 255 255 255 255 255 255 255 255 255 255 255 255 255 255 255 255 255 255 255 255 255 255 255 255 255 255 255 255 255 255 255 255 255 255 255 255 255 255 255 255 255 255 255 255 255 255 255 245 245 245 231 231 231 218 218 218 204 204 204 183 183 183 159 159 159 135 135 135 110 110 110 112 112 112 126 126 126 140 140 140 154 154 154 150 150 150 136 136 136 121 121 121 106 106 106 88 88 88 67 67 67 46 46 46 24 24 24 12 12 12 9 9 9 6 6 6 2 2 2 0 0 0 0 0 0 0 0 0 0 0 0 0 0 0 0 0 0 0 0 0 0 0 0 0 0 0 0 0 0 0 0 0 0 0 0 0 0 0 0 0 0 0 0 0 0 0 0 0 0 0 0 0 0 0 0 0 0 0 0 8 8 8 42 42 42 76 76 76 110 110 110 142 142 142 167 167 167 192 192 192 216 216 216 238 238 238 238 238 238 238 238 238 238 238 238 238 238 238 238 238 238 238 238 238 238 238 238 238 238 238 238 238 238 238 238 238 238 238 238 238 238 238 239 239 239 239 239 239 239 239 239 239 239 239 239 239 239 238 238 238 238 238 238 238 238 238 220 220 220 200 200 200 181 181 181 161 161 161 139 139 139 116 116 116 94 94 94 71 71 71 60 60 60 52 52 52 44 44 44 36 36 36 34 34 34 33 33 33 33 33 33 32 32 32 44 44 44 62 62 62 79 79 79 97 97 97 111 111 111 125 125 125 139 139 139 152 152 152 159 159 159 162 162 162 165 165 164 168 168 167 169 168 167 169 168 164 170 167 162 170 166 159 170 166 158 171 167 159 172 169 159 172 170 160 174 172 163 177 175 168 180 178 174 182 182 179 187 187 186 194 194 193 202 201 201 209 209 209 215 215 215 220 220 220 225 225 225 231 231 231 230 230 230 218 218 218 206 206 206 194 194 194 178 178 178 154 154 154 130 130 130 106 106 106 92 92 92 107 107 107 122 122 122 137 137 137 148 148 148 144 144 144 140 140 140 136 136 136 134 134 134 147 147 147 160 160 160 174 174 174 187 187 187 199 199 199 211 211 211 224 224 224 235 235 235 236 236 236 237 237 237 238 238 238 239 239 239 239 239 239 239 239 239 238 238 238 238 238 238 238 238 238 238 238 238 238 238 238 238 238 238 238 238 238 238 238 238 238 238 238 238 238 238 222 222 222 204 204 204 185 185 185 167 167 167 131 131 131 92 92 92 52 52 52 13 13 13 3 3 3 2 2 2 1 1 1 0 0 0 0 0 0 0 0 0 0 0 0 0 0 0 0 0 0 0 0 0 0 0 0 0 0 0 0 0 0 0 0 0 0 0 0 0 0 0 0 0 0 0 0 0 0 0 0 0 0 0 1 1 1 3 3 3 5 5 5 7 7 7 15 15 15 31 31 31 47 47 47 62 62 62 80 80 80 102 102 102 124 124 124 146 146 146 155 155 155 144 144 144 133 133 133 121 121 121 118 118 118 132 132 132 146 146 146 160 160 160 176 176 176 197 197 197 217 217 217 238 238 238 253 253 253 254 254 254 254 254 254 255 255 255 255 255 255 255 255 255 255 255 255 255 255 255 255 255 255 255 255 255 255 255 255 255 255 255 255 255 255 255 255 255 255 255 255 255 255 255 255 255 255 255 255 255 255 255 255 255 255 255 255 255 255 
255 255 255 255 255 255 255 255 255 255 255 255 255 255 255 255 255 255 255 255 255 255 255 255 255 255 255 255 255 255 255 255 255 255 255 255 255 255 255 255 255 255 255 255 255 255 255 255 255 255 255 252 252 252 249 249 249 246 246 246 243 243 243 231 231 231 216 216 216 201 201 201 186 186 186 167 167 167 146 146 146 125 125 125 103 103 103 106 106 106 120 120 120 134 134 134 148 148 148 143 143 143 125 125 125 107 107 107 89 89 89 71 71 71 51 51 51 31 31 31 11 11 11 2 2 2 1 1 1 1 1 1 0 0 0 0 0 0 0 0 0 0 0 0 0 0 0 0 0 0 0 0 0 0 0 0 0 0 0 0 0 0 0 0 0 0 0 0 0 0 0 0 0 0 0 0 0 0 0 0 0 0 0 0 0 0 1 1 1 3 3 3 4 4 4 14 14 14 52 52 52 90 90 90 128 128 128 162 162 162 182 182 182 201 201 201 221 221 221 238 238 238 238 238 238 238 238 238 238 238 238 238 238 238 238 238 238 238 238 238 238 238 238 238 238 238 238 238 238 238 238 238 238 238 238 238 238 238 238 238 238 237 237 237 237 237 237 237 237 237 232 232 232 228 228 228 224 224 224 219 219 219 200 200 200 178 178 178 157 157 157 135 135 135 114 114 114 92 92 92 71 71 71 49 49 49 44 44 44 42 42 42 39 39 39 37 37 37 40 40 40 45 45 45 50 50 50 54 54 54 69 69 69 87 87 87 105 105 105 123 123 123 138 138 138 151 151 151 164 164 164 178 178 178 184 184 184 185 185 185 187 187 187 188 188 188 187 187 187 183 183 183 180 179 180 176 175 176 174 174 174 174 174 174 174 175 174 174 175 174 176 177 176 181 181 181 185 186 185 190 190 190 195 195 195 201 201 201 208 208 208 215 215 215 220 220 220 224 224 224 228 228 228 233 233 233 231 231 231 217 217 217 203 203 203 190 190 190 172 172 172 145 145 145 118 118 118 91 91 91 74 74 74 91 91 91 108 108 108 124 124 124 137 137 137 131 131 131 125 125 125 119 119 119 117 117 117 133 133 133 149 149 149 165 165 165 181 181 181 192 192 192 203 203 203 214 214 214 224 224 224 227 227 227 231 231 231 234 234 234 237 237 237 237 237 237 237 237 237 238 238 238 238 238 238 238 238 238 238 238 238 238 238 238 238 238 238 238 238 238 238 238 238 238 238 238 238 238 238 226 226 226 212 212 212 198 198 198 184 184 184 147 147 147 105 105 105 64 64 64 22 22 22 10 10 10 7 7 7 4 4 4 1 1 1 0 0 0 0 0 0 0 0 0 0 0 0 0 0 0 0 0 0 0 0 0 0 0 0 0 0 0 0 0 0 0 0 0 0 0 0 0 0 0 0 0 0 0 0 0 0 0 0 0 0 0 0 0 0 0 0 0 0 0 0 6 6 6 19 19 19 31 31 31 44 44 44 62 62 62 87 87 87 111 111 111 136 136 136 147 147 147 137 137 137 126 126 126 115 115 115 112 112 112 124 124 124 136 136 136 148 148 148 162 162 162 182 182 182 202 202 202 222 222 222 238 238 238 242 242 242 247 247 247 251 251 251 255 255 255 255 255 255 255 255 255 255 255 255 255 255 255 255 255 255 255 255 255 255 255 255 255 255 255 255 255 255 255 255 255 255 255 255 255 255 255 255 255 255 255 255 255 255 255 255 255 255 255 
255 255 255 255 255 255 255 255 255 255 255 255 255 255 255 255 255 255 255 255 255 255 255 255 255 255 255 255 255 255 255 255 255 255 255 255 255 255 255 255 255 255 255 255 255 255 255 255 255 255 255 247 247 247 239 239 239 230 230 230 221 221 221 208 208 208 194 194 194 179 179 179 165 165 165 153 153 153 143 143 143 132 132 132 122 122 122 120 120 120 122 122 122 124 124 124 126 126 126 117 117 117 100 100 100 83 83 83 66 66 66 51 51 51 36 36 36 22 22 22 8 8 8 1 1 1 1 1 1 0 0 0 0 0 0 0 0 0 0 0 0 0 0 0 0 0 0 0 0 0 0 0 0 0 0 0 0 0 0 0 0 0 0 0 0 0 0 0 0 0 0 0 0 0 0 0 0 0 0 0 0 0 0 1 1 1 4 4 4 8 8 8 11 11 11 23 23 23 63 63 63 102 102 102 142 142 142 177 177 177 193 193 193 208 208 208 224 224 224 237 237 237 237 237 237 237 237 237 237 237 237 237 237 237 237 237 237 237 237 237 237 237 237 237 237 237 237 237 237 237 237 237 237 237 237 238 238 238 236 236 236 235 235 235 234 234 234 232 232 232 221 221 221 209 209 209 197 197 197 185 185 185 166 166 166 147 147 147 127 127 127 107 107 107 91 91 91 75 75 75 59 59 59 43 43 43 44 44 44 49 49 49 54 54 54 58 58 58 68 68 68 78 78 78 89 89 89 100 100 100 113 113 113 127 127 127 141 141 141 155 155 155 165 165 165 174 174 174 183 183 183 192 192 192 195 195 195 195 195 195 195 195 195 195 195 195 193 193 193 189 189 189 186 185 186 182 182 182 180 180 180 181 180 181 181 181 181 181 181 181 183 183 183 187 187 187 191 192 191 196 196 196 201 201 201 206 206 206 212 212 212 218 218 218 223 223 223 226 226 226 230 230 230 233 233 233 231 231 231 218 218 218 205 205 205 191 191 191 174 174 174 146 146 146 118 118 118 91 91 91 73 73 73 89 89 89 105 105 105 120 120 120 131 131 131 120 120 120 109 109 109 98 98 98 91 91 91 104 104 104 116 116 116 129 129 129 142 142 142 155 155 155 167 167 167 180 180 180 192 192 192 202 202 202 213 213 213 223 223 223 233 233 233 234 234 234 235 235 235 236 236 236 237 237 237 237 237 237 237 237 237 237 237 237 237 237 237 237 237 237 237 237 237 237 237 237 237 237 237 227 227 227 216 216 216 205 205 205 193 193 193 158 158 158 118 118 118 77 77 77 36 36 36 22 22 22 15 15 15 8 8 8 2 2 2 0 0 0 0 0 0 0 0 0 0 0 0 0 0 0 0 0 0 0 0 0 0 0 0 0 0 0 0 0 0 0 0 0 0 0 0 0 0 0 0 0 0 0 0 0 0 0 0 0 0 0 0 0 0 0 0 0 0 0 0 4 4 4 13 13 13 23 23 23 32 32 32 45 45 45 65 65 65 85 85 85 105 105 105 118 118 118 119 119 119 120 120 120 121 121 121 124 124 124 131 131 131 138 138 138 145 145 145 154 154 154 168 168 168 182 182 182 195 195 195 209 209 209 221 221 221 232 232 232 244 244 244 254 254 254 254 254 254 254 254 254 255 255 255 255 255 255 255 255 255 255 255 255 255 255 255 255 255 255 255 255 255 255 255 255 255 255 255 255 255 255 255 255 255 255 255 255 255 255 255 255 255 255 
255 255 255 255 255 255 255 255 255 255 255 255 255 255 255 255 255 255 255 255 255 255 255 255 255 255 255 255 255 255 255 255 255 255 255 255 255 255 255 255 255 255 255 255 255 255 255 255 254 254 254 243 243 243 228 228 228 213 213 213 199 199 199 185 185 185 171 171 171 157 157 157 143 143 143 139 139 139 140 140 140 140 140 140 140 140 140 133 133 133 123 123 123 114 114 114 104 104 104 90 90 90 74 74 74 58 58 58 42 42 42 30 30 30 22 22 22 13 13 13 5 5 5 1 1 1 0 0 0 0 0 0 0 0 0 0 0 0 0 0 0 0 0 0 0 0 0 0 0 0 0 0 0 0 0 0 0 0 0 0 0 0 0 0 0 0 0 0 0 0 0 0 0 0 0 0 0 0 0 0 0 0 0 2 2 2 7 7 7 13 13 13 18 18 18 32 32 32 74 74 74 115 115 115 156 156 156 192 192 192 204 204 204 215 215 215 226 226 226 236 236 236 236 236 236 236 236 236 236 236 236 236 236 236 236 236 236 236 236 236 236 236 236 236 236 236 236 236 236 237 237 237 237 237 237 237 237 237 235 235 235 233 233 233 230 230 230 228 228 228 209 209 209 190 190 190 171 171 171 152 152 152 133 133 133 115 115 115 97 97 97 79 79 79 67 67 67 57 57 57 47 47 47 37 37 37 44 44 44 56 56 56 68 68 68 80 80 80 95 95 95 112 112 112 129 129 129 145 145 145 157 157 157 167 167 167 177 177 177 186 186 186 193 193 193 197 197 197 202 202 202 206 206 206 207 207 207 205 205 205 203 203 203 202 202 202 199 199 199 195 195 195 192 192 192 188 188 188 187 186 187 187 187 187 187 187 187 187 187 187 189 190 189 193 194 193 197 198 197 202 202 202 206 206 206 211 211 211 216 216 216 221 221 221 226 226 226 228 228 228 231 231 231 234 234 234 232 232 232 219 219 219 206 206 206 193 193 193 176 176 176 147 147 147 119 119 119 90 90 90 72 72 72 87 87 87 102 102 102 117 117 117 126 126 126 109 109 109 93 93 93 77 77 77 65 65 65 74 74 74 84 84 84 93 93 93 103 103 103 118 118 118 132 132 132 146 146 146 160 160 160 177 177 177 195 195 195 212 212 212 229 229 229 231 231 231 233 233 233 235 235 235 237 237 237 237 237 237 236 236 236 236 236 236 236 236 236 236 236 236 236 236 236 236 236 236 236 236 236 229 229 229 220 220 220 211 211 211 203 203 203 169 169 169 130 130 130 90 90 90 51 51 51 34 34 34 23 23 23 13 13 13 3 3 3 0 0 0 0 0 0 0 0 0 0 0 0 0 0 0 0 0 0 0 0 0 0 0 0 0 0 0 0 0 0 0 0 0 0 0 0 0 0 0 0 0 0 0 0 0 0 0 0 0 0 0 0 0 0 0 0 0 0 0 0 3 3 3 8 8 8 14 14 14 19 19 19 29 29 29 44 44 44 59 59 59 74 74 74 88 88 88 101 101 101 114 114 114 126 126 126 135 135 135 138 138 138 140 140 140 143 143 143 147 147 147 154 154 154 162 162 162 169 169 169 180 180 180 199 199 199 218 218 218 238 238 238 253 253 253 254 254 254 254 254 254 255 255 255 255 255 255 255 255 255 255 255 255 255 255 255 255 255 255 255 255 255 255 255 255 255 255 255 255 255 255 255 255 255 255 255 255 255 255 255 255 255 255 
255 255 255 255 255 255 255 255 255 255 255 255 255 255 255 255 255 255 255 255 255 255 255 255 255 255 255 255 255 255 255 255 255 255 255 255 255 255 255 255 255 255 255 255 255 254 254 254 254 254 254 238 238 238 217 217 217 197 197 197 176 176 176 161 161 161 148 148 148 135 135 135 122 122 122 126 126 126 137 137 137 147 147 147 158 158 158 147 147 147 125 125 125 103 103 103 81 81 81 64 64 64 49 49 49 34 34 34 19 19 19 10 10 10 8 8 8 5 5 5 2 2 2 0 0 0 0 0 0 0 0 0 0 0 0 0 0 0 0 0 0 0 0 0 0 0 0 0 0 0 0 0 0 0 0 0 0 0 0 0 0 0 0 0 0 0 0 0 0 0 0 0 0 0 0 0 0 0 0 0 0 0 0 2 2 2 10 10 10 18 18 18 25 25 25 42 42 42 85 85 85 128 128 128 171 171 171 207 207 207 214 214 214 222 222 222 229 229 229 235 235 235 235 235 235 235 235 235 235 235 235 235 235 235 235 235 235 235 235 235 235 235 235 235 235 235 236 236 236 236 236 236 237 237 237 237 237 237 234 234 234 230 230 230 227 227 227 223 223 223 198 198 198 171 171 171 144 144 144 118 118 118 100 100 100 83 83 83 67 67 67 50 50 50 44 44 44 39 39 39 35 35 35 31 31 31 45 45 45 63 63 63 82 82 82 101 101 101 122 122 122 145 145 145 168 168 168 191 191 191 201 201 201 207 207 207 213 213 213 218 218 218 220 220 220 220 220 220 220 220 220 220 220 220 218 218 218 215 215 215 212 212 212 208 208 208 205 205 205 201 201 201 198 198 198 194 194 194 193 193 193 193 193 193 193 193 193 194 194 194 196 196 196 200 200 200 204 204 204 208 208 208 212 212 212 216 216 216 220 220 220 225 225 225 228 228 228 231 231 231 233 233 233 235 235 235 233 233 233 220 220 220 207 207 207 195 195 195 178 178 178 148 148 148 119 119 119 90 90 90 71 71 71 85 85 85 99 99 99 113 113 113 120 120 120 99 99 99 77 77 77 56 56 56 38 38 38 45 45 45 51 51 51 58 58 58 65 65 65 81 81 81 96 96 96 112 112 112 128 128 128 152 152 152 177 177 177 201 201 201 225 225 225 228 228 228 231 231 231 233 233 233 236 236 236 236 236 236 236 236 236 236 236 236 235 235 235 235 235 235 235 235 235 235 235 235 235 235 235 230 230 230 224 224 224 218 218 218 212 212 212 180 180 180 142 142 142 104 104 104 65 65 65 46 46 46 32 32 32 18 18 18 4 4 4 0 0 0 0 0 0 0 0 0 0 0 0 0 0 0 0 0 0 0 0 0 0 0 0 0 0 0 0 0 0 0 0 0 0 0 0 0 0 0 0 0 0 0 0 0 0 0 0 0 0 0 0 0 0 0 0 0 0 0 0 1 1 1 3 3 3 5 5 5 7 7 7 12 12 12 22 22 22 33 33 33 43 43 43 59 59 59 83 83 83 108 108 108 132 132 132 147 147 147 145 145 145 143 143 143 141 141 141 139 139 139 141 141 141 142 142 142 143 143 143 151 151 151 177 177 177 204 204 204 231 231 231 253 253 253 253 253 253 254 254 254 254 254 254 255 255 255 255 255 255 255 255 255 255 255 255 255 255 255 255 255 255 255 255 255 255 255 255 255 255 255 255 255 255 255 255 255 255 255 255 255 255 255 
255 255 255 255 255 255 255 255 255 255 255 255 255 255 255 255 255 255 255 255 255 255 255 255 255 255 255 255 255 255 255 255 255 255 255 255 255 255 255 252 252 252 249 249 249 246 246 246 243 243 243 225 225 225 203 203 203 182 182 182 160 160 160 147 147 147 136 136 136 126 126 126 116 116 116 120 120 120 131 131 131 142 142 142 152 152 152 139 139 139 113 113 113 87 87 87 62 62 62 44 44 44 31 31 31 18 18 18 6 6 6 0 0 0 0 0 0 0 0 0 0 0 0 0 0 0 0 0 0 0 0 0 0 0 0 0 0 0 0 0 0 0 0 0 0 0 0 0 0 0 0 0 0 0 0 0 0 0 0 0 0 0 0 0 0 0 0 0 0 0 0 0 0 0 0 0 0 0 0 0 0 0 0 3 3 3 14 14 14 25 25 25 36 36 36 55 55 55 97 97 97 139 139 139 181 181 181 216 216 216 221 221 221 225 225 225 230 230 230 235 235 235 235 235 235 235 235 235 235 235 235 235 235 235 235 235 235 235 235 235 235 235 235 235 235 235 235 235 235 235 235 235 235 235 235 235 235 235 228 228 228 220 220 220 212 212 212 205 205 205 177 177 177 149 149 149 120 120 120 91 91 91 77 77 77 64 64 64 51 51 51 38 38 38 38 38 38 41 41 41 44 44 44 46 46 46 64 64 64 85 85 85 105 105 105 126 126 126 148 148 148 171 171 171 194 194 194 217 217 217 225 225 225 228 228 228 231 231 231 235 235 235 234 234 234 232 232 232 230 230 230 228 228 228 225 225 225 221 221 221 217 217 217 213 213 213 210 210 210 206 206 206 203 203 203 200 200 200 198 198 198 199 199 199 199 199 199 199 199 199 201 201 201 204 204 204 207 207 207 211 211 211 213 213 213 214 214 214 216 216 216 217 217 217 219 219 219 223 223 223 228 228 228 232 232 232 230 230 230 217 217 217 203 203 203 190 190 190 173 173 173 149 149 149 124 124 124 100 100 100 83 83 83 94 94 94 105 105 105 116 116 116 120 120 120 97 97 97 73 73 73 50 50 50 30 30 30 33 33 33 36 36 36 38 38 38 42 42 42 57 57 57 72 72 72 86 86 86 102 102 102 128 128 128 154 154 154 180 180 180 206 206 206 213 213 213 220 220 220 227 227 227 234 234 234 234 234 234 234 234 234 235 235 235 235 235 235 235 235 235 235 235 235 235 235 235 235 235 235 231 231 231 226 226 226 222 222 222 217 217 217 188 188 188 152 152 152 117 117 117 82 82 82 59 59 59 41 41 41 23 23 23 5 5 5 0 0 0 0 0 0 0 0 0 0 0 0 0 0 0 0 0 0 0 0 0 0 0 0 0 0 0 0 0 0 0 0 0 0 0 0 0 0 0 0 0 0 0 0 0 0 0 0 0 0 0 0 0 0 0 0 0 0 0 0 0 0 0 0 0 0 0 0 0 0 0 0 3 3 3 10 10 10 17 17 17 24 24 24 39 39 39 66 66 66 93 93 93 120 120 120 138 138 138 137 137 137 136 136 136 135 135 135 135 135 135 134 134 134 133 133 133 132 132 132 137 137 137 164 164 164 190 190 190 217 217 217 239 239 239 243 243 243 247 247 247 251 251 251 255 255 255 255 255 255 255 255 255 255 255 255 255 255 255 255 255 255 255 255 255 255 255 255 255 255 255 255 255 255 255 255 255 255 255 255 255 255 255 
255 255 255 255 255 255 255 255 255 255 255 255 255 255 255 255 255 255 255 255 255 255 255 255 255 255 255 255 255 255 255 255 255 255 255 255 255 255 255 247 247 247 238 238 238 230 230 230 221 221 221 204 204 204 186 186 186 168 168 168 150 150 150 142 142 142 137 137 137 132 132 132 127 127 127 124 124 124 123 123 123 121 121 121 120 120 120 106 106 106 86 86 86 65 65 65 45 45 45 32 32 32 22 22 22 13 13 13 4 4 4 0 0 0 0 0 0 0 0 0 0 0 0 0 0 0 0 0 0 0 0 0 0 0 0 0 0 0 0 0 0 0 0 0 0 0 0 0 0 0 0 0 0 0 0 0 0 0 0 0 0 0 0 0 0 0 0 0 0 0 0 0 0 0 0 0 0 0 0 0 0 0 0 4 4 4 20 20 20 36 36 36 52 52 52 73 73 73 110 110 110 148 148 148 186 186 186 217 217 217 221 221 221 226 226 226 230 230 230 234 234 234 234 234 234 234 234 234 234 234 234 234 234 234 234 234 234 234 234 234 234 234 234 234 234 234 234 234 234 233 233 233 232 232 232 232 232 232 216 216 216 201 201 201 185 185 185 170 170 170 146 146 146 122 122 122 98 98 98 74 74 74 65 65 65 57 57 57 50 50 50 42 42 42 51 51 51 63 63 63 75 75 75 87 87 87 103 103 103 121 121 121 138 138 138 156 156 156 172 172 172 189 189 189 205 205 205 221 221 221 228 228 228 230 230 230 232 232 232 234 234 234 234 234 234 232 232 232 231 231 231 229 229 229 226 226 226 223 223 223 220 220 220 217 217 217 213 213 213 211 211 211 208 208 208 205 205 205 203 203 203 204 204 204 204 204 204 204 204 204 205 205 205 207 207 207 209 209 209 210 210 210 209 209 209 205 205 205 201 201 201 196 196 196 197 197 197 206 206 206 215 215 215 224 224 224 225 225 225 209 209 209 193 193 193 178 178 178 163 163 163 149 149 149 134 134 134 120 120 120 111 111 111 116 116 116 121 121 121 126 126 126 126 126 126 104 104 104 83 83 83 61 61 61 42 42 42 40 40 40 39 39 39 37 37 37 37 37 37 48 48 48 59 59 59 70 70 70 81 81 81 103 103 103 125 125 125 148 148 148 170 170 170 185 185 185 200 200 200 215 215 215 230 230 230 231 231 231 232 232 232 233 233 233 234 234 234 234 234 234 234 234 234 234 234 234 234 234 234 230 230 230 226 226 226 222 222 222 218 218 218 193 193 193 162 162 162 131 131 131 100 100 100 75 75 75 52 52 52 29 29 29 7 7 7 0 0 0 0 0 0 0 0 0 0 0 0 0 0 0 0 0 0 0 0 0 0 0 0 0 0 0 0 0 0 0 0 0 0 0 0 0 0 0 0 0 0 0 0 0 0 0 0 0 0 0 0 0 0 0 0 0 0 0 0 0 0 0 0 0 0 0 0 0 0 0 0 2 2 2 7 7 7 12 12 12 17 17 17 28 28 28 48 48 48 68 68 68 88 88 88 104 104 104 112 112 112 119 119 119 127 127 127 133 133 133 134 134 134 135 135 135 137 137 137 142 142 142 159 159 159 177 177 177 194 194 194 211 211 211 222 222 222 234 234 234 245 245 245 255 255 255 255 255 255 255 255 255 255 255 255 255 255 255 255 255 255 255 255 255 255 255 255 255 255 255 255 255 255 255 255 255 255 255 255 255 255 255 
255 255 255 255 255 255 255 255 255 255 255 255 255 255 255 255 255 255 255 255 255 255 255 255 255 255 255 255 255 255 255 255 255 255 255 255 255 255 255 242 242 242 228 228 228 213 213 213 198 198 198 183 183 183 169 169 169 154 154 154 140 140 140 137 137 137 137 137 137 137 137 137 138 138 138 128 128 128 114 114 114 101 101 101 88 88 88 73 73 73 58 58 58 43 43 43 29 29 29 19 19 19 14 14 14 8 8 8 2 2 2 0 0 0 0 0 0 0 0 0 0 0 0 0 0 0 0 0 0 0 0 0 0 0 0 0 0 0 0 0 0 0 0 0 0 0 0 0 0 0 0 0 0 0 0 0 0 0 0 0 0 0 0 0 0 0 0 0 0 0 0 0 0 0 0 0 0 0 0 0 0 0 0 6 6 6 26 26 26 47 47 47 67 67 67 90 90 90 124 124 124 157 157 157 191 191 191 218 218 218 222 222 222 226 226 226 230 230 230 233 233 233 233 233 233 233 233 233 233 233 233 233 233 233 233 233 233 233 233 233 234 234 234 234 234 234 232 232 232 231 231 231 229 229 229 228 228 228 205 205 205 181 181 181 158 158 158 135 135 135 115 115 115 95 95 95 76 76 76 56 56 56 53 53 53 51 51 51 49 49 49 47 47 47 65 65 65 86 86 86 106 106 106 127 127 127 143 143 143 157 157 157 171 171 171 186 186 186 197 197 197 206 206 206 216 216 216 226 226 226 230 230 230 231 231 231 232 232 232 233 233 233 233 233 233 232 232 232 231 231 231 230 230 230 228 228 228 225 225 225 222 222 222 220 220 220 217 217 217 215 215 215 212 212 212 209 209 209 208 208 208 209 209 209 209 209 209 209 209 209 209 209 209 209 209 209 210 210 210 210 210 210 206 206 206 196 196 196 186 186 186 176 176 176 175 175 175 188 188 188 202 202 202 216 216 216 219 219 219 201 201 201 183 183 183 165 165 165 152 152 152 148 148 148 145 145 145 141 141 141 138 138 138 138 138 138 137 137 137 137 137 137 132 132 132 112 112 112 92 92 92 72 72 72 54 54 54 48 48 48 42 42 42 37 37 37 32 32 32 39 39 39 46 46 46 53 53 53 61 61 61 79 79 79 97 97 97 115 115 115 134 134 134 157 157 157 180 180 180 203 203 203 226 226 226 228 228 228 230 230 230 232 232 232 234 234 234 234 234 234 233 233 233 233 233 233 233 233 233 230 230 230 226 226 226 223 223 223 219 219 219 197 197 197 171 171 171 145 145 145 119 119 119 91 91 91 63 63 63 36 36 36 8 8 8 0 0 0 0 0 0 0 0 0 0 0 0 0 0 0 0 0 0 0 0 0 0 0 0 0 0 0 0 0 0 0 0 0 0 0 0 0 0 0 0 0 0 0 0 0 0 0 0 0 0 0 0 0 0 0 0 0 0 0 0 0 0 0 0 0 0 0 0 0 0 0 0 1 1 1 4 4 4 7 7 7 11 11 11 17 17 17 31 31 31 44 44 44 57 57 57 71 71 71 87 87 87 103 103 103 119 119 119 131 131 131 135 135 135 138 138 138 142 142 142 147 147 147 155 155 155 164 164 164 172 172 172 183 183 183 201 201 201 220 220 220 238 238 238 254 254 254 255 255 255 255 255 255 255 255 255 255 255 255 255 255 255 255 255 255 255 255 255 255 255 255 255 255 255 255 255 255 255 255 255 255 255 255 
255 255 255 255 255 255 255 255 255 255 255 255 255 255 255 255 255 255 255 255 255 255 255 255 255 255 255 255 255 255 255 255 255 255 255 255 255 255 255 237 237 237 217 217 217 196 196 196 175 175 175 163 163 163 152 152 152 141 141 141 130 130 130 131 131 131 137 137 137 143 143 143 148 148 148 132 132 132 106 106 106 81 81 81 55 55 55 40 40 40 31 31 31 21 21 21 12 12 12 7 7 7 5 5 5 3 3 3 1 1 1 0 0 0 0 0 0 0 0 0 0 0 0 0 0 0 0 0 0 0 0 0 0 0 0 0 0 0 0 0 0 0 0 0 0 0 0 0 0 0 0 0 0 0 0 0 0 0 0 0 0 0 0 0 0 0 0 0 0 0 0 0 0 0 0 0 0 0 0 0 0 0 0 7 7 7 32 32 32 57 57 57 82 82 82 108 108 108 137 137 137 166 166 166 196 196 196 220 220 220 223 223 223 226 226 226 230 230 230 232 232 232 232 232 232 232 232 232 232 232 232 232 232 232 233 233 233 233 233 233 233 233 233 233 233 233 231 231 231 229 229 229 226 226 226 224 224 224 193 193 193 162 162 162 131 131 131 100 100 100 84 84 84 69 69 69 53 53 53 38 38 38 40 40 40 44 44 44 48 48 48 52 52 52 78 78 78 108 108 108 138 138 138 167 167 167 182 182 182 193 193 193 204 204 204 216 216 216 221 221 221 224 224 224 227 227 227 231 231 231 232 232 232 232 232 232 232 232 232 232 232 232 232 232 232 232 232 232 231 231 231 231 231 231 229 229 229 227 227 227 225 225 225 223 223 223 221 221 221 219 219 219 216 216 216 214 214 214 213 213 213 214 214 214 214 214 214 214 214 214 214 214 214 212 212 212 211 211 211 209 209 209 202 202 202 186 186 186 171 171 171 155 155 155 153 153 153 171 171 171 189 189 189 208 208 208 213 213 213 193 193 193 173 173 173 153 153 153 141 141 141 148 148 148 155 155 155 162 162 162 166 166 166 160 160 160 153 153 153 147 147 147 138 138 138 120 120 120 101 101 101 83 83 83 66 66 66 56 56 56 46 46 46 36 36 36 27 27 27 30 30 30 33 33 33 37 37 37 40 40 40 55 55 55 69 69 69 83 83 83 98 98 98 129 129 129 160 160 160 191 191 191 222 222 222 226 226 226 228 228 228 231 231 231 233 233 233 233 233 233 233 233 233 233 233 233 232 232 232 230 230 230 226 226 226 223 223 223 220 220 220 202 202 202 180 180 180 159 159 159 137 137 137 107 107 107 74 74 74 42 42 42 9 9 9 0 0 0 0 0 0 0 0 0 0 0 0 0 0 0 0 0 0 0 0 0 0 0 0 0 0 0 0 0 0 0 0 0 0 0 0 0 0 0 0 0 0 0 0 0 0 0 0 0 0 0 0 0 0 0 0 0 0 0 0 0 0 0 0 0 0 0 0 0 0 0 0 0 0 0 2 2 2 3 3 3 4 4 4 7 7 7 13 13 13 19 19 19 25 25 25 38 38 38 62 62 62 86 86 86 110 110 110 129 129 129 135 135 135 141 141 141 147 147 147 151 151 151 151 151 151 150 150 150 150 150 150 155 155 155 180 180 180 206 206 206 232 232 232 254 254 254 254 254 254 255 255 255 255 255 255 255 255 255 255 255 255 255 255 255 255 255 255 255 255 255 255 255 255 255 255 255 255 255 255 255 255 255 
255 255 255 255 255 255 255 255 255 255 255 255 255 255 255 255 255 255 255 255 255 255 255 255 255 255 255 253 253 253 251 251 251 249 249 249 247 247 247 227 227 227 204 204 204 181 181 181 158 158 158 147 147 147 140 140 140 134 134 134 127 127 127 128 128 128 132 132 132 136 136 136 141 141 141 121 121 121 92 92 92 62 62 62 33 33 33 19 19 19 14 14 14 8 8 8 2 2 2 0 0 0 0 0 0 0 0 0 0 0 0 0 0 0 0 0 0 0 0 0 0 0 0 0 0 0 0 0 0 0 0 0 0 0 0 0 0 0 0 0 0 0 0 0 0 0 0 0 0 0 0 0 0 0 0 0 0 0 0 0 0 0 0 0 0 0 0 0 0 0 0 0 0 0 0 0 0 0 0 0 0 0 0 9 9 9 38 38 38 67 67 67 97 97 97 125 125 125 150 150 150 175 175 175 200 200 200 221 221 221 223 223 223 226 226 226 229 229 229 232 232 232 232 232 232 232 232 232 232 232 232 232 232 232 232 232 232 232 232 232 232 232 232 232 232 232 226 226 226 220 220 220 214 214 214 207 207 207 174 174 174 141 141 141 108 108 108 74 74 74 63 63 63 53 53 53 43 43 43 34 34 34 42 42 42 52 52 52 62 62 62 72 72 72 100 100 100 132 132 132 163 163 163 195 195 195 207 207 207 216 216 216 224 224 224 232 232 232 234 234 234 234 234 234 233 233 233 233 233 233 232 232 232 232 232 232 232 232 232 232 232 232 232 232 232 231 231 231 231 231 231 231 231 231 229 229 229 225 225 225 222 222 222 218 218 218 216 216 216 216 216 216 216 216 216 216 216 216 216 216 216 215 215 215 214 214 214 213 213 213 212 212 212 211 211 211 209 209 209 208 208 208 198 198 198 178 178 178 158 158 158 138 138 138 133 133 133 151 151 151 170 170 170 188 188 188 195 195 195 176 176 176 158 158 158 139 139 139 131 131 131 146 146 146 162 162 162 177 177 177 187 187 187 178 178 178 170 170 170 161 161 161 151 151 151 135 135 135 120 120 120 104 104 104 89 89 89 77 77 77 65 65 65 53 53 53 41 41 41 39 39 39 36 36 36 34 34 34 32 32 32 42 42 42 52 52 52 62 62 62 72 72 72 105 105 105 139 139 139 172 172 172 206 206 206 213 213 213 220 220 220 226 226 226 232 232 232 233 233 233 232 232 232 232 232 232 232 232 232 229 229 229 226 226 226 224 224 224 221 221 221 206 206 206 188 188 188 170 170 170 152 152 152 121 121 121 85 85 85 49 49 49 13 13 13 2 2 2 1 1 1 1 1 1 0 0 0 0 0 0 0 0 0 0 0 0 0 0 0 0 0 0 0 0 0 0 0 0 0 0 0 0 0 0 0 0 0 0 0 0 0 0 0 0 0 0 0 0 0 0 0 0 0 0 0 0 0 0 0 0 0 0 0 0 0 0 0 0 0 0 0 0 0 0 0 0 0 0 0 1 1 1 3 3 3 5 5 5 7 7 7 17 17 17 43 43 43 68 68 68 94 94 94 116 116 116 125 125 125 134 134 134 143 143 143 150 150 150 146 146 146 142 142 142 138 138 138 140 140 140 167 167 167 194 194 194 221 221 221 244 244 244 247 247 247 250 250 250 252 252 252 255 255 255 255 255 255 255 255 255 255 255 255 255 255 255 255 255 255 255 255 255 255 255 255 255 255 255 
255 255 255 255 255 255 255 255 255 255 255 255 255 255 255 255 255 255 255 255 255 255 255 255 255 255 255 249 249 249 243 243 243 236 236 236 230 230 230 210 210 210 189 189 189 167 167 167 146 146 146 140 140 140 137 137 137 135 135 135 132 132 132 127 127 127 120 120 120 114 114 114 108 108 108 90 90 90 68 68 68 46 46 46 24 24 24 14 14 14 10 10 10 6 6 6 2 2 2 0 0 0 0 0 0 0 0 0 0 0 0 0 0 0 0 0 0 0 0 0 0 0 0 0 0 0 0 0 0 0 0 0 0 0 0 0 0 0 0 0 0 0 0 0 0 0 0 0 0 0 0 0 0 0 0 0 0 0 0 0 0 0 0 0 0 0 0 0 0 0 0 0 0 0 1 1 1 1 1 1 1 1 1 11 11 11 44 44 44 77 77 77 110 110 110 140 140 140 161 161 161 182 182 182 203 203 203 221 221 221 223 223 223 226 226 226 228 228 228 231 231 231 231 231 231 231 231 231 231 231 231 231 231 231 231 231 231 231 231 231 231 231 231 230 230 230 216 216 216 202 202 202 188 188 188 174 174 174 146 146 146 117 117 117 89 89 89 61 61 61 57 57 57 53 53 53 50 50 50 46 46 46 61 61 61 78 78 78 95 95 95 112 112 112 134 134 134 158 158 158 181 181 181 205 205 205 214 214 214 220 220 220 226 226 226 232 232 232 233 233 233 233 233 233 232 232 232 232 232 232 232 232 232 231 231 231 231 231 231 231 231 231 231 231 231 231 231 231 231 231 231 231 231 231 226 226 226 218 218 218 210 210 210 202 202 202 201 201 201 205 205 205 210 210 210 214 214 214 214 214 214 211 211 211 208 208 208 205 205 205 203 203 203 203 203 203 204 204 204 204 204 204 194 194 194 171 171 171 148 148 148 125 125 125 116 116 116 129 129 129 142 142 142 154 154 154 159 159 159 147 147 147 136 136 136 124 124 124 122 122 122 143 143 143 164 164 164 185 185 185 200 200 200 193 193 193 187 187 187 181 181 181 173 173 173 162 162 162 151 151 151 139 139 139 128 128 128 117 117 117 105 105 105 93 93 93 82 82 82 71 71 71 60 60 60 49 49 49 39 39 39 44 44 44 49 49 49 54 54 54 59 59 59 88 88 88 117 117 117 146 146 146 174 174 174 189 189 189 203 203 203 217 217 217 231 231 231 232 232 232 232 232 232 231 231 231 231 231 231 229 229 229 226 226 226 223 223 223 221 221 221 208 208 208 193 193 193 178 178 178 163 163 163 131 131 131 94 94 94 56 56 56 19 19 19 7 7 7 5 5 5 3 3 3 1 1 1 0 0 0 0 0 0 0 0 0 0 0 0 0 0 0 0 0 0 0 0 0 0 0 0 0 0 0 0 0 0 0 0 0 0 0 0 0 0 0 0 0 0 0 0 0 0 0 0 0 0 0 0 0 0 0 0 0 0 0 0 0 0 0 0 0 0 0 0 0 0 0 0 1 1 1 2 2 2 3 3 3 5 5 5 12 12 12 31 31 31 50 50 50 69 69 69 86 86 86 101 101 101 115 115 115 129 129 129 140 140 140 139 139 139 139 139 139 139 139 139 142 142 142 162 162 162 182 182 182 203 203 203 221 221 221 230 230 230 238 238 238 247 247 247 255 255 255 255 255 255 255 255 255 255 255 255 255 255 255 255 255 255 255 255 255 255 255 255 255 255 255 
255 255 255 255 255 255 255 255 255 255 255 255 255 255 255 255 255 255 255 255 255 255 255 255 254 254 254 245 245 245 234 234 234 223 223 223 212 212 212 194 194 194 174 174 174 154 154 154 134 134 134 132 132 132 134 134 134 136 136 136 138 138 138 125 125 125 109 109 109 92 92 92 75 75 75 60 60 60 45 45 45 30 30 30 15 15 15 9 9 9 6 6 6 4 4 4 1 1 1 0 0 0 0 0 0 0 0 0 0 0 0 0 0 0 0 0 0 0 0 0 0 0 0 0 0 0 0 0 0 0 0 0 0 0 0 0 0 0 0 0 0 0 0 0 0 0 0 0 0 0 0 0 0 0 0 0 0 0 0 0 0 0 0 0 0 0 0 0 0 0 0 0 0 0 1 1 1 2 2 2 2 2 2 13 13 13 50 50 50 86 86 86 123 123 123 155 155 155 172 172 172 189 189 189 207 207 207 221 221 221 223 223 223 225 225 225 228 228 228 230 230 230 230 230 230 230 230 230 231 231 231 231 231 231 230 230 230 230 230 230 229 229 229 228 228 228 206 206 206 184 184 184 162 162 162 140 140 140 117 117 117 94 94 94 71 71 71 48 48 48 50 50 50 53 53 53 56 56 56 59 59 59 80 80 80 104 104 104 128 128 128 152 152 152 168 168 168 184 184 184 199 199 199 214 214 214 220 220 220 224 224 224 228 228 228 231 231 231 232 232 232 231 231 231 231 231 231 231 231 231 231 231 231 231 231 231 231 231 231 231 231 231 231 231 231 231 231 231 231 231 231 230 230 230 223 223 223 211 211 211 198 198 198 186 186 186 186 186 186 194 194 194 203 203 203 212 212 212 213 213 213 207 207 207 202 202 202 196 196 196 194 194 194 196 196 196 198 198 198 200 200 200 190 190 190 164 164 164 139 139 139 113 113 113 99 99 99 106 106 106 113 113 113 120 120 120 124 124 124 118 118 118 113 113 113 108 108 108 112 112 112 139 139 139 166 166 166 193 193 193 212 212 212 208 208 208 204 204 204 200 200 200 195 195 195 188 188 188 182 182 182 175 175 175 167 167 167 156 156 156 145 145 145 134 134 134 122 122 122 103 103 103 84 84 84 65 65 65 47 47 47 47 47 47 46 46 46 46 46 46 46 46 46 71 71 71 95 95 95 119 119 119 143 143 143 165 165 165 187 187 187 209 209 209 230 230 230 232 232 232 231 231 231 231 231 231 230 230 230 228 228 228 226 226 226 223 223 223 221 221 221 211 211 211 199 199 199 186 186 186 174 174 174 142 142 142 103 103 103 64 64 64 25 25 25 11 11 11 8 8 8 5 5 5 1 1 1 0 0 0 0 0 0 0 0 0 0 0 0 0 0 0 0 0 0 0 0 0 0 0 0 0 0 0 0 0 0 0 0 0 0 0 0 0 0 0 0 0 0 0 0 0 0 0 0 0 0 0 0 0 0 0 0 0 0 0 0 0 0 0 0 0 0 0 0 0 0 0 0 0 0 0 1 1 1 2 2 2 3 3 3 8 8 8 19 19 19 31 31 31 43 43 43 57 57 57 76 76 76 95 95 95 115 115 115 130 130 130 133 133 133 136 136 136 139 139 139 145 145 145 158 158 158 171 171 171 184 184 184 198 198 198 212 212 212 227 227 227 241 241 241 254 254 254 255 255 255 255 255 255 255 255 255 255 255 255 255 255 255 255 255 255 255 255 255 255 255 255 
255 255 255 255 255 255 255 255 255 255 255 255 255 255 255 255 255 255 255 255 255 254 254 254 254 254 254 240 240 240 225 225 225 210 210 210 195 195 195 177 177 177 159 159 159 141 141 141 122 122 122 124 124 124 131 131 131 137 137 137 143 143 143 124 124 124 97 97 97 70 70 70 43 43 43 30 30 30 22 22 22 14 14 14 7 7 7 3 3 3 2 2 2 1 1 1 0 0 0 0 0 0 0 0 0 0 0 0 0 0 0 0 0 0 0 0 0 0 0 0 0 0 0 0 0 0 0 0 0 0 0 0 0 0 0 0 0 0 0 0 0 0 0 0 0 0 0 0 0 0 0 0 0 0 0 0 0 0 0 0 0 0 0 0 0 0 0 0 0 0 0 0 0 0 1 1 1 2 2 2 3 3 3 16 16 16 56 56 56 96 96 96 136 136 136 169 169 169 183 183 183 196 196 196 210 210 210 221 221 221 223 223 223 225 225 225 227 227 227 229 229 229 229 229 229 230 230 230 230 230 230 230 230 230 229 229 229 229 229 229 228 228 228 226 226 226 196 196 196 166 166 166 136 136 136 106 106 106 88 88 88 71 71 71 53 53 53 36 36 36 44 44 44 53 53 53 62 62 62 71 71 71 100 100 100 130 130 130 161 161 161 191 191 191 202 202 202 210 210 210 217 217 217 224 224 224 227 227 227 228 228 228 229 229 229 230 230 230 231 231 231 230 230 230 230 230 230 230 230 230 230 230 230 230 230 230 230 230 230 230 230 230 230 230 230 230 230 230 230 230 230 230 230 230 220 220 220 203 203 203 187 187 187 170 170 170 170 170 170 184 184 184 197 197 197 210 210 210 212 212 212 204 204 204 195 195 195 187 187 187 185 185 185 189 189 189 193 193 193 196 196 196 186 186 186 158 158 158 129 129 129 100 100 100 83 83 83 84 84 84 85 85 85 87 87 87 88 88 88 89 89 89 91 91 91 93 93 93 103 103 103 136 136 136 168 168 168 201 201 201 225 225 225 223 223 223 221 221 221 219 219 219 217 217 217 215 215 215 212 212 212 210 210 210 206 206 206 196 196 196 185 185 185 175 175 175 163 163 163 135 135 135 108 108 108 80 80 80 54 54 54 49 49 49 44 44 44 39 39 39 34 34 34 53 53 53 73 73 73 92 92 92 112 112 112 141 141 141 170 170 170 200 200 200 229 229 229 232 232 232 231 231 231 230 230 230 230 230 230 228 228 228 226 226 226 223 223 223 221 221 221 213 213 213 204 204 204 194 194 194 185 185 185 152 152 152 112 112 112 71 71 71 31 31 31 16 16 16 11 11 11 6 6 6 2 2 2 0 0 0 0 0 0 0 0 0 0 0 0 0 0 0 0 0 0 0 0 0 0 0 0 0 0 0 0 0 0 0 0 0 0 0 0 0 0 0 0 0 0 0 0 0 0 0 0 0 0 0 0 0 0 0 0 0 0 0 0 0 0 0 0 0 0 0 0 0 0 0 0 0 0 0 0 0 0 1 1 1 1 1 1 3 3 3 8 8 8 13 13 13 18 18 18 28 28 28 52 52 52 76 76 76 100 100 100 120 120 120 127 127 127 134 134 134 140 140 140 147 147 147 153 153 153 160 160 160 166 166 166 175 175 175 195 195 195 215 215 215 236 236 236 254 254 254 254 254 254 255 255 255 255 255 255 255 255 255 255 255 255 255 255 255 255 255 255 255 255 255 
255 255 255 255 255 255 255 255 255 255 255 255 255 255 255 254 254 254 253 253 253 252 252 252 251 251 251 233 233 233 214 214 214 195 195 195 175 175 175 161 161 161 147 147 147 133 133 133 119 119 119 120 120 120 125 125 125 130 130 130 135 135 135 113 113 113 82 82 82 51 51 51 21 21 21 10 10 10 7 7 7 4 4 4 1 1 1 0 0 0 0 0 0 0 0 0 1 1 1 1 1 1 2 2 2 3 3 3 3 3 3 4 4 4 4 4 4 4 4 4 4 4 4 3 3 3 2 2 2 1 1 1 0 0 0 0 0 0 0 0 0 0 0 0 0 0 0 0 0 0 0 0 0 0 0 0 0 0 0 0 0 0 0 0 0 0 0 0 0 0 0 1 1 1 3 3 3 5 5 5 7 7 7 21 21 21 62 62 62 104 104 104 146 146 146 180 180 180 191 191 191 202 202 202 212 212 212 221 221 221 223 223 223 225 225 225 226 226 226 228 228 228 228 228 228 229 229 229 229 229 229 230 230 230 226 226 226 223 223 223 220 220 220 216 216 216 182 182 182 148 148 148 114 114 114 80 80 80 68 68 68 56 56 56 44 44 44 32 32 32 46 46 46 61 61 61 77 77 77 92 92 92 122 122 122 154 154 154 186 186 186 217 217 217 224 224 224 226 226 226 228 228 228 230 230 230 230 230 230 229 229 229 229 229 229 228 228 228 227 227 227 227 227 227 226 226 226 226 226 226 227 227 227 227 227 227 228 228 228 229 229 229 229 229 229 230 230 230 230 230 230 230 230 230 216 216 216 194 194 194 172 172 172 150 150 150 151 151 151 168 168 168 186 186 186 204 204 204 207 207 207 196 196 196 184 184 184 173 173 173 170 170 170 177 177 177 183 183 183 189 189 189 181 181 181 154 154 154 128 128 128 102 102 102 83 83 83 77 77 77 70 70 70 64 64 64 62 62 62 69 69 69 76 76 76 83 83 83 98 98 98 134 134 134 170 170 170 205 205 205 233 233 233 232 232 232 232 232 232 231 231 231 231 231 231 231 231 231 231 231 231 231 231 231 230 230 230 221 221 221 212 212 212 203 203 203 192 192 192 162 162 162 132 132 132 103 103 103 74 74 74 63 63 63 53 53 53 42 42 42 31 31 31 45 45 45 59 59 59 73 73 73 86 86 86 120 120 120 154 154 154 188 188 188 223 223 223 227 227 227 227 227 227 228 228 228 229 229 229 227 227 227 225 225 225 223 223 223 221 221 221 215 215 215 207 207 207 200 200 200 192 192 192 160 160 160 120 120 120 80 80 80 40 40 40 23 23 23 16 16 16 9 9 9 2 2 2 0 0 0 0 0 0 0 0 0 0 0 0 0 0 0 0 0 0 0 0 0 0 0 0 0 0 0 0 0 0 0 0 0 0 0 0 0 0 0 1 1 1 2 2 2 2 2 2 3 3 3 3 3 3 4 4 4 4 4 4 4 4 4 3 3 3 3 3 3 2 2 2 1 1 1 1 1 1 1 1 1 0 0 0 0 0 0 1 1 1 1 1 1 1 1 1 9 9 9 34 34 34 58 58 58 83 83 83 104 104 104 115 115 115 126 126 126 137 137 137 146 146 146 148 148 148 150 150 150 153 153 153 158 158 158 181 181 181 204 204 204 228 228 228 249 249 249 251 251 251 252 252 252 254 254 254 255 255 255 255 255 255 255 255 255 255 255 255 255 255 255 
255 255 255 255 255 255 255 255 255 255 255 255 255 255 255 252 252 252 248 248 248 245 245 245 241 241 241 221 221 221 198 198 198 176 176 176 154 154 154 146 146 146 140 140 140 134 134 134 129 129 129 123 123 123 117 117 117 111 111 111 104 104 104 85 85 85 62 62 62 39 39 39 15 15 15 7 7 7 5 5 5 3 3 3 1 1 1 0 0 0 1 1 1 1 1 1 2 2 2 4 4 4 7 7 7 10 10 10 12 12 12 14 14 14 13 13 13 13 13 13 13 13 13 11 11 11 8 8 8 5 5 5 2 2 2 0 0 0 0 0 0 0 0 0 0 0 0 0 0 0 0 0 0 0 0 0 0 0 0 0 0 0 0 0 0 0 0 0 0 0 0 2 2 2 6 6 6 11 11 11 16 16 16 31 31 31 71 71 71 111 111 111 151 151 151 184 184 184 194 194 194 204 204 204 213 213 213 221 221 221 223 223 223 224 224 224 226 226 226 227 227 227 228 228 228 228 228 228 229 229 229 228 228 228 220 220 220 211 211 211 202 202 202 192 192 192 161 161 161 129 129 129 98 98 98 66 66 66 60 60 60 54 54 54 49 49 49 43 43 43 63 63 63 84 84 84 105 105 105 127 127 127 150 150 150 173 173 173 197 197 197 220 220 220 225 225 225 227 227 227 228 228 228 230 230 230 229 229 229 227 227 227 224 224 224 222 222 222 221 221 221 220 220 220 219 219 219 218 218 218 219 219 219 222 222 222 224 224 224 227 227 227 228 228 228 229 229 229 229 229 229 230 230 230 212 212 212 182 182 182 153 153 153 123 123 123 124 124 124 147 147 147 169 169 169 192 192 192 195 195 195 180 180 180 166 166 166 151 151 151 147 147 147 156 156 156 165 165 165 174 174 174 173 173 173 157 157 157 142 142 142 127 127 127 111 111 111 94 94 94 77 77 77 61 61 61 53 53 53 63 63 63 73 73 73 83 83 83 100 100 100 135 135 135 170 170 170 205 205 205 232 232 232 231 231 231 231 231 231 230 230 230 230 230 230 230 230 230 230 230 230 230 230 230 229 229 229 222 222 222 216 216 216 209 209 209 201 201 201 179 179 179 157 157 157 135 135 135 114 114 114 97 97 97 79 79 79 62 62 62 45 45 45 52 52 52 58 58 58 65 65 65 71 71 71 104 104 104 138 138 138 172 172 172 207 207 207 214 214 214 219 219 219 223 223 223 228 228 228 227 227 227 225 225 225 223 223 223 222 222 222 215 215 215 208 208 208 201 201 201 193 193 193 163 163 163 126 126 126 89 89 89 52 52 52 34 34 34 24 24 24 14 14 14 3 3 3 0 0 0 0 0 0 0 0 0 0 0 0 0 0 0 0 0 0 0 0 0 0 0 0 0 0 0 0 0 0 0 0 0 0 0 0 1 1 1 4 4 4 6 6 6 9 9 9 11 11 11 12 12 12 14 14 14 16 16 16 15 15 15 12 12 12 9 9 9 6 6 6 4 4 4 3 3 3 2 2 2 1 1 1 0 0 0 0 0 0 1 1 1 1 1 1 6 6 6 25 25 25 43 43 43 61 61 61 78 78 78 94 94 94 110 110 110 126 126 126 140 140 140 142 142 142 144 144 144 146 146 146 151 151 151 172 172 172 194 194 194 216 216 216 236 236 236 241 241 241 246 246 246 250 250 250 255 255 255 255 255 255 255 255 255 255 255 255 255 255 255 
255 255 255 255 255 255 255 255 255 255 255 255 255 255 255 250 250 250 244 244 244 238 238 238 232 232 232 209 209 209 183 183 183 158 158 158 132 132 132 131 131 131 133 133 133 136 136 136 139 139 139 125 125 125 108 108 108 91 91 91 74 74 74 57 57 57 42 42 42 26 26 26 10 10 10 4 4 4 3 3 3 2 2 2 0 0 0 1 1 1 1 1 1 2 2 2 3 3 3 7 7 7 12 12 12 16 16 16 21 21 21 23 23 23 23 23 23 22 22 22 22 22 22 19 19 19 14 14 14 8 8 8 3 3 3 0 0 0 0 0 0 0 0 0 0 0 0 0 0 0 0 0 0 0 0 0 0 0 0 0 0 0 0 0 0 0 0 0 0 0 0 2 2 2 10 10 10 17 17 17 24 24 24 40 40 40 79 79 79 118 118 118 157 157 157 189 189 189 197 197 197 206 206 206 214 214 214 221 221 221 223 223 223 224 224 224 225 225 225 226 226 226 227 227 227 228 228 228 228 228 228 227 227 227 213 213 213 199 199 199 184 184 184 169 169 169 140 140 140 111 111 111 81 81 81 52 52 52 53 53 53 53 53 53 54 54 54 54 54 54 80 80 80 107 107 107 134 134 134 162 162 162 178 178 178 193 193 193 208 208 208 224 224 224 227 227 227 228 228 228 229 229 229 230 230 230 227 227 227 224 224 224 220 220 220 217 217 217 215 215 215 213 213 213 212 212 212 210 210 210 212 212 212 216 216 216 221 221 221 225 225 225 227 227 227 228 228 228 229 229 229 230 230 230 207 207 207 170 170 170 133 133 133 97 97 97 97 97 97 125 125 125 152 152 152 180 180 180 184 184 184 165 165 165 147 147 147 128 128 128 124 124 124 136 136 136 148 148 148 160 160 160 165 165 165 160 160 160 156 156 156 152 152 152 139 139 139 111 111 111 84 84 84 57 57 57 44 44 44 57 57 57 70 70 70 83 83 83 102 102 102 136 136 136 171 171 171 205 205 205 231 231 231 230 230 230 230 230 230 229 229 229 229 229 229 229 229 229 229 229 229 229 229 229 228 228 228 224 224 224 220 220 220 216 216 216 211 211 211 197 197 197 183 183 183 168 168 168 154 154 154 130 130 130 106 106 106 83 83 83 59 59 59 58 58 58 57 57 57 57 57 57 56 56 56 88 88 88 122 122 122 156 156 156 191 191 191 202 202 202 210 210 210 219 219 219 227 227 227 227 227 227 225 225 225 224 224 224 222 222 222 216 216 216 209 209 209 202 202 202 195 195 195 167 167 167 133 133 133 99 99 99 65 65 65 46 46 46 32 32 32 18 18 18 5 5 5 0 0 0 0 0 0 0 0 0 0 0 0 0 0 0 0 0 0 0 0 0 0 0 0 0 0 0 0 0 0 0 0 0 0 0 0 2 2 2 6 6 6 11 11 11 15 15 15 18 18 18 21 21 21 24 24 24 27 27 27 27 27 27 21 21 21 16 16 16 11 11 11 7 7 7 5 5 5 3 3 3 1 1 1 0 0 0 0 0 0 0 0 0 1 1 1 4 4 4 16 16 16 27 27 27 39 39 39 52 52 52 74 74 74 95 95 95 116 116 116 134 134 134 135 135 135 137 137 137 139 139 139 143 143 143 164 164 164 184 184 184 204 204 204 223 223 223 231 231 231 239 239 239 247 247 247 255 255 255 255 255 255 255 255 255 255 255 255 255 255 255 
255 255 255 255 255 255 255 255 255 255 255 255 255 255 255 247 247 247 239 239 239 231 231 231 223 223 223 196 196 196 168 168 168 139 139 139 111 111 111 116 116 116 127 127 127 138 138 138 148 148 148 128 128 128 99 99 99 71 71 71 43 43 43 30 30 30 21 21 21 13 13 13 5 5 5 2 2 2 1 1 1 1 1 1 0 0 0 1 1 1 2 2 2 3 3 3 5 5 5 9 9 9 16 16 16 23 23 23 30 30 30 33 33 33 32 32 32 32 32 32 31 31 31 27 27 27 19 19 19 12 12 12 4 4 4 0 0 0 0 0 0 0 0 0 0 0 0 0 0 0 0 0 0 0 0 0 0 0 0 0 0 0 0 0 0 0 0 0 0 0 0 3 3 3 13 13 13 23 23 23 32 32 32 50 50 50 87 87 87 125 125 125 162 162 162 193 193 193 200 200 200 208 208 208 215 215 215 221 221 221 222 222 222 223 223 223 225 225 225 226 226 226 226 226 226 227 227 227 228 228 228 226 226 226 206 206 206 186 186 186 167 167 167 146 146 146 119 119 119 92 92 92 65 65 65 38 38 38 45 45 45 52 52 52 58 58 58 65 65 65 97 97 97 130 130 130 163 163 163 196 196 196 206 206 206 213 213 213 220 220 220 227 227 227 228 228 228 228 228 228 229 229 229 229 229 229 225 225 225 221 221 221 216 216 216 211 211 211 208 208 208 206 206 206 204 204 204 202 202 202 205 205 205 211 211 211 217 217 217 222 222 222 225 225 225 227 227 227 228 228 228 229 229 229 203 203 203 158 158 158 114 114 114 70 70 70 70 70 70 103 103 103 136 136 136 169 169 169 173 173 173 150 150 150 128 128 128 105 105 105 101 101 101 115 115 115 130 130 130 145 145 145 156 156 156 163 163 163 170 170 170 177 177 177 166 166 166 129 129 129 91 91 91 54 54 54 34 34 34 51 51 51 67 67 67 83 83 83 104 104 104 138 138 138 171 171 171 205 205 205 230 230 230 230 230 230 229 229 229 228 228 228 228 228 228 227 227 227 227 227 227 227 227 227 227 227 227 225 225 225 224 224 224 222 222 222 220 220 220 214 214 214 208 208 208 201 201 201 194 194 194 163 163 163 133 133 133 103 103 103 73 73 73 65 65 65 57 57 57 49 49 49 41 41 41 73 73 73 107 107 107 141 141 141 174 174 174 189 189 189 201 201 201 214 214 214 226 226 226 227 227 227 225 225 225 224 224 224 222 222 222 216 216 216 209 209 209 203 203 203 196 196 196 171 171 171 140 140 140 109 109 109 78 78 78 57 57 57 40 40 40 23 23 23 6 6 6 0 0 0 0 0 0 0 0 0 0 0 0 0 0 0 0 0 0 0 0 0 0 0 0 0 0 0 0 0 0 0 0 0 0 0 0 3 3 3 9 9 9 15 15 15 21 21 21 26 26 26 30 30 30 34 34 34 39 39 39 38 38 38 30 30 30 23 23 23 15 15 15 10 10 10 7 7 7 4 4 4 2 2 2 0 0 0 0 0 0 0 0 0 0 0 0 2 2 2 7 7 7 12 12 12 16 16 16 26 26 26 53 53 53 79 79 79 106 106 106 127 127 127 129 129 129 131 131 131 132 132 132 136 136 136 155 155 155 173 173 173 192 192 192 210 210 210 221 221 221 233 233 233 244 244 244 255 255 255 255 255 255 255 255 255 255 255 255 255 255 255 
255 255 255 255 255 255 255 255 255 255 255 255 255 255 255 243 243 243 231 231 231 219 219 219 207 207 207 182 182 182 155 155 155 129 129 129 102 102 102 109 109 109 121 121 121 133 133 133 145 145 145 120 120 120 87 87 87 54 54 54 21 21 21 11 11 11 8 8 8 5 5 5 2 2 2 2 2 2 3 3 3 4 4 4 5 5 5 7 7 7 9 9 9 11 11 11 13 13 13 20 20 20 28 28 28 37 37 37 46 46 46 49 49 49 47 47 47 46 46 46 44 44 44 38 38 38 27 27 27 16 16 16 6 6 6 0 0 0 0 0 0 0 0 0 0 0 0 0 0 0 0 0 0 0 0 0 0 0 0 0 0 0 0 0 0 0 0 0 0 0 0 4 4 4 16 16 16 29 29 29 41 41 41 60 60 60 96 96 96 131 131 131 167 167 167 196 196 196 202 202 202 209 209 209 216 216 216 221 221 221 222 222 222 223 223 223 224 224 224 225 225 225 225 225 225 226 226 226 227 227 227 225 225 225 199 199 199 174 174 174 149 149 149 123 123 123 100 100 100 77 77 77 53 53 53 30 30 30 43 43 43 55 55 55 68 68 68 80 80 80 113 113 113 147 147 147 181 181 181 215 215 215 220 220 220 222 222 222 224 224 224 226 226 226 225 225 225 222 222 222 220 220 220 218 218 218 213 213 213 208 208 208 203 203 203 198 198 198 195 195 195 191 191 191 188 188 188 185 185 185 189 189 189 195 195 195 202 202 202 208 208 208 212 212 212 216 216 216 219 219 219 222 222 222 194 194 194 147 147 147 99 99 99 52 52 52 52 52 52 87 87 87 122 122 122 158 158 158 162 162 162 138 138 138 114 114 114 89 89 89 85 85 85 101 101 101 118 118 118 134 134 134 150 150 150 163 163 163 176 176 176 190 190 190 182 182 182 139 139 139 96 96 96 53 53 53 30 30 30 47 47 47 63 63 63 80 80 80 101 101 101 134 134 134 166 166 166 198 198 198 223 223 223 224 224 224 225 225 225 226 226 226 227 227 227 227 227 227 226 226 226 226 226 226 226 226 226 226 226 226 226 226 226 226 226 226 226 226 226 225 225 225 224 224 224 223 223 223 221 221 221 189 189 189 157 157 157 125 125 125 93 93 93 78 78 78 63 63 63 47 47 47 32 32 32 61 61 61 93 93 93 124 124 124 156 156 156 174 174 174 191 191 191 208 208 208 225 225 225 226 226 226 225 225 225 224 224 224 222 222 222 216 216 216 210 210 210 203 203 203 196 196 196 174 174 174 146 146 146 118 118 118 90 90 90 68 68 68 47 47 47 27 27 27 7 7 7 0 0 0 0 0 0 0 0 0 0 0 0 0 0 0 0 0 0 0 0 0 0 0 0 0 0 0 0 0 0 0 0 0 0 0 0 5 5 5 13 13 13 22 22 22 30 30 30 38 38 38 45 45 45 51 51 51 58 58 58 57 57 57 48 48 48 39 39 39 29 29 29 22 22 22 18 18 18 13 13 13 9 9 9 6 6 6 5 5 5 4 4 4 3 3 3 2 2 2 2 2 2 2 2 2 2 2 2 8 8 8 36 36 36 64 64 64 91 91 91 114 114 114 118 118 118 123 123 123 127 127 127 133 133 133 148 148 148 164 164 164 179 179 179 195 195 195 210 210 210 225 225 225 240 240 240 255 255 255 255 255 255 255 255 255 255 255 255 255 255 255 
255 255 255 255 255 255 254 254 254 254 254 254 254 254 254 235 235 235 216 216 216 196 196 196 177 177 177 162 162 162 147 147 147 133 133 133 119 119 119 116 116 116 116 116 116 115 115 115 114 114 114 93 93 93 67 67 67 41 41 41 16 16 16 9 9 9 8 8 8 7 7 7 6 6 6 8 8 8 12 12 12 16 16 16 20 20 20 24 24 24 28 28 28 33 33 33 37 37 37 45 45 45 55 55 55 65 65 65 75 75 75 77 77 77 72 72 72 68 68 68 64 64 64 54 54 54 38 38 38 23 23 23 8 8 8 0 0 0 0 0 0 0 0 0 0 0 0 0 0 0 0 0 0 0 0 0 0 0 0 0 0 0 0 0 0 0 0 0 0 0 0 5 5 5 20 20 20 36 36 36 51 51 51 71 71 71 104 104 104 136 136 136 169 169 169 195 195 195 202 202 202 209 209 209 215 215 215 221 221 221 222 222 222 223 223 223 224 224 224 224 224 224 224 224 224 224 224 224 224 224 224 221 221 221 191 191 191 161 161 161 130 130 130 101 101 101 84 84 84 67 67 67 50 50 50 34 34 34 51 51 51 68 68 68 86 86 86 103 103 103 127 127 127 151 151 151 176 176 176 200 200 200 206 206 206 210 210 210 214 214 214 218 218 218 211 211 211 203 203 203 194 194 194 185 185 185 181 181 181 177 177 177 174 174 174 170 170 170 166 166 166 161 161 161 156 156 156 151 151 151 153 153 153 159 159 159 164 164 164 169 169 169 177 177 177 185 185 185 193 193 193 202 202 202 179 179 179 136 136 136 93 93 93 51 51 51 51 51 51 84 84 84 117 117 117 150 150 150 154 154 154 131 131 131 109 109 109 87 87 87 83 83 83 99 99 99 116 116 116 132 132 132 146 146 146 157 157 157 168 168 168 179 179 179 171 171 171 133 133 133 95 95 95 57 57 57 36 36 36 48 48 48 60 60 60 72 72 72 89 89 89 119 119 119 149 149 149 180 180 180 204 204 204 210 210 210 216 216 216 222 222 222 226 226 226 226 226 226 226 226 226 225 225 225 225 225 225 225 225 225 225 225 225 225 225 225 225 225 225 225 225 225 224 224 224 223 223 223 222 222 222 198 198 198 174 174 174 150 150 150 127 127 127 104 104 104 82 82 82 59 59 59 36 36 36 59 59 59 83 83 83 108 108 108 133 133 133 156 156 156 178 178 178 201 201 201 224 224 224 226 226 226 224 224 224 223 223 223 222 222 222 216 216 216 209 209 209 203 203 203 196 196 196 175 175 175 151 151 151 126 126 126 101 101 101 78 78 78 54 54 54 31 31 31 8 8 8 0 0 0 0 0 0 0 0 0 0 0 0 0 0 0 0 0 0 0 0 0 0 0 0 0 0 0 0 0 0 0 0 0 0 0 0 7 7 7 20 20 20 33 33 33 46 46 46 58 58 58 69 69 69 80 80 80 92 92 92 94 94 94 83 83 83 73 73 73 62 62 62 53 53 53 45 45 45 38 38 38 30 30 30 24 24 24 20 20 20 16 16 16 12 12 12 9 9 9 7 7 7 5 5 5 3 3 3 6 6 6 27 27 27 47 47 47 68 68 68 87 87 87 99 99 99 111 111 111 124 124 124 136 136 136 145 145 145 155 155 155 164 164 164 175 175 175 194 194 194 214 214 214 234 234 234 253 253 253 254 254 254 254 254 254 254 254 254 255 255 255 
254 254 254 254 254 254 254 254 254 254 254 254 253 253 253 228 228 228 201 201 201 174 174 174 147 147 147 142 142 142 140 140 140 138 138 138 136 136 136 124 124 124 111 111 111 97 97 97 84 84 84 66 66 66 48 48 48 29 29 29 10 10 10 7 7 7 7 7 7 8 8 8 9 9 9 14 14 14 21 21 21 28 28 28 35 35 35 41 41 41 48 48 48 54 54 54 61 61 61 70 70 70 81 81 81 93 93 93 104 104 104 105 105 105 98 98 98 91 91 91 84 84 84 70 70 70 50 50 50 30 30 30 10 10 10 0 0 0 0 0 0 0 0 0 0 0 0 0 0 0 0 0 0 0 0 0 0 0 0 0 0 0 0 0 0 0 0 0 0 0 0 6 6 6 24 24 24 42 42 42 61 61 61 82 82 82 112 112 112 141 141 141 171 171 171 195 195 195 202 202 202 208 208 208 215 215 215 221 221 221 221 221 221 222 222 222 223 223 223 224 224 224 223 223 223 222 222 222 222 222 222 218 218 218 183 183 183 148 148 148 112 112 112 78 78 78 68 68 68 58 58 58 47 47 47 37 37 37 59 59 59 81 81 81 103 103 103 126 126 126 141 141 141 156 156 156 171 171 171 186 186 186 193 193 193 198 198 198 204 204 204 210 210 210 198 198 198 183 183 183 168 168 168 152 152 152 148 148 148 146 146 146 144 144 144 142 142 142 137 137 137 130 130 130 123 123 123 117 117 117 118 118 118 122 122 122 127 127 127 131 131 131 141 141 141 155 155 155 168 168 168 181 181 181 163 163 163 125 125 125 88 88 88 50 50 50 51 51 51 81 81 81 111 111 111 141 141 141 145 145 145 125 125 125 105 105 105 85 85 85 82 82 82 97 97 97 113 113 113 129 129 129 142 142 142 150 150 150 159 159 159 168 168 168 161 161 161 127 127 127 94 94 94 61 61 61 41 41 41 49 49 49 56 56 56 64 64 64 77 77 77 105 105 105 133 133 133 161 161 161 185 185 185 196 196 196 206 206 206 217 217 217 226 226 226 225 225 225 225 225 225 225 225 225 224 224 224 224 224 224 224 224 224 224 224 224 224 224 224 224 224 224 224 224 224 223 223 223 222 222 222 207 207 207 191 191 191 176 176 176 160 160 160 130 130 130 101 101 101 71 71 71 41 41 41 56 56 56 74 74 74 92 92 92 109 109 109 137 137 137 165 165 165 194 194 194 222 222 222 225 225 225 224 224 224 222 222 222 221 221 221 215 215 215 209 209 209 202 202 202 195 195 195 177 177 177 156 156 156 134 134 134 112 112 112 87 87 87 61 61 61 35 35 35 9 9 9 0 0 0 0 0 0 0 0 0 0 0 0 0 0 0 0 0 0 0 0 0 0 0 0 0 0 0 0 0 0 0 0 0 0 0 0 9 9 9 27 27 27 44 44 44 61 61 61 78 78 78 94 94 94 110 110 110 126 126 126 130 130 130 118 118 118 106 106 106 95 95 95 83 83 83 73 73 73 62 62 62 51 51 51 42 42 42 35 35 35 28 28 28 21 21 21 15 15 15 11 11 11 8 8 8 4 4 4 4 4 4 18 18 18 31 31 31 45 45 45 59 59 59 80 80 80 100 100 100 121 121 121 139 139 139 142 142 142 146 146 146 149 149 149 155 155 155 179 179 179 204 204 204 229 229 229 252 252 252 253 253 253 253 253 253 254 254 254 254 254 254 
254 254 254 254 254 254 253 253 253 253 253 253 253 253 253 220 220 220 185 185 185 151 151 151 116 116 116 122 122 122 132 132 132 142 142 142 152 152 152 131 131 131 105 105 105 79 79 79 53 53 53 39 39 39 28 28 28 17 17 17 5 5 5 4 4 4 7 7 7 10 10 10 12 12 12 20 20 20 30 30 30 40 40 40 49 49 49 58 58 58 67 67 67 76 76 76 84 84 84 95 95 95 108 108 108 120 120 120 133 133 133 132 132 132 123 123 123 113 113 113 103 103 103 86 86 86 62 62 62 37 37 37 13 13 13 0 0 0 0 0 0 0 0 0 0 0 0 0 0 0 0 0 0 0 0 0 0 0 0 0 0 0 0 0 0 0 0 0 0 0 0 7 7 7 28 28 28 49 49 49 70 70 70 93 93 93 120 120 120 146 146 146 173 173 173 195 195 195 201 201 201 208 208 208 215 215 215 220 220 220 221 221 221 222 222 222 223 223 223 223 223 223 222 222 222 221 221 221 219 219 219 214 214 214 174 174 174 134 134 134 94 94 94 56 56 56 52 52 52 48 48 48 44 44 44 41 41 41 67 67 67 94 94 94 121 121 121 148 148 148 155 155 155 160 160 160 166 166 166 171 171 171 179 179 179 187 187 187 195 195 195 202 202 202 185 185 185 163 163 163 141 141 141 119 119 119 115 115 115 115 115 115 115 115 115 115 115 115 108 108 108 99 99 99 91 91 91 82 82 82 82 82 82 86 86 86 89 89 89 93 93 93 106 106 106 124 124 124 142 142 142 160 160 160 147 147 147 114 114 114 82 82 82 49 49 49 51 51 51 78 78 78 105 105 105 133 133 133 136 136 136 118 118 118 100 100 100 82 82 82 80 80 80 96 96 96 111 111 111 126 126 126 138 138 138 144 144 144 151 151 151 157 157 157 150 150 150 122 122 122 93 93 93 65 65 65 47 47 47 50 50 50 52 52 52 55 55 55 65 65 65 90 90 90 116 116 116 142 142 142 165 165 165 181 181 181 197 197 197 213 213 213 225 225 225 225 225 225 224 224 224 224 224 224 224 224 224 223 223 223 223 223 223 223 223 223 223 223 223 223 223 223 223 223 223 223 223 223 223 223 223 216 216 216 209 209 209 201 201 201 194 194 194 157 157 157 119 119 119 82 82 82 45 45 45 54 54 54 64 64 64 75 75 75 86 86 86 118 118 118 152 152 152 186 186 186 221 221 221 224 224 224 223 223 223 222 222 222 221 221 221 215 215 215 208 208 208 202 202 202 195 195 195 179 179 179 161 161 161 142 142 142 124 124 124 97 97 97 68 68 68 39 39 39 10 10 10 0 0 0 0 0 0 0 0 0 0 0 0 0 0 0 0 0 0 0 0 0 0 0 0 0 0 0 0 0 0 0 0 0 0 0 0 11 11 11 33 33 33 55 55 55 77 77 77 98 98 98 119 119 119 139 139 139 160 160 160 166 166 166 153 153 153 140 140 140 127 127 127 114 114 114 100 100 100 86 86 86 72 72 72 59 59 59 50 50 50 40 40 40 30 30 30 21 21 21 16 16 16 10 10 10 5 5 5 2 2 2 8 8 8 15 15 15 21 21 21 32 32 32 61 61 61 89 89 89 118 118 118 142 142 142 139 139 139 137 137 137 134 134 134 134 134 134 164 164 164 193 193 193 223 223 223 251 251 251 252 252 252 253 253 253 253 253 253 254 254 254 
254 254 254 252 252 252 251 251 251 249 249 249 248 248 248 211 211 211 173 173 173 135 135 135 97 97 97 108 108 108 124 124 124 140 140 140 157 157 157 131 131 131 97 97 97 64 64 64 30 30 30 20 20 20 15 15 15 10 10 10 6 6 6 8 8 8 13 13 13 17 17 17 22 22 22 32 32 32 44 44 44 57 57 57 69 69 69 80 80 80 91 91 91 101 101 101 111 111 111 123 123 123 136 136 136 148 148 148 160 160 160 159 159 159 146 146 146 133 133 133 121 121 121 100 100 100 72 72 72 43 43 43 15 15 15 0 0 0 0 0 0 0 0 0 0 0 0 0 0 0 0 0 0 0 0 0 0 0 0 0 0 0 0 0 0 0 0 0 0 0 0 8 8 8 32 32 32 56 56 56 80 80 80 103 103 103 127 127 127 151 151 151 175 175 175 195 195 195 201 201 201 208 208 208 214 214 214 220 220 220 221 221 221 221 221 221 222 222 222 222 222 222 219 219 219 216 216 216 213 213 213 207 207 207 164 164 164 122 122 122 79 79 79 39 39 39 42 42 42 45 45 45 49 49 49 52 52 52 79 79 79 106 106 106 133 133 133 160 160 160 159 159 159 157 157 157 154 154 154 152 152 152 162 162 162 174 174 174 186 186 186 197 197 197 177 177 177 151 151 151 125 125 125 99 99 99 95 95 95 95 95 95 96 96 96 96 96 96 88 88 88 77 77 77 67 67 67 56 56 56 55 55 55 59 59 59 62 62 62 66 66 66 80 80 80 100 100 100 120 120 120 140 140 140 131 131 131 104 104 104 76 76 76 49 49 49 51 51 51 76 76 76 100 100 100 124 124 124 127 127 127 111 111 111 94 94 94 78 78 78 77 77 77 92 92 92 108 108 108 123 123 123 133 133 133 137 137 137 141 141 141 144 144 144 138 138 138 116 116 116 94 94 94 73 73 73 58 58 58 58 58 58 58 58 58 59 59 59 65 65 65 87 87 87 109 109 109 131 131 131 152 152 152 169 169 169 186 186 186 203 203 203 216 216 216 217 217 217 218 218 218 219 219 219 220 220 220 221 221 221 221 221 221 222 222 222 222 222 222 223 223 223 223 223 223 223 223 223 224 224 224 222 222 222 221 221 221 220 220 220 218 218 218 178 178 178 137 137 137 96 96 96 55 55 55 56 56 56 60 60 60 63 63 63 66 66 66 102 102 102 141 141 141 179 179 179 218 218 218 223 223 223 222 222 222 221 221 221 220 220 220 215 215 215 208 208 208 201 201 201 195 195 195 181 181 181 165 165 165 150 150 150 134 134 134 107 107 107 75 75 75 43 43 43 11 11 11 0 0 0 0 0 0 0 0 0 0 0 0 0 0 0 0 0 0 0 0 0 0 0 0 0 0 0 0 0 0 0 0 0 0 0 0 13 13 13 38 38 38 64 64 64 89 89 89 114 114 114 139 139 139 163 163 163 188 188 188 196 196 196 184 184 184 171 171 171 158 158 158 144 144 144 128 128 128 113 113 113 97 97 97 82 82 82 70 70 70 58 58 58 45 45 45 34 34 34 27 27 27 19 19 19 11 11 11 5 5 5 6 6 6 6 6 6 7 7 7 13 13 13 45 45 45 77 77 77 109 109 109 136 136 136 131 131 131 127 127 127 123 123 123 122 122 122 153 153 153 185 185 185 216 216 216 245 245 245 248 248 248 250 250 250 252 252 252 254 254 254 
254 254 254 249 249 249 244 244 244 239 239 239 234 234 234 202 202 202 169 169 169 136 136 136 103 103 103 107 107 107 115 115 115 123 123 123 131 131 131 108 108 108 81 81 81 53 53 53 25 25 25 20 20 20 20 20 20 20 20 20 20 20 20 25 25 25 32 32 32 39 39 39 46 46 46 58 58 58 72 72 72 86 86 86 100 100 100 113 113 113 124 124 124 136 136 136 147 147 147 157 157 157 167 167 167 176 176 176 185 185 185 180 180 180 164 164 164 149 149 149 133 133 133 109 109 109 78 78 78 47 47 47 16 16 16 0 0 0 0 0 0 0 0 0 0 0 0 0 0 0 0 0 0 0 0 0 0 0 0 0 0 0 0 0 0 0 0 0 0 0 0 9 9 9 35 35 35 61 61 61 87 87 87 112 112 112 134 134 134 155 155 155 176 176 176 194 194 194 201 201 201 207 207 207 214 214 214 219 219 219 220 220 220 221 221 221 222 222 222 221 221 221 214 214 214 207 207 207 199 199 199 189 189 189 150 150 150 111 111 111 72 72 72 36 36 36 48 48 48 59 59 59 71 71 71 82 82 82 98 98 98 113 113 113 129 129 129 145 145 145 139 139 139 133 133 133 126 126 126 119 119 119 137 137 137 158 158 158 179 179 179 199 199 199 182 182 182 158 158 158 135 135 135 111 111 111 105 105 105 104 104 104 102 102 102 101 101 101 90 90 90 77 77 77 63 63 63 50 50 50 50 50 50 56 56 56 62 62 62 68 68 68 79 79 79 92 92 92 106 106 106 120 120 120 112 112 112 92 92 92 72 72 72 52 52 52 54 54 54 74 74 74 94 94 94 115 115 115 116 116 116 100 100 100 85 85 85 69 69 69 69 69 69 85 85 85 102 102 102 118 118 118 128 128 128 127 127 127 127 127 127 127 127 127 122 122 122 112 112 112 101 101 101 90 90 90 83 83 83 86 86 86 88 88 88 91 91 91 97 97 97 112 112 112 126 126 126 141 141 141 154 154 154 162 162 162 171 171 171 179 179 179 187 187 187 193 193 193 199 199 199 205 205 205 211 211 211 214 214 214 217 217 217 219 219 219 222 222 222 222 222 222 223 223 223 223 223 223 223 223 223 222 222 222 221 221 221 221 221 221 220 220 220 185 185 185 150 150 150 115 115 115 80 80 80 73 73 73 67 67 67 62 62 62 56 56 56 92 92 92 132 132 132 173 173 173 213 213 213 219 219 219 219 219 219 219 219 219 220 220 220 214 214 214 208 208 208 201 201 201 194 194 194 183 183 183 169 169 169 156 156 156 143 143 143 114 114 114 80 80 80 46 46 46 12 12 12 1 1 1 0 0 0 0 0 0 0 0 0 0 0 0 0 0 0 0 0 0 0 0 0 0 0 0 0 0 0 0 0 0 0 0 0 14 14 14 40 40 40 66 66 66 92 92 92 119 119 119 146 146 146 173 173 173 200 200 200 212 212 212 202 202 202 193 193 193 183 183 183 172 172 172 159 159 159 146 146 146 132 132 132 119 119 119 104 104 104 90 90 90 76 76 76 63 63 63 53 53 53 42 42 42 32 32 32 23 23 23 20 20 20 17 17 17 13 13 13 15 15 15 39 39 39 62 62 62 86 86 86 106 106 106 112 112 112 117 117 117 123 123 123 130 130 130 155 155 155 180 180 180 205 205 205 229 229 229 235 235 235 242 242 242 248 248 248 254 254 254 
254 254 254 245 245 245 237 237 237 228 228 228 220 220 220 193 193 193 165 165 165 138 138 138 110 110 110 107 107 107 106 106 106 105 105 105 104 104 104 86 86 86 64 64 64 42 42 42 21 21 21 20 20 20 25 25 25 29 29 29 34 34 34 42 42 42 52 52 52 61 61 61 70 70 70 84 84 84 100 100 100 116 116 116 132 132 132 145 145 145 158 158 158 171 171 171 183 183 183 192 192 192 198 198 198 204 204 204 210 210 210 202 202 202 183 183 183 164 164 164 145 145 145 118 118 118 85 85 85 51 51 51 18 18 18 0 0 0 0 0 0 0 0 0 0 0 0 0 0 0 0 0 0 0 0 0 0 0 0 0 0 0 0 0 0 0 0 0 0 0 0 10 10 10 38 38 38 67 67 67 95 95 95 121 121 121 140 140 140 159 159 159 178 178 178 194 194 194 200 200 200 207 207 207 213 213 213 218 218 218 219 219 219 220 220 220 221 221 221 220 220 220 208 208 208 197 197 197 185 185 185 171 171 171 136 136 136 101 101 101 66 66 66 33 33 33 53 53 53 73 73 73 93 93 93 112 112 112 117 117 117 121 121 121 125 125 125 130 130 130 119 119 119 108 108 108 97 97 97 86 86 86 112 112 112 142 142 142 172 172 172 202 202 202 187 187 187 166 166 166 144 144 144 122 122 122 116 116 116 112 112 112 109 109 109 106 106 106 93 93 93 76 76 76 60 60 60 44 44 44 45 45 45 53 53 53 61 61 61 69 69 69 77 77 77 84 84 84 92 92 92 99 99 99 94 94 94 81 81 81 67 67 67 54 54 54 57 57 57 73 73 73 89 89 89 105 105 105 105 105 105 90 90 90 75 75 75 60 60 60 61 61 61 78 78 78 96 96 96 114 114 114 122 122 122 118 118 118 114 114 114 109 109 109 107 107 107 107 107 107 107 107 107 107 107 107 109 109 109 114 114 114 118 118 118 123 123 123 129 129 129 136 136 136 143 143 143 151 151 151 156 156 156 156 156 156 155 155 155 155 155 155 157 157 157 169 169 169 180 180 180 191 191 191 202 202 202 207 207 207 212 212 212 217 217 217 222 222 222 222 222 222 222 222 222 223 223 223 223 223 223 222 222 222 222 222 222 221 221 221 221 221 221 192 192 192 163 163 163 134 134 134 104 104 104 89 89 89 75 75 75 60 60 60 45 45 45 82 82 82 124 124 124 166 166 166 208 208 208 215 215 215 216 216 216 218 218 218 219 219 219 214 214 214 207 207 207 201 201 201 194 194 194 184 184 184 173 173 173 162 162 162 151 151 151 122 122 122 86 86 86 49 49 49 13 13 13 1 1 1 1 1 1 0 0 0 0 0 0 0 0 0 0 0 0 0 0 0 0 0 0 0 0 0 0 0 0 0 0 0 0 0 0 14 14 14 41 41 41 69 69 69 96 96 96 124 124 124 154 154 154 183 183 183 213 213 213 227 227 227 221 221 221 215 215 215 209 209 209 201 201 201 190 190 190 179 179 179 168 168 168 155 155 155 139 139 139 123 123 123 107 107 107 92 92 92 79 79 79 66 66 66 53 53 53 41 41 41 34 34 34 27 27 27 20 20 20 17 17 17 32 32 32 47 47 47 62 62 62 77 77 77 92 92 92 107 107 107 123 123 123 138 138 138 157 157 157 176 176 176 194 194 194 213 213 213 223 223 223 233 233 233 244 244 244 254 254 254 
254 254 254 242 242 242 230 230 230 218 218 218 205 205 205 184 184 184 161 161 161 139 139 139 117 117 117 106 106 106 97 97 97 88 88 88 78 78 78 63 63 63 47 47 47 32 32 32 16 16 16 20 20 20 30 30 30 39 39 39 48 48 48 59 59 59 71 71 71 83 83 83 95 95 95 110 110 110 128 128 128 145 145 145 163 163 163 178 178 178 192 192 192 205 205 205 219 219 219 226 226 226 229 229 229 232 232 232 235 235 235 223 223 223 201 201 201 179 179 179 157 157 157 127 127 127 91 91 91 55 55 55 19 19 19 0 0 0 0 0 0 0 0 0 0 0 0 0 0 0 0 0 0 0 0 0 0 0 0 0 0 0 0 0 0 0 0 0 0 0 0 10 10 10 41 41 41 72 72 72 103 103 103 130 130 130 146 146 146 163 163 163 180 180 180 194 194 194 200 200 200 206 206 206 212 212 212 218 218 218 219 219 219 220 220 220 221 221 221 219 219 219 203 203 203 187 187 187 171 171 171 153 153 153 121 121 121 90 90 90 59 59 59 30 30 30 58 58 58 86 86 86 115 115 115 143 143 143 136 136 136 129 129 129 122 122 122 114 114 114 100 100 100 84 84 84 69 69 69 54 54 54 87 87 87 126 126 126 165 165 165 204 204 204 193 193 193 173 173 173 153 153 153 134 134 134 126 126 126 121 121 121 116 116 116 111 111 111 95 95 95 76 76 76 57 57 57 38 38 38 40 40 40 50 50 50 61 61 61 71 71 71 76 76 76 77 77 77 78 78 78 79 79 79 75 75 75 69 69 69 63 63 63 57 57 57 60 60 60 72 72 72 84 84 84 95 95 95 93 93 93 79 79 79 65 65 65 51 51 51 53 53 53 71 71 71 90 90 90 109 109 109 117 117 117 108 108 108 100 100 100 92 92 92 91 91 91 102 102 102 113 113 113 124 124 124 134 134 134 141 141 141 148 148 148 156 156 156 161 161 161 161 161 161 160 160 160 160 160 160 158 158 158 149 149 149 140 140 140 131 131 131 127 127 127 144 144 144 161 161 161 177 177 177 192 192 192 200 200 200 208 208 208 215 215 215 222 222 222 222 222 222 222 222 222 222 222 222 222 222 222 222 222 222 222 222 222 222 222 222 222 222 222 199 199 199 176 176 176 152 152 152 129 129 129 106 106 106 82 82 82 58 58 58 35 35 35 72 72 72 116 116 116 159 159 159 203 203 203 211 211 211 214 214 214 216 216 216 219 219 219 214 214 214 207 207 207 200 200 200 194 194 194 186 186 186 177 177 177 168 168 168 160 160 160 130 130 130 91 91 91 53 53 53 14 14 14 1 1 1 1 1 1 1 1 1 0 0 0 0 0 0 0 0 0 0 0 0 0 0 0 0 0 0 0 0 0 0 0 0 0 0 0 15 15 15 43 43 43 71 71 71 99 99 99 129 129 129 161 161 161 193 193 193 225 225 225 242 242 242 240 240 240 237 237 237 235 235 235 230 230 230 221 221 221 212 212 212 203 203 203 191 191 191 173 173 173 156 156 156 138 138 138 121 121 121 105 105 105 89 89 89 74 74 74 59 59 59 48 48 48 38 38 38 27 27 27 19 19 19 26 26 26 32 32 32 39 39 39 48 48 48 73 73 73 97 97 97 122 122 122 146 146 146 158 158 158 171 171 171 184 184 184 196 196 196 211 211 211 225 225 225 240 240 240 254 254 254 
254 254 254 239 239 239 224 224 224 208 208 208 193 193 193 175 175 175 156 156 156 138 138 138 119 119 119 104 104 104 88 88 88 73 73 73 58 58 58 47 47 47 37 37 37 27 27 27 18 18 18 26 26 26 40 40 40 53 53 53 66 66 66 80 80 80 93 93 93 107 107 107 121 121 121 138 138 138 155 155 155 173 173 173 191 191 191 206 206 206 219 219 219 233 233 233 247 247 247 252 252 252 253 253 253 253 253 253 254 254 254 240 240 240 216 216 216 191 191 191 167 167 167 135 135 135 97 97 97 59 59 59 20 20 20 0 0 0 0 0 0 0 0 0 0 0 0 0 0 0 0 0 0 0 0 0 0 0 0 0 0 0 0 0 0 0 0 0 0 0 0 11 11 11 44 44 44 77 77 77 110 110 110 138 138 138 152 152 152 167 167 167 181 181 181 193 193 193 200 200 200 206 206 206 212 212 212 217 217 217 218 218 218 219 219 219 220 220 220 218 218 218 198 198 198 177 177 177 157 157 157 136 136 136 109 109 109 81 81 81 54 54 54 30 30 30 65 65 65 100 100 100 134 134 134 169 169 169 153 153 153 137 137 137 120 120 120 104 104 104 85 85 85 66 66 66 47 47 47 29 29 29 68 68 68 113 113 113 158 158 158 203 203 203 193 193 193 174 174 174 156 156 156 137 137 137 129 129 129 124 124 124 118 118 118 113 113 113 96 96 96 76 76 76 56 56 56 35 35 35 38 38 38 51 51 51 64 64 64 76 76 76 77 77 77 72 72 72 67 67 67 62 62 62 61 61 61 62 62 62 62 62 62 63 63 63 67 67 67 73 73 73 80 80 80 86 86 86 82 82 82 69 69 69 56 56 56 43 43 43 46 46 46 66 66 66 85 85 85 105 105 105 112 112 112 103 103 103 94 94 94 85 85 85 87 87 87 105 105 105 123 123 123 141 141 141 156 156 156 165 165 165 174 174 174 183 183 183 187 187 187 182 182 182 176 176 176 170 170 170 162 162 162 145 145 145 127 127 127 110 110 110 100 100 100 122 122 122 143 143 143 164 164 164 183 183 183 192 192 192 200 200 200 209 209 209 217 217 217 216 216 216 215 215 215 215 215 215 214 214 214 216 216 216 217 217 217 219 219 219 220 220 220 203 203 203 186 186 186 169 169 169 152 152 152 121 121 121 90 90 90 58 58 58 27 27 27 64 64 64 108 108 108 153 153 153 197 197 197 206 206 206 210 210 210 214 214 214 218 218 218 213 213 213 207 207 207 200 200 200 194 194 194 187 187 187 180 180 180 174 174 174 167 167 167 137 137 137 96 96 96 56 56 56 16 16 16 2 2 2 2 2 2 1 1 1 0 0 0 0 0 0 0 0 0 0 0 0 0 0 0 0 0 0 0 0 0 0 0 0 0 0 0 15 15 15 45 45 45 74 74 74 103 103 103 134 134 134 168 168 168 201 201 201 235 235 235 254 254 254 254 254 254 254 254 254 254 254 254 251 251 251 245 245 245 238 238 238 231 231 231 221 221 221 203 203 203 185 185 185 167 167 167 149 149 149 132 132 132 115 115 115 98 98 98 81 81 81 67 67 67 53 53 53 39 39 39 28 28 28 27 27 27 26 26 26 25 25 25 28 28 28 59 59 59 89 89 89 119 119 119 147 147 147 157 157 157 166 166 166 175 175 175 185 185 185 202 202 202 219 219 219 237 237 237 254 254 254 
254 254 254 237 237 237 221 221 221 204 204 204 187 187 187 168 168 168 148 148 148 129 129 129 109 109 109 96 96 96 82 82 82 69 69 69 56 56 56 51 51 51 47 47 47 44 44 44 40 40 40 51 51 51 66 66 66 81 81 81 96 96 96 111 111 111 125 125 125 140 140 140 154 154 154 168 168 168 181 181 181 194 194 194 207 207 207 218 218 218 229 229 229 239 239 239 249 249 249 253 253 253 253 253 253 254 254 254 254 254 254 241 241 241 218 218 218 195 195 195 172 172 172 140 140 140 101 101 101 61 61 61 21 21 21 0 0 0 0 0 0 0 0 0 0 0 0 0 0 0 0 0 0 0 0 0 0 0 0 0 0 0 1 1 1 1 1 1 2 2 2 13 13 13 48 48 48 83 83 83 117 117 117 145 145 145 158 158 158 170 170 170 182 182 182 193 193 193 199 199 199 205 205 205 211 211 211 216 216 216 217 217 217 218 218 218 219 219 219 217 217 217 193 193 193 170 170 170 146 146 146 123 123 123 101 101 101 79 79 79 58 58 58 38 38 38 75 75 75 111 111 111 147 147 147 183 183 183 165 165 165 146 146 146 127 127 127 108 108 108 88 88 88 68 68 68 48 48 48 27 27 27 64 64 64 107 107 107 150 150 150 193 193 193 180 180 180 157 157 157 135 135 135 112 112 112 108 108 108 108 108 108 107 107 107 107 107 107 94 94 94 77 77 77 61 61 61 44 44 44 49 49 49 63 63 63 77 77 77 91 91 91 89 89 89 79 79 79 69 69 69 58 58 58 59 59 59 67 67 67 75 75 75 82 82 82 84 84 84 82 82 82 79 79 79 77 77 77 70 70 70 60 60 60 50 50 50 40 40 40 44 44 44 63 63 63 82 82 82 100 100 100 111 111 111 112 112 112 113 113 113 113 113 113 119 119 119 132 132 132 146 146 146 159 159 159 170 170 170 178 178 178 185 185 185 192 192 192 196 196 196 191 191 191 186 186 186 182 182 182 172 172 172 147 147 147 122 122 122 97 97 97 81 81 81 105 105 105 130 130 130 154 154 154 175 175 175 180 180 180 185 185 185 190 190 190 194 194 194 190 190 190 187 187 187 183 183 183 180 180 180 188 188 188 195 195 195 202 202 202 209 209 209 199 199 199 189 189 189 178 178 178 168 168 168 134 134 134 98 98 98 63 63 63 28 28 28 63 63 63 105 105 105 147 147 147 189 189 189 200 200 200 206 206 206 211 211 211 217 217 217 213 213 213 206 206 206 200 200 200 193 193 193 188 188 188 182 182 182 177 177 177 172 172 172 141 141 141 100 100 100 60 60 60 19 19 19 5 5 5 3 3 3 2 2 2 1 1 1 0 0 0 0 0 0 0 0 0 0 0 0 0 0 0 0 0 0 0 0 0 0 0 0 16 16 16 46 46 46 77 77 77 107 107 107 139 139 139 171 171 171 203 203 203 236 236 236 254 254 254 254 254 254 254 254 254 254 254 254 252 252 252 247 247 247 242 242 242 237 237 237 230 230 230 217 217 217 203 203 203 190 190 190 176 176 176 161 161 161 146 146 146 131 131 131 116 116 116 100 100 100 85 85 85 70 70 70 56 56 56 51 51 51 46 46 46 41 41 41 40 40 40 62 62 62 85 85 85 107 107 107 129 129 129 144 144 144 158 158 158 173 173 173 187 187 187 204 204 204 221 221 221 237 237 237 254 254 254 
254 254 254 236 236 236 218 218 218 200 200 200 182 182 182 161 161 161 141 141 141 120 120 120 99 99 99 87 87 87 76 76 76 65 65 65 54 54 54 55 55 55 57 57 57 60 60 60 63 63 63 76 76 76 93 93 93 110 110 110 126 126 126 142 142 142 157 157 157 172 172 172 187 187 187 198 198 198 207 207 207 215 215 215 224 224 224 231 231 231 238 238 238 244 244 244 251 251 251 254 254 254 254 254 254 254 254 254 254 254 254 242 242 242 221 221 221 199 199 199 178 178 178 146 146 146 104 104 104 63 63 63 22 22 22 0 0 0 0 0 0 0 0 0 0 0 0 0 0 0 0 0 0 0 0 0 0 0 0 0 0 0 1 1 1 2 2 2 3 3 3 15 15 15 52 52 52 88 88 88 124 124 124 153 153 153 163 163 163 173 173 173 184 184 184 193 193 193 199 199 199 205 205 205 211 211 211 216 216 216 217 217 217 218 218 218 218 218 218 216 216 216 189 189 189 162 162 162 136 136 136 110 110 110 94 94 94 77 77 77 61 61 61 47 47 47 85 85 85 122 122 122 160 160 160 198 198 198 176 176 176 155 155 155 134 134 134 112 112 112 91 91 91 69 69 69 48 48 48 26 26 26 61 61 61 102 102 102 142 142 142 183 183 183 166 166 166 140 140 140 114 114 114 88 88 88 87 87 87 91 91 91 96 96 96 101 101 101 92 92 92 79 79 79 66 66 66 52 52 52 60 60 60 75 75 75 91 91 91 106 106 106 101 101 101 85 85 85 70 70 70 54 54 54 57 57 57 72 72 72 87 87 87 101 101 101 101 101 101 90 90 90 79 79 79 68 68 68 59 59 59 52 52 52 44 44 44 37 37 37 42 42 42 60 60 60 78 78 78 96 96 96 111 111 111 121 121 121 131 131 131 141 141 141 151 151 151 159 159 159 168 168 168 177 177 177 184 184 184 190 190 190 196 196 196 201 201 201 204 204 204 201 201 201 197 197 197 193 193 193 183 183 183 150 150 150 117 117 117 84 84 84 62 62 62 89 89 89 116 116 116 144 144 144 167 167 167 168 168 168 169 169 169 170 170 170 171 171 171 164 164 164 158 158 158 152 152 152 147 147 147 160 160 160 172 172 172 185 185 185 198 198 198 195 195 195 191 191 191 188 188 188 184 184 184 147 147 147 107 107 107 68 68 68 28 28 28 61 61 61 101 101 101 142 142 142 182 182 182 194 194 194 201 201 201 209 209 209 216 216 216 212 212 212 206 206 206 199 199 199 193 193 193 188 188 188 184 184 184 180 180 180 176 176 176 146 146 146 105 105 105 63 63 63 22 22 22 7 7 7 5 5 5 3 3 3 1 1 1 0 0 0 0 0 0 0 0 0 0 0 0 0 0 0 0 0 0 0 0 0 0 0 0 17 17 17 48 48 48 80 80 80 112 112 112 143 143 143 175 175 175 206 206 206 237 237 237 255 255 255 255 255 255 255 255 255 255 255 255 253 253 253 250 250 250 247 247 247 244 244 244 239 239 239 230 230 230 222 222 222 213 213 213 203 203 203 190 190 190 177 177 177 164 164 164 151 151 151 134 134 134 117 117 117 100 100 100 84 84 84 75 75 75 66 66 66 57 57 57 51 51 51 66 66 66 81 81 81 95 95 95 111 111 111 131 131 131 151 151 151 171 171 171 190 190 190 206 206 206 222 222 222 238 238 238 254 254 254 
254 254 254 234 234 234 215 215 215 195 195 195 176 176 176 154 154 154 133 133 133 111 111 111 89 89 89 79 79 79 70 70 70 61 61 61 52 52 52 59 59 59 68 68 68 76 76 76 85 85 85 102 102 102 120 120 120 138 138 138 156 156 156 173 173 173 189 189 189 204 204 204 220 220 220 228 228 228 232 232 232 236 236 236 240 240 240 244 244 244 247 247 247 250 250 250 253 253 253 254 254 254 255 255 255 255 255 255 255 255 255 243 243 243 223 223 223 203 203 203 183 183 183 151 151 151 108 108 108 65 65 65 22 22 22 0 0 0 0 0 0 0 0 0 0 0 0 0 0 0 0 0 0 0 0 0 0 0 0 0 0 0 2 2 2 3 3 3 4 4 4 17 17 17 55 55 55 93 93 93 131 131 131 160 160 160 168 168 168 177 177 177 185 185 185 193 193 193 198 198 198 204 204 204 210 210 210 215 215 215 216 216 216 217 217 217 218 218 218 214 214 214 185 185 185 155 155 155 125 125 125 97 97 97 86 86 86 75 75 75 64 64 64 56 56 56 95 95 95 134 134 134 173 173 173 212 212 212 188 188 188 164 164 164 140 140 140 117 117 117 94 94 94 71 71 71 48 48 48 25 25 25 58 58 58 96 96 96 135 135 135 173 173 173 153 153 153 123 123 123 93 93 93 63 63 63 65 65 65 75 75 75 85 85 85 95 95 95 90 90 90 81 81 81 71 71 71 61 61 61 70 70 70 87 87 87 104 104 104 121 121 121 113 113 113 92 92 92 71 71 71 50 50 50 55 55 55 77 77 77 99 99 99 121 121 121 119 119 119 99 99 99 79 79 79 59 59 59 47 47 47 43 43 43 38 38 38 34 34 34 40 40 40 57 57 57 74 74 74 92 92 92 110 110 110 130 130 130 149 149 149 169 169 169 182 182 182 186 186 186 190 190 190 194 194 194 199 199 199 203 203 203 207 207 207 211 211 211 213 213 213 210 210 210 208 208 208 205 205 205 193 193 193 152 152 152 111 111 111 70 70 70 43 43 43 73 73 73 103 103 103 133 133 133 159 159 159 156 156 156 153 153 153 151 151 151 148 148 148 139 139 139 130 130 130 121 121 121 113 113 113 132 132 132 150 150 150 169 169 169 187 187 187 190 190 190 194 194 194 197 197 197 200 200 200 159 159 159 116 116 116 72 72 72 29 29 29 60 60 60 98 98 98 136 136 136 175 175 175 188 188 188 197 197 197 206 206 206 215 215 215 212 212 212 205 205 205 199 199 199 193 193 193 189 189 189 186 186 186 184 184 184 181 181 181 150 150 150 109 109 109 67 67 67 25 25 25 10 10 10 7 7 7 4 4 4 1 1 1 0 0 0 0 0 0 0 0 0 0 0 0 0 0 0 0 0 0 0 0 0 0 0 0 17 17 17 50 50 50 83 83 83 116 116 116 148 148 148 178 178 178 208 208 208 238 238 238 255 255 255 255 255 255 255 255 255 255 255 255 254 254 254 253 253 253 251 251 251 250 250 250 248 248 248 244 244 244 240 240 240 236 236 236 230 230 230 220 220 220 209 209 209 198 198 198 185 185 185 167 167 167 149 149 149 130 130 130 113 113 113 99 99 99 86 86 86 73 73 73 62 62 62 69 69 69 76 76 76 84 84 84 93 93 93 118 118 118 143 143 143 169 169 169 193 193 193 208 208 208 224 224 224 239 239 239 254 254 254 
254 254 254 234 234 234 214 214 214 194 194 194 175 175 175 152 152 152 130 130 130 107 107 107 85 85 85 77 77 77 70 70 70 64 64 64 57 57 57 68 68 68 82 82 82 96 96 96 110 110 110 128 128 128 146 146 146 165 165 165 184 184 184 200 200 200 216 216 216 232 232 232 248 248 248 252 252 252 253 253 253 253 253 253 254 254 254 254 254 254 254 254 254 255 255 255 255 255 255 255 255 255 255 255 255 255 255 255 255 255 255 244 244 244 226 226 226 207 207 207 189 189 189 157 157 157 112 112 112 68 68 68 23 23 23 0 0 0 0 0 0 0 0 0 0 0 0 0 0 0 0 0 0 0 0 0 0 0 0 1 1 1 2 2 2 4 4 4 6 6 6 20 20 20 59 59 59 98 98 98 137 137 137 167 167 167 173 173 173 180 180 180 186 186 186 192 192 192 198 198 198 204 204 204 209 209 209 214 214 214 215 215 215 216 216 216 217 217 217 213 213 213 181 181 181 148 148 148 115 115 115 85 85 85 80 80 80 74 74 74 69 69 69 66 66 66 105 105 105 144 144 144 184 184 184 223 223 223 197 197 197 172 172 172 147 147 147 121 121 121 97 97 97 73 73 73 48 48 48 24 24 24 55 55 55 92 92 92 128 128 128 165 165 165 142 142 142 109 109 109 76 76 76 43 43 43 48 48 48 62 62 62 77 77 77 91 91 91 89 89 89 82 82 82 75 75 75 68 68 68 79 79 79 97 97 97 116 116 116 134 134 134 123 123 123 98 98 98 72 72 72 47 47 47 54 54 54 83 83 83 111 111 111 139 139 139 137 137 137 111 111 111 85 85 85 59 59 59 46 46 46 43 43 43 41 41 41 39 39 39 45 45 45 61 61 61 77 77 77 93 93 93 114 114 114 139 139 139 165 165 165 191 191 191 206 206 206 205 205 205 204 204 204 202 202 202 203 203 203 207 207 207 212 212 212 216 216 216 219 219 219 217 217 217 215 215 215 213 213 213 200 200 200 153 153 153 106 106 106 59 59 59 27 27 27 60 60 60 92 92 92 124 124 124 151 151 151 144 144 144 138 138 138 131 131 131 124 124 124 114 114 114 104 104 104 94 94 94 85 85 85 108 108 108 131 131 131 154 154 154 177 177 177 186 186 186 195 195 195 205 205 205 214 214 214 170 170 170 123 123 123 77 77 77 30 30 30 59 59 59 96 96 96 132 132 132 169 169 169 183 183 183 193 193 193 203 203 203 214 214 214 211 211 211 205 205 205 199 199 199 192 192 192 190 190 190 188 188 188 186 186 186 185 185 185 154 154 154 112 112 112 71 71 71 29 29 29 12 12 12 9 9 9 5 5 5 1 1 1 0 0 0 0 0 0 0 0 0 0 0 0 0 0 0 0 0 0 0 0 0 0 0 0 18 18 18 53 53 53 87 87 87 122 122 122 153 153 153 182 182 182 210 210 210 239 239 239 255 255 255 255 255 255 255 255 255 255 255 255 255 255 255 255 255 255 255 255 255 255 255 255 255 255 255 255 255 255 255 255 255 255 255 255 253 253 253 244 244 244 235 235 235 226 226 226 215 215 215 197 197 197 178 178 178 159 159 159 141 141 141 125 125 125 109 109 109 92 92 92 79 79 79 79 79 79 80 80 80 81 81 81 85 85 85 113 113 113 142 142 142 170 170 170 198 198 198 212 212 212 226 226 226 240 240 240 254 254 254 
254 254 254 239 239 239 224 224 224 209 209 209 194 194 194 172 172 172 149 149 149 127 127 127 104 104 104 100 100 100 97 97 97 94 94 94 91 91 91 103 103 103 117 117 117 131 131 131 145 145 145 160 160 160 174 174 174 188 188 188 202 202 202 214 214 214 226 226 226 238 238 238 249 249 249 253 253 253 253 253 253 254 254 254 254 254 254 254 254 254 254 254 254 255 255 255 255 255 255 255 255 255 255 255 255 255 255 255 255 255 255 246 246 246 230 230 230 213 213 213 197 197 197 165 165 165 118 118 118 72 72 72 25 25 25 1 1 1 0 0 0 0 0 0 0 0 0 0 0 0 0 0 0 0 0 0 0 0 0 1 1 1 4 4 4 6 6 6 9 9 9 24 24 24 63 63 63 102 102 102 141 141 141 170 170 170 175 175 175 181 181 181 186 186 186 192 192 192 197 197 197 203 203 203 208 208 208 213 213 213 214 214 214 215 215 215 216 216 216 212 212 212 178 178 178 143 143 143 109 109 109 78 78 78 78 78 78 79 79 79 79 79 79 81 81 81 117 117 117 152 152 152 187 187 187 222 222 222 198 198 198 174 174 174 150 150 150 126 126 126 101 101 101 75 75 75 50 50 50 24 24 24 55 55 55 92 92 92 129 129 129 166 166 166 142 142 142 107 107 107 73 73 73 39 39 39 45 45 45 61 61 61 77 77 77 93 93 93 91 91 91 83 83 83 76 76 76 68 68 68 80 80 80 100 100 100 119 119 119 139 139 139 128 128 128 101 101 101 74 74 74 46 46 46 56 56 56 89 89 89 122 122 122 155 155 155 157 157 157 138 138 138 118 118 118 99 99 99 88 88 88 84 84 84 81 81 81 77 77 77 81 81 81 94 94 94 107 107 107 120 120 120 135 135 135 152 152 152 170 170 170 188 188 188 196 196 196 186 186 186 177 177 177 168 168 168 166 166 166 179 179 179 193 193 193 207 207 207 215 215 215 212 212 212 209 209 209 206 206 206 193 193 193 148 148 148 103 103 103 59 59 59 28 28 28 58 58 58 88 88 88 118 118 118 142 142 142 131 131 131 120 120 120 109 109 109 99 99 99 94 94 94 89 89 89 85 85 85 81 81 81 103 103 103 126 126 126 148 148 148 170 170 170 181 181 181 192 192 192 204 204 204 215 215 215 172 172 172 126 126 126 81 81 81 35 35 35 62 62 62 98 98 98 133 133 133 168 168 168 182 182 182 192 192 192 203 203 203 213 213 213 210 210 210 204 204 204 198 198 198 192 192 192 189 189 189 188 188 188 187 187 187 186 186 186 156 156 156 115 115 115 74 74 74 33 33 33 16 16 16 11 11 11 6 6 6 2 2 2 0 0 0 0 0 0 0 0 0 0 0 0 0 0 0 0 0 0 0 0 0 0 0 0 19 19 19 56 56 56 93 93 93 130 130 130 162 162 162 188 188 188 214 214 214 240 240 240 255 255 255 255 255 255 255 255 255 255 255 255 255 255 255 255 255 255 255 255 255 255 255 255 255 255 255 255 255 255 255 255 255 255 255 255 253 253 253 247 247 247 240 240 240 234 234 234 225 225 225 212 212 212 198 198 198 184 184 184 170 170 170 157 157 157 143 143 143 129 129 129 118 118 118 118 118 118 118 118 118 118 118 118 120 120 120 143 143 143 167 167 167 190 190 190 213 213 213 223 223 223 233 233 233 244 244 244 254 254 254 
254 254 254 244 244 244 233 233 233 223 223 223 213 213 213 191 191 191 169 169 169 146 146 146 124 124 124 122 122 122 123 123 123 124 124 124 125 125 125 137 137 137 152 152 152 166 166 166 181 181 181 191 191 191 201 201 201 210 210 210 220 220 220 228 228 228 236 236 236 243 243 243 251 251 251 253 253 253 253 253 253 254 254 254 254 254 254 254 254 254 254 254 254 255 255 255 255 255 255 255 255 255 255 255 255 255 255 255 255 255 255 247 247 247 233 233 233 219 219 219 206 206 206 173 173 173 125 125 125 76 76 76 27 27 27 1 1 1 1 1 1 0 0 0 0 0 0 0 0 0 0 0 0 0 0 0 0 0 0 1 1 1 5 5 5 9 9 9 13 13 13 28 28 28 67 67 67 106 106 106 144 144 144 173 173 173 178 178 178 182 182 182 187 187 187 191 191 191 197 197 197 202 202 202 207 207 207 212 212 212 213 213 213 215 215 215 216 216 216 212 212 212 175 175 175 139 139 139 103 103 103 70 70 70 77 77 77 83 83 83 90 90 90 97 97 97 128 128 128 159 159 159 189 189 189 220 220 220 198 198 198 176 176 176 153 153 153 131 131 131 104 104 104 78 78 78 51 51 51 24 24 24 55 55 55 93 93 93 130 130 130 167 167 167 142 142 142 106 106 106 70 70 70 35 35 35 42 42 42 60 60 60 78 78 78 95 95 95 93 93 93 85 85 85 76 76 76 68 68 68 81 81 81 102 102 102 123 123 123 144 144 144 132 132 132 104 104 104 75 75 75 46 46 46 58 58 58 96 96 96 133 133 133 170 170 170 178 178 178 165 165 165 152 152 152 138 138 138 130 130 130 125 125 125 120 120 120 116 116 116 118 118 118 127 127 127 136 136 136 146 146 146 155 155 155 166 166 166 176 176 176 186 186 186 186 186 186 168 168 168 151 151 151 133 133 133 129 129 129 152 152 152 174 174 174 197 197 197 212 212 212 207 207 207 203 203 203 198 198 198 185 185 185 143 143 143 101 101 101 58 58 58 29 29 29 57 57 57 85 85 85 112 112 112 133 133 133 118 118 118 103 103 103 88 88 88 74 74 74 74 74 74 75 75 75 75 75 75 77 77 77 98 98 98 120 120 120 142 142 142 163 163 163 177 177 177 190 190 190 203 203 203 216 216 216 174 174 174 129 129 129 84 84 84 40 40 40 66 66 66 100 100 100 134 134 134 168 168 168 181 181 181 191 191 191 202 202 202 212 212 212 209 209 209 203 203 203 197 197 197 191 191 191 189 189 189 188 188 188 187 187 187 186 186 186 157 157 157 117 117 117 77 77 77 37 37 37 19 19 19 14 14 14 8 8 8 2 2 2 0 0 0 0 0 0 0 0 0 0 0 0 0 0 0 0 0 0 0 0 0 0 0 0 21 21 21 60 60 60 99 99 99 138 138 138 170 170 170 194 194 194 218 218 218 241 241 241 255 255 255 255 255 255 255 255 255 255 255 255 255 255 255 255 255 255 255 255 255 255 255 255 255 255 255 255 255 255 255 255 255 255 255 255 254 254 254 249 249 249 245 245 245 241 241 241 235 235 235 226 226 226 217 217 217 208 208 208 199 199 199 188 188 188 177 177 177 166 166 166 157 157 157 156 156 156 155 155 155 154 154 154 155 155 155 173 173 173 191 191 191 210 210 210 227 227 227 234 234 234 241 241 241 247 247 247 254 254 254 
254 254 254 248 248 248 243 243 243 237 237 237 232 232 232 210 210 210 188 188 188 166 166 166 143 143 143 145 145 145 150 150 150 154 154 154 158 158 158 171 171 171 186 186 186 201 201 201 216 216 216 223 223 223 228 228 228 233 233 233 238 238 238 242 242 242 246 246 246 249 249 249 253 253 253 254 254 254 254 254 254 254 254 254 254 254 254 254 254 254 254 254 254 255 255 255 255 255 255 255 255 255 255 255 255 255 255 255 255 255 255 248 248 248 237 237 237 226 226 226 214 214 214 182 182 182 131 131 131 80 80 80 28 28 28 1 1 1 1 1 1 1 1 1 0 0 0 0 0 0 0 0 0 0 0 0 0 0 0 2 2 2 7 7 7 11 11 11 16 16 16 32 32 32 71 71 71 110 110 110 148 148 148 177 177 177 180 180 180 184 184 184 187 187 187 191 191 191 196 196 196 201 201 201 207 207 207 211 211 211 212 212 212 214 214 214 215 215 215 211 211 211 173 173 173 135 135 135 96 96 96 63 63 63 75 75 75 87 87 87 100 100 100 113 113 113 139 139 139 166 166 166 192 192 192 219 219 219 198 198 198 177 177 177 157 157 157 136 136 136 108 108 108 80 80 80 52 52 52 24 24 24 55 55 55 93 93 93 131 131 131 169 169 169 142 142 142 105 105 105 68 68 68 31 31 31 39 39 39 59 59 59 78 78 78 97 97 97 95 95 95 86 86 86 77 77 77 68 68 68 81 81 81 104 104 104 127 127 127 150 150 150 137 137 137 107 107 107 76 76 76 46 46 46 60 60 60 102 102 102 144 144 144 185 185 185 199 199 199 192 192 192 185 185 185 178 178 178 172 172 172 166 166 166 160 160 160 154 154 154 154 154 154 160 160 160 166 166 166 172 172 172 176 176 176 179 179 179 181 181 181 184 184 184 175 175 175 150 150 150 124 124 124 98 98 98 92 92 92 124 124 124 155 155 155 187 187 187 208 208 208 203 203 203 197 197 197 191 191 191 178 178 178 138 138 138 98 98 98 58 58 58 31 31 31 56 56 56 81 81 81 106 106 106 125 125 125 105 105 105 86 86 86 66 66 66 49 49 49 54 54 54 60 60 60 66 66 66 73 73 73 94 94 94 115 115 115 136 136 136 157 157 157 172 172 172 187 187 187 202 202 202 217 217 217 176 176 176 132 132 132 88 88 88 44 44 44 69 69 69 102 102 102 134 134 134 167 167 167 180 180 180 191 191 191 201 201 201 211 211 211 208 208 208 202 202 202 197 197 197 191 191 191 189 189 189 188 188 188 188 188 188 187 187 187 159 159 159 119 119 119 80 80 80 41 41 41 23 23 23 16 16 16 9 9 9 3 3 3 0 0 0 0 0 0 0 0 0 0 0 0 0 0 0 0 0 0 0 0 0 0 0 0 22 22 22 63 63 63 105 105 105 146 146 146 178 178 178 200 200 200 221 221 221 243 243 243 255 255 255 255 255 255 255 255 255 255 255 255 255 255 255 255 255 255 255 255 255 255 255 255 255 255 255 255 255 255 255 255 255 255 255 255 254 254 254 252 252 252 250 250 250 248 248 248 245 245 245 241 241 241 237 237 237 233 233 233 228 228 228 220 220 220 212 212 212 203 203 203 196 196 196 194 194 194 193 193 193 191 191 191 191 191 191 203 203 203 216 216 216 229 229 229 242 242 242 245 245 245 248 248 248 251 251 251 254 254 254 
254 254 254 253 253 253 251 251 251 250 250 250 248 248 248 228 228 228 206 206 206 185 185 185 163 163 163 168 168 168 175 175 175 182 182 182 189 189 189 203 203 203 217 217 217 232 232 232 246 246 246 250 250 250 251 251 251 253 253 253 254 254 254 254 254 254 254 254 254 254 254 254 254 254 254 254 254 254 254 254 254 254 254 254 254 254 254 254 254 254 254 254 254 255 255 255 255 255 255 255 255 255 255 255 255 255 255 255 255 255 255 250 250 250 241 241 241 231 231 231 222 222 222 190 190 190 137 137 137 84 84 84 30 30 30 2 2 2 2 2 2 1 1 1 0 0 0 0 0 0 0 0 0 0 0 0 0 0 0 2 2 2 8 8 8 14 14 14 20 20 20 36 36 36 75 75 75 113 113 113 152 152 152 180 180 180 182 182 182 185 185 185 187 187 187 190 190 190 195 195 195 201 201 201 206 206 206 210 210 210 212 212 212 213 213 213 215 215 215 210 210 210 170 170 170 130 130 130 91 91 91 56 56 56 74 74 74 92 92 92 109 109 109 127 127 127 150 150 150 173 173 173 195 195 195 218 218 218 198 198 198 179 179 179 160 160 160 140 140 140 111 111 111 82 82 82 53 53 53 24 24 24 56 56 56 94 94 94 132 132 132 170 170 170 142 142 142 104 104 104 66 66 66 27 27 27 37 37 37 58 58 58 80 80 80 101 101 101 99 99 99 90 90 90 80 80 80 71 71 71 85 85 85 109 109 109 132 132 132 156 156 156 143 143 143 112 112 112 80 80 80 49 49 49 65 65 65 110 110 110 154 154 154 199 199 199 217 217 217 215 215 215 213 213 213 212 212 212 208 208 208 201 201 201 194 194 194 188 188 188 185 185 185 188 188 188 190 190 190 192 192 192 191 191 191 188 188 188 184 184 184 180 180 180 166 166 166 134 134 134 102 102 102 70 70 70 62 62 62 101 101 101 139 139 139 178 178 178 203 203 203 196 196 196 188 188 188 181 181 181 166 166 166 130 130 130 93 93 93 56 56 56 31 31 31 54 54 54 77 77 77 100 100 100 116 116 116 93 93 93 70 70 70 47 47 47 27 27 27 37 37 37 48 48 48 58 58 58 69 69 69 90 90 90 111 111 111 132 132 132 153 153 153 169 169 169 186 186 186 202 202 202 218 218 218 178 178 178 134 134 134 91 91 91 48 48 48 72 72 72 103 103 103 135 135 135 166 166 166 180 180 180 190 190 190 200 200 200 210 210 210 207 207 207 202 202 202 196 196 196 190 190 190 189 189 189 189 189 189 188 188 188 188 188 188 160 160 160 122 122 122 83 83 83 44 44 44 26 26 26 18 18 18 11 11 11 3 3 3 0 0 0 0 0 0 0 0 0 0 0 0 0 0 0 0 0 0 0 0 0 0 0 0 23 23 23 67 67 67 111 111 111 155 155 155 187 187 187 206 206 206 225 225 225 244 244 244 255 255 255 255 255 255 255 255 255 255 255 255 255 255 255 255 255 255 255 255 255 255 255 255 255 255 255 255 255 255 255 255 255 255 255 255 255 255 255 255 255 255 254 254 254 254 254 254 254 254 254 254 254 254 254 254 254 254 254 254 253 253 253 247 247 247 242 242 242 236 236 236 231 231 231 228 228 228 226 226 226 223 223 223 222 222 222 230 230 230 238 238 238 246 246 246 254 254 254 254 254 254 254 254 254 254 254 254 254 254 254 
254 254 254 253 253 253 252 252 252 251 251 251 250 250 250 235 235 235 219 219 219 203 203 203 187 187 187 190 190 190 196 196 196 201 201 201 206 206 206 216 216 216 227 227 227 238 238 238 249 249 249 251 251 251 252 252 252 253 253 253 254 254 254 254 254 254 254 254 254 254 254 254 254 254 254 254 254 254 254 254 254 254 254 254 254 254 254 254 254 254 255 255 255 255 255 255 255 255 255 255 255 255 255 255 255 255 255 255 255 255 255 251 251 251 243 243 243 236 236 236 228 228 228 197 197 197 143 143 143 89 89 89 35 35 35 6 6 6 4 4 4 3 3 3 1 1 1 0 0 0 0 0 0 0 0 0 0 0 0 2 2 2 9 9 9 16 16 16 22 22 22 39 39 39 77 77 77 116 116 116 154 154 154 182 182 182 183 183 183 185 185 185 187 187 187 190 190 190 195 195 195 200 200 200 205 205 205 209 209 209 211 211 211 212 212 212 214 214 214 209 209 209 169 169 169 128 128 128 87 87 87 53 53 53 73 73 73 94 94 94 115 115 115 136 136 136 156 156 156 176 176 176 196 196 196 217 217 217 198 198 198 179 179 179 160 160 160 141 141 141 112 112 112 83 83 83 53 53 53 24 24 24 56 56 56 95 95 95 134 134 134 173 173 173 145 145 145 105 105 105 66 66 66 27 27 27 40 40 40 65 65 65 90 90 90 115 115 115 115 115 115 108 108 108 101 101 101 93 93 93 106 106 106 126 126 126 147 147 147 167 167 167 156 156 156 128 128 128 100 100 100 72 72 72 85 85 85 123 123 123 161 161 161 200 200 200 215 215 215 214 214 214 213 213 213 212 212 212 208 208 208 202 202 202 197 197 197 191 191 191 186 186 186 182 182 182 178 178 178 173 173 173 171 171 171 170 170 170 170 170 170 170 170 170 160 160 160 134 134 134 108 108 108 83 83 83 76 76 76 107 107 107 139 139 139 170 170 170 189 189 189 176 176 176 163 163 163 151 151 151 134 134 134 106 106 106 77 77 77 49 49 49 30 30 30 51 51 51 72 72 72 93 93 93 108 108 108 86 86 86 65 65 65 44 44 44 25 25 25 37 37 37 49 49 49 61 61 61 73 73 73 97 97 97 121 121 121 145 145 145 169 169 169 181 181 181 193 193 193 205 205 205 217 217 217 176 176 176 132 132 132 88 88 88 44 44 44 69 69 69 101 101 101 134 134 134 166 166 166 179 179 179 189 189 189 199 199 199 209 209 209 206 206 206 201 201 201 195 195 195 190 190 190 189 189 189 188 188 188 188 188 188 188 188 188 161 161 161 123 123 123 85 85 85 47 47 47 29 29 29 20 20 20 12 12 12 3 3 3 0 0 0 0 0 0 0 0 0 0 0 0 0 0 0 0 0 0 1 1 1 1 1 1 25 25 25 71 71 71 117 117 117 163 163 163 196 196 196 212 212 212 229 229 229 245 245 245 255 255 255 255 255 255 255 255 255 255 255 255 255 255 255 255 255 255 255 255 255 255 255 255 255 255 255 255 255 255 255 255 255 255 255 255 255 255 255 255 255 255 255 255 255 254 254 254 254 254 254 254 254 254 254 254 254 254 254 254 253 253 253 249 249 249 245 245 245 241 241 241 237 237 237 235 235 235 233 233 233 231 231 231 230 230 230 236 236 236 243 243 243 249 249 249 254 254 254 254 254 254 254 254 254 254 254 254 254 254 254 
255 255 255 254 254 254 253 253 253 252 252 252 252 252 252 242 242 242 231 231 231 221 221 221 210 210 210 213 213 213 216 216 216 219 219 219 223 223 223 230 230 230 237 237 237 244 244 244 251 251 251 253 253 253 253 253 253 254 254 254 254 254 254 255 255 255 255 255 255 255 255 255 255 255 255 255 255 255 255 255 255 255 255 255 255 255 255 255 255 255 255 255 255 255 255 255 255 255 255 255 255 255 255 255 255 255 255 255 255 255 255 252 252 252 246 246 246 240 240 240 235 235 235 203 203 203 148 148 148 94 94 94 39 39 39 9 9 9 7 7 7 4 4 4 1 1 1 0 0 0 0 0 0 0 0 0 0 0 0 3 3 3 10 10 10 17 17 17 25 25 25 42 42 42 80 80 80 118 118 118 156 156 156 183 183 183 185 185 185 186 186 186 187 187 187 190 190 190 194 194 194 199 199 199 204 204 204 208 208 208 210 210 210 211 211 211 213 213 213 208 208 208 167 167 167 126 126 126 84 84 84 49 49 49 73 73 73 97 97 97 120 120 120 144 144 144 162 162 162 180 180 180 197 197 197 215 215 215 197 197 197 179 179 179 160 160 160 142 142 142 113 113 113 83 83 83 54 54 54 24 24 24 57 57 57 96 96 96 136 136 136 175 175 175 147 147 147 107 107 107 67 67 67 27 27 27 43 43 43 71 71 71 100 100 100 129 129 129 132 132 132 126 126 126 121 121 121 116 116 116 127 127 127 144 144 144 162 162 162 179 179 179 168 168 168 144 144 144 119 119 119 94 94 94 105 105 105 137 137 137 169 169 169 201 201 201 214 214 214 213 213 213 212 212 212 211 211 211 208 208 208 204 204 204 199 199 199 194 194 194 186 186 186 176 176 176 165 165 165 155 155 155 150 150 150 153 153 153 156 156 156 160 160 160 154 154 154 134 134 134 115 115 115 95 95 95 90 90 90 114 114 114 138 138 138 163 163 163 175 175 175 157 157 157 138 138 138 120 120 120 102 102 102 81 81 81 61 61 61 41 41 41 28 28 28 47 47 47 66 66 66 86 86 86 99 99 99 80 80 80 60 60 60 41 41 41 24 24 24 37 37 37 50 50 50 63 63 63 76 76 76 103 103 103 130 130 130 157 157 157 184 184 184 192 192 192 200 200 200 208 208 208 216 216 216 174 174 174 130 130 130 85 85 85 41 41 41 66 66 66 99 99 99 132 132 132 165 165 165 178 178 178 188 188 188 198 198 198 207 207 207 205 205 205 200 200 200 195 195 195 190 190 190 188 188 188 188 188 188 188 188 188 188 188 188 161 161 161 124 124 124 87 87 87 50 50 50 31 31 31 22 22 22 13 13 13 4 4 4 0 0 0 0 0 0 0 0 0 0 0 0 0 0 0 1 1 1 1 1 1 2 2 2 27 27 27 76 76 76 124 124 124 172 172 172 204 204 204 219 219 219 233 233 233 247 247 247 255 255 255 255 255 255 255 255 255 255 255 255 255 255 255 255 255 255 255 255 255 255 255 255 255 255 255 255 255 255 255 255 255 255 255 255 255 255 255 255 255 255 255 255 255 255 255 255 255 255 255 255 255 255 255 255 255 255 255 255 254 254 254 251 251 251 248 248 248 246 246 246 243 243 243 242 242 242 241 241 241 240 240 240 239 239 239 243 243 243 247 247 247 251 251 251 255 255 255 255 255 255 255 255 255 255 255 255 255 255 255 
255 255 255 254 254 254 254 254 254 254 254 254 253 253 253 249 249 249 244 244 244 239 239 239 234 234 234 235 235 235 236 236 236 238 238 238 240 240 240 243 243 243 246 246 246 250 250 250 253 253 253 254 254 254 254 254 254 254 254 254 255 255 255 255 255 255 255 255 255 255 255 255 255 255 255 255 255 255 255 255 255 255 255 255 255 255 255 255 255 255 255 255 255 255 255 255 255 255 255 255 255 255 255 255 255 255 255 255 255 255 255 253 253 253 249 249 249 245 245 245 241 241 241 210 210 210 154 154 154 99 99 99 43 43 43 13 13 13 9 9 9 6 6 6 2 2 2 0 0 0 0 0 0 0 0 0 0 0 0 3 3 3 11 11 11 19 19 19 27 27 27 45 45 45 82 82 82 120 120 120 158 158 158 185 185 185 186 186 186 187 187 187 188 188 188 189 189 189 194 194 194 199 199 199 203 203 203 207 207 207 209 209 209 210 210 210 212 212 212 207 207 207 165 165 165 123 123 123 81 81 81 46 46 46 73 73 73 99 99 99 126 126 126 152 152 152 168 168 168 183 183 183 199 199 199 214 214 214 196 196 196 179 179 179 161 161 161 143 143 143 114 114 114 84 84 84 54 54 54 24 24 24 57 57 57 97 97 97 138 138 138 178 178 178 149 149 149 108 108 108 68 68 68 27 27 27 45 45 45 78 78 78 110 110 110 143 143 143 148 148 148 145 145 145 141 141 141 138 138 138 147 147 147 162 162 162 176 176 176 191 191 191 181 181 181 160 160 160 138 138 138 117 117 117 124 124 124 150 150 150 176 176 176 202 202 202 212 212 212 212 212 212 212 212 212 211 211 211 209 209 209 205 205 205 201 201 201 197 197 197 187 187 187 170 170 170 153 153 153 136 136 136 130 130 130 136 136 136 143 143 143 149 149 149 148 148 148 135 135 135 121 121 121 107 107 107 104 104 104 121 121 121 138 138 138 155 155 155 161 161 161 137 137 137 114 114 114 90 90 90 69 69 69 57 57 57 45 45 45 33 33 33 26 26 26 44 44 44 61 61 61 78 78 78 91 91 91 73 73 73 55 55 55 37 37 37 23 23 23 37 37 37 51 51 51 65 65 65 80 80 80 109 109 109 139 139 139 169 169 169 199 199 199 203 203 203 207 207 207 211 211 211 215 215 215 172 172 172 127 127 127 82 82 82 37 37 37 64 64 64 97 97 97 131 131 131 165 165 165 178 178 178 187 187 187 197 197 197 206 206 206 204 204 204 199 199 199 194 194 194 189 189 189 188 188 188 188 188 188 188 188 188 188 188 188 162 162 162 125 125 125 89 89 89 52 52 52 34 34 34 24 24 24 14 14 14 4 4 4 0 0 0 0 0 0 0 0 0 0 0 0 0 0 0 1 1 1 2 2 2 3 3 3 30 30 30 80 80 80 131 131 131 181 181 181 213 213 213 225 225 225 237 237 237 248 248 248 255 255 255 255 255 255 255 255 255 255 255 255 255 255 255 255 255 255 255 255 255 255 255 255 255 255 255 255 255 255 255 255 255 255 255 255 255 255 255 255 255 255 255 255 255 255 255 255 255 255 255 255 255 255 255 255 255 255 255 255 255 255 255 253 253 253 252 252 252 251 251 251 249 249 249 249 249 249 248 248 248 248 248 248 247 247 247 249 249 249 251 251 251 253 253 253 255 255 255 255 255 255 255 255 255 255 255 255 255 255 255 
255 255 255 255 255 255 255 255 255 255 255 255 255 255 255 255 255 255 255 255 255 255 255 255 255 255 255 255 255 255 255 255 255 255 255 255 255 255 255 255 255 255 255 255 255 255 255 255 255 255 255 255 255 255 255 255 255 255 255 255 255 255 255 255 255 255 255 255 255 255 255 255 255 255 255 255 255 255 255 255 255 255 255 255 255 255 255 255 255 255 255 255 255 255 255 255 255 255 255 255 255 255 255 255 255 255 255 255 255 255 255 254 254 254 251 251 251 249 249 249 246 246 246 216 216 216 160 160 160 104 104 104 48 48 48 17 17 17 12 12 12 7 7 7 3 3 3 0 0 0 0 0 0 0 0 0 0 0 0 3 3 3 12 12 12 21 21 21 29 29 29 48 48 48 85 85 85 122 122 122 159 159 159 186 186 186 187 187 187 187 187 187 188 188 188 189 189 189 193 193 193 198 198 198 202 202 202 206 206 206 208 208 208 209 209 209 211 211 211 206 206 206 163 163 163 121 121 121 79 79 79 43 43 43 72 72 72 102 102 102 131 131 131 159 159 159 173 173 173 186 186 186 200 200 200 213 213 213 196 196 196 178 178 178 161 161 161 144 144 144 114 114 114 84 84 84 54 54 54 24 24 24 58 58 58 99 99 99 140 140 140 180 180 180 151 151 151 110 110 110 68 68 68 27 27 27 48 48 48 84 84 84 120 120 120 156 156 156 163 163 163 161 161 161 160 160 160 158 158 158 166 166 166 177 177 177 189 189 189 201 201 201 193 193 193 174 174 174 156 156 156 138 138 138 143 143 143 163 163 163 183 183 183 203 203 203 211 211 211 211 211 211 211 211 211 211 211 211 209 209 209 205 205 205 201 201 201 197 197 197 185 185 185 162 162 162 140 140 140 118 118 118 110 110 110 120 120 120 130 130 130 139 139 139 142 142 142 134 134 134 125 125 125 117 117 117 114 114 114 125 125 125 136 136 136 146 146 146 146 146 146 119 119 119 91 91 91 63 63 63 41 41 41 36 36 36 31 31 31 26 26 26 25 25 25 41 41 41 56 56 56 72 72 72 83 83 83 67 67 67 51 51 51 35 35 35 22 22 22 37 37 37 53 53 53 68 68 68 84 84 84 115 115 115 147 147 147 179 179 179 211 211 211 212 212 212 212 212 212 213 213 213 213 213 213 170 170 170 125 125 125 79 79 79 34 34 34 61 61 61 96 96 96 130 130 130 165 165 165 177 177 177 187 187 187 196 196 196 205 205 205 203 203 203 198 198 198 194 194 194 189 189 189 188 188 188 188 188 188 188 188 188 188 188 188 162 162 162 127 127 127 91 91 91 55 55 55 36 36 36 25 25 25 15 15 15 4 4 4 0 0 0 0 0 0 0 0 0 0 0 0 1 1 1 2 2 2 3 3 3 4 4 4 32 32 32 85 85 85 138 138 138 190 190 190 222 222 222 231 231 231 241 241 241 250 250 250 255 255 255 255 255 255 255 255 255 255 255 255 255 255 255 255 255 255 255 255 255 255 255 255 255 255 255 255 255 255 255 255 255 255 255 255 255 255 255 255 255 255 255 255 255 255 255 255 255 255 255 255 255 255 255 255 255 255 255 255 255 255 255 255 255 255 255 255 255 255 255 255 255 255 255 255 255 255 255 255 255 255 255 255 255 255 255 255 255 255 255 255 255 255 255 255 255 255 255 255 255 255 255 255 255 255 255 255 255 255 255 
255 255 255 255 255 255 255 255 255 255 255 255 255 255 255 255 255 255 255 255 255 255 255 255 255 255 255 255 255 255 255 255 255 255 255 255 255 255 255 255 255 255 255 255 255 255 255 255 255 255 255 255 255 255 255 255 255 255 255 255 255 255 255 255 255 255 255 255 255 255 255 255 255 255 255 255 255 255 255 255 255 255 255 255 255 255 255 255 255 255 255 255 255 255 255 255 255 255 255 255 255 255 255 255 255 255 255 255 255 255 255 254 254 254 252 252 252 250 250 250 248 248 248 219 219 219 166 166 166 113 113 113 59 59 59 28 28 28 20 20 20 12 12 12 4 4 4 0 0 0 0 0 0 0 0 0 0 0 0 3 3 3 13 13 13 22 22 22 31 31 31 49 49 49 86 86 86 123 123 123 160 160 160 186 186 186 187 187 187 187 187 187 187 187 187 189 189 189 193 193 193 197 197 197 201 201 201 205 205 205 206 206 206 208 208 208 210 210 210 205 205 205 164 164 164 122 122 122 81 81 81 46 46 46 74 74 74 102 102 102 131 131 131 158 158 158 171 171 171 185 185 185 198 198 198 212 212 212 195 195 195 179 179 179 162 162 162 145 145 145 116 116 116 85 85 85 54 54 54 24 24 24 58 58 58 100 100 100 141 141 141 183 183 183 153 153 153 112 112 112 70 70 70 29 29 29 51 51 51 88 88 88 126 126 126 163 163 163 168 168 168 162 162 162 156 156 156 150 150 150 158 158 158 171 171 171 184 184 184 197 197 197 192 192 192 178 178 178 164 164 164 150 150 150 155 155 155 171 171 171 188 188 188 204 204 204 211 211 211 211 211 211 211 211 211 211 211 211 205 205 205 194 194 194 183 183 183 171 171 171 156 156 156 137 137 137 118 118 118 99 99 99 94 94 94 107 107 107 120 120 120 133 133 133 136 136 136 123 123 123 110 110 110 97 97 97 92 92 92 103 103 103 114 114 114 125 125 125 128 128 128 109 109 109 90 90 90 71 71 71 54 54 54 46 46 46 38 38 38 29 29 29 26 26 26 41 41 41 57 57 57 72 72 72 84 84 84 70 70 70 56 56 56 42 42 42 31 31 31 47 47 47 63 63 63 78 78 78 95 95 95 118 118 118 142 142 142 166 166 166 190 190 190 194 194 194 198 198 198 202 202 202 206 206 206 164 164 164 120 120 120 76 76 76 32 32 32 61 61 61 97 97 97 134 134 134 170 170 170 182 182 182 189 189 189 197 197 197 204 204 204 202 202 202 198 198 198 193 193 193 189 189 189 188 188 188 188 188 188 188 188 188 188 188 188 162 162 162 127 127 127 91 91 91 56 56 56 37 37 37 26 26 26 15 15 15 4 4 4 0 0 0 0 0 0 0 0 0 0 0 0 2 2 2 4 4 4 7 7 7 10 10 10 39 39 39 92 92 92 145 145 145 198 198 198 229 229 229 237 237 237 244 244 244 251 251 251 255 255 255 255 255 255 255 255 255 255 255 255 255 255 255 255 255 255 255 255 255 255 255 255 255 255 255 255 255 255 255 255 255 255 255 255 255 255 255 255 255 255 255 255 255 255 255 255 255 255 255 255 255 255 255 255 255 255 255 255 255 255 255 255 255 255 255 255 255 255 255 255 255 255 255 255 255 255 255 255 255 255 255 255 255 255 255 255 255 255 255 255 255 255 255 255 255 255 255 255 255 255 255 255 255 255 255 255 255 255 255 
255 255 255 255 255 255 255 255 255 255 255 255 255 255 255 255 255 255 255 255 255 255 255 255 255 255 255 255 255 255 255 255 255 255 255 255 255 255 255 255 255 255 255 255 255 255 255 255 255 255 255 255 255 255 255 255 255 255 255 255 255 255 255 255 255 255 255 255 255 255 255 255 255 255 255 255 255 255 255 255 255 255 255 255 255 255 255 255 255 255 255 255 255 255 255 255 255 255 255 255 255 255 255 255 255 255 255 255 255 255 255 254 254 254 253 253 253 252 252 252 250 250 250 223 223 223 172 172 172 121 121 121 71 71 71 39 39 39 28 28 28 17 17 17 6 6 6 0 0 0 0 0 0 0 0 0 0 0 0 4 4 4 13 13 13 23 23 23 32 32 32 51 51 51 87 87 87 124 124 124 160 160 160 187 187 187 187 187 187 187 187 187 187 187 187 188 188 188 192 192 192 196 196 196 200 200 200 204 204 204 205 205 205 207 207 207 209 209 209 204 204 204 164 164 164 123 123 123 83 83 83 49 49 49 76 76 76 103 103 103 130 130 130 157 157 157 170 170 170 184 184 184 197 197 197 211 211 211 195 195 195 179 179 179 163 163 163 147 147 147 117 117 117 86 86 86 55 55 55 24 24 24 59 59 59 101 101 101 143 143 143 185 185 185 155 155 155 114 114 114 72 72 72 30 30 30 54 54 54 93 93 93 132 132 132 171 171 171 172 172 172 162 162 162 152 152 152 142 142 142 150 150 150 164 164 164 179 179 179 193 193 193 192 192 192 182 182 182 172 172 172 162 162 162 167 167 167 179 179 179 192 192 192 205 205 205 211 211 211 211 211 211 211 211 211 211 211 211 202 202 202 183 183 183 164 164 164 146 146 146 128 128 128 112 112 112 96 96 96 80 80 80 78 78 78 95 95 95 111 111 111 127 127 127 130 130 130 113 113 113 95 95 95 77 77 77 69 69 69 80 80 80 92 92 92 104 104 104 109 109 109 99 99 99 88 88 88 78 78 78 67 67 67 56 56 56 44 44 44 32 32 32 26 26 26 42 42 42 57 57 57 73 73 73 84 84 84 73 73 73 61 61 61 49 49 49 40 40 40 57 57 57 73 73 73 89 89 89 106 106 106 121 121 121 137 137 137 153 153 153 169 169 169 177 177 177 184 184 184 192 192 192 199 199 199 159 159 159 115 115 115 72 72 72 29 29 29 60 60 60 99 99 99 137 137 137 175 175 175 186 186 186 192 192 192 197 197 197 203 203 203 201 201 201 197 197 197 193 193 193 188 188 188 187 187 187 187 187 187 187 187 187 187 187 187 162 162 162 127 127 127 92 92 92 56 56 56 37 37 37 26 26 26 15 15 15 4 4 4 0 0 0 0 0 0 0 0 0 0 0 0 3 3 3 7 7 7 12 12 12 16 16 16 46 46 46 100 100 100 153 153 153 206 206 206 237 237 237 242 242 242 247 247 247 252 252 252 255 255 255 255 255 255 255 255 255 255 255 255 255 255 255 255 255 255 255 255 255 255 255 255 255 255 255 255 255 255 255 255 255 255 255 255 255 255 255 255 255 255 255 255 255 255 255 255 255 255 255 255 255 255 255 255 255 255 255 255 255 255 255 255 255 255 255 255 255 255 255 255 255 255 255 255 255 255 255 255 255 255 255 255 255 255 255 255 255 255 255 255 255 255 255 255 255 255 255 255 255 255 255 255 255 255 255 255 255 255 255 
255 255 255 255 255 255 255 255 255 255 255 255 255 255 255 255 255 255 255 255 255 255 255 255 255 255 255 255 255 255 255 255 255 255 255 255 255 255 255 255 255 255 255 255 255 255 255 255 255 255 255 255 255 255 255 255 255 255 255 255 255 255 255 255 255 255 255 255 255 255 255 255 255 255 255 255 255 255 255 255 255 255 255 255 255 255 255 255 255 255 255 255 255 255 255 255 255 255 255 255 255 255 255 255 255 255 255 255 255 255 255 255 255 255 254 254 254 253 253 253 252 252 252 227 227 227 178 178 178 130 130 130 82 82 82 50 50 50 36 36 36 22 22 22 8 8 8 0 0 0 0 0 0 0 0 0 0 0 0 4 4 4 14 14 14 24 24 24 34 34 34 52 52 52 89 89 89 125 125 125 161 161 161 187 187 187 187 187 187 187 187 187 187 187 187 188 188 188 192 192 192 195 195 195 199 199 199 202 202 202 204 204 204 206 206 206 208 208 208 203 203 203 164 164 164 124 124 124 85 85 85 52 52 52 78 78 78 104 104 104 130 130 130 155 155 155 169 169 169 183 183 183 196 196 196 210 210 210 195 195 195 179 179 179 164 164 164 148 148 148 118 118 118 87 87 87 55 55 55 24 24 24 60 60 60 102 102 102 145 145 145 188 188 188 158 158 158 116 116 116 74 74 74 32 32 32 56 56 56 97 97 97 138 138 138 178 178 178 177 177 177 163 163 163 149 149 149 135 135 135 142 142 142 158 158 158 174 174 174 190 190 190 191 191 191 186 186 186 180 180 180 174 174 174 178 178 178 188 188 188 197 197 197 207 207 207 211 211 211 211 211 211 211 211 211 212 212 212 198 198 198 172 172 172 146 146 146 120 120 120 100 100 100 87 87 87 74 74 74 62 62 62 63 63 63 82 82 82 101 101 101 121 121 121 124 124 124 102 102 102 79 79 79 57 57 57 46 46 46 58 58 58 70 70 70 82 82 82 90 90 90 89 89 89 87 87 87 85 85 85 80 80 80 65 65 65 50 50 50 36 36 36 26 26 26 42 42 42 58 58 58 73 73 73 85 85 85 76 76 76 66 66 66 56 56 56 49 49 49 66 66 66 83 83 83 100 100 100 117 117 117 124 124 124 132 132 132 140 140 140 148 148 148 159 159 159 170 170 170 181 181 181 192 192 192 153 153 153 111 111 111 69 69 69 27 27 27 60 60 60 100 100 100 140 140 140 181 181 181 190 190 190 194 194 194 198 198 198 202 202 202 200 200 200 196 196 196 192 192 192 188 188 188 187 187 187 187 187 187 187 187 187 187 187 187 162 162 162 127 127 127 92 92 92 57 57 57 38 38 38 27 27 27 15 15 15 4 4 4 0 0 0 0 0 0 0 0 0 0 0 0 4 4 4 10 10 10 16 16 16 22 22 22 53 53 53 107 107 107 161 161 161 214 214 214 244 244 244 247 247 247 250 250 250 253 253 253 255 255 255 255 255 255 255 255 255 255 255 255 255 255 255 255 255 255 255 255 255 255 255 255 255 255 255 255 255 255 255 255 255 255 255 255 255 255 255 255 255 255 255 255 255 255 255 255 255 255 255 255 255 255 255 255 255 255 255 255 255 255 255 255 255 255 255 255 255 255 255 255 255 255 255 255 255 255 255 255 255 255 255 255 255 255 255 255 255 255 255 255 255 255 255 255 255 255 255 255 255 255 255 255 255 255 255 255 255 255 255 
255 255 255 255 255 255 255 255 255 255 255 255 255 255 255 255 255 255 255 255 255 255 255 255 255 255 255 255 255 255 255 255 255 255 255 255 255 255 255 255 255 255 255 255 255 255 255 255 255 255 255 255 255 255 255 255 255 255 255 255 255 255 255 255 255 255 255 255 255 255 255 255 255 255 255 255 255 255 255 255 255 255 255 255 255 255 255 255 255 255 255 255 255 255 255 255 255 255 255 255 255 255 255 255 255 255 255 255 255 255 255 255 255 255 255 255 255 254 254 254 254 254 254 230 230 230 184 184 184 139 139 139 93 93 93 61 61 61 44 44 44 27 27 27 10 10 10 0 0 0 0 0 0 0 0 0 0 0 0 4 4 4 14 14 14 25 25 25 35 35 35 54 54 54 90 90 90 126 126 126 161 161 161 187 187 187 187 187 187 187 187 187 187 187 187 188 188 188 191 191 191 195 195 195 198 198 198 201 201 201 203 203 203 205 205 205 206 206 206 202 202 202 164 164 164 126 126 126 87 87 87 55 55 55 79 79 79 104 104 104 129 129 129 153 153 153 167 167 167 181 181 181 195 195 195 209 209 209 194 194 194 179 179 179 165 165 165 150 150 150 119 119 119 87 87 87 56 56 56 24 24 24 60 60 60 103 103 103 147 147 147 190 190 190 160 160 160 118 118 118 77 77 77 35 35 35 61 61 61 102 102 102 144 144 144 185 185 185 181 181 181 163 163 163 145 145 145 127 127 127 134 134 134 151 151 151 168 168 168 185 185 185 190 190 190 188 188 188 186 186 186 184 184 184 187 187 187 194 194 194 200 200 200 207 207 207 210 210 210 210 210 210 210 210 210 211 211 211 193 193 193 161 161 161 128 128 128 95 95 95 73 73 73 63 63 63 54 54 54 44 44 44 49 49 49 71 71 71 93 93 93 116 116 116 119 119 119 92 92 92 65 65 65 38 38 38 24 24 24 37 37 37 49 49 49 62 62 62 73 73 73 79 79 79 86 86 86 92 92 92 93 93 93 75 75 75 57 57 57 39 39 39 27 27 27 43 43 43 58 58 58 74 74 74 86 86 86 79 79 79 71 71 71 63 63 63 58 58 58 75 75 75 92 92 92 110 110 110 126 126 126 127 127 127 127 127 127 128 128 128 129 129 129 143 143 143 157 157 157 171 171 171 185 185 185 147 147 147 106 106 106 66 66 66 25 25 25 60 60 60 102 102 102 144 144 144 186 186 186 194 194 194 197 197 197 199 199 199 201 201 201 199 199 199 195 195 195 192 192 192 188 188 188 187 187 187 187 187 187 187 187 187 187 187 187 162 162 162 127 127 127 92 92 92 58 58 58 38 38 38 27 27 27 16 16 16 4 4 4 0 0 0 0 0 0 0 0 0 0 0 0 5 5 5 13 13 13 21 21 21 29 29 29 61 61 61 115 115 115 168 168 168 222 222 222 251 251 251 252 252 252 253 253 253 254 254 254 255 255 255 255 255 255 255 255 255 255 255 255 255 255 255 255 255 255 255 255 255 255 255 255 255 255 255 255 255 255 255 255 255 255 255 255 255 255 255 255 255 255 255 255 255 255 255 255 255 255 255 255 255 255 255 255 255 255 255 255 255 255 255 255 255 255 255 255 255 255 255 255 255 255 255 255 255 255 255 255 255 255 255 255 255 255 255 255 255 255 255 255 255 255 255 255 255 255 255 255 255 255 255 255 255 255 255 255 255 255 255 
255 255 255 255 255 255 255 255 255 255 255 255 255 255 255 255 255 255 255 255 255 255 255 255 255 255 255 255 255 255 255 255 255 255 255 255 255 255 255 255 255 255 255 255 255 255 255 255 255 255 255 255 255 255 255 255 255 255 255 255 255 255 255 255 255 255 255 255 255 255 255 255 255 255 255 255 255 255 255 255 255 255 255 255 255 255 255 255 255 255 255 255 255 255 255 255 255 255 255 255 255 255 255 255 255 255 255 255 255 255 255 255 255 255 255 255 255 255 255 255 254 254 254 233 233 233 191 191 191 150 150 150 108 108 108 76 76 76 55 55 55 34 34 34 12 12 12 0 0 0 0 0 0 0 0 0 0 0 0 4 4 4 14 14 14 25 25 25 35 35 35 54 54 54 89 89 89 125 125 125 161 161 161 186 186 186 186 186 186 186 186 186 186 186 186 187 187 187 191 191 191 194 194 194 197 197 197 200 200 200 202 202 202 204 204 204 205 205 205 202 202 202 165 165 165 129 129 129 93 93 93 62 62 62 82 82 82 103 103 103 123 123 123 143 143 143 160 160 160 176 176 176 192 192 192 208 208 208 195 195 195 181 181 181 167 167 167 154 154 154 122 122 122 89 89 89 57 57 57 24 24 24 61 61 61 104 104 104 148 148 148 192 192 192 170 170 170 139 139 139 107 107 107 75 75 75 94 94 94 126 126 126 157 157 157 189 189 189 181 181 181 160 160 160 140 140 140 119 119 119 124 124 124 138 138 138 153 153 153 168 168 168 169 169 169 163 163 163 156 156 156 150 150 150 153 153 153 161 161 161 168 168 168 176 176 176 180 180 180 180 180 180 181 181 181 182 182 182 167 167 167 139 139 139 111 111 111 83 83 83 67 67 67 65 65 65 63 63 63 60 60 60 67 67 67 87 87 87 106 106 106 125 125 125 126 126 126 97 97 97 68 68 68 39 39 39 24 24 24 35 35 35 46 46 46 57 57 57 67 67 67 77 77 77 86 86 86 95 95 95 98 98 98 78 78 78 58 58 58 39 39 39 27 27 27 46 46 46 65 65 65 84 84 84 99 99 99 89 89 89 79 79 79 69 69 69 62 62 62 74 74 74 86 86 86 99 99 99 111 111 111 119 119 119 126 126 126 134 134 134 142 142 142 149 149 149 155 155 155 162 162 162 168 168 168 136 136 136 102 102 102 68 68 68 34 34 34 67 67 67 108 108 108 149 149 149 190 190 190 196 196 196 198 198 198 199 199 199 200 200 200 198 198 198 194 194 194 191 191 191 187 187 187 186 186 186 186 186 186 186 186 186 186 186 186 162 162 162 127 127 127 92 92 92 58 58 58 38 38 38 27 27 27 16 16 16 4 4 4 0 0 0 0 0 0 1 1 1 1 1 1 8 8 8 20 20 20 32 32 32 44 44 44 76 76 76 126 126 126 175 175 175 225 225 225 252 252 252 252 252 252 253 253 253 254 254 254 255 255 255 255 255 255 255 255 255 255 255 255 255 255 255 255 255 255 255 255 255 255 255 255 255 255 255 255 255 255 255 255 255 255 255 255 255 255 255 255 255 255 255 255 255 255 255 255 255 255 255 255 255 255 255 255 255 255 255 255 255 255 255 255 255 255 255 255 255 255 255 255 255 255 255 255 255 255 255 255 255 255 255 255 255 255 255 255 255 255 255 255 255 255 255 255 255 255 255 255 255 255 255 255 255 255 255 255 255 255 255 
255 255 255 255 255 255 255 255 255 255 255 255 255 255 255 255 255 255 255 255 255 255 255 255 255 255 255 255 255 255 255 255 255 255 255 255 255 255 255 255 255 255 255 255 255 255 255 255 255 255 255 255 255 255 255 255 255 255 255 255 255 255 255 255 255 255 255 255 255 255 255 255 255 255 255 255 255 255 255 255 255 255 255 255 255 255 255 255 255 255 255 255 255 255 255 255 255 255 255 255 255 255 255 255 255 255 255 255 255 255 255 255 255 255 255 255 255 255 255 255 255 255 255 235 235 235 198 198 198 161 161 161 124 124 124 92 92 92 66 66 66 41 41 41 15 15 15 0 0 0 0 0 0 0 0 0 0 0 0 4 4 4 14 14 14 24 24 24 35 35 35 53 53 53 89 89 89 125 125 125 160 160 160 186 186 186 186 186 186 186 186 186 186 186 186 187 187 187 190 190 190 193 193 193 196 196 196 199 199 199 201 201 201 203 203 203 204 204 204 201 201 201 167 167 167 132 132 132 98 98 98 69 69 69 85 85 85 101 101 101 117 117 117 134 134 134 152 152 152 171 171 171 189 189 189 208 208 208 195 195 195 183 183 183 170 170 170 158 158 158 125 125 125 91 91 91 58 58 58 24 24 24 61 61 61 105 105 105 149 149 149 193 193 193 181 181 181 159 159 159 137 137 137 115 115 115 128 128 128 149 149 149 171 171 171 192 192 192 180 180 180 157 157 157 134 134 134 111 111 111 114 114 114 126 126 126 138 138 138 150 150 150 148 148 148 137 137 137 127 127 127 117 117 117 118 118 118 127 127 127 136 136 136 145 145 145 150 150 150 151 151 151 152 152 152 153 153 153 141 141 141 118 118 118 94 94 94 71 71 71 61 61 61 66 66 66 71 71 71 76 76 76 86 86 86 102 102 102 119 119 119 135 135 135 133 133 133 102 102 102 71 71 71 41 41 41 23 23 23 33 33 33 42 42 42 52 52 52 62 62 62 74 74 74 86 86 86 98 98 98 103 103 103 81 81 81 60 60 60 39 39 39 26 26 26 49 49 49 71 71 71 94 94 94 111 111 111 99 99 99 87 87 87 75 75 75 65 65 65 73 73 73 80 80 80 88 88 88 95 95 95 110 110 110 125 125 125 140 140 140 155 155 155 154 154 154 153 153 153 153 153 153 152 152 152 125 125 125 97 97 97 70 70 70 42 42 42 75 75 75 114 114 114 154 154 154 193 193 193 199 199 199 199 199 199 199 199 199 199 199 199 197 197 197 193 193 193 190 190 190 187 187 187 186 186 186 186 186 186 186 186 186 186 186 186 161 161 161 127 127 127 92 92 92 58 58 58 38 38 38 27 27 27 16 16 16 4 4 4 0 0 0 1 1 1 1 1 1 2 2 2 11 11 11 27 27 27 44 44 44 60 60 60 91 91 91 137 137 137 183 183 183 228 228 228 252 252 252 253 253 253 254 254 254 255 255 255 255 255 255 255 255 255 255 255 255 255 255 255 255 255 255 255 255 255 255 255 255 255 255 255 255 255 255 255 255 255 255 255 255 255 255 255 255 255 255 255 255 255 255 255 255 255 255 255 255 255 255 255 255 255 255 255 255 255 255 255 255 255 255 255 255 255 255 255 255 255 255 255 255 255 255 255 255 255 255 255 255 255 255 255 255 255 255 255 255 255 255 255 255 255 255 255 255 255 255 255 255 255 255 255 255 255 255 255 255 255 255 
255 255 255 255 255 255 255 255 255 255 255 255 255 255 255 255 255 255 255 255 255 255 255 255 255 255 255 255 255 255 255 255 255 255 255 255 255 255 255 255 255 255 255 255 255 255 255 255 255 255 255 255 255 255 255 255 255 255 255 255 255 255 255 255 255 255 255 255 255 255 255 255 255 255 255 255 255 255 255 255 255 255 255 255 255 255 255 255 255 255 255 255 255 255 255 255 255 255 255 255 255 255 255 255 255 255 255 255 255 255 255 255 255 255 255 255 255 255 255 255 255 255 255 238 238 238 205 205 205 172 172 172 139 139 139 108 108 108 78 78 78 47 47 47 17 17 17 0 0 0 0 0 0 0 0 0 0 0 0 4 4 4 14 14 14 24 24 24 34 34 34 53 53 53 89 89 89 124 124 124 160 160 160 185 185 185 185 185 185 185 185 185 185 185 185 186 186 186 189 189 189 192 192 192 195 195 195 198 198 198 200 200 200 201 201 201 203 203 203 200 200 200 168 168 168 136 136 136 104 104 104 76 76 76 88 88 88 100 100 100 112 112 112 124 124 124 145 145 145 166 166 166 187 187 187 207 207 207 196 196 196 185 185 185 173 173 173 162 162 162 128 128 128 93 93 93 59 59 59 24 24 24 61 61 61 106 106 106 150 150 150 195 195 195 191 191 191 179 179 179 167 167 167 155 155 155 162 162 162 173 173 173 185 185 185 196 196 196 179 179 179 154 154 154 129 129 129 104 104 104 103 103 103 113 113 113 123 123 123 133 133 133 127 127 127 112 112 112 97 97 97 83 83 83 84 84 84 94 94 94 104 104 104 115 115 115 120 120 120 121 121 121 123 123 123 124 124 124 115 115 115 96 96 96 77 77 77 58 58 58 55 55 55 67 67 67 80 80 80 93 93 93 105 105 105 118 118 118 131 131 131 144 144 144 140 140 140 107 107 107 74 74 74 42 42 42 23 23 23 31 31 31 39 39 39 47 47 47 57 57 57 72 72 72 87 87 87 102 102 102 107 107 107 85 85 85 62 62 62 39 39 39 26 26 26 52 52 52 77 77 77 103 103 103 123 123 123 109 109 109 95 95 95 81 81 81 69 69 69 72 72 72 74 74 74 76 76 76 80 80 80 102 102 102 124 124 124 146 146 146 169 169 169 160 160 160 152 152 152 144 144 144 135 135 135 114 114 114 93 93 93 72 72 72 50 50 50 82 82 82 120 120 120 158 158 158 196 196 196 201 201 201 200 200 200 199 199 199 198 198 198 196 196 196 193 193 193 189 189 189 186 186 186 185 185 185 185 185 185 185 185 185 185 185 185 161 161 161 126 126 126 92 92 92 57 57 57 38 38 38 27 27 27 16 16 16 4 4 4 0 0 0 1 1 1 2 2 2 3 3 3 15 15 15 35 35 35 55 55 55 75 75 75 106 106 106 148 148 148 190 190 190 231 231 231 253 253 253 254 254 254 254 254 254 255 255 255 255 255 255 255 255 255 255 255 255 255 255 255 255 255 255 255 255 255 255 255 255 255 255 255 255 255 255 255 255 255 255 255 255 255 255 255 255 255 255 255 255 255 255 255 255 255 255 255 255 255 255 255 255 255 255 255 255 255 255 255 255 255 255 255 255 255 255 255 255 255 255 255 255 255 255 255 255 255 255 255 255 255 255 255 255 255 255 255 255 255 255 255 255 255 255 255 255 255 255 255 255 255 255 255 255 255 255 255 255 255 255 
255 255 255 255 255 255 255 255 255 255 255 255 255 255 255 255 255 255 255 255 255 255 255 255 255 255 255 255 255 255 255 255 255 255 255 255 255 255 255 255 255 255 255 255 255 255 255 255 255 255 255 255 255 255 255 255 255 255 255 255 255 255 255 255 255 255 255 255 255 255 255 255 255 255 255 255 255 255 255 255 255 255 255 255 255 255 255 255 255 255 255 255 255 255 255 255 255 255 255 255 255 255 255 255 255 255 255 255 255 255 255 255 255 255 255 255 255 255 255 255 255 255 255 240 240 240 212 212 212 183 183 183 155 155 155 124 124 124 89 89 89 54 54 54 20 20 20 0 0 0 0 0 0 0 0 0 0 0 0 4 4 4 14 14 14 24 24 24 34 34 34 53 53 53 88 88 88 124 124 124 160 160 160 185 185 185 185 185 185 185 185 185 185 185 185 186 186 186 188 188 188 191 191 191 194 194 194 196 196 196 198 198 198 200 200 200 202 202 202 200 200 200 170 170 170 139 139 139 109 109 109 83 83 83 90 90 90 98 98 98 106 106 106 114 114 114 137 137 137 161 161 161 184 184 184 207 207 207 197 197 197 186 186 186 176 176 176 165 165 165 131 131 131 96 96 96 60 60 60 24 24 24 62 62 62 107 107 107 152 152 152 197 197 197 201 201 201 199 199 199 197 197 197 194 194 194 195 195 195 197 197 197 198 198 198 200 200 200 179 179 179 151 151 151 124 124 124 96 96 96 93 93 93 101 101 101 108 108 108 116 116 116 105 105 105 87 87 87 68 68 68 49 49 49 49 49 49 61 61 61 72 72 72 84 84 84 90 90 90 92 92 92 93 93 93 95 95 95 89 89 89 75 75 75 60 60 60 46 46 46 49 49 49 69 69 69 89 89 89 109 109 109 124 124 124 134 134 134 144 144 144 154 154 154 147 147 147 112 112 112 78 78 78 43 43 43 22 22 22 29 29 29 36 36 36 42 42 42 52 52 52 70 70 70 87 87 87 105 105 105 112 112 112 88 88 88 64 64 64 40 40 40 26 26 26 55 55 55 84 84 84 113 113 113 136 136 136 120 120 120 104 104 104 88 88 88 73 73 73 70 70 70 68 68 68 65 65 65 64 64 64 94 94 94 123 123 123 153 153 153 182 182 182 166 166 166 150 150 150 135 135 135 119 119 119 104 104 104 89 89 89 74 74 74 58 58 58 90 90 90 127 127 127 163 163 163 200 200 200 203 203 203 201 201 201 199 199 199 197 197 197 195 195 195 192 192 192 189 189 189 186 186 186 185 185 185 185 185 185 185 185 185 185 185 185 160 160 160 126 126 126 92 92 92 57 57 57 38 38 38 27 27 27 16 16 16 4 4 4 1 1 1 2 2 2 3 3 3 4 4 4 18 18 18 42 42 42 66 66 66 90 90 90 122 122 122 159 159 159 197 197 197 234 234 234 254 254 254 254 254 254 255 255 255 255 255 255 255 255 255 255 255 255 255 255 255 255 255 255 255 255 255 255 255 255 255 255 255 255 255 255 255 255 255 255 255 255 255 255 255 255 255 255 255 255 255 255 255 255 255 255 255 255 255 255 255 255 255 255 255 255 255 255 255 255 255 255 255 255 255 255 255 255 255 255 255 255 255 255 255 255 255 255 255 255 255 255 255 255 255 255 255 255 255 255 255 255 255 255 255 255 255 255 255 255 255 255 255 255 255 255 255 255 255 255 255 255 255 
255 255 255 255 255 255 255 255 255 255 255 255 255 255 255 255 255 255 255 255 255 255 255 255 255 255 255 255 255 255 255 255 255 255 255 255 255 255 255 255 255 255 255 255 255 255 255 255 255 255 255 255 255 255 255 255 255 255 255 255 255 255 255 255 255 255 255 255 255 255 255 255 255 255 255 255 255 255 255 255 255 255 255 255 255 255 255 255 255 255 255 255 255 255 255 255 255 255 255 255 255 255 255 255 255 255 255 255 255 255 255 255 255 255 255 255 255 255 255 255 255 255 255 242 242 242 219 219 219 195 195 195 172 172 172 141 141 141 103 103 103 65 65 65 28 28 28 5 5 5 4 4 4 3 3 3 1 1 1 4 4 4 14 14 14 23 23 23 33 33 33 51 51 51 87 87 87 123 123 123 159 159 159 184 184 184 184 184 184 185 185 185 185 185 185 185 185 185 188 188 188 190 190 190 193 193 193 195 195 195 197 197 197 199 199 199 201 201 201 199 199 199 172 172 172 144 144 144 117 117 117 93 93 93 94 94 94 96 96 96 98 98 98 101 101 101 128 128 128 154 154 154 180 180 180 207 207 207 198 198 198 189 189 189 180 180 180 171 171 171 137 137 137 101 101 101 65 65 65 29 29 29 65 65 65 109 109 109 152 152 152 196 196 196 200 200 200 199 199 199 197 197 197 196 196 196 195 195 195 195 195 195 194 194 194 194 194 194 172 172 172 142 142 142 113 113 113 83 83 83 82 82 82 91 91 91 100 100 100 109 109 109 100 100 100 81 81 81 62 62 62 43 43 43 43 43 43 54 54 54 66 66 66 77 77 77 81 81 81 81 81 81 80 80 80 80 80 80 79 79 79 77 77 77 75 75 75 73 73 73 75 75 75 82 82 82 90 90 90 97 97 97 106 106 106 118 118 118 130 130 130 142 142 142 138 138 138 106 106 106 74 74 74 42 42 42 23 23 23 31 31 31 40 40 40 48 48 48 57 57 57 67 67 67 77 77 77 87 87 87 90 90 90 73 73 73 55 55 55 37 37 37 29 29 29 58 58 58 87 87 87 117 117 117 141 141 141 132 132 132 122 122 122 113 113 113 105 105 105 103 103 103 101 101 101 100 100 100 99 99 99 120 120 120 142 142 142 164 164 164 185 185 185 164 164 164 142 142 142 121 121 121 99 99 99 92 92 92 86 86 86 80 80 80 73 73 73 102 102 102 134 134 134 167 167 167 199 199 199 202 202 202 200 200 200 198 198 198 196 196 196 193 193 193 191 191 191 188 188 188 185 185 185 185 185 185 185 185 185 185 185 185 185 185 185 160 160 160 125 125 125 91 91 91 56 56 56 38 38 38 27 27 27 17 17 17 6 6 6 4 4 4 7 7 7 10 10 10 12 12 12 29 29 29 56 56 56 83 83 83 110 110 110 140 140 140 172 172 172 205 205 205 237 237 237 254 254 254 255 255 255 255 255 255 255 255 255 255 255 255 255 255 255 255 255 255 255 255 255 255 255 255 255 255 255 255 255 255 255 255 255 255 255 255 255 255 255 255 255 255 255 255 255 255 255 255 255 255 255 255 255 255 255 255 255 255 255 255 255 255 255 255 255 255 255 255 255 255 255 255 255 255 255 255 255 255 255 255 255 255 255 255 255 255 255 255 255 255 255 255 255 255 255 255 255 255 255 255 255 255 255 255 255 255 255 255 255 255 255 255 255 255 255 255 255 255 255 255 
255 255 255 255 255 255 255 255 255 255 255 255 255 255 255 255 255 255 255 255 255 255 255 255 255 255 255 255 255 255 255 255 255 255 255 255 255 255 255 255 255 255 255 255 255 255 255 255 255 255 255 255 255 255 255 255 255 255 255 255 255 255 255 255 255 255 255 255 255 255 255 255 255 255 255 255 255 255 255 255 255 255 255 255 255 255 255 255 255 255 255 255 255 255 255 255 255 255 255 255 255 255 255 255 255 255 255 255 255 255 255 255 255 255 255 255 255 255 255 255 255 255 255 245 245 245 226 226 226 207 207 207 188 188 188 159 159 159 118 118 118 77 77 77 35 35 35 11 11 11 8 8 8 5 5 5 3 3 3 4 4 4 13 13 13 22 22 22 31 31 31 49 49 49 85 85 85 121 121 121 158 158 158 184 184 184 184 184 184 184 184 184 184 184 184 185 185 185 187 187 187 189 189 189 192 192 192 194 194 194 196 196 196 198 198 198 200 200 200 198 198 198 174 174 174 149 149 149 125 125 125 102 102 102 99 99 99 95 95 95 91 91 91 89 89 89 118 118 118 147 147 147 177 177 177 206 206 206 199 199 199 191 191 191 184 184 184 177 177 177 142 142 142 106 106 106 70 70 70 34 34 34 68 68 68 110 110 110 152 152 152 195 195 195 200 200 200 199 199 199 198 198 198 197 197 197 195 195 195 193 193 193 191 191 191 189 189 189 164 164 164 133 133 133 102 102 102 71 71 71 70 70 70 81 81 81 92 92 92 103 103 103 94 94 94 75 75 75 56 56 56 37 37 37 37 37 37 48 48 48 59 59 59 70 70 70 73 73 73 70 70 70 67 67 67 65 65 65 69 69 69 79 79 79 89 89 89 99 99 99 102 102 102 96 96 96 91 91 91 86 86 86 89 89 89 103 103 103 117 117 117 131 131 131 129 129 129 99 99 99 70 70 70 40 40 40 24 24 24 34 34 34 43 43 43 53 53 53 61 61 61 64 64 64 66 66 66 69 69 69 68 68 68 57 57 57 46 46 46 35 35 35 32 32 32 62 62 62 91 91 91 121 121 121 146 146 146 143 143 143 141 141 141 139 139 139 137 137 137 136 136 136 135 135 135 134 134 134 133 133 133 147 147 147 161 161 161 175 175 175 188 188 188 161 161 161 134 134 134 107 107 107 80 80 80 81 81 81 83 83 83 86 86 86 88 88 88 114 114 114 142 142 142 170 170 170 198 198 198 200 200 200 198 198 198 196 196 196 194 194 194 192 192 192 190 190 190 187 187 187 185 185 185 185 185 185 185 185 185 185 185 185 185 185 185 160 160 160 125 125 125 90 90 90 55 55 55 37 37 37 27 27 27 18 18 18 8 8 8 7 7 7 12 12 12 17 17 17 21 21 21 40 40 40 70 70 70 99 99 99 129 129 129 157 157 157 185 185 185 213 213 213 240 240 240 255 255 255 255 255 255 255 255 255 255 255 255 255 255 255 255 255 255 255 255 255 255 255 255 255 255 255 255 255 255 255 255 255 255 255 255 255 255 255 255 255 255 255 255 255 255 255 255 255 255 255 255 255 255 255 255 255 255 255 255 255 255 255 255 255 255 255 255 255 255 255 255 255 255 255 255 255 255 255 255 255 255 255 255 255 255 255 255 255 255 255 255 255 255 255 255 255 255 255 255 255 255 255 255 255 255 255 255 255 255 255 255 255 255 255 255 255 255 255 255 255 255 255 
255 255 255 255 255 255 255 255 255 255 255 255 255 255 255 255 255 255 255 255 255 255 255 255 255 255 255 255 255 255 255 255 255 255 255 255 255 255 255 255 255 255 255 255 255 255 255 255 255 255 255 255 255 255 255 255 255 255 255 255 255 255 255 255 255 255 255 255 255 255 255 255 255 255 255 255 255 255 255 255 255 255 255 255 255 255 255 255 255 255 255 255 255 255 255 255 255 255 255 255 255 255 255 255 255 255 255 255 255 255 255 255 255 255 255 255 255 255 255 255 254 254 254 247 247 247 233 233 233 219 219 219 205 205 205 177 177 177 132 132 132 88 88 88 43 43 43 16 16 16 12 12 12 8 8 8 4 4 4 5 5 5 13 13 13 21 21 21 30 30 30 47 47 47 84 84 84 120 120 120 157 157 157 183 183 183 183 183 183 184 184 184 184 184 184 185 185 185 187 187 187 189 189 189 191 191 191 193 193 193 195 195 195 197 197 197 199 199 199 197 197 197 176 176 176 154 154 154 133 133 133 112 112 112 103 103 103 93 93 93 84 84 84 76 76 76 108 108 108 141 141 141 173 173 173 206 206 206 200 200 200 194 194 194 188 188 188 182 182 182 147 147 147 111 111 111 75 75 75 39 39 39 72 72 72 112 112 112 153 153 153 193 193 193 199 199 199 199 199 199 198 198 198 198 198 198 195 195 195 191 191 191 187 187 187 183 183 183 157 157 157 124 124 124 91 91 91 58 58 58 58 58 58 71 71 71 84 84 84 97 97 97 89 89 89 70 70 70 51 51 51 32 32 32 31 31 31 41 41 41 52 52 52 62 62 62 64 64 64 59 59 59 54 54 54 49 49 49 59 59 59 81 81 81 103 103 103 125 125 125 128 128 128 110 110 110 92 92 92 74 74 74 71 71 71 87 87 87 103 103 103 120 120 120 119 119 119 92 92 92 66 66 66 39 39 39 25 25 25 36 36 36 47 47 47 59 59 59 66 66 66 61 61 61 56 56 56 51 51 51 47 47 47 42 42 42 38 38 38 33 33 33 35 35 35 65 65 65 95 95 95 124 124 124 151 151 151 155 155 155 160 160 160 165 165 165 169 169 169 169 169 169 168 168 168 168 168 168 168 168 168 174 174 174 180 180 180 186 186 186 192 192 192 159 159 159 126 126 126 93 93 93 60 60 60 69 69 69 80 80 80 92 92 92 103 103 103 125 125 125 149 149 149 173 173 173 197 197 197 199 199 199 197 197 197 195 195 195 193 193 193 191 191 191 189 189 189 187 187 187 185 185 185 184 184 184 184 184 184 184 184 184 184 184 184 159 159 159 124 124 124 89 89 89 54 54 54 36 36 36 28 28 28 19 19 19 10 10 10 11 11 11 17 17 17 24 24 24 30 30 30 51 51 51 84 84 84 116 116 116 148 148 148 175 175 175 198 198 198 220 220 220 243 243 243 255 255 255 255 255 255 255 255 255 255 255 255 255 255 255 255 255 255 255 255 255 255 255 255 255 255 255 255 255 255 255 255 255 255 255 255 255 255 255 255 255 255 255 255 255 255 255 255 255 255 255 255 255 255 255 255 255 255 255 255 255 255 255 255 255 255 255 255 255 255 255 255 255 255 255 255 255 255 255 255 255 255 255 255 255 255 255 255 255 255 255 255 255 255 255 255 255 255 255 255 255 255 255 255 255 255 255 255 255 255 255 255 255 255 255 255 255 255 255 255 255 255 255 
255 255 255 255 255 255 255 255 255 255 255 255 255 255 255 255 255 255 255 255 255 255 255 255 255 255 255 255 255 255 255 255 255 255 255 255 255 255 255 255 255 255 255 255 255 255 255 255 255 255 255 255 255 255 255 255 255 255 255 255 255 255 255 255 255 255 255 255 255 255 255 255 255 255 255 255 255 255 255 255 255 255 255 255 255 255 255 255 255 255 255 255 255 255 255 255 255 255 255 255 255 255 255 255 255 255 255 255 255 255 255 255 255 255 255 255 255 254 254 254 254 254 254 249 249 249 240 240 240 231 231 231 222 222 222 194 194 194 147 147 147 99 99 99 51 51 51 21 21 21 16 16 16 11 11 11 5 5 5 5 5 5 13 13 13 20 20 20 28 28 28 45 45 45 82 82 82 119 119 119 156 156 156 182 182 182 183 183 183 183 183 183 184 184 184 184 184 184 186 186 186 188 188 188 190 190 190 191 191 191 193 193 193 195 195 195 197 197 197 196 196 196 178 178 178 159 159 159 140 140 140 122 122 122 107 107 107 91 91 91 76 76 76 63 63 63 99 99 99 134 134 134 170 170 170 205 205 205 201 201 201 196 196 196 192 192 192 188 188 188 153 153 153 116 116 116 80 80 80 43 43 43 75 75 75 114 114 114 153 153 153 192 192 192 198 198 198 198 198 198 199 199 199 199 199 199 194 194 194 189 189 189 183 183 183 178 178 178 150 150 150 115 115 115 80 80 80 46 46 46 46 46 46 61 61 61 76 76 76 91 91 91 83 83 83 64 64 64 45 45 45 26 26 26 25 25 25 35 35 35 45 45 45 55 55 55 55 55 55 48 48 48 41 41 41 34 34 34 49 49 49 83 83 83 117 117 117 152 152 152 155 155 155 124 124 124 93 93 93 62 62 62 53 53 53 71 71 71 90 90 90 108 108 108 110 110 110 86 86 86 62 62 62 37 37 37 25 25 25 38 38 38 51 51 51 64 64 64 70 70 70 58 58 58 46 46 46 33 33 33 25 25 25 27 27 27 29 29 29 31 31 31 39 39 39 68 68 68 98 98 98 128 128 128 155 155 155 167 167 167 179 179 179 191 191 191 201 201 201 202 202 202 202 202 202 202 202 202 202 202 202 200 200 200 199 199 199 197 197 197 195 195 195 156 156 156 118 118 118 79 79 79 41 41 41 58 58 58 78 78 78 98 98 98 117 117 117 137 137 137 157 157 157 177 177 177 196 196 196 197 197 197 195 195 195 193 193 193 191 191 191 190 190 190 188 188 188 186 186 186 184 184 184 184 184 184 184 184 184 184 184 184 184 184 184 159 159 159 123 123 123 88 88 88 53 53 53 36 36 36 28 28 28 20 20 20 12 12 12 14 14 14 22 22 22 31 31 31 39 39 39 63 63 63 97 97 97 132 132 132 167 167 167 193 193 193 211 211 211 228 228 228 246 246 246 255 255 255 255 255 255 255 255 255 255 255 255 255 255 255 255 255 255 255 255 255 255 255 255 255 255 255 255 255 255 255 255 255 255 255 255 255 255 255 255 255 255 255 255 255 255 255 255 255 255 255 255 255 255 255 255 255 255 255 255 255 255 255 255 255 255 255 255 255 255 255 255 255 255 255 255 255 255 255 255 255 255 255 255 255 255 255 255 255 255 255 255 255 255 255 255 255 255 255 255 255 255 255 255 255 255 255 255 255 255 255 255 255 255 255 255 255 255 255 255 255 255 255 
255 255 255 255 255 255 255 255 255 255 255 255 255 255 255 255 255 255 255 255 255 255 255 255 255 255 255 255 255 255 255 255 255 255 255 255 255 255 255 255 255 255 255 255 255 255 255 255 255 255 255 255 255 255 255 255 255 255 255 255 255 255 255 255 255 255 255 255 255 255 255 255 255 255 255 255 255 255 255 255 255 255 255 255 255 255 255 255 255 255 255 255 255 255 255 255 255 255 255 255 255 255 255 255 255 255 255 255 255 255 255 255 255 255 255 255 255 255 255 255 254 254 254 251 251 251 244 244 244 237 237 237 230 230 230 204 204 204 158 158 158 111 111 111 64 64 64 36 36 36 31 31 31 26 26 26 21 21 21 19 19 19 22 22 22 26 26 26 29 29 29 44 44 44 80 80 80 117 117 117 153 153 153 180 180 180 181 181 181 182 182 182 183 183 183 184 184 184 186 186 186 187 187 187 189 189 189 190 190 190 192 192 192 194 194 194 196 196 196 196 196 196 181 181 181 166 166 166 151 151 151 135 135 135 114 114 114 94 94 94 73 73 73 55 55 55 89 89 89 123 123 123 157 157 157 192 192 192 191 191 191 191 191 191 191 191 191 191 191 191 164 164 164 135 135 135 107 107 107 79 79 79 103 103 103 133 133 133 163 163 163 193 193 193 197 197 197 197 197 197 198 198 198 198 198 198 194 194 194 189 189 189 184 184 184 179 179 179 150 150 150 114 114 114 78 78 78 42 42 42 43 43 43 59 59 59 76 76 76 92 92 92 85 85 85 66 66 66 47 47 47 27 27 27 30 30 30 45 45 45 60 60 60 75 75 75 74 74 74 61 61 61 47 47 47 34 34 34 46 46 46 83 83 83 119 119 119 156 156 156 159 159 159 127 127 127 94 94 94 62 62 62 51 51 51 68 68 68 85 85 85 103 103 103 105 105 105 83 83 83 61 61 61 39 39 39 30 30 30 49 49 49 67 67 67 86 86 86 96 96 96 85 85 85 73 73 73 62 62 62 53 53 53 54 54 54 55 55 55 56 56 56 62 62 62 87 87 87 112 112 112 138 138 138 161 161 161 171 171 171 182 182 182 192 192 192 201 201 201 202 202 202 202 202 202 203 203 203 203 203 203 194 194 194 186 186 186 178 178 178 169 169 169 137 137 137 105 105 105 73 73 73 40 40 40 62 62 62 86 86 86 110 110 110 134 134 134 150 150 150 165 165 165 181 181 181 196 196 196 196 196 196 194 194 194 192 192 192 190 190 190 189 189 189 187 187 187 186 186 186 184 184 184 184 184 184 184 184 184 184 184 184 184 184 184 159 159 159 124 124 124 89 89 89 54 54 54 40 40 40 36 36 36 32 32 32 28 28 28 30 30 30 35 35 35 40 40 40 45 45 45 69 69 69 107 107 107 144 144 144 182 182 182 207 207 207 221 221 221 234 234 234 248 248 248 255 255 255 255 255 255 255 255 255 255 255 255 255 255 255 255 255 255 255 255 255 255 255 255 255 255 255 255 255 255 255 255 255 255 255 255 255 255 255 255 255 255 255 255 255 255 255 255 255 255 255 255 255 255 255 255 255 255 255 255 255 255 255 255 255 255 255 255 255 255 255 255 255 255 255 255 255 255 255 255 255 255 255 255 255 255 255 255 255 255 255 255 255 255 255 255 255 255 255 255 255 255 255 255 255 255 255 255 255 255 255 255 255 255 255 255 255 255 255 255 255 255 255 
255 255 255 255 255 255 255 255 255 255 255 255 255 255 255 255 255 255 255 255 255 255 255 255 255 255 255 255 255 255 255 255 255 255 255 255 255 255 255 255 255 255 255 255 255 255 255 255 255 255 255 255 255 255 255 255 255 255 255 255 255 255 255 255 255 255 255 255 255 255 255 255 255 255 255 255 255 255 255 255 255 255 255 255 255 255 255 255 255 255 255 255 255 255 255 255 255 255 255 255 255 255 255 255 255 255 255 255 255 255 255 255 255 255 255 255 255 255 255 255 255 255 255 252 252 252 247 247 247 242 242 242 237 237 237 213 213 213 168 168 168 123 123 123 78 78 78 50 50 50 46 46 46 41 41 41 37 37 37 34 34 34 33 33 33 32 32 32 31 31 31 43 43 43 79 79 79 115 115 115 151 151 151 177 177 177 179 179 179 181 181 181 182 182 182 184 184 184 185 185 185 187 187 187 188 188 188 189 189 189 191 191 191 193 193 193 195 195 195 195 195 195 184 184 184 172 172 172 161 161 161 148 148 148 122 122 122 96 96 96 70 70 70 47 47 47 79 79 79 112 112 112 145 145 145 178 178 178 181 181 181 185 185 185 189 189 189 193 193 193 175 175 175 155 155 155 136 136 136 116 116 116 133 133 133 153 153 153 173 173 173 193 193 193 196 196 196 196 196 196 196 196 196 197 197 197 193 193 193 189 189 189 185 185 185 180 180 180 151 151 151 113 113 113 76 76 76 38 38 38 40 40 40 58 58 58 76 76 76 93 93 93 87 87 87 68 68 68 49 49 49 30 30 30 35 35 35 56 56 56 76 76 76 97 97 97 94 94 94 74 74 74 54 54 54 34 34 34 44 44 44 82 82 82 121 121 121 159 159 159 163 163 163 129 129 129 95 95 95 61 61 61 49 49 49 65 65 65 82 82 82 98 98 98 100 100 100 81 81 81 61 61 61 41 41 41 36 36 36 60 60 60 84 84 84 108 108 108 123 123 123 113 113 113 103 103 103 92 92 92 85 85 85 84 84 84 83 83 83 83 83 83 86 86 86 106 106 106 127 127 127 147 147 147 166 166 166 174 174 174 183 183 183 192 192 192 200 200 200 200 200 200 201 201 201 201 201 201 201 201 201 187 187 187 172 172 172 157 157 157 142 142 142 117 117 117 92 92 92 66 66 66 41 41 41 66 66 66 95 95 95 123 123 123 151 151 151 163 163 163 174 174 174 184 184 184 195 195 195 195 195 195 193 193 193 191 191 191 189 189 189 188 188 188 187 187 187 185 185 185 184 184 184 183 183 183 183 183 183 183 183 183 183 183 183 159 159 159 124 124 124 90 90 90 56 56 56 44 44 44 45 45 45 45 45 45 45 45 45 46 46 46 48 48 48 50 50 50 52 52 52 76 76 76 116 116 116 156 156 156 196 196 196 220 220 220 230 230 230 240 240 240 249 249 249 255 255 255 255 255 255 255 255 255 255 255 255 255 255 255 255 255 255 255 255 255 255 255 255 255 255 255 255 255 255 255 255 255 255 255 255 255 255 255 255 255 255 255 255 255 255 255 255 255 255 255 255 255 255 255 255 255 255 255 255 255 255 255 255 255 255 255 255 255 255 255 255 255 255 255 255 255 255 255 255 255 255 255 255 255 255 255 255 255 255 255 255 255 255 255 255 255 255 255 255 255 255 255 255 255 255 255 255 255 255 255 255 255 255 255 255 255 255 255 255 255 255 255 
255 255 255 255 255 255 255 255 255 255 255 255 255 255 255 255 255 255 255 255 255 255 255 255 255 255 255 255 255 255 255 255 255 255 255 255 255 255 255 255 255 255 255 255 255 255 255 255 255 255 255 255 255 255 255 255 255 255 255 255 255 255 255 255 255 255 255 255 255 255 255 255 255 255 255 255 255 255 255 255 255 255 255 255 255 255 255 255 255 255 255 255 255 255 255 255 255 255 255 255 255 255 255 255 255 255 255 255 255 255 255 255 255 255 255 255 255 255 255 255 255 255 255 253 253 253 251 251 251 248 248 248 245 245 245 223 223 223 179 179 179 136 136 136 92 92 92 65 65 65 61 61 61 57 57 57 53 53 53 48 48 48 43 43 43 38 38 38 33 33 33 41 41 41 77 77 77 113 113 113 148 148 148 175 175 175 177 177 177 179 179 179 182 182 182 184 184 184 185 185 185 186 186 186 187 187 187 188 188 188 190 190 190 192 192 192 194 194 194 194 194 194 187 187 187 179 179 179 171 171 171 161 161 161 130 130 130 98 98 98 67 67 67 38 38 38 70 70 70 101 101 101 132 132 132 163 163 163 171 171 171 180 180 180 188 188 188 196 196 196 186 186 186 175 175 175 164 164 164 153 153 153 162 162 162 172 172 172 183 183 183 194 194 194 195 195 195 195 195 195 195 195 195 195 195 195 193 193 193 189 189 189 185 185 185 182 182 182 151 151 151 112 112 112 73 73 73 34 34 34 37 37 37 56 56 56 75 75 75 95 95 95 88 88 88 70 70 70 51 51 51 32 32 32 41 41 41 67 67 67 93 93 93 119 119 119 114 114 114 88 88 88 61 61 61 34 34 34 42 42 42 82 82 82 122 122 122 162 162 162 166 166 166 131 131 131 96 96 96 61 61 61 48 48 48 63 63 63 78 78 78 93 93 93 96 96 96 78 78 78 60 60 60 43 43 43 41 41 41 71 71 71 101 101 101 131 131 131 150 150 150 141 141 141 132 132 132 123 123 123 116 116 116 114 114 114 111 111 111 109 109 109 110 110 110 126 126 126 141 141 141 157 157 157 171 171 171 178 178 178 185 185 185 192 192 192 198 198 198 199 199 199 200 200 200 200 200 200 200 200 200 179 179 179 158 158 158 137 137 137 115 115 115 97 97 97 78 78 78 60 60 60 41 41 41 71 71 71 103 103 103 136 136 136 168 168 168 176 176 176 182 182 182 188 188 188 194 194 194 194 194 194 192 192 192 190 190 190 188 188 188 187 187 187 186 186 186 185 185 185 184 184 184 183 183 183 183 183 183 183 183 183 183 183 183 158 158 158 125 125 125 91 91 91 57 57 57 49 49 49 53 53 53 57 57 57 61 61 61 62 62 62 61 61 61 59 59 59 58 58 58 82 82 82 125 125 125 168 168 168 211 211 211 234 234 234 240 240 240 245 245 245 251 251 251 254 254 254 255 255 255 255 255 255 255 255 255 255 255 255 255 255 255 255 255 255 255 255 255 255 255 255 255 255 255 255 255 255 255 255 255 255 255 255 255 255 255 255 255 255 255 255 255 255 255 255 255 255 255 255 255 255 255 255 255 255 255 255 255 255 255 255 255 255 255 255 255 255 255 255 255 255 255 255 255 255 255 255 255 255 255 255 255 255 255 255 255 255 255 255 255 255 255 255 255 255 255 255 255 255 255 255 255 255 255 255 255 255 255 255 255 255 255 255 255 255 255 255 
255 255 255 255 255 255 255 255 255 255 255 255 255 255 255 255 255 255 255 255 255 255 255 255 255 255 255 255 255 255 255 255 255 255 255 255 255 255 255 255 255 255 255 255 255 255 255 255 255 255 255 255 255 255 255 255 255 255 255 255 255 255 255 255 255 255 255 255 255 255 255 255 255 255 255 255 255 255 255 255 255 255 255 255 255 255 255 255 255 255 255 255 255 255 255 255 255 255 255 255 255 255 255 255 255 255 255 255 255 255 255 255 255 255 255 255 255 255 255 255 255 255 255 255 255 255 254 254 254 253 253 253 253 253 253 232 232 232 190 190 190 148 148 148 106 106 106 80 80 80 76 76 76 73 73 73 69 69 69 63 63 63 53 53 53 44 44 44 34 34 34 40 40 40 75 75 75 111 111 111 146 146 146 172 172 172 175 175 175 178 178 178 181 181 181 183 183 183 184 184 184 185 185 185 186 186 186 187 187 187 189 189 189 191 191 191 193 193 193 194 194 194 189 189 189 185 185 185 181 181 181 174 174 174 137 137 137 101 101 101 64 64 64 30 30 30 60 60 60 90 90 90 120 120 120 149 149 149 162 162 162 174 174 174 186 186 186 198 198 198 197 197 197 195 195 195 193 193 193 191 191 191 191 191 191 192 192 192 193 193 193 194 194 194 194 194 194 194 194 194 194 194 194 194 194 194 192 192 192 189 189 189 186 186 186 183 183 183 152 152 152 112 112 112 71 71 71 31 31 31 34 34 34 55 55 55 75 75 75 96 96 96 90 90 90 72 72 72 53 53 53 34 34 34 46 46 46 78 78 78 109 109 109 140 140 140 135 135 135 101 101 101 68 68 68 34 34 34 40 40 40 82 82 82 123 123 123 165 165 165 169 169 169 133 133 133 97 97 97 61 61 61 46 46 46 60 60 60 74 74 74 88 88 88 91 91 91 75 75 75 60 60 60 45 45 45 47 47 47 82 82 82 118 118 118 153 153 153 176 176 176 169 169 169 161 161 161 154 154 154 147 147 147 143 143 143 139 139 139 136 136 136 135 135 135 145 145 145 156 156 156 166 166 166 176 176 176 181 181 181 186 186 186 192 192 192 196 196 196 197 197 197 198 198 198 199 199 199 199 199 199 171 171 171 144 144 144 116 116 116 89 89 89 77 77 77 65 65 65 53 53 53 41 41 41 76 76 76 112 112 112 148 148 148 185 185 185 190 190 190 191 191 191 192 192 192 194 194 194 193 193 193 191 191 191 189 189 189 187 187 187 186 186 186 185 185 185 184 184 184 183 183 183 183 183 183 183 183 183 182 182 182 182 182 182 158 158 158 125 125 125 92 92 92 59 59 59 53 53 53 62 62 62 70 70 70 78 78 78 78 78 78 74 74 74 69 69 69 65 65 65 89 89 89 134 134 134 179 179 179 225 225 225 247 247 247 249 249 249 251 251 251 253 253 253 254 254 254 254 254 254 255 255 255 255 255 255 255 255 255 255 255 255 255 255 255 255 255 255 255 255 255 255 255 255 255 255 255 255 255 255 255 255 255 255 255 255 255 255 255 255 255 255 255 255 255 255 255 255 255 255 255 255 255 255 255 255 255 255 255 255 255 255 255 255 255 255 255 255 255 255 255 255 255 255 255 255 255 255 255 255 255 255 255 255 255 255 255 255 255 255 255 255 255 255 255 255 255 255 255 255 255 255 255 255 255 255 255 255 255 255 255 255 255 255 255 255 255 
255 255 255 255 255 255 255 255 255 255 255 255 255 255 255 255 255 255 255 255 255 255 255 255 255 255 255 255 255 255 255 255 255 255 255 255 255 255 255 255 255 255 255 255 255 255 255 255 255 255 255 255 255 255 255 255 255 255 255 255 255 255 255 255 255 255 255 255 255 255 255 255 255 255 255 255 255 255 255 255 255 255 255 255 255 255 255 255 255 255 255 255 255 255 255 255 255 255 255 255 255 255 255 255 255 255 255 255 255 255 255 255 255 255 255 255 255 255 255 255 255 255 255 255 255 255 254 254 254 254 254 254 253 253 253 236 236 236 199 199 199 163 163 163 126 126 126 101 101 101 92 92 92 83 83 83 74 74 74 66 66 66 60 60 60 54 54 54 48 48 48 54 54 54 85 85 85 116 116 116 147 147 147 170 170 170 173 173 173 177 177 177 180 180 180 183 183 183 184 184 184 184 184 184 185 185 185 186 186 186 188 188 188 190 190 190 191 191 191 192 192 192 190 190 190 187 187 187 184 184 184 179 179 179 144 144 144 109 109 109 74 74 74 42 42 42 63 63 63 84 84 84 104 104 104 125 125 125 142 142 142 159 159 159 176 176 176 193 193 193 194 194 194 194 194 194 194 194 194 194 194 194 193 193 193 193 193 193 193 193 193 193 193 193 193 193 193 193 193 193 193 193 193 193 193 193 191 191 191 188 188 188 186 186 186 184 184 184 152 152 152 112 112 112 71 71 71 30 30 30 34 34 34 56 56 56 78 78 78 99 99 99 94 94 94 74 74 74 55 55 55 36 36 36 49 49 49 82 82 82 115 115 115 148 148 148 142 142 142 106 106 106 71 71 71 35 35 35 37 37 37 74 74 74 112 112 112 149 149 149 153 153 153 121 121 121 90 90 90 58 58 58 48 48 48 66 66 66 85 85 85 104 104 104 111 111 111 100 100 100 89 89 89 78 78 78 80 80 80 108 108 108 136 136 136 164 164 164 182 182 182 176 176 176 170 170 170 164 164 164 159 159 159 156 156 156 153 153 153 150 150 150 149 149 149 157 157 157 165 165 165 173 173 173 180 180 180 184 184 184 188 188 188 192 192 192 195 195 195 191 191 191 187 187 187 183 183 183 178 178 178 152 152 152 125 125 125 99 99 99 73 73 73 71 71 71 68 68 68 66 66 66 63 63 63 93 93 93 125 125 125 156 156 156 187 187 187 191 191 191 191 191 191 192 192 192 192 192 192 191 191 191 189 189 189 188 188 188 186 186 186 185 185 185 184 184 184 184 184 184 183 183 183 182 182 182 182 182 182 181 181 181 181 181 181 160 160 160 130 130 130 101 101 101 71 71 71 65 65 65 70 70 70 76 76 76 81 81 81 83 83 83 83 83 83 82 82 82 82 82 82 105 105 105 147 147 147 188 188 188 230 230 230 250 250 250 251 251 251 252 252 252 253 253 253 254 254 254 254 254 254 255 255 255 255 255 255 255 255 255 255 255 255 255 255 255 255 255 255 255 255 255 255 255 255 255 255 255 255 255 255 255 255 255 255 255 255 255 255 255 255 255 255 255 255 255 255 255 255 255 255 255 255 255 255 255 255 255 255 255 255 255 255 255 255 255 255 255 255 255 255 255 255 255 255 255 255 255 255 255 255 255 255 255 255 255 255 255 255 255 255 255 255 255 255 255 255 255 255 255 255 255 255 255 255 255 255 255 255 255 255 255 255 255 255 255 255 255 
255 255 255 255 255 255 255 255 255 255 255 255 255 255 255 255 255 255 255 255 255 255 255 255 255 255 255 255 255 255 255 255 255 255 255 255 255 255 255 255 255 255 255 255 255 255 255 255 255 255 255 255 255 255 255 255 255 255 255 255 255 255 255 255 255 255 255 255 255 255 255 255 255 255 255 255 255 255 255 255 255 255 255 255 255 255 255 255 255 255 255 255 255 255 255 255 255 255 255 255 255 255 255 255 255 255 255 255 255 255 255 255 255 255 255 255 255 255 255 255 255 255 255 254 254 254 254 254 254 254 254 254 254 254 254 239 239 239 208 208 208 178 178 178 147 147 147 124 124 124 108 108 108 93 93 93 78 78 78 68 68 68 66 66 66 64 64 64 62 62 62 69 69 69 96 96 96 122 122 122 148 148 148 168 168 168 172 172 172 176 176 176 179 179 179 182 182 182 183 183 183 183 183 183 184 184 184 185 185 185 187 187 187 188 188 188 190 190 190 191 191 191 190 190 190 188 188 188 187 187 187 183 183 183 150 150 150 118 118 118 86 86 86 56 56 56 67 67 67 78 78 78 89 89 89 100 100 100 122 122 122 144 144 144 166 166 166 188 188 188 190 190 190 191 191 191 192 192 192 193 193 193 193 193 193 192 192 192 192 192 192 191 191 191 191 191 191 191 191 191 192 192 192 192 192 192 190 190 190 188 188 188 186 186 186 184 184 184 152 152 152 111 111 111 71 71 71 30 30 30 35 35 35 57 57 57 80 80 80 103 103 103 97 97 97 77 77 77 58 58 58 38 38 38 51 51 51 86 86 86 120 120 120 154 154 154 147 147 147 110 110 110 73 73 73 36 36 36 35 35 35 67 67 67 98 98 98 130 130 130 134 134 134 108 108 108 81 81 81 55 55 55 50 50 50 74 74 74 98 98 98 122 122 122 134 134 134 128 128 128 121 121 121 114 114 114 116 116 116 135 135 135 154 154 154 173 173 173 185 185 185 181 181 181 177 177 177 173 173 173 169 169 169 167 167 167 165 165 165 163 163 163 162 162 162 168 168 168 174 174 174 179 179 179 184 184 184 187 187 187 190 190 190 193 193 193 195 195 195 185 185 185 175 175 175 165 165 165 155 155 155 131 131 131 107 107 107 83 83 83 59 59 59 66 66 66 73 73 73 80 80 80 88 88 88 112 112 112 137 137 137 163 163 163 188 188 188 191 191 191 191 191 191 191 191 191 191 191 191 189 189 189 188 188 188 186 186 186 185 185 185 184 184 184 183 183 183 183 183 183 182 182 182 182 182 182 181 181 181 180 180 180 180 180 180 161 161 161 136 136 136 110 110 110 85 85 85 77 77 77 79 79 79 81 81 81 82 82 82 86 86 86 91 91 91 96 96 96 100 100 100 123 123 123 160 160 160 197 197 197 233 233 233 251 251 251 252 252 252 253 253 253 254 254 254 254 254 254 254 254 254 255 255 255 255 255 255 255 255 255 255 255 255 255 255 255 255 255 255 255 255 255 255 255 255 255 255 255 255 255 255 255 255 255 255 255 255 255 255 255 255 255 255 255 255 255 255 255 255 255 255 255 255 255 255 255 255 255 255 255 255 255 255 255 255 255 255 255 255 255 255 255 255 255 255 255 255 255 255 255 255 255 255 255 255 255 255 255 255 255 255 255 255 255 255 255 255 255 255 255 255 255 255 255 255 255 255 255 255 255 255 255 255 255 255 255 255 255 
255 255 255 255 255 255 255 255 255 255 255 255 255 255 255 255 255 255 255 255 255 255 255 255 255 255 255 255 255 255 255 255 255 255 255 255 255 255 255 255 255 255 255 255 255 255 255 255 255 255 255 255 255 255 255 255 255 255 255 255 255 255 255 255 255 255 255 255 255 255 255 255 255 255 255 255 255 255 255 255 255 255 255 255 255 255 255 255 255 255 255 255 255 255 255 255 255 255 255 255 255 255 255 255 255 255 255 255 255 255 255 255 255 255 255 255 255 255 255 255 254 254 254 254 254 254 254 254 254 254 254 254 254 254 254 242 242 242 218 218 218 193 193 193 169 169 169 146 146 146 124 124 124 103 103 103 82 82 82 70 70 70 72 72 72 74 74 74 76 76 76 85 85 85 106 106 106 128 128 128 150 150 150 166 166 166 170 170 170 174 174 174 178 178 178 182 182 182 182 182 182 183 183 183 183 183 183 184 184 184 185 185 185 187 187 187 188 188 188 190 190 190 190 190 190 189 189 189 189 189 189 186 186 186 157 157 157 128 128 128 98 98 98 70 70 70 71 71 71 73 73 73 74 74 74 75 75 75 102 102 102 128 128 128 155 155 155 182 182 182 185 185 185 188 188 188 190 190 190 192 192 192 192 192 192 191 191 191 191 191 191 190 190 190 190 190 190 190 190 190 190 190 190 190 190 190 189 189 189 187 187 187 185 185 185 183 183 183 152 152 152 111 111 111 71 71 71 30 30 30 35 35 35 59 59 59 82 82 82 106 106 106 100 100 100 80 80 80 60 60 60 40 40 40 54 54 54 89 89 89 125 125 125 160 160 160 153 153 153 114 114 114 75 75 75 37 37 37 32 32 32 59 59 59 85 85 85 112 112 112 116 116 116 94 94 94 73 73 73 52 52 52 52 52 52 81 81 81 111 111 111 140 140 140 158 158 158 155 155 155 153 153 153 151 151 151 152 152 152 162 162 162 172 172 172 182 182 182 188 188 188 186 186 186 184 184 184 181 181 181 179 179 179 178 178 178 177 177 177 176 176 176 176 176 176 179 179 179 182 182 182 185 185 185 188 188 188 190 190 190 192 192 192 194 194 194 194 194 194 178 178 178 163 163 163 147 147 147 132 132 132 110 110 110 88 88 88 66 66 66 44 44 44 61 61 61 78 78 78 95 95 95 112 112 112 131 131 131 150 150 150 170 170 170 189 189 189 190 190 190 190 190 190 189 189 189 189 189 189 188 188 188 186 186 186 185 185 185 184 184 184 183 183 183 183 183 183 182 182 182 182 182 182 181 181 181 180 180 180 179 179 179 179 179 179 163 163 163 141 141 141 120 120 120 98 98 98 90 90 90 88 88 88 86 86 86 84 84 84 89 89 89 99 99 99 109 109 109 119 119 119 141 141 141 173 173 173 205 205 205 237 237 237 253 253 253 253 253 253 253 253 253 254 254 254 254 254 254 254 254 254 255 255 255 255 255 255 255 255 255 255 255 255 255 255 255 255 255 255 255 255 255 255 255 255 255 255 255 255 255 255 255 255 255 255 255 255 255 255 255 255 255 255 255 255 255 255 255 255 255 255 255 255 255 255 255 255 255 255 255 255 255 255 255 255 255 255 255 255 255 255 255 255 255 255 255 255 255 255 255 255 255 255 255 255 255 255 255 255 255 255 255 255 255 255 255 255 255 255 255 255 255 255 255 255 255 255 255 255 255 255 255 255 255 255 255 255 255 
255 255 255 255 255 255 255 255 255 255 255 255 255 255 255 255 255 255 255 255 255 255 255 255 255 255 255 255 255 255 255 255 255 255 255 255 255 255 255 255 255 255 255 255 255 255 255 255 255 255 255 255 255 255 255 255 255 255 255 255 255 255 255 255 255 255 255 255 255 255 255 255 255 255 255 255 255 255 255 255 255 255 255 255 255 255 255 255 255 255 255 255 255 255 255 255 255 255 255 255 255 255 255 255 255 255 255 255 255 255 255 255 255 255 255 255 255 254 254 254 254 254 254 254 254 254 254 254 254 254 254 254 254 254 254 245 245 245 227 227 227 208 208 208 190 190 190 168 168 168 140 140 140 113 113 113 86 86 86 71 71 71 78 78 78 84 84 84 90 90 90 100 100 100 117 117 117 134 134 134 151 151 151 165 165 165 169 169 169 173 173 173 178 178 178 181 181 181 181 181 181 182 182 182 182 182 182 182 182 182 184 184 184 185 185 185 187 187 187 188 188 188 189 189 189 190 190 190 192 192 192 190 190 190 163 163 163 137 137 137 110 110 110 85 85 85 76 76 76 67 67 67 58 58 58 50 50 50 81 81 81 113 113 113 145 145 145 176 176 176 181 181 181 185 185 185 188 188 188 192 192 192 191 191 191 190 190 190 189 189 189 188 188 188 188 188 188 189 189 189 189 189 189 189 189 189 188 188 188 186 186 186 185 185 185 183 183 183 152 152 152 111 111 111 70 70 70 30 30 30 36 36 36 60 60 60 85 85 85 109 109 109 104 104 104 83 83 83 62 62 62 42 42 42 56 56 56 93 93 93 130 130 130 166 166 166 159 159 159 118 118 118 78 78 78 37 37 37 29 29 29 51 51 51 72 72 72 94 94 94 97 97 97 81 81 81 65 65 65 48 48 48 54 54 54 89 89 89 124 124 124 158 158 158 181 181 181 183 183 183 185 185 185 187 187 187 189 189 189 189 189 189 190 190 190 191 191 191 191 191 191 191 191 191 190 190 190 190 190 190 190 190 190 189 189 189 189 189 189 189 189 189 189 189 189 190 190 190 191 191 191 192 192 192 192 192 192 193 193 193 194 194 194 194 194 194 193 193 193 172 172 172 151 151 151 129 129 129 108 108 108 89 89 89 69 69 69 50 50 50 30 30 30 57 57 57 83 83 83 110 110 110 136 136 136 150 150 150 163 163 163 176 176 176 190 190 190 190 190 190 189 189 189 188 188 188 187 187 187 186 186 186 185 185 185 184 184 184 182 182 182 182 182 182 182 182 182 181 181 181 181 181 181 180 180 180 179 179 179 178 178 178 177 177 177 165 165 165 147 147 147 129 129 129 112 112 112 102 102 102 96 96 96 91 91 91 85 85 85 92 92 92 107 107 107 122 122 122 138 138 138 160 160 160 187 187 187 214 214 214 241 241 241 254 254 254 254 254 254 254 254 254 254 254 254 254 254 254 254 254 254 255 255 255 255 255 255 255 255 255 255 255 255 255 255 255 255 255 255 255 255 255 255 255 255 255 255 255 255 255 255 255 255 255 255 255 255 255 255 255 255 255 255 255 255 255 255 255 255 255 255 255 255 255 255 255 255 255 255 255 255 255 255 255 255 255 255 255 255 255 255 255 255 255 255 255 255 255 255 255 255 255 255 255 255 255 255 255 255 255 255 255 255 255 255 255 255 255 255 255 255 255 255 255 255 255 255 255 255 255 255 255 255 255 255 255 255 255 
255 255 255 255 255 255 255 255 255 255 255 255 255 255 255 255 255 255 255 255 255 255 255 255 255 255 255 255 255 255 255 255 255 255 255 255 255 255 255 255 255 255 255 255 255 255 255 255 255 255 255 255 255 255 255 255 255 255 255 255 255 255 255 255 255 255 255 255 255 255 255 255 255 255 255 255 255 255 255 255 255 255 255 255 255 255 255 255 255 255 255 255 255 255 255 255 255 255 255 255 255 255 255 255 255 255 255 255 255 255 255 255 255 255 255 255 255 254 254 254 254 254 254 254 254 254 254 254 254 254 254 254 254 254 254 248 248 248 234 234 234 220 220 220 206 206 206 184 184 184 153 153 153 122 122 122 91 91 91 75 75 75 82 82 82 88 88 88 95 95 95 105 105 105 120 120 120 135 135 135 151 151 151 163 163 163 168 168 168 172 172 172 177 177 177 180 180 180 181 181 181 181 181 181 181 181 181 181 181 181 183 183 183 184 184 184 185 185 185 187 187 187 188 188 188 189 189 189 190 190 190 189 189 189 168 168 168 146 146 146 125 125 125 104 104 104 89 89 89 73 73 73 58 58 58 42 42 42 69 69 69 97 97 97 124 124 124 151 151 151 160 160 160 169 169 169 178 178 178 187 187 187 187 187 187 188 188 188 188 188 188 188 188 188 188 188 188 188 188 188 188 188 188 188 188 188 187 187 187 186 186 186 185 185 185 184 184 184 152 152 152 111 111 111 71 71 71 30 30 30 37 37 37 64 64 64 90 90 90 117 117 117 113 113 113 93 93 93 73 73 73 54 54 54 67 67 67 102 102 102 136 136 136 171 171 171 164 164 164 126 126 126 89 89 89 51 51 51 44 44 44 64 64 64 85 85 85 105 105 105 110 110 110 98 98 98 86 86 86 73 73 73 79 79 79 108 108 108 137 137 137 166 166 166 185 185 185 187 187 187 189 189 189 191 191 191 192 192 192 192 192 192 191 191 191 191 191 191 190 190 190 190 190 190 190 190 190 190 190 190 190 190 190 190 190 190 190 190 190 191 191 191 191 191 191 190 190 190 190 190 190 189 189 189 188 188 188 184 184 184 180 180 180 176 176 176 170 170 170 149 149 149 129 129 129 109 109 109 89 89 89 78 78 78 67 67 67 56 56 56 45 45 45 71 71 71 97 97 97 123 123 123 149 149 149 160 160 160 169 169 169 179 179 179 188 188 188 188 188 188 187 187 187 186 186 186 186 186 186 185 185 185 183 183 183 182 182 182 181 181 181 181 181 181 181 181 181 181 181 181 180 180 180 179 179 179 178 178 178 177 177 177 175 175 175 163 163 163 147 147 147 131 131 131 115 115 115 104 104 104 97 97 97 90 90 90 82 82 82 93 93 93 115 115 115 136 136 136 158 158 158 180 180 180 201 201 201 223 223 223 244 244 244 254 254 254 254 254 254 254 254 254 254 254 254 254 254 254 254 254 254 255 255 255 255 255 255 255 255 255 255 255 255 255 255 255 255 255 255 255 255 255 255 255 255 255 255 255 255 255 255 255 255 255 255 255 255 255 255 255 255 255 255 255 255 255 255 255 255 255 255 255 255 255 255 255 255 255 255 255 255 255 255 255 255 255 255 255 255 255 255 255 255 255 255 255 255 255 255 255 255 255 255 255 255 255 255 255 255 255 255 255 255 255 255 255 255 255 255 255 255 255 255 255 255 255 255 255 255 255 255 255 255 255 255 255 255 255 
255 255 255 255 255 255 255 255 255 255 255 255 255 255 255 255 255 255 255 255 255 255 255 255 255 255 255 255 255 255 255 255 255 255 255 255 255 255 255 255 255 255 255 255 255 255 255 255 255 255 255 255 255 255 255 255 255 255 255 255 255 255 255 255 255 255 255 255 255 255 255 255 255 255 255 255 255 255 255 255 255 255 255 255 255 255 255 255 255 255 255 255 255 255 255 255 255 255 255 255 255 255 255 255 255 255 255 255 255 255 255 255 255 255 255 255 255 255 255 255 255 255 255 254 254 254 254 254 254 254 254 254 254 254 254 250 250 250 240 240 240 230 230 230 220 220 220 200 200 200 166 166 166 131 131 131 97 97 97 78 78 78 85 85 85 92 92 92 99 99 99 108 108 108 122 122 122 136 136 136 150 150 150 162 162 162 166 166 166 171 171 171 176 176 176 180 180 180 180 180 180 180 180 180 180 180 180 180 180 180 182 182 182 183 183 183 184 184 184 185 185 185 186 186 186 187 187 187 188 188 188 187 187 187 171 171 171 156 156 156 140 140 140 125 125 125 103 103 103 81 81 81 60 60 60 38 38 38 59 59 59 80 80 80 101 101 101 122 122 122 137 137 137 151 151 151 166 166 166 181 181 181 183 183 183 185 185 185 186 186 186 188 188 188 188 188 188 188 188 188 188 188 188 188 188 188 187 187 187 186 186 186 185 185 185 184 184 184 153 153 153 112 112 112 71 71 71 30 30 30 39 39 39 68 68 68 96 96 96 125 125 125 123 123 123 104 104 104 86 86 86 67 67 67 80 80 80 111 111 111 143 143 143 175 175 175 169 169 169 135 135 135 101 101 101 66 66 66 61 61 61 81 81 81 101 101 101 122 122 122 128 128 128 120 120 120 111 111 111 103 103 103 107 107 107 129 129 129 151 151 151 172 172 172 186 186 186 187 187 187 188 188 188 190 190 190 190 190 190 190 190 190 189 189 189 189 189 189 189 189 189 189 189 189 189 189 189 189 189 189 189 189 189 189 189 189 190 190 190 190 190 190 190 190 190 189 189 189 187 187 187 186 186 186 183 183 183 173 173 173 163 163 163 153 153 153 143 143 143 124 124 124 106 106 106 87 87 87 69 69 69 68 68 68 67 67 67 66 66 66 65 65 65 89 89 89 113 113 113 137 137 137 161 161 161 168 168 168 174 174 174 180 180 180 186 186 186 186 186 186 185 185 185 185 185 185 184 184 184 183 183 183 182 182 182 181 181 181 180 180 180 180 180 180 180 180 180 180 180 180 180 180 180 178 178 178 177 177 177 175 175 175 173 173 173 162 162 162 147 147 147 131 131 131 116 116 116 105 105 105 96 96 96 87 87 87 79 79 79 93 93 93 122 122 122 150 150 150 179 179 179 200 200 200 216 216 216 231 231 231 247 247 247 254 254 254 254 254 254 254 254 254 254 254 254 255 255 255 255 255 255 255 255 255 255 255 255 255 255 255 255 255 255 255 255 255 255 255 255 255 255 255 255 255 255 255 255 255 255 255 255 255 255 255 255 255 255 255 255 255 255 255 255 255 255 255 255 255 255 255 255 255 255 255 255 255 255 255 255 255 255 255 255 255 255 255 255 255 255 255 255 255 255 255 255 255 255 255 255 255 255 255 255 255 255 255 255 255 255 255 255 255 255 255 255 255 255 255 255 255 255 255 255 255 255 255 255 255 255 255 255 255 255 255 255 255 255 255 
255 255 255 255 255 255 255 255 255 255 255 255 255 255 255 255 255 255 255 255 255 255 255 255 255 255 255 255 255 255 255 255 255 255 255 255 255 255 255 255 255 255 255 255 255 255 255 255 255 255 255 255 255 255 255 255 255 255 255 255 255 255 255 255 255 255 255 255 255 255 255 255 255 255 255 255 255 255 255 255 255 255 255 255 255 255 255 255 255 255 255 255 255 255 255 255 255 255 255 255 255 255 255 255 255 255 255 255 255 255 255 255 255 255 255 255 255 255 255 255 255 255 255 255 255 255 255 255 255 255 255 255 255 255 255 252 252 252 246 246 246 241 241 241 235 235 235 216 216 216 178 178 178 140 140 140 103 103 103 82 82 82 89 89 89 95 95 95 102 102 102 111 111 111 123 123 123 136 136 136 149 149 149 160 160 160 165 165 165 170 170 170 175 175 175 179 179 179 179 179 179 179 179 179 179 179 179 179 179 179 180 180 180 181 181 181 182 182 182 183 183 183 184 184 184 185 185 185 185 185 185 185 185 185 175 175 175 165 165 165 156 156 156 145 145 145 117 117 117 89 89 89 62 62 62 34 34 34 49 49 49 64 64 64 78 78 78 93 93 93 113 113 113 134 134 134 154 154 154 175 175 175 179 179 179 182 182 182 185 185 185 188 188 188 188 188 188 187 187 187 187 187 187 187 187 187 186 186 186 186 186 186 185 185 185 185 185 185 153 153 153 112 112 112 71 71 71 30 30 30 40 40 40 71 71 71 103 103 103 134 134 134 133 133 133 115 115 115 98 98 98 81 81 81 92 92 92 121 121 121 150 150 150 179 179 179 174 174 174 143 143 143 113 113 113 82 82 82 78 78 78 98 98 98 118 118 118 138 138 138 146 146 146 142 142 142 137 137 137 133 133 133 136 136 136 150 150 150 164 164 164 178 178 178 187 187 187 188 188 188 188 188 188 188 188 188 188 188 188 188 188 188 188 188 188 187 187 187 187 187 187 187 187 187 187 187 187 187 187 187 188 188 188 188 188 188 189 189 189 190 190 190 190 190 190 187 187 187 185 185 185 182 182 182 177 177 177 162 162 162 147 147 147 131 131 131 116 116 116 99 99 99 82 82 82 65 65 65 50 50 50 59 59 59 68 68 68 76 76 76 85 85 85 107 107 107 129 129 129 151 151 151 172 172 172 176 176 176 179 179 179 181 181 181 184 184 184 184 184 184 183 183 183 183 183 183 182 182 182 181 181 181 180 180 180 180 180 180 179 179 179 179 179 179 179 179 179 179 179 179 179 179 179 177 177 177 175 175 175 173 173 173 171 171 171 160 160 160 146 146 146 131 131 131 117 117 117 105 105 105 95 95 95 85 85 85 75 75 75 93 93 93 129 129 129 164 164 164 200 200 200 221 221 221 231 231 231 240 240 240 250 250 250 255 255 255 255 255 255 255 255 255 255 255 255 255 255 255 255 255 255 255 255 255 255 255 255 255 255 255 255 255 255 255 255 255 255 255 255 255 255 255 255 255 255 255 255 255 255 255 255 255 255 255 255 255 255 255 255 255 255 255 255 255 255 255 255 255 255 255 255 255 255 255 255 255 255 255 255 255 255 255 255 255 255 255 255 255 255 255 255 255 255 255 255 255 255 255 255 255 255 255 255 255 255 255 255 255 255 255 255 255 255 255 255 255 255 255 255 255 255 255 255 255 255 255 255 255 255 255 255 255 255 255 255 255 255 255 
255 255 255 255 255 255 255 255 255 255 255 255 255 255 255 255 255 255 255 255 255 255 255 255 255 255 255 255 255 255 255 255 255 255 255 255 255 255 255 255 255 255 255 255 255 255 255 255 255 255 255 255 255 255 255 255 255 255 255 255 255 255 255 255 255 255 255 255 255 255 255 255 255 255 255 255 255 255 255 255 255 255 255 255 255 255 255 255 255 255 255 255 255 255 255 255 255 255 255 255 255 255 255 255 255 255 255 255 255 255 255 255 255 255 255 255 255 255 255 255 255 255 255 255 255 255 255 255 255 255 255 255 255 255 255 254 254 254 253 253 253 251 251 251 250 250 250 231 231 231 190 190 190 149 149 149 109 109 109 86 86 86 92 92 92 99 99 99 105 105 105 113 113 113 125 125 125 137 137 137 149 149 149 159 159 159 164 164 164 169 169 169 174 174 174 178 178 178 178 178 178 178 178 178 178 178 178 178 178 178 179 179 179 180 180 180 181 181 181 181 181 181 182 182 182 182 182 182 183 183 183 183 183 183 179 179 179 175 175 175 171 171 171 165 165 165 132 132 132 98 98 98 64 64 64 30 30 30 38 38 38 47 47 47 56 56 56 64 64 64 90 90 90 116 116 116 142 142 142 169 169 169 175 175 175 179 179 179 183 183 183 187 187 187 188 188 188 187 187 187 187 187 187 186 186 186 186 186 186 186 186 186 185 185 185 185 185 185 153 153 153 112 112 112 71 71 71 30 30 30 42 42 42 75 75 75 109 109 109 142 142 142 143 143 143 127 127 127 110 110 110 94 94 94 105 105 105 131 131 131 157 157 157 183 183 183 179 179 179 152 152 152 125 125 125 98 98 98 95 95 95 115 115 115 135 135 135 155 155 155 165 165 165 164 164 164 163 163 163 162 162 162 165 165 165 171 171 171 178 178 178 185 185 185 188 188 188 188 188 188 187 187 187 187 187 187 186 186 186 186 186 186 186 186 186 186 186 186 185 185 185 186 186 186 186 186 186 186 186 186 186 186 186 187 187 187 188 188 188 189 189 189 189 189 189 186 186 186 182 182 182 178 178 178 172 172 172 151 151 151 130 130 130 109 109 109 89 89 89 74 74 74 59 59 59 44 44 44 31 31 31 49 49 49 68 68 68 87 87 87 105 105 105 125 125 125 145 145 145 164 164 164 184 184 184 184 184 184 183 183 183 182 182 182 182 182 182 181 181 181 181 181 181 181 181 181 180 180 180 180 180 180 179 179 179 178 178 178 177 177 177 177 177 177 178 178 178 178 178 178 178 178 178 176 176 176 174 174 174 172 172 172 169 169 169 159 159 159 145 145 145 132 132 132 118 118 118 106 106 106 94 94 94 83 83 83 71 71 71 93 93 93 136 136 136 179 179 179 221 221 221 242 242 242 245 245 245 249 249 249 253 253 253 255 255 255 255 255 255 255 255 255 255 255 255 255 255 255 255 255 255 255 255 255 255 255 255 255 255 255 255 255 255 255 255 255 255 255 255 255 255 255 255 255 255 255 255 255 255 255 255 255 255 255 255 255 255 255 255 255 255 255 255 255 255 255 255 255 255 255 255 255 255 255 255 255 255 255 255 255 255 255 255 255 255 255 255 255 255 255 255 255 255 255 255 255 255 255 255 255 255 255 255 255 255 255 255 255 255 255 255 255 255 255 255 255 255 255 255 255 255 255 255 255 255 255 255 255 255 255 255 255 255 255 255 255 255 255 
255 255 255 255 255 255 255 255 255 255 255 255 255 255 255 255 255 255 255 255 255 255 255 255 255 255 255 255 255 255 255 255 255 255 255 255 255 255 255 255 255 255 255 255 255 255 255 255 255 255 255 255 255 255 255 255 255 255 255 255 255 255 255 255 255 255 255 255 255 255 255 255 255 255 255 255 255 255 255 255 255 255 255 255 255 255 255 255 255 255 255 255 255 255 255 255 255 255 255 255 255 255 255 255 255 255 255 255 255 255 255 255 255 255 255 255 255 255 255 255 255 255 255 255 255 255 255 255 255 255 255 255 255 255 255 255 255 255 254 254 254 253 253 253 253 253 253 237 237 237 202 202 202 166 166 166 131 131 131 108 108 108 106 106 106 105 105 105 103 103 103 106 106 106 119 119 119 132 132 132 145 145 145 156 156 156 162 162 162 167 167 167 173 173 173 177 177 177 177 177 177 177 177 177 177 177 177 177 177 177 177 177 177 178 178 178 179 179 179 179 179 179 180 180 180 180 180 180 180 180 180 181 181 181 178 178 178 176 176 176 174 174 174 171 171 171 140 140 140 110 110 110 80 80 80 50 50 50 50 50 50 51 51 51 51 51 51 52 52 52 74 74 74 97 97 97 120 120 120 144 144 144 153 153 153 161 161 161 169 169 169 177 177 177 180 180 180 182 182 182 184 184 184 186 186 186 186 186 186 186 186 186 186 186 186 185 185 185 157 157 157 120 120 120 83 83 83 46 46 46 58 58 58 89 89 89 120 120 120 151 151 151 152 152 152 140 140 140 127 127 127 115 115 115 123 123 123 143 143 143 164 164 164 184 184 184 181 181 181 160 160 160 139 139 139 118 118 118 116 116 116 132 132 132 148 148 148 163 163 163 172 172 172 172 172 172 171 171 171 171 171 171 173 173 173 177 177 177 181 181 181 185 185 185 188 188 188 187 187 187 187 187 187 186 186 186 186 186 186 185 185 185 185 185 185 185 185 185 185 185 185 185 185 185 185 185 185 185 185 185 184 184 184 182 182 182 180 180 180 178 178 178 175 175 175 168 168 168 161 161 161 154 154 154 146 146 146 127 127 127 108 108 108 90 90 90 72 72 72 65 65 65 58 58 58 50 50 50 44 44 44 64 64 64 84 84 84 103 103 103 123 123 123 138 138 138 153 153 153 168 168 168 183 183 183 183 183 183 182 182 182 180 180 180 179 179 179 179 179 179 179 179 179 178 178 178 178 178 178 178 178 178 177 177 177 177 177 177 176 176 176 176 176 176 177 177 177 177 177 177 177 177 177 175 175 175 172 172 172 169 169 169 166 166 166 155 155 155 141 141 141 127 127 127 112 112 112 104 104 104 99 99 99 94 94 94 89 89 89 111 111 111 150 150 150 190 190 190 229 229 229 247 247 247 249 249 249 252 252 252 254 254 254 255 255 255 255 255 255 255 255 255 255 255 255 255 255 255 255 255 255 255 255 255 255 255 255 255 255 255 255 255 255 255 255 255 255 255 255 255 255 255 255 255 255 255 255 255 255 255 255 255 255 255 255 255 255 255 255 255 255 255 255 255 255 255 255 255 255 255 255 255 255 255 255 255 255 255 255 255 255 255 255 255 255 255 255 255 255 255 255 255 255 255 255 255 255 255 255 255 255 255 255 255 255 255 255 255 255 255 255 255 255 255 255 255 255 255 255 255 255 255 255 255 255 255 255 255 255 255 255 255 255 255 255 255 255 255 
255 255 255 255 255 255 255 255 255 255 255 255 255 255 255 255 255 255 255 255 255 255 255 255 255 255 255 255 255 255 255 255 255 255 255 255 255 255 255 255 255 255 255 255 255 255 255 255 255 255 255 255 255 255 255 255 255 255 255 255 255 255 255 255 255 255 255 255 255 255 255 255 255 255 255 255 255 255 255 255 255 255 255 255 255 255 255 255 255 255 255 255 255 255 255 255 255 255 255 255 255 255 255 255 255 255 255 255 255 255 255 255 255 255 255 255 255 255 255 255 255 255 255 255 255 255 255 255 255 255 255 255 255 255 255 255 255 255 254 254 254 254 254 254 253 253 253 241 241 241 213 213 213 185 185 185 156 156 156 135 135 135 123 123 123 111 111 111 99 99 99 97 97 97 112 112 112 126 126 126 141 141 141 154 154 154 160 160 160 166 166 166 172 172 172 176 176 176 176 176 176 176 176 176 175 175 175 175 175 175 176 176 176 176 176 176 176 176 176 177 177 177 177 177 177 177 177 177 178 178 178 178 178 178 177 177 177 176 176 176 175 175 175 173 173 173 148 148 148 124 124 124 99 99 99 75 75 75 67 67 67 59 59 59 51 51 51 43 43 43 60 60 60 78 78 78 96 96 96 114 114 114 127 127 127 140 140 140 152 152 152 164 164 164 170 170 170 175 175 175 180 180 180 185 185 185 186 186 186 186 186 186 186 186 186 186 186 186 162 162 162 130 130 130 98 98 98 67 67 67 77 77 77 104 104 104 132 132 132 159 159 159 162 162 162 154 154 154 145 145 145 137 137 137 142 142 142 156 156 156 171 171 171 185 185 185 183 183 183 168 168 168 153 153 153 139 139 139 138 138 138 148 148 148 159 159 159 170 170 170 176 176 176 176 176 176 176 176 176 176 176 176 177 177 177 180 180 180 182 182 182 185 185 185 187 187 187 186 186 186 186 186 186 185 185 185 185 185 185 185 185 185 185 185 185 185 185 185 185 185 185 185 185 185 184 184 184 184 184 184 182 182 182 176 176 176 170 170 170 163 163 163 156 156 156 146 146 146 136 136 136 126 126 126 115 115 115 100 100 100 86 86 86 71 71 71 58 58 58 60 60 60 61 61 61 63 63 63 66 66 66 84 84 84 103 103 103 122 122 122 140 140 140 150 150 150 160 160 160 170 170 170 180 180 180 180 180 180 179 179 179 178 178 178 177 177 177 176 176 176 176 176 176 176 176 176 176 176 176 176 176 176 175 175 175 175 175 175 175 175 175 175 175 175 175 175 175 176 176 176 176 176 176 174 174 174 170 170 170 167 167 167 163 163 163 151 151 151 136 136 136 120 120 120 105 105 105 102 102 102 105 105 105 108 108 108 111 111 111 133 133 133 167 167 167 200 200 200 234 234 234 249 249 249 251 251 251 253 253 253 254 254 254 255 255 255 255 255 255 255 255 255 255 255 255 255 255 255 255 255 255 255 255 255 255 255 255 255 255 255 255 255 255 255 255 255 255 255 255 255 255 255 255 255 255 255 255 255 255 255 255 255 255 255 255 255 255 255 255 255 255 255 255 255 255 255 255 255 255 255 255 255 255 255 255 255 255 255 255 255 255 255 255 255 255 255 255 255 255 255 255 255 255 255 255 255 255 255 255 255 255 255 255 255 255 255 255 255 255 255 255 255 255 255 255 255 255 255 255 255 255 255 255 255 255 255 255 255 255 255 255 255 255 255 255 255 255 255 
255 255 255 255 255 255 255 255 255 255 255 255 255 255 255 255 255 255 255 255 255 255 255 255 255 255 255 255 255 255 255 255 255 255 255 255 255 255 255 255 255 255 255 255 255 255 255 255 255 255 255 255 255 255 255 255 255 255 255 255 255 255 255 255 255 255 255 255 255 255 255 255 255 255 255 255 255 255 255 255 255 255 255 255 255 255 255 255 255 255 255 255 255 255 255 255 255 255 255 255 255 255 255 255 255 255 255 255 255 255 255 255 255 255 255 255 255 255 255 255 255 255 255 255 255 255 255 255 255 255 255 255 255 255 255 255 255 255 254 254 254 254 254 254 254 254 254 244 244 244 224 224 224 203 203 203 182 182 182 161 161 161 139 139 139 118 118 118 96 96 96 87 87 87 104 104 104 121 121 121 137 137 137 151 151 151 158 158 158 164 164 164 170 170 170 175 175 175 175 175 175 174 174 174 174 174 174 174 174 174 174 174 174 174 174 174 174 174 174 174 174 174 174 174 174 175 175 175 175 175 175 175 175 175 175 175 175 175 175 175 175 175 175 174 174 174 156 156 156 137 137 137 119 119 119 100 100 100 84 84 84 67 67 67 51 51 51 34 34 34 46 46 46 59 59 59 72 72 72 85 85 85 101 101 101 118 118 118 135 135 135 152 152 152 161 161 161 169 169 169 177 177 177 184 184 184 186 186 186 186 186 186 186 186 186 186 186 186 166 166 166 140 140 140 114 114 114 87 87 87 97 97 97 120 120 120 144 144 144 167 167 167 172 172 172 168 168 168 163 163 163 159 159 159 162 162 162 170 170 170 178 178 178 185 185 185 184 184 184 176 176 176 168 168 168 160 160 160 159 159 159 165 165 165 171 171 171 177 177 177 180 180 180 180 180 180 180 180 180 180 180 180 180 180 180 182 182 182 183 183 183 185 185 185 185 185 185 185 185 185 185 185 185 185 185 185 185 185 185 185 185 185 185 185 185 186 186 186 185 185 185 185 185 185 184 184 184 183 183 183 180 180 180 170 170 170 159 159 159 149 149 149 138 138 138 125 125 125 111 111 111 97 97 97 84 84 84 74 74 74 63 63 63 52 52 52 44 44 44 54 54 54 65 65 65 76 76 76 87 87 87 105 105 105 122 122 122 140 140 140 158 158 158 162 162 162 167 167 167 172 172 172 177 177 177 177 177 177 176 176 176 175 175 175 174 174 174 174 174 174 174 174 174 174 174 174 174 174 174 174 174 174 174 174 174 174 174 174 174 174 174 174 174 174 174 174 174 175 175 175 175 175 175 172 172 172 168 168 168 164 164 164 160 160 160 147 147 147 131 131 131 114 114 114 97 97 97 99 99 99 111 111 111 122 122 122 134 134 134 155 155 155 183 183 183 211 211 211 239 239 239 252 252 252 253 253 253 254 254 254 255 255 255 255 255 255 255 255 255 255 255 255 255 255 255 255 255 255 255 255 255 255 255 255 255 255 255 255 255 255 255 255 255 255 255 255 255 255 255 255 255 255 255 255 255 255 255 255 255 255 255 255 255 255 255 255 255 255 255 255 255 255 255 255 255 255 255 255 255 255 255 255 255 255 255 255 255 255 255 255 255 255 255 255 255 255 255 255 255 255 255 255 255 255 255 255 255 255 255 255 255 255 255 255 255 255 255 255 255 255 255 255 255 255 255 255 255 255 255 255 255 255 255 255 255 255 255 255 255 255 255 255 255 255 255 255 255 255 
255 255 255 255 255 255 255 255 255 255 255 255 255 255 255 255 255 255 255 255 255 255 255 255 255 255 255 255 255 255 255 255 255 255 255 255 255 255 255 255 255 255 255 255 255 255 255 255 255 255 255 255 255 255 255 255 255 255 255 255 255 255 255 255 255 255 255 255 255 255 255 255 255 255 255 255 255 255 255 255 255 255 255 255 255 255 255 255 255 255 255 255 255 255 255 255 255 255 255 255 255 255 255 255 255 255 255 255 255 255 255 255 255 255 255 255 255 255 255 255 255 255 255 255 255 255 255 255 255 255 255 255 255 255 255 255 255 255 255 255 255 254 254 254 254 254 254 248 248 248 235 235 235 221 221 221 208 208 208 188 188 188 156 156 156 124 124 124 93 93 93 78 78 78 96 96 96 115 115 115 133 133 133 149 149 149 155 155 155 162 162 162 169 169 169 174 174 174 174 174 174 173 173 173 173 173 173 172 172 172 172 172 172 172 172 172 172 172 172 172 172 172 172 172 172 172 172 172 172 172 172 173 173 173 174 174 174 175 175 175 176 176 176 176 176 176 164 164 164 151 151 151 138 138 138 126 126 126 101 101 101 76 76 76 51 51 51 25 25 25 32 32 32 40 40 40 47 47 47 55 55 55 75 75 75 96 96 96 118 118 118 139 139 139 151 151 151 162 162 162 173 173 173 184 184 184 186 186 186 186 186 186 187 187 187 187 187 187 171 171 171 150 150 150 129 129 129 108 108 108 116 116 116 136 136 136 156 156 156 176 176 176 182 182 182 182 182 182 181 181 181 181 181 181 181 181 181 183 183 183 184 184 184 186 186 186 186 186 186 184 184 184 183 183 183 181 181 181 181 181 181 182 182 182 183 183 183 184 184 184 185 185 185 185 185 185 184 184 184 184 184 184 184 184 184 184 184 184 184 184 184 184 184 184 184 184 184 184 184 184 184 184 184 184 184 184 184 184 184 185 185 185 185 185 185 186 186 186 186 186 186 184 184 184 183 183 183 182 182 182 178 178 178 164 164 164 149 149 149 135 135 135 120 120 120 103 103 103 86 86 86 69 69 69 54 54 54 47 47 47 40 40 40 34 34 34 29 29 29 49 49 49 69 69 69 89 89 89 109 109 109 125 125 125 142 142 142 158 158 158 175 175 175 175 175 175 174 174 174 174 174 174 174 174 174 173 173 173 173 173 173 172 172 172 172 172 172 172 172 172 172 172 172 172 172 172 172 172 172 172 172 172 172 172 172 172 172 172 172 172 172 173 173 173 173 173 173 174 174 174 174 174 174 171 171 171 166 166 166 162 162 162 157 157 157 143 143 143 125 125 125 108 108 108 90 90 90 97 97 97 117 117 117 137 137 137 156 156 156 178 178 178 200 200 200 222 222 222 244 244 244 254 254 254 254 254 254 254 254 254 255 255 255 255 255 255 255 255 255 255 255 255 255 255 255 255 255 255 255 255 255 255 255 255 255 255 255 255 255 255 255 255 255 255 255 255 255 255 255 255 255 255 255 255 255 255 255 255 255 255 255 255 255 255 255 255 255 255 255 255 255 255 255 255 255 255 255 255 255 255 255 255 255 255 255 255 255 255 255 255 255 255 255 255 255 255 255 255 255 255 255 255 255 255 255 255 255 255 255 255 255 255 255 255 255 255 255 255 255 255 255 255 255 255 255 255 255 255 255 255 255 255 255 255 255 255 255 255 255 255 255 255 255 255 255 255 255 255 
255 255 255 255 255 255 255 255 255 255 255 255 255 255 255 255 255 255 255 255 255 255 255 255 255 255 255 255 255 255 255 255 255 255 255 255 255 255 255 255 255 255 255 255 255 255 255 255 255 255 255 255 255 255 255 255 255 255 255 255 255 255 255 255 255 255 255 255 255 255 255 255 255 255 255 255 255 255 255 255 255 255 255 255 255 255 255 255 255 255 255 255 255 255 255 255 255 255 255 255 255 255 255 255 255 255 255 255 255 255 255 255 255 255 255 255 255 255 255 255 255 255 255 255 255 255 255 255 255 255 255 255 255 255 255 255 255 255 255 255 255 255 255 255 254 254 254 250 250 250 241 241 241 231 231 231 222 222 222 203 203 203 170 170 170 137 136 136 103 103 103 86 85 85 100 100 100 114 114 114 128 128 128 141 141 141 149 149 149 158 158 158 166 166 166 173 173 172 172 172 172 172 171 171 171 171 170 171 170 169 170 170 168 170 170 167 170 169 167 170 169 166 170 169 166 170 169 165 170 169 165 170 169 165 171 170 166 173 171 168 174 172 169 174 173 169 165 164 161 157 156 153 148 147 145 139 138 137 115 114 113 91 91 90 67 67 66 43 43 43 43 43 43 43 43 43 44 44 44 44 44 44 61 61 61 79 79 79 98 98 97 116 116 116 128 128 128 140 140 140 151 151 151 163 163 163 167 167 167 170 170 170 174 174 174 177 177 177 167 167 167 152 152 152 138 138 138 124 124 124 131 131 131 147 147 147 163 163 163 179 179 179 185 185 185 185 185 185 186 186 186 186 186 186 186 186 186 186 186 186 186 186 186 186 186 186 186 186 186 186 186 186 186 186 186 186 186 186 186 186 186 186 186 186 186 186 186 186 186 186 186 186 186 186 186 186 186 186 186 186 186 186 185 185 185 185 185 185 185 185 185 184 184 184 183 183 183 182 182 182 181 181 181 179 179 179 178 178 178 176 176 176 175 175 175 173 173 173 171 171 171 167 167 167 163 163 163 159 159 159 153 153 153 139 139 139 126 126 126 112 112 112 98 99 98 85 85 85 72 72 72 59 59 59 47 47 47 47 47 47 47 47 47 46 46 46 48 48 48 67 67 67 86 86 86 105 105 105 124 124 124 137 137 137 150 150 149 163 163 162 176 176 174 175 174 172 173 173 171 172 171 169 171 170 167 170 169 166 170 169 165 170 169 165 169 168 164 169 168 164 169 168 165 170 168 165 170 169 165 170 169 166 170 169 167 170 170 167 171 170 168 171 171 169 171 171 170 172 172 171 172 172 172 168 168 168 163 163 163 157 157 157 152 151 152 138 138 138 122 122 122 106 106 106 90 90 90 101 101 101 126 126 126 151 151 151 176 176 176 196 196 196 213 213 213 230 230 230 247 247 247 254 254 254 254 254 254 255 255 255 255 255 255 255 255 255 255 255 255 255 255 255 255 255 255 255 255 255 255 255 255 255 255 255 255 255 255 255 255 255 255 255 255 255 255 255 255 255 255 255 255 255 255 255 255 255 255 255 255 255 255 255 255 255 255 255 255 255 255 255 255 255 255 255 255 255 255 255 255 255 255 255 255 255 255 255 255 255 255 255 255 255 255 255 255 255 255 255 255 255 255 255 255 255 255 255 255 255 255 255 255 255 255 255 255 255 255 255 255 255 255 255 255 255 255 255 255 255 255 255 255 255 255 255 255 255 255 255 255 255 255 255 255 255 255 255 255 255 
255 255 255 255 255 255 255 255 255 255 255 255 255 255 255 255 255 255 255 255 255 255 255 255 255 255 255 255 255 255 255 255 255 255 255 255 255 255 255 255 255 255 255 255 255 255 255 255 255 255 255 255 255 255 255 255 255 255 255 255 255 255 255 255 255 255 255 255 255 255 255 255 255 255 255 255 255 255 255 255 255 255 255 255 255 255 255 255 255 255 255 255 255 255 255 255 255 255 255 255 255 255 255 255 255 255 255 255 255 255 255 255 255 255 255 255 255 255 255 255 255 255 255 255 255 255 255 255 255 255 255 255 255 255 255 255 255 255 255 255 255 255 255 255 255 255 255 252 252 252 245 245 245 239 239 239 232 232 232 216 215 215 183 183 183 151 150 150 118 118 118 99 99 99 107 107 107 115 115 115 123 123 123 132 132 132 142 142 142 153 153 153 163 163 163 171 171 171 170 170 170 170 170 168 169 169 167 169 168 166 169 168 164 168 167 162 168 166 160 168 166 159 168 166 158 168 165 157 168 165 157 168 165 156 169 166 157 170 167 158 171 168 159 171 168 160 165 163 156 160 157 151 154 152 147 148 146 142 128 127 124 109 108 106 89 89 87 70 69 69 61 62 61 54 54 54 46 47 47 39 39 39 50 50 50 63 63 63 76 77 76 90 90 89 101 101 101 113 113 112 124 124 123 135 135 135 143 143 142 150 150 149 156 156 156 163 163 163 159 159 159 152 152 152 145 145 145 138 138 138 145 145 145 157 157 157 169 169 169 181 181 181 185 185 185 186 186 186 186 186 186 186 186 186 186 186 186 186 186 186 186 186 186 186 186 186 186 186 186 186 186 186 186 186 186 186 186 186 186 186 186 187 187 187 187 187 187 187 187 187 187 187 187 187 187 187 187 187 187 186 186 186 186 186 186 185 185 185 185 185 185 184 184 184 183 183 183 179 179 179 176 176 176 173 173 173 169 169 169 165 165 165 161 161 161 157 157 157 152 152 152 144 144 144 137 137 137 130 130 130 121 121 121 110 110 110 98 98 98 87 87 87 76 76 76 68 69 68 61 61 61 54 54 54 48 48 48 55 55 55 62 62 62 69 69 69 77 76 76 92 92 92 107 107 107 122 123 123 137 138 138 146 146 145 155 154 153 163 163 161 172 171 168 171 170 166 170 168 163 169 167 161 168 166 159 168 165 158 167 165 157 167 165 156 167 164 155 167 165 155 167 165 156 168 165 157 168 165 157 168 166 159 168 167 160 169 167 162 169 168 163 169 169 165 170 169 167 170 170 168 170 170 170 165 165 165 159 158 159 152 152 152 145 145 145 133 133 133 120 119 120 106 106 106 92 92 92 107 107 107 136 136 136 165 165 165 195 195 195 213 213 213 225 225 225 237 237 237 249 249 249 254 254 254 254 254 254 255 255 255 255 255 255 255 255 255 255 255 255 255 255 255 255 255 255 255 255 255 255 255 255 255 255 255 255 255 255 255 255 255 255 255 255 255 255 255 255 255 255 255 255 255 255 255 255 255 255 255 255 255 255 255 255 255 255 255 255 255 255 255 255 255 255 255 255 255 255 255 255 255 255 255 255 255 255 255 255 255 255 255 255 255 255 255 255 255 255 255 255 255 255 255 255 255 255 255 255 255 255 255 255 255 255 255 255 255 255 255 255 255 255 255 255 255 255 255 255 255 255 255 255 255 255 255 255 255 255 255 255 255 255 255 255 255 255 255 255 255 
255 255 255 255 255 255 255 255 255 255 255 255 255 255 255 255 255 255 255 255 255 255 255 255 255 255 255 255 255 255 255 255 255 255 255 255 255 255 255 255 255 255 255 255 255 255 255 255 255 255 255 255 255 255 255 255 255 255 255 255 255 255 255 255 255 255 255 255 255 255 255 255 255 255 255 255 255 255 255 255 255 255 255 255 255 255 255 255 255 255 255 255 255 255 255 255 255 255 255 255 255 255 255 255 255 255 255 255 255 255 255 255 255 255 255 255 255 255 255 255 255 255 255 255 255 255 255 255 255 255 255 255 255 255 255 255 255 255 255 255 255 255 255 255 255 255 255 253 253 253 249 249 249 246 246 246 242 242 242 228 228 228 196 196 196 165 164 164 133 132 132 113 112 112 114 114 114 116 116 116 118 118 118 123 123 123 135 135 135 148 148 148 160 160 160 169 169 169 169 168 167 168 168 166 168 167 164 167 166 163 167 165 160 167 165 157 166 164 154 166 163 152 166 162 150 166 162 149 166 161 148 166 161 147 166 162 148 167 162 149 168 163 150 168 163 151 165 161 150 163 159 150 160 157 149 157 155 148 142 140 135 126 125 122 111 110 108 96 96 95 80 80 80 65 65 65 49 50 49 33 34 34 39 40 40 47 48 47 55 56 55 63 63 63 74 74 73 85 85 85 96 96 96 107 107 107 118 118 118 129 129 128 139 139 139 150 150 150 152 152 152 152 152 152 153 153 153 153 153 153 159 159 159 167 167 167 175 175 175 183 183 183 186 186 186 186 186 186 186 186 186 186 186 186 186 186 186 186 186 186 186 186 186 186 186 186 186 186 186 186 186 186 186 186 186 187 187 187 187 187 187 187 187 187 187 187 187 187 187 187 187 187 187 187 187 187 187 187 187 187 187 187 187 187 187 186 186 186 185 185 185 184 184 184 182 182 182 177 177 177 172 172 172 166 166 166 161 161 161 154 154 154 147 147 147 140 140 140 132 132 132 122 122 122 111 111 111 100 100 100 89 89 89 80 80 80 71 71 71 61 62 61 53 54 53 52 52 52 50 51 50 49 49 49 50 50 50 64 64 64 78 77 77 92 91 91 106 105 105 117 117 117 128 128 128 140 140 140 151 151 151 155 155 154 159 159 157 164 163 159 168 167 162 167 165 159 166 164 156 166 163 153 165 161 151 165 161 149 165 161 148 165 161 147 165 161 146 165 161 147 166 161 148 166 162 149 166 162 150 166 163 152 167 164 154 167 165 156 167 166 159 167 166 161 168 167 163 168 168 166 168 168 168 163 162 163 155 154 155 147 146 147 139 138 139 129 128 129 117 117 117 106 106 106 95 95 95 113 113 113 146 146 146 180 180 180 213 213 213 230 230 230 237 237 237 244 244 244 251 251 251 254 254 254 254 254 254 255 255 255 255 255 255 255 255 255 255 255 255 255 255 255 255 255 255 255 255 255 255 255 255 255 255 255 255 255 255 255 255 255 255 255 255 255 255 255 255 255 255 255 255 255 255 255 255 255 255 255 255 255 255 255 255 255 255 255 255 255 255 255 255 255 255 255 255 255 255 255 255 255 255 255 255 255 255 255 255 255 255 255 255 255 255 255 255 255 255 255 255 255 255 255 255 255 255 255 255 255 255 255 255 255 255 255 255 255 255 255 255 255 255 255 255 255 255 255 255 255 255 255 255 255 255 255 255 255 255 255 255 255 255 255 255 255 255 255 255 255 
255 255 255 255 255 255 255 255 255 255 255 255 255 255 255 255 255 255 255 255 255 255 255 255 255 255 255 255 255 255 255 255 255 255 255 255 255 255 255 255 255 255 255 255 255 255 255 255 255 255 255 255 255 255 255 255 255 255 255 255 255 255 255 255 255 255 255 255 255 255 255 255 255 255 255 255 255 255 255 255 255 255 255 255 255 255 255 255 255 255 255 255 255 255 255 255 255 255 255 255 255 255 255 255 255 255 255 255 255 255 255 255 255 255 255 255 255 255 255 255 255 255 255 255 255 255 255 255 255 255 255 255 255 255 255 255 255 255 255 255 255 255 255 255 255 255 255 255 255 255 254 254 254 253 253 253 252 252 252 240 240 240 209 209 209 179 178 178 148 147 147 126 125 125 122 121 121 117 117 117 113 113 113 114 114 114 128 128 128 142 142 142 157 157 157 167 167 167 167 167 165 166 166 163 166 165 161 165 164 159 165 163 156 165 162 152 165 161 148 164 160 145 164 159 143 164 158 141 164 158 139 164 157 138 164 157 139 164 158 140 165 158 141 165 158 142 165 160 145 166 161 148 166 162 151 166 163 154 155 152 146 144 142 138 133 132 129 122 122 121 99 99 98 75 76 75 52 52 52 28 29 29 28 29 29 31 32 31 34 35 34 37 37 36 47 47 46 58 58 57 69 69 68 80 80 79 93 93 93 108 108 107 122 122 122 136 136 136 145 145 145 153 153 153 160 160 160 167 167 167 172 172 172 177 177 177 181 181 181 185 185 185 187 187 187 186 186 186 186 186 186 186 186 186 186 186 186 186 186 186 186 186 186 186 186 186 186 186 186 186 186 186 187 187 187 187 187 187 187 187 187 187 187 187 188 188 188 188 188 188 188 188 188 188 188 188 188 188 188 188 188 188 187 187 187 186 186 186 186 186 186 185 185 185 181 181 181 174 174 174 167 167 167 160 160 160 152 152 152 143 143 143 133 133 133 124 124 124 113 113 113 99 99 99 84 84 84 70 70 70 58 58 58 50 51 50 43 43 43 36 36 36 31 32 31 35 36 35 40 40 40 44 44 44 51 51 51 72 72 72 93 93 93 115 114 114 134 134 134 142 141 141 149 149 149 157 157 157 164 165 165 164 164 163 164 164 160 164 163 158 164 162 156 164 161 152 163 160 149 162 159 146 162 157 142 162 157 141 162 157 140 162 157 138 163 157 137 163 157 138 164 158 139 164 158 141 164 159 142 165 160 145 165 161 148 165 162 151 165 163 154 166 164 157 166 165 160 166 166 163 167 166 166 160 159 160 151 150 151 142 141 142 132 132 132 124 123 124 115 114 115 106 106 106 97 97 97 119 119 119 157 157 157 194 194 194 232 232 232 247 247 247 249 249 249 251 251 251 253 253 253 254 254 254 254 254 254 255 255 255 255 255 255 255 255 255 255 255 255 255 255 255 255 255 255 255 255 255 255 255 255 255 255 255 255 255 255 255 255 255 255 255 255 255 255 255 255 255 255 255 255 255 255 255 255 255 255 255 255 255 255 255 255 255 255 255 255 255 255 255 255 255 255 255 255 255 255 255 255 255 255 255 255 255 255 255 255 255 255 255 255 255 255 255 255 255 255 255 255 255 255 255 255 255 255 255 255 255 255 255 255 255 255 255 255 255 255 255 255 255 255 255 255 255 255 255 255 255 255 255 255 255 255 255 255 255 255 255 255 255 255 255 255 255 255 255 255 255 
255 255 255 255 255 255 255 255 255 255 255 255 255 255 255 255 255 255 255 255 255 255 255 255 255 255 255 255 255 255 255 255 255 255 255 255 255 255 255 255 255 255 255 255 255 255 255 255 255 255 255 255 255 255 255 255 255 255 255 255 255 255 255 255 255 255 255 255 255 255 255 255 255 255 255 255 255 255 255 255 255 255 255 255 255 255 255 255 255 255 255 255 255 255 255 255 255 255 255 255 255 255 255 255 255 255 255 255 255 255 255 255 255 255 255 255 255 255 255 255 255 255 255 255 255 255 255 255 255 255 255 255 255 255 255 255 255 255 255 255 255 255 255 255 255 255 255 255 255 255 255 255 255 255 255 255 255 255 255 245 245 245 219 219 217 193 192 190 167 166 162 147 145 140 137 134 127 127 124 115 117 114 103 114 111 97 128 124 110 143 138 122 157 152 134 168 162 143 167 162 140 167 161 137 167 160 135 166 159 132 166 158 128 166 157 125 165 156 121 165 155 118 165 154 116 165 153 115 164 152 113 164 152 111 164 152 112 164 152 113 164 152 114 165 152 115 166 154 118 166 155 122 167 157 126 168 158 129 160 151 124 152 144 119 144 137 114 136 129 109 114 109 90 92 87 70 70 65 50 48 44 30 44 40 27 42 39 27 40 37 27 38 35 27 44 41 34 50 49 43 57 56 52 64 63 61 75 75 73 88 88 87 101 101 100 113 113 113 123 123 123 131 131 131 140 140 140 148 148 148 153 153 153 157 157 157 161 161 161 165 165 165 167 167 167 167 167 167 168 168 168 169 169 169 169 169 169 170 170 170 170 170 170 171 171 171 171 171 171 171 171 171 172 172 172 172 172 172 172 172 172 171 171 171 171 171 171 171 171 171 170 170 170 170 170 170 169 169 169 168 168 168 167 167 167 165 165 165 163 163 163 161 161 161 157 157 157 150 150 150 143 143 143 136 136 136 129 129 129 120 120 120 111 111 111 102 102 102 92 92 92 81 81 81 70 70 70 59 59 59 50 50 50 47 48 47 45 45 45 42 43 42 42 43 41 49 49 47 56 55 52 63 62 57 71 70 64 90 88 81 109 107 97 128 125 114 146 142 129 151 147 133 157 153 136 162 158 140 167 163 144 166 162 140 165 160 136 164 158 132 163 156 128 163 155 125 163 154 122 162 153 119 162 152 116 162 152 114 162 152 113 163 152 112 163 152 111 164 153 112 164 153 113 164 154 114 165 154 115 165 155 118 166 156 121 166 157 124 166 158 126 166 159 130 167 160 133 167 160 137 167 161 140 160 154 135 151 145 127 141 135 120 132 126 112 127 122 109 123 119 108 120 116 107 117 114 106 138 136 130 172 170 166 206 205 202 239 239 238 252 252 252 253 253 252 253 253 253 254 254 254 254 254 254 254 254 254 255 255 255 255 255 255 255 255 255 255 255 255 255 255 255 255 255 255 255 255 255 255 255 255 255 255 255 255 255 255 255 255 255 255 255 255 255 255 255 255 255 255 255 255 255 255 255 255 255 255 255 255 255 255 255 255 255 255 255 255 255 255 255 255 255 255 255 255 255 255 255 255 255 255 255 255 255 255 255 255 255 255 255 255 255 255 255 255 255 255 255 255 255 255 255 255 255 255 255 255 255 255 255 255 255 255 255 255 255 255 255 255 255 255 255 255 255 255 255 255 255 255 255 255 255 255 255 255 255 255 255 255 255 255 255 255 255 255 255 255 255 
255 255 255 255 255 255 255 255 255 255 255 255 255 255 255 255 255 255 255 255 255 255 255 255 255 255 255 255 255 255 255 255 255 255 255 255 255 255 255 255 255 255 255 255 255 255 255 255 255 255 255 255 255 255 255 255 255 255 255 255 255 255 255 255 255 255 255 255 255 255 255 255 255 255 255 255 255 255 255 255 255 255 255 255 255 255 255 255 255 255 255 255 255 255 255 255 255 255 255 255 255 255 255 255 255 255 255 255 255 255 255 255 255 255 255 255 255 255 255 255 255 255 255 255 255 255 255 255 255 255 255 255 255 255 255 255 255 255 255 255 255 255 255 255 255 255 255 255 255 255 255 255 255 255 255 255 255 255 255 248 247 246 228 227 223 208 206 200 189 186 177 171 167 155 155 150 134 140 134 112 125 118 91 118 110 78 132 122 87 145 135 95 158 147 104 169 156 110 168 155 106 168 154 102 168 153 99 168 152 95 168 151 92 167 151 89 167 150 86 167 149 83 166 148 82 166 147 81 166 147 79 165 146 78 165 146 79 165 146 79 165 146 80 165 146 81 166 146 83 166 147 86 167 148 89 167 149 92 162 144 89 156 139 87 150 134 84 145 129 82 129 114 70 112 98 57 95 83 45 79 67 33 71 60 30 64 55 28 57 49 26 50 43 24 50 44 29 51 47 35 52 49 41 52 51 47 60 59 56 69 68 66 78 78 76 87 87 87 94 94 94 101 101 101 109 109 109 116 116 116 121 121 121 126 126 126 131 131 131 136 136 136 139 139 139 141 141 141 142 142 142 144 144 144 145 145 145 147 147 147 149 149 149 150 150 150 151 151 151 151 151 151 150 150 150 150 150 150 150 150 150 149 149 149 148 148 148 147 147 147 145 145 145 144 144 144 142 142 142 141 141 141 138 138 138 135 135 135 132 132 132 128 128 128 124 124 124 118 118 118 112 112 112 106 106 106 99 99 99 92 92 92 85 85 85 78 78 78 71 71 71 66 66 66 60 60 60 55 55 55 52 52 52 55 55 55 59 59 59 62 63 62 66 67 66 75 74 70 83 81 74 91 88 78 99 96 82 113 108 90 126 120 97 139 132 104 151 143 111 155 146 110 158 149 110 162 152 109 165 155 109 165 154 104 165 152 100 164 151 96 164 150 91 164 149 89 163 148 86 163 148 84 163 147 82 163 147 81 164 147 80 164 147 79 165 148 78 165 148 79 165 148 79 166 149 80 166 149 81 167 150 83 167 150 86 168 151 88 168 151 90 168 152 93 168 153 97 168 154 101 169 154 105 161 148 101 152 139 96 143 130 91 133 121 85 133 122 90 136 127 100 140 132 109 143 137 118 162 157 142 189 185 174 215 213 206 242 241 238 253 252 251 253 253 252 253 253 253 254 254 254 254 254 254 254 254 254 255 255 255 255 255 255 255 255 255 255 255 255 255 255 255 255 255 255 255 255 255 255 255 255 255 255 255 255 255 255 255 255 255 255 255 255 255 255 255 255 255 255 255 255 255 255 255 255 255 255 255 255 255 255 255 255 255 255 255 255 255 255 255 255 255 255 255 255 255 255 255 255 255 255 255 255 255 255 255 255 255 255 255 255 255 255 255 255 255 255 255 255 255 255 255 255 255 255 255 255 255 255 255 255 255 255 255 255 255 255 255 255 255 255 255 255 255 255 255 255 255 255 255 255 255 255 255 255 255 255 255 255 255 255 255 255 255 255 255 255 255 
255 255 255 255 255 255 255 255 255 255 255 255 255 255 255 255 255 255 255 255 255 255 255 255 255 255 255 255 255 255 255 255 255 255 255 255 255 255 255 255 255 255 255 255 255 255 255 255 255 255 255 255 255 255 255 255 255 255 255 255 255 255 255 255 255 255 255 255 255 255 255 255 255 255 255 255 255 255 255 255 255 255 255 255 255 255 255 255 255 255 255 255 255 255 255 255 255 255 255 255 255 255 255 255 255 255 255 255 255 255 255 255 255 255 255 255 255 255 255 255 255 255 255 255 255 255 255 255 255 255 255 255 255 255 255 255 255 255 255 255 255 255 255 255 255 255 255 255 255 255 255 255 255 255 255 255 255 255 255 250 249 248 237 235 229 223 220 211 210 206 192 194 189 170 174 166 140 153 144 109 133 122 79 122 109 59 135 120 64 147 131 69 160 142 74 170 150 77 170 149 72 170 148 67 170 147 62 170 146 58 169 145 55 169 144 53 169 144 51 169 143 48 168 142 48 167 141 47 167 141 46 166 140 45 166 140 45 166 139 46 166 139 46 166 139 47 166 139 48 166 139 50 166 139 52 166 140 54 163 137 54 160 134 54 157 132 55 153 129 55 143 120 50 132 110 45 121 100 40 110 90 36 98 80 32 86 71 28 74 61 24 63 51 21 56 47 23 51 44 26 46 42 30 41 39 33 44 43 39 50 49 46 55 54 53 60 60 60 66 66 66 72 72 72 77 77 77 83 83 83 89 89 89 95 95 95 101 101 101 107 107 107 111 111 111 114 114 114 117 117 117 119 119 119 122 122 122 124 124 124 127 127 127 129 129 129 130 130 130 130 130 130 129 129 129 129 129 129 128 128 128 126 126 126 124 124 124 123 123 123 120 120 120 118 118 118 115 115 115 113 113 113 110 110 110 105 105 105 100 100 100 96 96 96 91 91 91 86 86 86 80 80 80 75 75 75 70 70 70 65 65 65 59 59 59 54 54 54 50 50 50 50 50 50 51 51 51 51 51 51 54 54 54 63 63 63 72 73 72 82 82 82 91 91 90 100 99 93 109 107 96 119 114 99 128 122 101 135 127 99 142 133 97 149 138 95 156 143 93 158 144 88 160 145 83 162 146 78 164 147 74 164 146 69 164 145 64 164 144 59 164 143 55 164 143 53 164 142 51 164 142 49 164 142 48 165 142 47 165 142 46 166 142 46 166 143 45 166 143 45 167 143 46 167 144 47 168 144 47 168 144 49 169 144 50 169 145 52 170 145 53 170 145 57 170 146 61 170 147 65 170 148 69 163 141 68 153 133 65 144 124 62 135 116 59 139 122 72 149 135 91 159 147 110 169 159 130 186 178 155 206 200 183 225 222 211 245 244 239 253 252 250 253 253 251 254 253 252 254 254 254 254 254 254 254 254 254 255 255 255 255 255 255 255 255 255 255 255 255 255 255 255 255 255 255 255 255 255 255 255 255 255 255 255 255 255 255 255 255 255 255 255 255 255 255 255 255 255 255 255 255 255 255 255 255 255 255 255 255 255 255 255 255 255 255 255 255 255 255 255 255 255 255 255 255 255 255 255 255 255 255 255 255 255 255 255 255 255 255 255 255 255 255 255 255 255 255 255 255 255 255 255 255 255 255 255 255 255 255 255 255 255 255 255 255 255 255 255 255 255 255 255 255 255 255 255 255 255 255 255 255 255 255 255 255 255 255 255 255 255 255 255 255 255 255 255 255 255 
255 255 255 255 255 255 255 255 255 255 255 255 255 255 255 255 255 255 255 255 255 255 255 255 255 255 255 255 255 255 255 255 255 255 255 255 255 255 255 255 255 255 255 255 255 255 255 255 255 255 255 255 255 255 255 255 255 255 255 255 255 255 255 255 255 255 255 255 255 255 255 255 255 255 255 255 255 255 255 255 255 255 255 255 255 255 255 255 255 255 255 255 255 255 255 255 255 255 255 255 255 255 255 255 255 255 255 255 255 255 255 255 255 255 255 255 255 255 255 255 255 255 255 255 255 255 255 255 255 255 255 255 255 255 255 255 255 255 255 255 255 255 255 255 255 255 255 255 255 255 255 255 255 255 255 255 255 255 255 252 252 250 245 243 236 238 234 221 231 226 207 218 211 185 192 182 146 167 154 106 141 125 67 126 108 40 138 118 41 150 127 42 162 137 44 171 144 44 171 143 38 171 141 32 171 140 26 171 139 21 171 139 19 171 138 17 171 137 15 170 137 14 170 136 13 169 135 13 168 135 12 168 134 12 167 134 12 167 133 12 167 133 12 167 132 12 166 132 13 166 131 14 166 131 15 165 130 17 165 130 19 164 130 22 163 129 25 162 129 28 157 125 31 151 121 33 146 117 36 140 113 39 125 100 34 108 87 29 91 73 23 75 59 18 63 50 17 52 42 18 40 35 18 29 27 19 29 27 22 30 29 26 32 31 29 34 34 33 37 37 37 42 42 42 46 46 46 51 51 51 57 57 57 64 64 64 71 71 71 78 78 78 83 83 83 87 87 87 91 91 91 95 95 95 98 98 98 102 102 102 105 105 105 108 108 108 109 109 109 109 109 109 108 108 108 107 107 107 106 106 106 103 103 103 101 101 101 98 98 98 96 96 96 92 92 92 89 89 89 85 85 85 81 81 81 75 75 75 69 69 69 63 63 63 58 58 58 53 53 53 49 49 49 45 45 45 41 41 41 37 37 37 33 33 33 29 29 29 28 28 28 35 35 35 41 41 41 47 47 47 55 55 55 71 71 71 86 86 86 101 102 101 116 116 114 126 124 116 136 132 117 147 141 119 156 148 119 157 147 108 158 146 97 160 145 86 161 144 75 162 143 66 162 142 57 162 141 47 163 140 38 163 139 33 164 138 28 164 137 23 165 136 18 165 136 17 165 136 16 165 137 15 166 137 13 166 137 13 167 137 13 167 137 12 167 138 12 168 138 12 168 138 13 169 138 13 169 139 13 170 139 14 170 138 15 171 138 16 171 138 17 171 139 21 171 140 25 171 140 29 172 141 34 164 135 34 155 127 34 146 119 33 136 111 33 145 123 53 162 143 83 179 162 112 196 182 141 210 199 167 223 215 191 235 230 215 248 246 239 253 252 249 253 253 251 254 253 252 254 254 253 254 254 254 254 254 254 255 255 255 255 255 255 255 255 255 255 255 255 255 255 255 255 255 255 255 255 255 255 255 255 255 255 255 255 255 255 255 255 255 255 255 255 255 255 255 255 255 255 255 255 255 255 255 255 255 255 255 255 255 255 255 255 255 255 255 255 255 255 255 255 255 255 255 255 255 255 255 255 255 255 255 255 255 255 255 255 255 255 255 255 255 255 255 255 255 255 255 255 255 255 255 255 255 255 255 255 255 255 255 255 255 255 255 255 255 255 255 255 255 255 255 255 255 255 255 255 255 255 255 255 255 255 255 255 255 255 255 255 255 255 255 255 255 255 255 255 255 
255 255 255 255 255 255 255 255 255 255 255 255 255 255 255 255 255 255 255 255 255 255 255 255 255 255 255 255 255 255 255 255 255 255 255 255 255 255 255 255 255 255 255 255 255 255 255 255 255 255 255 255 255 255 255 255 255 255 255 255 255 255 255 255 255 255 255 255 255 255 255 255 255 255 255 255 255 255 255 255 255 255 255 255 255 255 255 255 255 255 255 255 255 255 255 255 255 255 255 255 255 255 255 255 255 255 255 255 255 255 255 255 255 255 255 255 255 255 255 255 255 255 255 255 255 255 255 255 255 255 255 255 255 255 255 255 255 254 254 254 252 254 253 251 253 253 249 253 251 246 251 249 240 249 247 235 248 244 229 245 240 220 240 233 207 235 227 193 230 220 180 219 207 159 196 182 124 173 156 88 150 131 53 136 115 28 146 123 28 156 130 28 165 138 28 173 144 27 173 142 22 173 141 17 173 140 12 173 139 7 173 139 6 173 138 4 172 138 3 172 137 2 171 137 1 171 136 1 170 135 1 169 134 1 169 134 1 168 133 1 168 133 1 168 132 1 167 131 1 167 130 2 166 130 3 166 129 3 165 129 6 165 129 10 165 129 13 165 130 16 162 128 20 159 126 24 156 124 29 152 122 33 138 110 29 123 97 24 108 85 19 92 72 14 81 63 13 69 55 13 58 46 13 47 38 13 43 36 15 41 36 18 40 35 22 38 34 25 39 36 29 40 38 33 41 40 37 43 43 42 47 47 47 52 52 52 57 57 57 62 62 62 66 66 66 69 69 69 72 72 72 75 75 75 78 78 78 81 81 81 84 84 84 87 87 87 88 88 88 88 88 88 87 87 87 86 86 86 85 85 85 83 83 83 81 81 81 78 78 78 76 76 76 74 74 74 71 71 71 69 69 69 66 66 66 62 62 62 58 58 58 54 54 54 50 50 50 49 49 49 47 47 47 45 45 45 43 43 43 43 43 43 42 42 42 41 41 41 43 42 42 50 50 48 57 57 54 65 64 59 74 72 66 88 86 77 102 100 88 117 113 99 130 126 107 139 133 107 148 140 107 157 147 107 164 153 105 164 150 93 164 148 81 163 145 69 163 143 58 163 142 49 163 140 40 163 139 31 163 138 22 163 137 18 164 137 14 165 136 9 165 136 5 166 136 4 166 136 3 166 137 3 167 137 2 167 137 1 168 138 1 168 138 1 169 138 1 169 139 1 170 139 1 171 139 1 171 139 2 172 139 2 172 139 3 173 139 3 173 139 4 173 139 7 173 139 11 174 140 15 174 141 18 168 136 19 160 129 20 152 122 20 144 115 20 153 127 40 169 145 67 185 164 94 201 182 121 213 196 144 222 208 164 231 220 185 240 232 205 245 238 217 246 241 224 248 244 230 250 247 237 251 249 242 252 250 245 253 252 249 254 254 253 255 255 255 255 255 255 255 255 255 255 255 255 255 255 255 255 255 255 255 255 255 255 255 255 255 255 255 255 255 255 255 255 255 255 255 255 255 255 255 255 255 255 255 255 255 255 255 255 255 255 255 255 255 255 255 255 255 255 255 255 255 255 255 255 255 255 255 255 255 255 255 255 255 255 255 255 255 255 255 255 255 255 255 255 255 255 255 255 255 255 255 255 255 255 255 255 255 255 255 255 255 255 255 255 255 255 255 255 255 255 255 255 255 255 255 255 255 255 255 255 255 255 255 255 255 255 255 255 255 255 255 255 255 255 255 
255 255 255 255 255 255 255 255 255 255 255 255 255 255 255 255 255 255 255 255 255 255 255 255 255 255 255 255 255 255 255 255 255 255 255 255 255 255 255 255 255 255 255 255 255 255 255 255 255 255 255 255 255 255 255 255 255 255 255 255 255 255 255 255 255 255 255 255 255 255 255 255 255 255 255 255 255 255 255 255 255 255 255 255 255 255 255 255 255 255 255 255 255 255 255 255 255 255 255 255 255 255 255 255 255 255 255 255 255 255 255 255 255 255 255 255 255 255 255 255 255 255 255 255 255 255 255 255 255 255 255 255 255 255 255 254 254 253 253 252 249 252 251 245 251 249 240 249 246 232 245 240 218 241 234 204 237 228 190 233 222 176 228 215 161 223 208 146 217 201 131 209 190 113 192 173 88 176 155 63 160 137 37 150 126 19 157 132 20 163 137 20 170 142 20 175 146 19 175 146 16 175 145 12 175 144 8 175 143 5 175 143 4 175 142 3 174 142 2 174 141 1 173 140 1 172 139 1 172 139 1 171 138 1 170 137 1 170 136 1 169 136 1 169 135 1 168 134 1 168 133 1 167 132 2 167 132 2 166 131 5 166 131 7 165 131 9 165 131 11 163 129 14 160 127 17 158 126 20 156 124 23 146 115 20 135 106 17 124 97 13 113 87 10 104 80 10 96 74 10 87 68 10 79 61 10 73 58 13 68 55 17 63 52 21 58 49 25 55 48 30 52 47 35 50 47 39 47 47 44 48 48 47 50 50 49 51 51 51 53 53 53 54 54 54 56 56 56 57 57 57 58 58 58 60 60 60 62 62 62 64 64 64 66 66 66 67 67 67 66 66 66 66 66 66 66 66 66 65 65 65 63 63 63 62 62 62 60 60 60 59 59 59 59 59 59 58 58 58 58 58 58 57 57 57 57 57 57 57 57 57 56 56 56 56 56 56 58 58 58 59 59 59 60 60 60 62 62 62 65 65 65 68 68 68 70 70 70 74 74 73 81 80 75 87 85 78 93 91 80 100 97 82 110 105 83 120 113 84 130 122 85 139 129 85 145 134 83 152 139 80 158 144 77 164 148 74 164 146 66 164 145 57 163 143 49 163 142 41 163 141 34 163 140 28 163 140 22 163 139 16 164 139 13 165 139 10 165 139 7 166 139 4 167 139 3 167 139 2 168 140 2 168 140 1 169 141 1 169 141 1 170 141 1 170 142 1 171 142 1 172 142 1 172 142 1 173 143 1 173 143 2 174 142 2 175 142 2 175 142 3 175 142 5 176 143 8 176 143 10 176 143 13 172 139 14 166 135 14 161 130 14 155 125 14 162 133 28 173 145 47 184 158 66 196 171 85 204 181 103 212 190 120 219 200 137 227 209 154 232 217 169 236 223 184 240 229 198 244 236 212 247 241 223 249 245 232 251 249 241 254 253 250 255 255 254 255 255 254 255 255 254 255 255 255 255 255 255 255 255 255 255 255 255 255 255 255 255 255 255 255 255 255 255 255 255 255 255 255 255 255 255 255 255 255 255 255 255 255 255 255 255 255 255 255 255 255 255 255 255 255 255 255 255 255 255 255 255 255 255 255 255 255 255 255 255 255 255 255 255 255 255 255 255 255 255 255 255 255 255 255 255 255 255 255 255 255 255 255 255 255 255 255 255 255 255 255 255 255 255 255 255 255 255 255 255 255 255 255 255 255 255 255 255 255 255 255 255 255 255 255 255 255 255 255 255 255 255 
255 255 255 255 255 255 255 255 255 255 255 255 255 255 255 255 255 255 255 255 255 255 255 255 255 255 255 255 255 255 255 255 255 255 255 255 255 255 255 255 255 255 255 255 255 255 255 255 255 255 255 255 255 255 255 255 255 255 255 255 255 255 255 255 255 255 255 255 255 255 255 255 255 255 255 255 255 255 255 255 255 255 255 255 255 255 255 255 255 255 255 255 255 255 255 255 255 255 255 255 255 255 255 255 255 255 255 255 255 255 255 255 255 255 255 255 255 255 255 255 254 254 254 254 254 254 254 254 254 254 254 254 254 254 254 254 253 251 252 250 245 250 248 238 249 245 232 245 240 218 239 231 196 233 221 173 227 212 151 221 204 131 215 196 115 210 189 99 205 182 82 198 174 67 188 164 52 179 154 37 169 144 22 163 138 11 167 141 11 171 144 11 175 147 12 178 149 11 177 149 9 177 148 7 177 147 5 177 147 3 177 146 2 176 146 2 176 145 1 176 145 1 175 144 1 174 143 1 173 142 0 173 141 0 172 140 0 171 140 0 171 139 0 170 138 0 170 137 1 169 136 1 168 135 1 168 134 1 167 134 3 166 133 4 166 132 5 165 132 6 163 130 8 162 129 10 160 127 12 159 126 13 153 120 12 146 114 10 140 109 8 134 103 6 128 98 6 122 93 7 116 89 7 110 84 8 102 79 12 94 74 17 86 69 21 77 63 26 70 60 31 64 57 36 58 54 41 52 51 47 49 49 47 47 47 46 46 46 45 44 44 44 43 43 43 42 42 42 42 42 42 41 41 41 41 41 41 43 43 43 44 44 44 45 45 45 46 46 46 45 45 45 45 45 45 45 45 45 44 44 44 43 43 43 43 43 43 42 42 42 42 42 42 44 44 44 45 45 45 47 47 47 49 49 49 52 52 52 55 55 55 59 59 59 62 62 62 67 67 67 71 71 71 75 75 75 80 80 80 87 87 87 93 93 93 100 100 100 106 106 104 111 110 103 117 114 102 122 118 100 127 121 97 132 124 89 138 127 80 143 130 71 148 132 63 152 135 58 156 138 53 160 140 48 163 142 43 163 142 38 163 142 33 164 141 28 164 141 24 164 141 20 164 140 16 164 140 13 164 140 9 165 141 7 165 141 6 166 141 4 167 141 2 168 142 2 168 142 1 169 143 1 169 144 1 170 144 1 171 144 1 171 145 0 172 145 0 173 145 0 173 146 1 174 146 1 175 146 1 175 146 1 176 146 1 176 146 1 177 146 2 178 146 3 178 146 4 178 146 6 179 146 7 176 143 8 173 140 8 170 137 8 167 134 8 170 138 16 177 145 27 184 152 38 190 159 50 196 166 62 202 173 76 208 180 90 213 187 103 219 195 122 225 205 144 231 215 165 238 225 187 242 233 205 246 239 219 249 245 233 253 251 247 254 254 254 254 254 254 254 254 254 254 254 254 254 254 254 255 255 255 255 255 255 255 255 255 255 255 255 255 255 255 255 255 255 255 255 255 255 255 255 255 255 255 255 255 255 255 255 255 255 255 255 255 255 255 255 255 255 255 255 255 255 255 255 255 255 255 255 255 255 255 255 255 255 255 255 255 255 255 255 255 255 255 255 255 255 255 255 255 255 255 255 255 255 255 255 255 255 255 255 255 255 255 255 255 255 255 255 255 255 255 255 255 255 255 255 255 255 255 255 255 255 255 255 255 255 255 255 255 255 255 255 255 255 255 255 
255 255 255 255 255 255 255 255 255 255 255 255 255 255 255 255 255 255 255 255 255 255 255 255 255 255 255 255 255 255 255 255 255 255 255 255 255 255 255 255 255 255 255 255 255 255 255 255 255 255 255 255 255 255 255 255 255 255 255 255 255 255 255 255 255 255 255 255 255 255 255 255 255 255 255 255 255 255 255 255 255 255 255 255 255 255 255 255 255 255 255 255 255 255 255 255 255 255 255 255 255 255 255 255 255 255 255 255 255 255 255 255 255 255 255 255 255 254 254 254 254 254 254 254 254 254 254 254 254 254 254 254 254 254 254 253 252 250 251 249 241 249 245 232 246 242 223 241 234 205 233 221 174 224 209 143 216 196 112 209 185 86 203 178 69 198 170 51 192 163 34 188 157 20 185 155 16 182 153 11 179 150 6 177 149 3 178 150 3 179 150 3 179 151 3 180 152 3 180 152 2 180 151 2 179 151 1 179 150 1 179 150 1 178 150 0 178 149 0 177 148 0 176 147 0 176 147 0 175 146 0 174 145 0 174 144 0 173 143 0 172 142 0 171 141 0 171 140 0 170 139 0 169 138 0 169 137 0 168 136 1 167 135 1 166 134 1 165 133 2 164 131 2 163 130 3 163 129 3 162 127 4 160 125 3 158 123 3 156 121 2 154 118 2 151 116 2 148 113 3 145 110 5 142 108 6 132 101 10 120 93 16 108 85 21 97 78 26 86 72 32 76 66 38 66 61 44 57 55 49 50 50 48 45 45 43 40 40 39 35 35 34 31 31 31 29 29 29 26 26 26 24 24 24 23 23 23 23 23 23 24 24 24 24 24 24 24 24 24 24 24 24 24 24 24 24 24 24 24 24 24 24 24 24 24 24 24 24 24 24 25 25 25 29 29 29 32 32 32 36 36 36 41 41 41 47 47 47 54 54 54 61 61 61 68 68 68 76 76 76 83 83 83 90 90 90 99 99 99 109 109 109 119 119 119 129 129 129 138 137 135 142 140 131 146 142 126 150 144 121 154 146 113 154 143 94 155 140 76 156 138 57 157 136 41 158 136 34 160 136 26 161 137 19 162 137 13 163 138 11 163 138 10 164 139 8 164 140 6 164 140 5 164 141 4 165 141 3 165 142 3 165 142 2 166 143 2 167 143 1 168 144 1 168 145 0 169 145 0 170 146 0 170 147 0 171 147 0 172 148 0 173 148 0 173 149 0 174 149 0 175 149 0 176 149 0 176 150 0 177 150 0 178 150 0 178 150 0 179 150 0 180 149 1 180 149 1 181 149 2 181 148 2 180 147 2 180 146 2 179 145 2 178 144 2 179 144 4 181 145 8 183 146 11 185 148 14 188 151 21 192 155 32 196 160 42 200 164 52 207 174 74 215 187 104 223 201 133 231 214 163 238 224 186 242 233 205 247 242 225 252 250 244 254 254 253 254 254 254 254 254 254 254 254 254 254 254 254 254 254 254 255 255 255 255 255 255 255 255 255 255 255 255 255 255 255 255 255 255 255 255 255 255 255 255 255 255 255 255 255 255 255 255 255 255 255 255 255 255 255 255 255 255 255 255 255 255 255 255 255 255 255 255 255 255 255 255 255 255 255 255 255 255 255 255 255 255 255 255 255 255 255 255 255 255 255 255 255 255 255 255 255 255 255 255 255 255 255 255 255 255 255 255 255 255 255 255 255 255 255 255 255 255 255 255 255 255 255 255 255 255 255 255 255 255 255 255 255 
255 255 255 255 255 255 255 255 255 255 255 255 255 255 255 255 255 255 255 255 255 255 255 255 255 255 255 255 255 255 255 255 255 255 255 255 255 255 255 255 255 255 255 255 255 255 255 255 255 255 255 255 255 255 255 255 255 255 255 255 255 255 255 255 255 255 255 255 255 255 255 255 255 255 255 255 255 255 255 255 255 255 255 255 255 255 255 255 255 255 255 255 255 255 255 255 255 255 255 255 255 255 255 255 255 255 255 255 255 255 255 255 255 255 254 255 254 254 254 254 254 254 254 253 253 252 253 252 249 252 251 245 251 249 242 249 246 233 246 241 219 242 235 205 239 230 191 233 222 170 225 210 141 217 198 112 209 186 83 203 177 60 198 171 47 194 166 33 190 160 20 187 157 12 187 158 15 187 159 17 187 160 20 187 161 22 187 161 24 187 162 25 187 162 27 187 162 29 186 162 29 186 162 30 186 162 31 186 162 31 185 161 31 185 161 31 184 160 31 184 160 31 183 159 30 182 157 29 181 156 28 180 155 27 179 153 25 178 152 23 177 150 21 176 149 20 175 147 17 174 145 14 172 144 11 171 142 8 170 140 6 169 138 4 167 137 2 166 135 0 165 133 0 165 132 0 164 131 0 164 130 0 163 129 0 163 128 0 163 126 0 162 125 0 161 124 1 159 122 2 157 120 3 156 118 4 146 112 8 135 104 13 124 97 18 113 89 23 103 83 29 93 78 35 84 73 42 74 68 48 68 63 49 62 59 49 57 55 48 52 51 48 48 48 46 45 45 44 43 43 42 40 40 40 39 39 39 39 39 39 39 39 39 38 38 38 38 38 38 38 38 38 38 38 38 39 39 39 39 39 39 39 39 39 40 40 40 41 41 41 43 43 43 46 46 46 50 50 50 54 54 54 59 59 59 65 65 65 72 72 72 78 78 78 85 85 85 92 92 92 99 99 99 106 106 106 114 114 113 124 123 119 133 132 126 143 141 133 151 148 135 154 149 127 158 150 119 161 152 111 163 152 101 163 148 82 162 144 63 161 140 44 160 137 27 161 137 21 161 137 14 162 137 7 162 137 1 163 138 1 163 139 0 164 140 0 164 141 0 165 141 0 165 142 0 166 143 0 166 144 0 167 145 1 168 146 1 169 147 2 170 147 3 171 149 6 172 150 9 173 152 12 174 153 15 175 154 17 176 155 19 178 156 21 179 158 24 180 158 25 181 159 27 182 160 28 183 160 29 183 161 30 184 161 31 185 161 31 186 161 32 186 161 32 187 160 31 187 160 31 188 159 31 188 159 29 188 158 28 187 157 27 187 157 26 187 155 24 187 154 21 187 152 19 187 151 17 189 152 19 191 153 23 193 155 28 195 157 32 201 165 50 209 177 77 216 189 103 224 201 130 230 211 154 235 220 175 241 230 196 246 239 218 249 244 231 250 247 237 252 250 243 253 252 249 254 254 253 254 254 253 254 254 254 255 255 255 255 255 255 255 255 255 255 255 255 255 255 255 255 255 255 255 255 255 255 255 255 255 255 255 255 255 255 255 255 255 255 255 255 255 255 255 255 255 255 255 255 255 255 255 255 255 255 255 255 255 255 255 255 255 255 255 255 255 255 255 255 255 255 255 255 255 255 255 255 255 255 255 255 255 255 255 255 255 255 255 255 255 255 255 255 255 255 255 255 255 255 255 255 255 255 255 255 255 255 255 255 255 255 255 255 255 255 255 255 255 255 
255 255 255 255 255 255 255 255 255 255 255 255 255 255 255 255 255 255 255 255 255 255 255 255 255 255 255 255 255 255 255 255 255 255 255 255 255 255 255 255 255 255 255 255 255 255 255 255 255 255 255 255 255 255 255 255 255 255 255 255 255 255 255 255 255 255 255 255 255 255 255 255 255 255 255 255 255 255 255 255 255 255 255 255 255 255 255 255 255 255 255 255 255 255 255 255 255 255 255 255 255 255 255 255 255 255 255 255 255 255 255 254 255 254 254 254 254 254 254 254 254 254 254 253 252 249 251 249 240 249 245 231 247 241 222 243 236 207 238 228 186 233 221 165 228 213 144 222 205 123 217 197 102 211 189 81 205 180 59 201 174 44 198 172 39 196 169 34 193 166 29 192 165 28 193 167 35 193 170 43 194 172 50 195 174 57 195 175 62 195 176 66 196 177 71 196 177 75 196 178 77 196 178 79 196 178 81 195 178 82 195 178 82 194 177 82 194 177 81 193 176 81 192 174 78 191 173 76 190 171 73 188 169 71 187 167 66 186 165 61 184 163 56 183 160 51 181 157 44 179 154 36 177 151 29 175 148 22 173 146 16 171 143 11 170 140 6 168 138 1 167 136 0 166 135 0 165 133 0 165 132 0 164 131 0 164 130 0 163 129 0 163 127 0 162 126 1 160 124 1 159 123 2 157 121 3 151 116 6 143 111 9 135 105 13 127 99 16 120 95 22 114 92 30 107 89 37 100 86 44 96 85 52 92 84 59 89 83 67 85 82 74 83 81 77 81 80 77 79 78 77 77 77 76 76 76 76 75 75 75 75 75 75 74 74 74 74 74 74 74 74 74 75 75 75 75 75 75 76 76 76 77 77 77 78 78 78 79 79 79 81 81 81 84 84 84 86 86 86 89 89 89 93 93 93 97 97 97 101 101 101 105 105 105 109 109 109 114 114 113 118 118 118 122 122 122 127 126 124 134 131 123 140 136 121 147 141 120 153 145 116 155 146 105 158 146 94 161 146 83 163 146 72 162 144 58 162 142 45 161 140 31 161 138 19 161 138 15 162 138 10 162 138 5 162 139 1 163 140 0 164 141 0 165 142 0 165 143 0 166 144 0 166 145 0 167 146 0 167 146 0 169 148 2 170 149 3 171 150 5 172 151 7 174 154 15 176 157 22 178 159 30 180 162 38 181 164 44 183 166 50 185 168 56 186 170 62 188 171 66 189 173 70 190 174 73 192 175 77 193 176 79 194 177 80 194 177 82 195 178 83 196 177 82 196 177 82 197 176 81 197 176 80 197 175 77 197 174 74 196 173 71 196 172 67 196 170 62 195 168 56 194 165 50 194 163 44 194 162 40 195 161 37 196 160 34 196 160 31 200 164 40 205 171 58 210 179 75 216 186 93 221 195 112 226 204 134 231 212 155 237 221 177 241 229 195 244 236 211 248 242 226 251 249 242 253 253 251 254 253 252 254 254 253 254 254 254 255 255 255 255 255 255 255 255 255 255 255 255 255 255 255 255 255 255 255 255 255 255 255 255 255 255 255 255 255 255 255 255 255 255 255 255 255 255 255 255 255 255 255 255 255 255 255 255 255 255 255 255 255 255 255 255 255 255 255 255 255 255 255 255 255 255 255 255 255 255 255 255 255 255 255 255 255 255 255 255 255 255 255 255 255 255 255 255 255 255 255 255 255 255 255 255 255 255 255 255 255 255 255 255 255 255 255 255 255 255 255 
255 255 255 255 255 255 255 255 255 255 255 255 255 255 255 255 255 255 255 255 255 255 255 255 255 255 255 255 255 255 255 255 255 255 255 255 255 255 255 255 255 255 255 255 255 255 255 255 255 255 255 255 255 255 255 255 255 255 255 255 255 255 255 255 255 255 255 255 255 255 255 255 255 255 255 255 255 255 255 255 255 255 255 255 254 254 254 254 254 254 254 254 254 254 254 254 254 254 254 254 254 254 254 254 254 254 254 254 254 254 254 254 254 254 254 254 254 254 254 254 253 254 253 252 251 246 248 245 231 245 239 216 242 234 202 237 226 181 230 216 153 224 206 125 217 196 97 212 188 76 208 184 63 205 179 49 202 175 36 199 172 29 198 172 32 198 173 35 197 173 37 197 174 43 198 177 56 200 180 68 202 184 81 203 186 92 203 188 100 204 190 107 205 191 115 205 193 121 205 193 124 205 194 128 205 194 131 205 195 133 204 194 133 204 193 132 203 193 132 202 192 131 201 190 127 200 188 123 198 186 119 197 184 114 195 181 107 193 178 99 191 175 91 189 172 83 187 167 71 184 163 59 181 159 47 179 155 35 176 151 26 174 148 18 172 144 10 170 140 1 169 139 0 168 137 0 167 136 0 166 135 0 165 133 0 165 132 0 164 131 0 163 129 0 162 128 0 161 127 1 160 125 1 159 124 2 155 121 3 151 117 5 146 113 7 141 109 9 137 107 16 134 106 24 130 105 32 127 104 41 124 106 54 122 108 70 120 111 86 118 114 101 117 115 108 116 115 110 115 114 111 114 114 113 113 113 113 112 112 112 111 111 111 110 110 110 110 110 110 111 111 111 111 111 111 112 112 112 113 113 113 114 114 114 116 116 116 117 117 117 119 119 119 121 121 121 123 123 123 125 125 125 127 127 127 128 128 128 130 130 130 132 132 131 134 134 133 135 135 135 136 136 136 138 138 138 140 139 136 144 140 126 147 141 116 151 142 107 154 142 96 156 142 82 158 142 69 160 141 55 162 141 43 162 140 35 162 140 27 161 139 19 161 138 11 162 139 9 162 140 6 162 140 3 163 141 0 164 142 0 164 143 0 165 144 0 166 146 0 167 146 0 167 147 0 168 148 0 169 149 0 170 151 3 172 152 6 174 154 8 175 155 11 178 159 24 180 163 36 183 167 49 185 170 62 187 173 71 189 176 81 192 179 91 194 182 101 196 184 107 197 186 113 199 188 119 201 190 125 202 191 127 203 192 130 204 193 132 205 194 134 206 194 133 206 193 132 206 193 131 207 192 129 206 191 125 206 190 119 205 189 114 205 187 109 204 185 100 203 182 90 201 178 81 200 175 71 199 172 60 199 169 50 198 165 40 198 162 30 199 163 31 202 166 39 204 169 47 207 172 55 211 178 71 217 187 93 222 195 114 228 204 136 233 214 159 239 224 184 244 235 209 250 246 234 253 252 248 253 252 250 254 253 252 254 254 253 254 254 254 254 254 254 254 254 254 254 254 254 254 254 254 254 254 254 254 254 254 254 254 254 254 254 254 254 254 254 254 254 254 254 254 254 254 254 254 255 255 255 255 255 255 255 255 255 255 255 255 255 255 255 255 255 255 255 255 255 255 255 255 255 255 255 255 255 255 255 255 255 255 255 255 255 255 255 255 255 255 255 255 255 255 255 255 255 255 255 255 255 255 255 255 255 255 255 255 255 255 255 255 255 255 255 255 255 255 255 255 
255 255 255 255 255 255 255 255 255 255 255 255 255 255 255 255 255 255 255 255 255 255 255 255 255 255 255 255 255 255 255 255 255 255 255 255 255 255 255 255 255 255 255 255 255 255 255 255 255 255 255 255 255 255 255 255 255 255 255 255 255 255 255 255 255 255 255 255 255 255 255 255 255 255 255 255 255 255 255 255 255 254 254 254 254 254 254 254 254 254 254 254 254 254 254 254 254 254 254 254 254 254 254 254 254 254 254 254 254 254 254 254 254 254 254 254 254 253 254 253 253 254 253 251 250 242 246 242 222 242 234 202 238 226 181 231 216 154 223 204 120 214 191 85 206 179 50 201 171 28 200 171 23 199 170 18 198 169 13 197 170 14 198 173 25 199 176 35 200 179 46 202 183 59 204 187 77 207 191 94 209 196 112 211 199 127 212 201 138 213 204 148 213 206 158 214 208 167 214 209 172 215 209 176 215 210 181 215 211 184 214 210 183 213 209 183 213 209 182 212 208 181 210 205 175 208 203 170 207 201 164 205 198 158 203 195 147 201 191 136 198 187 126 196 183 115 193 177 98 189 172 81 186 167 65 182 161 48 180 157 37 177 152 25 174 148 13 171 143 1 170 141 1 169 140 0 168 139 0 167 137 0 166 136 0 165 134 0 165 133 0 164 131 0 163 130 0 163 129 0 162 128 0 161 127 1 160 125 1 158 123 2 157 121 2 155 119 3 154 119 10 154 120 19 153 121 28 153 122 37 152 127 57 152 133 80 152 139 104 152 146 128 151 148 139 151 149 142 151 150 146 151 151 150 150 150 150 149 149 149 148 148 148 146 146 146 146 146 146 147 147 147 147 147 147 148 148 148 149 149 149 151 151 151 153 153 153 155 155 155 157 157 157 158 158 158 159 159 159 160 160 160 161 161 161 160 160 160 159 159 159 159 159 158 158 158 157 156 156 156 155 155 155 154 154 154 153 152 147 154 149 129 154 146 112 155 142 94 156 140 76 157 139 60 159 137 44 160 136 27 161 136 14 161 136 11 162 137 9 162 138 6 162 139 3 162 140 3 162 141 2 163 142 1 163 143 0 164 144 0 165 146 0 166 147 0 167 148 0 168 149 0 169 150 0 169 151 0 170 152 0 172 154 4 174 156 8 176 157 11 178 159 15 181 164 33 184 169 50 187 174 68 191 179 85 193 183 99 196 187 112 199 191 126 201 194 139 204 197 148 206 200 156 208 202 164 210 205 172 211 207 176 212 208 179 213 209 182 215 211 185 215 211 184 215 210 182 216 210 180 216 209 178 215 208 172 215 206 165 214 204 158 213 203 151 212 200 139 210 195 125 209 191 111 207 187 98 205 182 81 203 176 64 201 170 46 199 165 28 198 162 21 198 160 20 199 159 19 199 158 18 202 162 30 208 170 52 213 178 73 218 187 95 225 198 124 233 213 158 240 228 193 248 243 227 252 251 246 253 252 248 253 253 251 254 254 253 254 254 254 254 254 254 254 254 254 254 254 254 254 254 254 254 254 254 254 254 254 254 254 254 254 254 254 254 254 254 254 254 254 254 254 254 254 254 254 254 254 254 255 255 255 255 255 255 255 255 255 255 255 255 255 255 255 255 255 255 255 255 255 255 255 255 255 255 255 255 255 255 255 255 255 255 255 255 255 255 255 255 255 255 255 255 255 255 255 255 255 255 255 255 255 255 255 255 255 255 255 255 255 255 255 255 255 255 255 255 255 
255 255 255 255 255 255 255 255 255 255 255 255 255 255 255 255 255 255 255 255 255 255 255 255 255 255 255 255 255 255 255 255 255 255 255 255 255 255 255 255 255 255 255 255 255 255 255 255 255 255 255 255 255 255 255 255 255 255 255 255 255 255 255 255 255 255 255 255 255 255 255 255 255 255 255 255 255 255 254 254 254 254 254 254 254 254 254 254 254 254 254 254 254 254 254 254 254 254 254 254 254 254 254 254 254 254 254 254 254 253 254 253 253 252 252 252 248 252 251 245 251 250 242 248 244 227 242 235 202 237 225 177 232 216 152 225 206 123 218 195 92 210 184 60 202 173 28 198 167 11 199 169 14 199 171 17 200 173 20 201 176 27 203 180 42 204 184 56 206 189 70 208 193 85 210 197 102 213 201 119 215 205 136 217 208 151 218 210 161 219 213 171 219 215 181 220 216 189 220 217 193 220 218 198 220 219 202 220 219 205 220 218 204 219 218 204 218 217 203 217 216 201 216 214 196 214 211 191 213 209 185 211 207 179 209 203 169 206 199 158 204 195 148 202 192 137 198 186 121 195 181 105 192 176 88 188 170 72 185 165 59 182 160 46 179 155 33 176 150 19 174 148 15 172 145 10 171 143 6 169 140 2 168 138 1 167 137 1 166 135 0 165 134 0 164 132 0 164 131 0 163 130 0 163 129 0 162 128 0 162 127 0 161 126 0 161 124 0 161 125 6 162 126 14 163 128 22 163 129 30 164 134 50 164 141 75 165 148 99 165 155 123 165 158 137 165 160 145 165 162 153 165 164 161 165 164 163 163 163 163 162 162 162 161 161 161 161 161 161 162 162 162 163 163 163 163 163 163 165 165 165 167 167 167 169 169 169 171 171 171 172 172 172 172 172 172 173 173 173 173 173 173 173 173 173 171 171 171 169 169 169 168 168 167 166 166 164 164 163 159 162 160 154 159 157 149 158 154 139 158 150 119 157 145 98 157 141 77 157 138 58 158 137 43 159 136 28 160 135 13 161 134 2 161 136 1 162 137 1 162 139 0 162 140 0 163 142 0 163 143 0 164 144 0 164 145 0 165 147 0 166 148 0 167 149 0 168 150 0 170 152 2 171 153 4 172 155 6 174 157 9 176 159 16 179 162 24 181 165 31 183 167 39 187 172 56 190 177 73 193 182 91 196 187 108 199 191 121 202 195 135 205 199 148 207 202 161 209 205 169 211 208 177 213 211 185 216 213 193 217 215 197 218 216 200 219 218 203 220 219 206 221 219 205 221 219 203 221 218 202 222 218 200 221 217 194 221 215 187 220 214 180 219 212 173 218 209 162 216 205 149 215 201 135 213 198 122 211 192 106 209 186 87 206 180 69 204 174 51 202 169 39 201 165 30 200 161 22 198 157 13 200 159 19 205 165 35 209 171 52 213 177 68 219 187 94 227 202 130 235 217 166 243 232 201 248 242 224 250 245 232 251 248 240 253 251 248 253 253 253 253 253 253 254 253 253 254 254 253 254 254 254 254 254 254 254 254 254 254 254 254 254 254 254 254 254 254 254 254 254 254 254 254 254 254 254 254 254 254 254 254 254 255 255 255 255 255 255 255 255 255 255 255 255 255 255 255 255 255 255 255 255 255 255 255 255 255 255 255 255 255 255 255 255 255 255 255 255 255 255 255 255 255 255 255 255 255 255 255 255 255 255 255 255 255 255 255 255 255 255 255 255 255 255 255 255 255 255 
255 255 255 255 255 255 255 255 255 255 255 255 255 255 255 255 255 255 255 255 255 255 255 255 255 255 255 255 255 255 255 255 255 255 255 255 255 255 255 255 255 255 255 255 255 255 255 255 255 255 255 255 255 255 255 255 255 255 255 255 255 255 255 255 255 255 254 254 254 254 254 254 254 254 254 254 254 254 254 254 254 254 254 254 253 253 253 253 253 253 253 253 253 253 253 253 253 253 253 253 253 253 253 253 253 253 253 253 253 253 253 252 251 248 250 248 239 248 245 230 246 242 222 243 235 202 237 225 173 231 214 144 225 204 115 220 195 89 214 189 67 209 182 45 204 175 23 201 173 16 203 176 27 205 180 39 207 184 50 209 188 63 210 192 77 212 196 91 214 200 105 216 204 119 217 207 131 219 209 143 221 212 155 222 215 165 222 216 172 223 218 179 223 219 186 223 220 193 223 221 195 223 221 198 223 221 201 223 221 204 223 221 203 222 220 202 221 219 201 220 218 200 219 216 196 218 214 192 216 213 188 215 211 183 213 207 176 211 204 168 209 201 160 207 198 152 204 194 140 201 190 128 198 185 116 195 181 104 192 176 91 189 171 77 186 166 64 183 161 50 180 157 39 177 152 28 174 148 17 172 143 6 170 141 4 169 139 2 167 138 1 166 136 0 165 134 0 165 133 0 164 132 0 163 131 0 163 130 0 162 128 0 162 127 0 161 126 0 161 126 4 162 127 10 162 127 16 163 128 22 163 132 37 163 136 56 164 141 75 164 146 94 164 150 110 163 153 124 163 157 139 163 160 153 162 161 158 161 161 159 161 161 159 160 160 160 161 161 161 162 162 162 162 162 162 163 163 163 164 164 164 166 166 166 167 167 167 168 168 168 169 169 169 169 169 169 169 169 169 169 169 169 169 169 169 167 167 167 165 165 165 164 163 163 162 161 159 161 158 149 159 155 140 157 151 130 156 148 117 157 145 98 157 142 78 158 139 59 158 137 42 159 136 31 160 136 20 160 136 9 161 136 1 162 138 1 162 139 1 162 141 0 163 142 0 164 143 0 164 145 0 165 146 0 165 147 0 167 149 0 168 150 0 169 151 0 170 153 1 172 155 6 174 158 12 176 160 18 179 163 24 182 166 37 185 170 50 188 174 64 191 178 77 194 183 90 197 187 104 200 191 118 203 195 131 205 198 141 207 201 151 209 204 160 212 207 170 214 210 176 215 212 182 217 214 188 219 216 194 220 218 197 221 219 199 222 220 202 223 221 204 223 221 204 224 221 202 224 221 201 225 221 200 224 220 196 224 219 191 224 218 186 223 217 181 222 215 173 221 212 164 220 209 155 219 207 145 218 203 133 216 198 119 214 194 105 212 189 92 210 184 77 208 178 62 206 173 48 204 167 33 204 166 30 207 168 37 209 170 44 211 172 51 216 180 70 222 192 101 229 204 131 236 216 162 241 226 187 244 233 205 247 241 223 251 248 241 252 252 251 253 252 252 253 253 252 253 253 253 253 253 253 253 253 253 253 253 253 253 253 253 253 253 253 253 253 253 253 253 253 254 254 254 254 254 254 254 254 254 254 254 254 254 254 254 254 254 254 254 254 254 254 254 254 255 255 255 255 255 255 255 255 255 255 255 255 255 255 255 255 255 255 255 255 255 255 255 255 255 255 255 255 255 255 255 255 255 255 255 255 255 255 255 255 255 255 255 255 255 255 255 255 255 255 255 255 255 255 
255 255 255 255 255 255 255 255 255 255 255 255 255 255 255 255 255 255 255 255 255 255 255 255 255 255 255 255 255 255 255 255 255 255 255 255 254 254 254 254 254 254 254 254 254 254 254 254 254 254 254 254 254 254 254 254 254 254 254 254 254 254 254 254 254 254 254 254 254 254 254 254 254 254 254 254 254 254 253 253 253 253 253 253 253 253 253 253 253 253 253 253 252 253 253 252 253 253 252 253 253 252 252 252 252 252 252 252 252 252 252 251 249 244 248 244 230 245 239 216 242 234 202 238 226 178 231 215 144 225 203 111 219 192 77 214 185 54 211 182 43 208 180 31 205 177 19 205 178 21 208 184 40 211 189 60 214 195 80 216 200 98 218 204 112 220 208 126 222 212 141 223 215 153 224 216 160 225 218 167 226 219 174 227 221 180 227 222 184 227 223 188 227 223 192 227 224 196 227 224 198 226 224 199 226 224 201 226 224 202 225 223 201 225 222 201 224 221 200 223 220 199 222 219 196 221 217 193 220 216 191 218 214 188 217 212 183 215 210 178 214 207 173 212 205 167 210 202 160 207 198 152 205 195 144 202 192 137 199 187 123 196 182 109 193 177 95 189 172 81 186 165 63 182 159 45 178 153 27 174 147 9 172 144 6 171 142 4 169 140 2 167 138 0 166 137 0 166 135 0 165 134 0 164 133 0 163 131 0 163 130 0 162 129 0 161 128 0 161 127 3 161 127 6 162 127 9 162 127 13 162 129 24 162 132 38 163 135 52 163 138 66 162 142 84 161 146 104 161 151 124 160 156 145 159 158 154 160 158 155 160 159 157 160 159 159 160 160 160 161 161 161 162 162 162 163 163 163 164 164 164 165 165 165 165 165 165 166 166 166 166 166 166 166 166 166 166 166 166 165 165 165 165 164 164 163 163 163 161 161 161 160 159 159 158 157 153 157 153 139 156 149 125 155 146 111 155 142 95 156 141 77 157 139 58 158 137 40 159 135 25 160 136 18 160 136 12 161 137 6 161 138 1 162 139 1 162 141 0 163 142 0 163 144 0 164 145 0 165 146 0 166 148 0 167 149 0 168 151 0 170 152 0 171 153 0 172 155 1 175 158 10 178 162 20 180 165 29 183 168 39 187 174 58 191 179 77 195 184 96 199 190 115 201 193 125 204 196 134 206 200 144 209 203 154 211 206 160 213 208 167 214 210 173 216 212 179 218 214 183 219 216 187 221 218 191 222 219 195 223 220 197 224 222 198 224 223 200 225 224 202 226 224 202 226 224 201 227 224 201 227 224 200 228 223 198 227 223 195 227 222 192 227 222 190 227 221 185 226 219 179 226 217 174 225 216 168 224 213 160 223 210 151 222 207 141 221 204 132 218 199 116 215 191 94 213 184 73 210 177 52 208 173 42 209 171 39 209 169 36 209 168 33 212 172 46 218 182 71 223 191 97 228 201 123 233 211 150 238 222 178 244 233 205 249 244 233 252 251 249 252 251 250 252 252 251 252 252 252 252 252 252 252 252 252 252 252 252 253 253 253 253 253 253 253 253 253 253 253 253 253 253 253 253 253 253 253 253 253 254 254 254 254 254 254 254 254 254 254 254 254 254 254 254 254 254 254 254 254 254 254 254 254 254 254 254 254 254 254 254 254 254 254 254 254 254 254 254 254 254 254 254 254 254 255 255 255 255 255 255 255 255 255 255 255 255 255 255 255 255 255 255 255 255 255 255 255 255 
255 255 255 255 255 255 255 255 255 255 255 255 255 255 255 255 255 255 255 255 255 255 255 255 255 255 255 255 255 255 255 255 255 254 254 254 254 254 254 254 254 254 254 254 254 254 254 254 254 254 254 254 254 254 254 254 254 254 254 254 254 254 254 254 254 254 254 254 254 254 254 254 253 253 253 253 253 253 253 253 253 253 253 253 252 252 252 252 252 252 252 252 252 252 252 252 252 252 251 252 252 251 252 252 251 252 251 251 251 251 251 249 247 240 245 240 221 242 233 201 238 226 182 233 217 153 226 205 115 219 192 78 212 180 40 208 175 20 208 176 18 207 178 16 207 179 14 208 183 25 213 191 54 217 199 82 221 206 110 224 212 133 226 216 147 227 220 162 229 223 176 230 226 187 231 226 189 231 226 191 231 227 193 232 227 195 231 227 196 231 228 197 231 228 198 230 228 199 230 227 200 229 227 200 229 226 200 229 226 201 228 225 200 228 224 199 227 224 198 226 223 198 225 222 196 224 220 195 223 219 193 222 218 192 221 217 190 220 215 187 219 213 185 217 212 183 215 209 179 214 207 176 212 205 172 210 203 169 206 198 155 203 193 140 199 187 126 196 182 112 191 174 88 187 166 63 182 158 38 177 150 13 175 147 8 173 145 6 171 143 3 169 140 0 168 139 0 167 137 0 166 136 0 165 134 0 164 133 0 163 132 0 162 131 0 161 129 0 161 129 1 161 128 2 161 127 3 161 126 4 161 126 11 161 127 19 162 128 28 162 129 37 161 133 57 159 139 84 158 145 110 157 151 137 157 155 149 158 156 152 158 157 155 159 159 158 160 160 160 161 161 161 162 162 162 163 163 163 163 163 163 164 164 164 164 164 164 164 164 164 164 164 164 163 163 163 162 162 162 161 161 161 160 160 160 159 159 159 157 157 157 156 155 156 155 152 148 154 148 129 154 144 110 153 140 91 153 137 73 155 136 56 157 135 38 159 134 21 160 134 8 161 135 6 161 137 4 161 138 2 161 140 0 162 141 0 163 142 0 163 144 0 164 145 0 165 147 0 166 148 0 167 150 0 168 151 0 170 153 0 171 154 0 173 156 0 174 157 1 178 162 14 181 166 27 185 170 40 188 174 54 193 181 79 197 188 103 202 194 128 206 201 153 209 203 159 211 206 165 213 209 171 215 211 177 216 213 180 218 214 183 219 216 186 221 217 188 222 219 190 223 220 192 224 221 194 225 222 196 226 223 197 227 224 198 227 225 199 228 226 200 228 226 200 229 226 200 230 226 201 230 227 201 231 227 200 231 227 199 231 227 199 231 227 198 231 226 196 231 226 195 231 225 193 231 225 191 231 224 187 230 222 182 230 221 178 229 219 173 227 213 154 223 204 127 219 195 99 215 186 72 213 180 53 211 174 41 209 169 28 207 163 16 209 164 21 213 171 42 217 178 63 221 185 84 226 195 113 233 211 150 240 226 188 247 241 225 251 250 247 251 250 248 251 251 250 251 251 251 251 251 251 252 252 252 252 252 252 252 252 252 252 252 252 253 253 253 253 253 253 253 253 253 253 253 253 253 253 253 253 253 253 253 253 253 253 253 253 254 254 254 254 254 254 254 254 254 254 254 254 254 254 254 254 254 254 254 254 254 254 254 254 254 254 254 254 254 254 254 254 254 254 254 254 254 254 254 255 255 255 255 255 255 255 255 255 255 255 255 255 255 255 255 255 255 255 255 255 
255 255 255 255 255 255 255 255 255 255 255 255 255 255 255 255 255 255 255 255 255 255 255 255 255 255 255 255 255 255 254 254 254 254 254 254 254 254 254 254 254 254 254 254 254 254 254 254 254 254 254 254 254 254 254 254 254 254 254 254 253 253 253 253 253 253 253 253 253 253 253 253 252 252 252 252 252 252 252 252 252 252 252 252 251 251 251 251 251 251 251 251 251 251 251 250 251 251 250 250 250 249 250 249 248 250 249 247 249 248 246 247 243 231 242 234 206 238 226 180 233 217 155 228 207 125 222 197 90 215 186 55 209 175 20 207 172 5 208 176 11 209 180 18 210 185 25 213 190 41 217 198 71 222 206 101 226 214 130 229 220 153 231 223 166 232 226 179 234 229 191 235 231 200 235 231 199 235 231 199 235 231 199 235 230 199 234 230 199 234 230 198 233 230 198 233 230 198 232 229 198 232 229 197 231 228 197 231 227 197 230 227 196 230 226 195 229 225 195 229 224 194 228 223 193 227 222 193 226 222 192 225 221 191 224 219 190 223 218 189 222 217 188 221 216 187 219 214 186 218 212 184 216 210 183 214 209 182 211 204 169 208 199 156 204 194 144 201 190 131 196 181 105 191 173 79 186 165 53 181 156 27 178 152 19 176 149 13 173 146 7 171 142 1 169 141 0 168 139 0 167 138 0 166 136 0 165 135 0 164 133 0 163 132 0 162 131 0 161 130 0 161 128 0 161 127 0 161 126 0 161 125 4 161 125 9 161 125 15 161 125 20 160 129 40 159 135 67 157 141 95 156 147 122 156 150 136 156 153 143 157 155 149 157 157 155 158 158 158 159 159 159 160 160 160 161 161 161 162 162 162 162 162 162 162 162 162 162 162 162 161 161 161 160 160 160 159 159 159 158 158 158 157 157 157 156 155 154 154 153 151 153 151 149 152 148 139 153 144 117 153 140 95 153 136 74 154 134 55 156 134 40 158 134 25 160 134 10 161 134 0 161 136 0 161 138 0 161 139 0 162 141 0 162 143 0 163 144 0 164 146 0 165 147 0 166 149 0 168 150 0 169 152 0 170 153 0 172 155 1 174 157 2 175 158 4 177 161 6 181 166 23 185 171 40 189 176 56 193 181 73 198 188 98 202 194 122 207 201 146 211 207 170 213 209 174 215 211 178 217 213 182 219 216 185 220 217 187 222 218 188 223 219 189 224 221 190 225 222 191 226 222 192 227 223 192 228 224 193 228 225 194 229 226 195 229 226 195 230 227 196 231 227 196 231 228 197 232 228 197 233 228 198 233 228 198 233 229 198 233 229 199 234 229 199 234 229 199 234 229 199 234 229 199 235 229 199 235 229 197 234 228 195 234 227 193 234 227 190 231 221 173 228 213 146 224 204 120 220 196 93 217 188 71 214 180 52 211 173 33 208 165 14 208 163 13 211 167 28 214 171 43 216 175 58 221 185 85 228 201 126 236 218 167 243 234 208 247 244 234 248 245 238 249 247 243 249 249 247 250 250 250 250 250 250 250 250 250 251 251 251 251 251 251 251 251 251 252 252 252 252 252 252 252 252 252 252 252 252 252 252 252 252 252 252 253 253 253 253 253 253 253 253 253 253 253 253 254 254 254 254 254 254 254 254 254 254 254 254 254 254 254 254 254 254 254 254 254 254 254 254 254 254 254 254 254 254 254 254 254 255 255 255 255 255 255 255 255 255 255 255 255 255 255 255 255 255 255 
255 255 255 255 255 255 255 255 255 255 255 255 255 255 255 255 255 255 255 255 255 255 255 255 255 255 255 254 254 254 254 254 254 254 254 254 254 254 254 253 253 253 253 253 253 253 253 253 253 253 253 253 253 253 253 253 253 253 253 253 253 253 253 252 252 252 252 252 252 252 252 252 251 251 251 251 251 251 250 250 250 250 250 250 250 250 250 249 249 249 249 249 249 249 249 248 248 248 248 248 247 246 247 246 243 247 245 240 246 243 238 243 237 218 238 227 186 233 216 154 228 206 122 223 198 93 219 191 67 215 184 41 210 177 15 209 176 8 211 182 21 214 187 35 216 193 48 219 199 67 222 206 92 226 212 117 229 219 142 232 224 161 233 226 170 234 228 179 235 230 188 236 232 194 236 232 193 236 231 193 236 231 193 236 231 193 235 231 193 235 231 193 235 231 192 234 230 192 234 230 192 233 229 192 233 229 192 233 228 191 232 227 191 232 227 190 231 226 189 231 225 189 230 224 188 229 224 188 228 223 187 227 222 186 226 221 185 225 219 184 224 218 183 223 217 182 222 215 181 220 214 180 218 212 178 217 210 177 214 206 167 211 202 158 208 198 149 205 194 139 201 187 118 196 180 95 191 172 73 187 165 51 183 159 38 180 154 26 176 149 14 173 144 2 171 142 0 170 141 0 169 139 0 167 138 0 166 136 0 165 135 0 164 134 0 163 132 0 162 131 0 162 130 0 161 128 0 161 127 0 161 126 3 161 126 7 161 125 10 161 124 14 160 127 31 159 132 55 158 137 78 156 142 102 156 145 117 156 148 128 155 151 139 155 154 150 156 156 156 157 157 157 158 158 158 159 159 159 159 159 159 159 159 159 159 159 159 159 159 159 159 159 159 158 158 158 157 157 157 156 156 156 155 155 153 154 152 148 153 150 143 151 148 138 151 145 127 152 142 104 153 138 81 154 135 58 156 133 40 157 133 29 158 134 18 160 135 8 161 136 0 161 137 0 162 139 0 162 141 0 162 143 0 163 144 0 164 146 0 165 147 0 166 149 0 168 150 0 169 152 0 171 154 0 172 155 0 174 158 4 176 160 7 178 162 11 181 165 15 185 171 36 190 177 56 194 183 76 198 189 97 202 194 115 206 199 132 210 204 150 214 209 168 216 211 172 218 213 175 220 215 178 222 217 181 223 218 182 224 219 183 225 221 184 226 222 185 227 223 186 228 224 187 229 224 187 230 225 188 230 226 189 231 227 189 231 227 190 232 228 190 232 228 191 233 228 191 234 228 191 234 229 192 234 229 192 235 229 192 235 229 193 235 229 193 235 229 193 236 229 193 236 229 193 236 229 193 236 229 192 236 229 190 235 228 189 235 228 187 234 224 174 231 217 155 228 211 136 225 205 116 222 197 95 219 189 72 215 180 49 212 172 26 211 168 20 212 170 27 214 171 35 215 172 43 219 179 66 225 194 105 231 209 144 238 223 183 242 233 209 243 237 220 245 241 231 246 245 241 247 248 248 248 248 248 248 248 248 249 249 249 249 249 249 250 250 250 250 250 250 250 250 250 251 251 251 251 251 251 251 251 251 251 251 251 252 252 252 252 252 252 252 252 252 253 253 253 253 253 253 253 253 253 253 253 253 253 253 253 253 253 253 253 253 253 253 253 253 254 254 254 254 254 254 254 254 254 254 254 254 254 254 254 255 255 255 255 255 255 255 255 255 255 255 255 255 255 255 
255 255 255 255 255 255 255 255 255 255 255 255 254 254 254 254 254 254 254 254 254 254 254 254 254 254 254 254 254 254 254 254 254 254 254 254 253 253 253 253 253 253 253 253 253 252 252 252 252 252 252 252 252 252 252 252 252 252 252 252 252 252 252 251 251 251 251 251 251 250 250 250 250 250 250 249 249 249 249 249 249 248 248 248 248 248 248 247 247 247 247 247 247 246 246 246 246 246 246 245 245 243 244 243 238 244 241 233 243 239 229 239 231 205 233 219 166 228 207 127 222 195 88 218 188 61 216 185 44 214 182 27 211 178 10 212 180 11 215 187 31 218 194 52 221 202 72 224 208 93 227 213 113 230 218 133 233 224 153 235 227 168 235 229 173 236 230 179 237 231 184 237 232 187 237 232 187 237 232 187 237 232 187 237 232 187 237 231 187 236 231 187 236 231 187 236 231 187 235 230 186 235 230 186 235 229 186 234 229 186 234 228 185 233 228 184 233 227 184 232 226 183 232 226 183 231 225 182 230 224 182 230 223 181 229 222 180 228 221 179 227 219 178 226 218 177 224 216 176 222 215 175 221 213 173 219 212 172 217 209 166 214 205 160 212 202 154 209 199 147 205 193 130 201 186 111 196 179 93 192 173 74 188 166 56 184 160 38 179 153 20 175 146 3 173 144 0 172 142 0 170 141 0 168 139 0 167 138 0 166 136 0 165 135 0 164 133 0 163 132 0 162 131 0 162 130 0 161 128 0 161 127 2 161 126 4 161 125 6 161 124 9 160 126 22 159 130 42 158 133 62 157 137 81 156 140 98 155 144 114 154 148 130 153 151 146 153 153 153 154 154 154 155 155 155 156 156 156 157 157 157 157 157 157 157 157 157 157 157 157 156 156 156 156 156 156 155 155 155 154 154 154 153 152 150 152 150 143 151 147 136 150 144 128 150 142 115 152 139 91 154 136 67 156 133 43 157 132 25 158 133 18 159 135 11 160 136 5 161 137 0 162 139 0 162 141 0 163 142 0 163 144 0 164 146 0 165 147 0 166 149 0 167 150 0 169 152 0 171 154 0 173 155 0 174 157 1 177 160 6 179 163 12 182 166 17 184 169 25 189 175 49 194 182 73 199 189 96 204 196 120 207 200 132 210 204 143 214 208 155 217 212 167 219 213 169 221 215 172 222 216 174 224 218 177 225 219 178 226 221 179 227 222 180 229 223 180 229 224 181 230 225 182 231 226 182 231 226 183 232 227 183 233 227 184 233 228 184 234 228 185 234 228 185 235 229 185 235 229 186 236 229 186 236 229 186 236 229 186 236 230 187 237 230 187 237 230 187 237 230 187 237 230 187 237 230 187 237 229 186 237 229 186 237 229 185 237 229 184 236 226 176 234 222 164 232 218 152 230 214 139 227 207 119 224 197 92 220 188 65 216 179 38 214 173 26 214 172 27 214 170 28 213 168 28 216 174 46 222 187 83 227 200 120 233 213 157 237 223 185 239 229 202 241 235 218 243 242 235 245 246 246 246 246 246 246 246 246 247 247 247 247 247 247 248 248 248 248 248 248 249 249 249 249 249 249 250 250 250 250 250 250 250 250 250 251 251 251 251 251 251 251 251 251 252 252 252 252 252 252 252 252 252 252 252 252 253 253 253 253 253 253 253 253 253 253 253 253 253 253 253 253 253 253 254 254 254 254 254 254 254 254 254 254 254 254 255 255 255 255 255 255 255 255 255 255 255 255 
255 255 255 255 255 255 255 255 255 254 254 254 254 254 254 254 254 254 254 254 254 254 254 254 254 254 254 254 254 254 254 254 254 253 253 253 253 253 253 253 253 253 252 252 252 252 252 252 251 251 251 251 251 251 251 251 251 251 251 251 251 251 251 250 250 250 250 250 250 249 249 249 249 249 249 248 248 248 247 247 247 247 247 247 246 246 246 245 245 245 245 245 245 244 244 244 244 244 243 243 242 239 242 239 233 240 237 226 239 235 220 235 226 191 229 212 146 223 198 100 217 185 55 214 178 29 213 179 21 213 179 13 212 180 5 214 184 13 218 193 41 222 202 68 227 210 96 230 217 118 232 221 134 234 225 149 236 229 165 238 231 175 238 232 177 238 232 178 238 232 180 238 233 181 238 233 181 238 233 181 238 233 181 238 232 181 238 232 181 238 232 181 237 231 181 237 231 181 237 230 181 237 230 180 236 230 180 236 230 180 236 229 179 235 228 179 235 228 178 234 227 178 233 227 177 233 226 177 232 225 177 232 224 176 231 223 176 230 222 175 229 221 174 228 219 173 226 218 171 225 216 170 223 215 169 222 213 167 220 211 165 217 208 162 215 206 159 213 204 156 209 198 142 205 192 127 201 187 112 198 181 98 193 173 75 188 165 51 183 157 27 178 148 3 175 146 0 173 144 0 172 142 0 170 141 0 168 139 0 167 138 0 166 136 0 165 135 0 164 133 0 163 132 0 162 131 0 161 130 0 161 128 1 161 127 1 161 125 2 161 124 3 160 125 14 159 127 29 158 130 45 157 132 61 156 136 79 154 140 100 153 144 121 151 148 141 151 151 151 152 152 152 153 153 153 154 154 154 154 154 154 154 154 154 154 154 154 154 154 154 154 154 154 153 153 153 152 152 152 152 152 152 151 150 147 150 147 137 149 144 128 148 141 118 149 138 103 152 136 77 154 134 52 157 132 27 159 131 10 160 133 7 160 135 4 161 137 2 161 139 0 162 140 0 162 142 0 163 144 0 164 146 0 165 147 0 166 149 0 167 150 0 169 152 0 171 154 0 172 155 0 174 157 0 176 159 1 179 163 9 182 166 17 185 169 24 188 173 34 193 180 61 199 188 89 204 196 117 209 203 143 212 206 148 214 209 154 217 211 159 220 214 165 221 215 167 223 217 169 225 218 170 227 219 172 228 221 173 229 222 174 230 223 175 231 224 176 231 225 176 232 226 177 232 227 177 233 227 178 234 228 178 234 228 178 235 228 179 236 229 179 236 229 179 237 229 179 237 229 180 237 230 180 237 230 180 238 230 181 238 230 181 238 230 181 238 230 181 238 230 181 238 230 181 238 230 181 238 230 181 238 230 181 238 230 181 238 230 181 238 228 177 237 226 172 236 225 167 235 223 162 233 216 143 228 206 112 224 196 81 219 185 50 216 178 32 215 174 26 213 169 20 212 165 14 213 168 27 218 179 62 223 191 97 227 202 131 231 213 161 234 221 184 237 229 206 240 238 229 243 243 243 243 244 244 244 244 244 245 245 245 245 245 245 246 246 246 247 247 247 247 247 247 248 248 248 248 248 248 249 249 249 249 249 249 250 250 250 250 250 250 251 251 251 251 251 251 251 251 251 252 252 252 252 252 252 252 252 252 252 252 252 253 253 253 253 253 253 253 253 253 253 253 253 253 253 253 254 254 254 254 254 254 254 254 254 254 254 254 255 255 255 255 255 255 255 255 255 
255 255 255 255 255 255 254 254 254 254 254 254 254 254 254 254 254 254 254 254 254 254 254 254 254 254 254 253 253 253 253 253 253 253 253 253 252 252 252 252 252 252 251 251 251 251 251 251 250 250 250 250 250 250 249 249 249 249 249 249 249 249 249 248 248 248 247 247 247 247 247 247 246 246 246 246 246 246 245 245 245 244 244 244 243 243 243 242 242 242 241 241 241 241 241 241 240 240 240 239 237 233 237 234 223 236 231 213 235 227 203 231 219 172 225 205 126 220 192 80 214 179 34 212 174 11 212 177 9 213 179 6 214 182 4 216 188 17 221 197 48 226 207 80 230 216 111 233 222 133 235 225 145 237 228 156 238 231 168 239 233 175 239 233 175 239 233 174 239 233 174 239 233 174 239 233 174 239 233 174 239 233 174 239 232 174 239 232 174 239 231 174 238 231 174 238 231 174 238 230 174 238 230 174 237 230 173 237 230 173 237 229 173 236 229 172 236 228 172 235 228 171 235 227 171 234 226 171 234 225 171 233 225 170 232 223 169 231 222 168 230 221 167 229 220 167 228 218 165 227 217 164 225 216 163 224 214 162 222 212 161 220 210 160 218 208 158 216 206 157 212 202 146 209 197 135 205 192 124 202 187 112 197 178 87 191 169 60 186 160 33 180 151 6 178 148 2 175 146 1 173 144 1 171 142 0 170 141 0 168 139 0 167 138 0 166 136 0 165 135 0 164 133 0 163 132 0 162 131 0 161 129 0 161 128 0 161 126 0 161 124 0 160 124 8 160 126 20 159 127 32 158 129 44 156 132 64 154 137 88 152 141 112 150 146 136 149 149 147 150 150 149 151 151 150 152 152 152 153 153 153 153 153 153 153 153 153 153 153 153 152 152 152 151 151 151 151 151 151 150 150 150 149 148 144 149 145 131 149 141 119 148 138 106 149 135 89 152 134 65 155 133 41 158 131 18 160 131 2 161 133 1 161 136 1 161 138 0 161 140 0 162 142 0 163 143 0 164 145 0 165 147 0 166 148 0 167 150 0 169 151 0 170 153 0 172 155 0 174 157 0 176 159 0 179 161 1 182 165 12 185 169 22 188 173 32 192 177 44 197 185 72 202 192 99 208 200 126 213 208 153 215 210 155 217 211 157 220 213 159 222 215 161 223 217 162 225 218 164 227 219 165 228 220 166 229 221 167 230 223 168 231 224 169 232 225 169 233 226 170 233 226 170 234 227 171 234 228 171 235 228 172 236 228 172 236 228 172 237 229 172 237 229 172 238 229 173 238 229 173 238 229 173 238 229 173 239 229 174 239 229 174 239 229 174 239 229 174 239 229 174 239 229 174 239 229 174 239 229 174 239 229 174 239 229 175 239 229 175 239 229 174 239 228 173 238 228 172 238 227 171 236 221 153 231 211 123 227 201 92 222 191 62 219 183 41 217 177 30 214 171 18 212 164 7 212 166 15 216 175 46 220 184 76 223 193 106 227 203 136 230 213 164 233 223 193 236 233 221 239 239 239 240 240 240 240 241 241 241 241 241 242 242 242 243 243 243 244 244 244 244 244 244 245 245 245 246 246 246 246 246 246 247 247 247 247 247 247 248 248 248 249 249 249 249 249 249 250 250 250 250 250 250 251 251 251 251 251 251 251 251 251 252 252 252 252 252 252 252 252 252 253 253 253 253 253 253 253 253 253 254 254 254 254 254 254 254 254 254 254 254 254 255 255 255 255 255 255 
255 255 255 254 254 254 254 254 254 254 254 254 254 254 254 253 253 253 253 253 253 253 253 253 253 253 253 252 252 252 252 252 252 251 251 251 251 251 251 250 250 250 249 249 249 249 249 249 248 248 248 247 247 247 247 247 247 246 246 246 245 245 245 245 245 245 244 244 244 243 243 243 242 242 242 241 241 241 240 240 240 239 239 239 238 238 238 237 237 237 237 237 237 236 236 236 235 235 235 234 231 225 232 227 209 231 222 193 230 218 178 227 210 148 222 199 108 218 189 68 214 179 28 213 176 9 214 179 9 215 182 9 216 185 8 218 191 23 223 200 54 227 209 85 232 218 115 235 224 136 236 226 145 237 228 153 238 231 161 239 232 167 239 232 166 239 232 166 239 232 166 239 232 166 239 232 166 239 232 166 239 232 166 239 231 166 239 231 166 239 231 166 238 230 166 238 230 166 238 230 166 238 229 165 238 229 165 238 229 165 237 228 165 237 228 164 236 227 164 236 227 163 235 226 163 235 226 163 234 225 163 234 224 163 233 223 162 232 222 161 231 221 160 230 220 159 229 219 158 228 217 157 226 216 156 225 214 156 223 212 154 221 211 153 220 209 152 218 207 151 215 203 143 212 199 134 208 195 126 205 190 117 200 182 92 194 173 65 189 164 38 183 154 11 180 151 5 178 149 4 175 146 2 173 144 0 171 142 0 170 141 0 168 139 0 167 138 0 166 136 0 164 135 0 163 133 0 162 132 0 162 130 0 161 129 0 161 127 0 161 125 0 161 125 6 160 126 15 160 126 24 159 127 33 157 130 52 155 135 78 152 140 104 150 144 130 149 147 142 150 148 145 150 150 148 151 151 150 152 152 152 152 152 152 152 152 152 152 152 152 151 151 151 151 150 150 150 150 150 149 149 149 149 147 141 149 143 125 149 140 108 149 136 91 151 134 73 153 133 54 156 132 34 159 132 14 161 132 1 161 134 1 161 136 1 162 139 0 162 141 0 163 142 0 164 144 0 165 146 0 166 148 0 167 150 0 169 151 0 170 153 0 172 155 0 174 157 0 176 159 0 178 161 0 181 163 2 184 168 15 188 172 29 192 177 42 196 182 56 201 188 79 205 195 102 210 202 125 215 209 147 217 210 149 219 212 151 221 214 153 224 216 155 225 217 156 226 218 157 228 220 158 229 221 159 230 222 160 231 223 160 232 224 161 233 225 162 234 225 162 234 226 163 235 226 163 235 227 164 236 227 164 236 227 164 237 228 164 237 228 164 238 228 164 238 228 165 238 228 165 238 228 165 238 228 165 239 228 165 239 228 165 239 228 166 239 228 166 239 228 166 239 228 166 239 228 166 239 228 166 239 228 166 239 228 166 239 228 167 239 227 166 239 227 165 239 226 165 238 226 164 236 221 149 233 213 124 229 204 98 225 196 73 222 189 53 219 182 38 216 174 23 213 167 8 213 167 12 215 173 35 218 179 59 220 185 82 223 193 110 226 204 144 229 215 177 232 226 211 234 234 232 235 235 234 236 235 235 236 236 236 237 237 237 238 238 238 239 239 239 240 240 240 241 241 241 242 242 242 243 243 243 243 243 243 244 244 244 245 245 245 246 246 246 247 247 247 247 247 247 248 248 248 249 249 249 249 249 249 250 250 250 250 250 250 251 251 251 251 251 251 252 252 252 252 252 252 253 253 253 253 253 253 253 253 253 254 254 254 254 254 254 254 254 254 255 255 255 
254 254 254 254 254 254 254 254 254 254 254 254 253 253 253 253 253 253 253 253 253 252 252 252 252 252 252 251 251 251 251 251 251 250 250 250 249 249 249 249 249 249 248 248 248 247 247 247 246 246 246 245 245 245 244 244 244 243 243 243 242 242 242 241 241 241 240 240 240 239 239 239 238 238 238 237 237 237 236 236 236 235 235 235 234 234 234 233 233 233 232 232 232 231 231 231 230 230 230 228 226 216 227 220 195 226 214 174 224 208 153 222 201 124 219 194 90 217 186 56 214 179 22 214 177 7 215 181 9 216 185 11 218 189 13 221 195 29 225 203 59 229 212 90 234 221 120 237 226 140 237 228 145 238 229 150 239 230 155 239 231 158 239 231 158 239 231 158 239 231 158 239 231 158 239 231 158 239 231 158 239 231 158 239 230 158 239 230 158 239 230 157 239 229 157 239 229 157 238 229 157 238 229 157 238 228 157 238 228 157 238 228 157 237 227 156 237 227 156 236 226 155 236 225 155 235 225 155 235 224 155 234 224 155 233 223 154 233 222 154 232 221 153 231 220 152 230 219 151 229 217 151 228 216 150 227 215 149 225 213 148 223 211 147 221 209 146 219 207 145 217 204 139 214 201 133 211 197 128 209 194 122 203 185 97 198 176 70 192 167 43 186 158 15 183 154 9 180 151 6 178 149 3 175 146 1 173 144 0 171 142 0 170 141 0 168 139 0 166 137 0 165 136 0 164 134 0 163 133 0 162 131 0 162 130 0 161 128 0 161 127 0 161 126 4 161 126 10 160 125 15 160 125 21 158 128 40 155 133 68 153 138 96 150 143 124 149 146 138 149 147 141 150 148 145 150 150 149 151 151 151 151 151 151 151 151 151 151 151 151 150 150 150 150 149 149 149 149 149 149 148 148 148 146 139 149 142 118 150 138 97 151 134 77 152 132 58 155 132 42 157 132 27 160 132 11 161 133 1 162 135 1 162 137 0 162 139 0 163 141 0 164 143 0 165 145 0 166 147 0 167 149 0 169 151 0 170 152 0 172 154 0 174 156 0 176 158 0 178 160 0 181 162 0 183 165 2 187 170 19 191 176 35 196 181 51 200 186 68 204 192 86 208 198 105 213 204 124 217 210 142 219 211 143 221 213 145 223 215 146 225 217 148 227 218 149 228 219 150 229 220 151 230 221 152 231 222 152 232 223 153 233 224 153 234 225 154 234 225 154 235 226 155 235 226 155 236 226 156 236 226 156 237 227 156 237 227 156 238 227 156 238 227 157 238 227 157 238 227 157 239 227 157 239 227 157 239 227 157 239 227 157 239 227 157 239 227 157 239 227 157 239 227 158 239 227 158 239 227 158 239 227 158 239 227 158 239 226 158 239 226 158 239 226 157 239 225 157 239 225 156 237 221 145 234 214 124 231 208 104 228 201 84 225 194 65 221 186 46 218 178 28 215 170 10 214 168 8 215 171 25 216 174 42 217 177 58 219 184 84 221 196 123 224 208 162 227 220 201 229 228 226 230 229 227 231 230 229 232 232 231 233 233 233 234 234 234 235 235 235 236 236 236 237 237 237 238 238 238 239 239 239 240 240 240 241 241 241 242 242 242 243 243 243 244 244 244 245 245 245 246 246 246 247 247 247 248 248 248 248 248 248 249 249 249 250 250 250 251 251 251 251 251 251 252 252 252 252 252 252 252 252 252 253 253 253 253 253 253 254 254 254 254 254 254 254 254 254 
254 254 254 254 254 254 254 254 254 253 253 253 253 253 253 253 253 253 252 252 252 251 251 251 251 251 251 250 250 250 249 249 249 249 249 249 248 248 248 247 247 247 246 246 246 245 245 245 243 243 243 242 242 242 241 241 241 240 240 240 239 239 239 238 238 238 237 237 237 236 236 236 235 235 235 233 233 233 232 232 232 231 231 231 229 229 229 228 228 228 227 227 227 226 226 226 224 224 224 223 220 207 222 212 181 220 205 154 219 198 127 217 192 100 216 188 72 215 183 43 214 178 15 215 179 4 216 183 9 218 187 13 220 192 17 223 198 34 227 206 64 231 215 95 236 223 125 238 228 143 238 229 145 239 229 147 239 230 149 239 230 150 239 230 150 239 230 150 239 230 150 239 230 150 239 230 150 239 230 150 239 230 150 239 229 150 239 229 149 239 229 149 239 229 149 239 228 149 239 228 149 239 228 149 239 228 149 239 227 149 238 227 149 238 226 148 237 226 148 237 225 148 236 225 147 236 224 147 235 224 147 235 223 147 234 222 147 234 222 146 233 221 146 232 220 145 231 219 144 230 217 144 229 216 143 228 215 143 226 213 142 225 211 141 223 210 140 221 208 139 219 205 136 217 203 133 214 200 130 212 197 126 207 189 102 201 180 74 195 170 47 189 161 20 186 157 13 183 154 9 180 151 5 177 148 1 174 146 0 173 144 0 171 142 0 169 141 0 167 139 0 166 137 0 165 136 0 163 134 0 162 132 0 162 131 0 162 129 0 161 128 0 161 127 2 161 126 4 161 125 7 161 124 9 159 126 29 156 131 58 153 136 88 150 141 117 148 144 133 149 146 138 149 147 142 149 149 147 150 150 150 150 150 150 150 150 150 150 150 150 149 149 149 149 148 148 148 148 148 148 147 147 148 145 136 149 140 111 151 136 87 152 132 62 154 130 42 156 131 31 158 132 19 160 133 8 162 134 0 162 136 0 162 138 0 163 140 0 163 142 0 164 144 0 165 146 0 167 148 0 168 150 0 170 152 0 172 154 0 173 156 0 175 158 0 178 160 0 180 162 0 183 164 0 185 167 3 190 173 22 195 179 41 199 185 61 204 191 79 208 196 94 212 201 108 215 206 122 219 211 136 221 212 138 223 214 139 225 216 140 227 218 142 228 219 142 229 220 143 230 221 144 231 222 144 232 222 145 233 223 145 234 224 146 235 225 146 235 225 147 236 225 147 236 225 148 237 225 148 237 226 148 237 226 148 237 226 148 238 226 149 238 226 149 238 226 149 239 226 149 239 226 149 239 226 149 239 226 149 239 226 149 239 226 149 239 226 149 239 226 149 239 226 149 239 226 150 239 226 150 239 225 150 239 225 150 239 225 150 239 225 150 239 224 150 239 224 149 239 224 149 238 221 140 235 216 125 233 211 110 230 206 95 227 199 76 224 191 55 220 182 33 216 173 11 214 169 5 214 169 15 214 169 24 214 169 34 215 174 59 217 187 103 219 200 147 222 213 191 223 222 219 225 224 221 226 225 224 227 227 226 228 228 228 229 229 229 230 230 230 232 232 232 233 233 233 234 234 234 235 235 235 236 236 236 237 237 237 239 239 239 240 240 240 241 241 241 243 243 243 244 244 244 245 245 245 246 246 246 247 247 247 248 248 248 249 249 249 250 250 250 250 250 250 251 251 251 251 251 251 252 252 252 252 252 252 253 253 253 253 253 253 254 254 254 254 254 254 
254 254 254 254 254 254 253 253 253 253 253 253 253 253 253 252 252 252 251 251 251 250 250 250 249 249 249 248 248 248 247 247 247 247 247 247 246 246 246 244 244 244 243 243 243 242 242 242 240 240 240 239 239 239 238 238 238 236 236 236 235 235 235 233 233 233 232 232 232 231 231 231 229 229 229 228 228 228 226 226 226 225 225 225 223 223 223 222 222 222 221 221 220 220 219 219 218 218 217 217 213 198 216 205 167 216 198 136 215 190 106 214 186 80 214 183 57 214 181 34 214 179 11 215 180 3 217 185 9 219 189 14 221 194 20 224 200 37 228 208 66 232 216 95 236 224 124 239 228 141 239 229 141 239 229 141 239 229 141 239 229 141 239 229 141 239 229 141 239 228 141 239 228 141 239 228 141 239 228 141 239 228 141 239 228 141 239 228 141 239 228 141 239 227 140 239 227 140 239 227 140 239 227 141 239 226 141 239 226 141 238 226 141 238 225 140 237 225 140 237 224 139 236 224 139 236 223 139 235 223 139 235 222 139 234 221 139 234 221 138 233 220 138 233 219 137 232 218 137 231 217 136 230 216 136 229 215 135 227 213 134 226 211 134 224 210 133 223 208 132 221 206 130 219 204 129 217 201 127 215 199 126 209 191 102 203 182 76 198 173 49 192 164 23 188 160 15 185 156 10 182 153 6 179 149 1 176 147 0 174 146 0 172 144 0 170 142 0 168 140 0 167 138 0 165 137 0 164 135 0 163 133 0 162 132 0 162 130 0 161 129 0 161 127 0 161 126 1 162 124 2 162 123 2 160 125 21 157 130 51 153 135 81 150 139 110 149 143 127 149 144 133 149 146 140 149 148 146 149 149 149 149 149 149 149 149 149 149 149 149 149 149 149 148 148 147 148 147 146 147 146 145 148 144 133 150 139 105 152 135 78 153 131 51 155 128 31 157 130 22 159 132 14 161 133 6 162 135 0 162 137 0 163 139 0 163 141 0 164 143 0 165 145 0 166 147 0 168 149 0 169 151 0 171 153 0 173 155 0 175 157 0 177 159 0 180 161 0 182 164 0 185 166 0 188 169 3 193 175 24 197 181 44 202 188 65 207 194 85 210 198 96 214 203 107 217 207 119 221 211 130 223 213 131 224 215 132 226 216 133 228 218 135 229 219 135 230 220 135 231 221 136 232 222 136 233 222 137 233 223 137 234 224 138 235 224 138 235 224 139 236 224 139 236 224 140 237 224 140 237 224 140 237 225 140 237 225 140 238 225 140 238 225 140 238 225 140 238 224 140 239 224 140 239 224 140 239 224 140 239 224 140 239 224 140 239 224 140 239 224 141 239 224 141 239 224 141 239 224 141 239 224 141 239 223 141 239 223 141 239 223 141 239 223 141 239 223 141 239 222 141 238 220 134 236 216 122 234 212 111 232 209 99 229 202 81 225 193 58 221 184 35 217 175 12 215 170 3 214 168 8 213 166 13 213 164 18 213 168 41 214 181 87 215 194 133 216 206 179 217 215 209 219 217 213 220 219 216 221 221 220 222 222 222 224 224 224 225 225 225 226 226 226 227 227 227 229 229 229 230 230 230 231 231 231 233 233 233 234 234 234 236 236 236 238 238 238 239 239 239 240 240 240 242 242 242 243 243 243 244 244 244 246 246 246 247 247 247 248 248 248 249 249 249 250 250 250 250 250 250 251 251 251 252 252 252 252 252 252 253 253 253 253 253 253 254 254 254 
254 254 254 253 253 253 253 253 253 252 252 252 252 252 252 251 251 251 249 249 249 248 248 248 247 247 247 246 246 246 245 245 245 244 244 244 242 242 242 241 241 241 239 239 239 237 237 237 236 236 236 234 234 234 232 232 232 231 231 231 229 229 229 227 227 227 226 226 226 224 224 224 223 223 223 221 221 221 219 219 219 218 218 218 216 216 216 215 214 214 213 213 212 212 211 209 211 210 207 211 205 186 211 198 154 212 192 121 212 185 89 213 181 65 214 181 46 214 180 27 215 179 9 216 181 3 218 186 9 220 190 14 222 195 20 224 201 36 228 208 63 232 215 90 236 222 117 238 227 132 238 227 132 238 227 132 238 227 132 238 227 132 238 227 132 238 227 132 238 227 132 238 227 132 238 227 132 238 227 132 238 227 132 238 226 132 238 226 132 238 226 132 238 225 131 238 225 131 238 225 131 238 225 132 238 224 132 238 224 132 237 224 132 237 223 131 237 223 131 236 222 131 236 222 131 236 221 131 235 221 131 235 220 131 234 220 130 234 219 130 233 219 129 233 218 129 232 217 128 231 216 128 230 215 127 229 214 127 228 212 126 226 210 125 225 209 125 223 207 124 222 205 123 220 203 121 218 201 120 216 199 119 211 191 97 205 183 72 200 174 47 194 166 23 190 162 15 187 158 10 184 155 6 181 151 1 178 149 0 176 147 0 174 145 0 172 143 0 170 141 0 168 140 0 167 138 0 165 136 0 164 134 0 163 133 0 162 131 0 162 130 0 161 128 0 162 126 1 162 125 1 162 123 2 160 125 19 157 130 47 154 134 75 151 138 102 150 141 119 149 144 128 149 146 136 149 148 145 149 149 149 149 149 149 149 149 149 149 149 149 149 149 148 149 148 146 148 147 144 148 146 141 149 143 128 151 139 100 153 135 72 155 130 43 157 128 24 158 130 17 160 132 11 161 134 4 162 136 0 163 138 0 163 140 0 164 142 0 164 144 0 166 146 0 167 148 0 169 150 0 170 152 0 172 154 0 175 156 0 177 158 0 179 161 0 182 163 0 184 165 0 187 167 0 190 170 3 195 177 23 199 183 42 204 189 62 209 195 81 212 199 91 215 203 102 219 207 112 222 211 122 224 213 123 225 215 124 227 216 125 229 218 126 230 218 127 231 219 127 231 220 128 232 221 128 233 221 129 233 222 129 234 222 130 235 223 130 235 223 130 235 223 131 236 223 131 236 223 131 236 223 131 237 223 131 237 223 131 237 223 131 237 223 131 237 223 131 238 222 131 238 222 131 238 222 131 238 222 131 238 222 131 238 222 131 238 222 131 238 222 132 238 222 132 238 222 132 238 222 132 238 222 132 238 222 132 238 221 132 238 221 132 238 221 132 238 221 132 238 220 132 237 218 126 235 215 115 234 211 104 232 208 93 229 202 77 226 193 55 222 185 33 218 176 11 216 171 2 215 168 6 214 166 10 213 163 13 212 167 34 212 177 78 211 188 122 210 199 166 211 206 195 212 209 201 213 211 206 214 213 211 215 215 215 216 216 216 218 218 218 219 219 219 221 221 221 222 222 222 224 224 224 225 225 225 227 227 227 229 229 229 230 230 230 232 232 232 234 234 234 236 236 236 237 237 237 239 239 239 241 241 241 242 242 242 244 244 244 245 245 245 247 247 247 248 248 248 249 249 249 250 250 250 251 251 251 251 251 251 252 252 252 253 253 253 253 253 253 
253 253 253 253 253 253 252 252 252 251 251 251 251 251 251 249 249 249 248 248 248 247 247 247 245 245 245 244 244 244 242 242 242 240 240 240 239 239 239 237 237 237 235 235 235 233 233 233 231 231 231 229 229 229 227 227 227 225 225 225 223 223 223 221 221 221 219 219 219 218 218 218 216 216 216 214 214 214 212 212 212 210 210 210 209 209 209 207 207 206 206 205 203 205 204 200 203 202 197 204 197 175 206 192 141 208 186 107 210 180 73 212 177 50 213 178 35 214 179 21 215 180 7 217 182 3 219 187 8 220 191 14 222 195 20 225 201 34 228 208 59 232 214 84 235 221 109 237 225 123 237 225 123 237 225 123 237 226 123 237 226 123 237 225 123 237 225 123 237 225 123 237 225 123 237 225 123 237 225 123 237 225 123 237 225 123 237 224 123 237 224 123 237 224 122 237 223 122 237 223 123 237 223 123 237 222 123 237 222 123 237 222 123 236 221 122 236 221 122 236 221 122 236 220 122 235 220 122 235 219 122 235 219 122 234 218 122 234 218 121 233 217 121 233 216 121 232 215 120 231 214 120 230 214 119 230 213 119 228 211 118 227 210 117 226 208 117 224 207 116 223 205 115 221 203 114 219 201 113 217 199 112 212 192 91 207 184 68 201 175 46 196 167 23 193 163 15 189 160 11 186 156 6 183 153 1 180 151 0 178 149 0 176 147 0 173 144 0 171 143 0 169 141 0 168 139 0 166 137 0 165 135 0 164 134 0 163 132 0 162 130 0 162 129 0 162 127 0 162 125 1 162 123 1 160 125 17 158 129 43 155 133 69 152 137 94 151 140 112 150 143 122 150 145 133 149 148 144 149 149 149 149 149 149 149 149 149 149 149 150 149 149 148 149 147 145 149 146 141 148 145 138 149 143 123 152 139 94 154 134 65 156 130 36 158 128 17 159 130 12 160 132 8 161 134 3 162 136 0 163 138 0 164 140 0 164 142 0 165 144 0 167 147 0 168 149 0 170 151 0 172 154 0 174 156 0 176 158 0 178 160 0 181 162 0 183 164 0 186 167 0 189 169 0 192 172 3 197 178 22 201 184 41 206 190 59 211 196 77 214 200 87 217 204 96 220 208 106 223 212 114 225 213 115 226 215 116 228 216 117 229 217 118 230 218 119 231 218 119 232 219 120 233 220 120 233 220 121 233 220 121 234 221 121 234 221 122 235 221 122 235 221 122 235 221 122 236 221 122 236 221 122 236 221 122 236 221 122 236 221 122 236 221 122 237 221 122 237 221 122 237 220 122 237 220 122 237 220 122 237 220 122 237 220 122 237 220 122 237 220 123 237 220 123 237 220 123 237 220 123 237 220 123 237 220 123 237 219 123 237 219 123 237 219 123 237 219 123 237 218 123 236 216 117 235 213 108 233 210 98 232 207 88 229 201 73 226 193 52 223 185 31 219 177 11 217 172 1 216 169 4 214 166 6 213 163 8 212 165 28 209 174 69 207 183 111 205 192 153 204 198 182 204 200 189 205 203 196 206 205 202 208 208 208 209 209 209 211 211 211 212 212 212 214 214 214 216 216 216 217 217 217 219 219 219 221 221 221 223 223 223 225 225 225 227 227 227 229 229 229 231 231 231 233 233 233 235 235 235 237 237 237 239 239 239 240 240 240 242 242 242 244 244 244 246 246 246 247 247 247 248 248 248 250 250 250 250 250 250 251 251 251 252 252 252 253 253 253 
253 253 253 252 252 252 251 251 251 251 251 251 250 250 250 248 248 248 247 247 247 245 245 245 243 243 243 241 241 241 239 239 239 237 237 237 235 235 235 233 233 233 231 231 231 229 229 229 226 226 226 224 224 224 222 222 222 219 219 219 217 217 217 215 215 215 213 213 213 211 211 211 209 209 209 207 207 207 205 205 205 203 203 203 201 201 201 200 199 198 199 197 194 197 196 191 196 194 187 198 190 163 201 185 128 204 179 92 208 174 56 210 173 35 212 176 25 214 178 15 216 180 5 217 183 3 219 188 8 221 192 14 223 196 19 225 201 33 228 207 56 232 214 78 235 220 101 236 223 114 236 223 114 236 224 114 236 224 114 236 224 114 236 224 114 236 223 114 236 223 114 236 223 114 236 223 114 236 223 114 236 223 114 236 223 114 236 222 114 236 222 114 236 222 114 236 221 114 236 221 114 236 221 114 236 220 114 236 220 114 236 220 114 236 220 113 236 219 113 235 219 113 235 219 113 235 218 113 235 218 113 235 217 113 234 216 113 234 216 113 233 215 112 233 215 112 232 214 112 231 213 111 231 212 111 230 212 110 229 210 110 228 209 109 227 208 108 225 206 108 224 205 107 222 203 106 220 201 105 218 199 105 214 192 86 209 184 65 203 177 44 198 169 23 195 165 16 192 162 11 188 158 6 185 155 1 183 152 0 180 150 0 177 148 0 175 146 0 173 144 0 171 142 0 169 140 0 167 138 0 166 136 0 164 134 0 163 133 0 162 131 0 162 129 0 162 127 0 162 125 0 162 124 0 161 125 15 158 129 39 156 132 63 153 136 86 152 139 104 151 142 117 150 145 130 149 148 143 149 149 149 149 149 149 149 149 150 149 149 150 149 148 148 149 147 143 149 146 139 149 145 134 150 142 119 152 138 89 155 134 59 157 130 29 159 128 10 160 130 7 161 133 4 162 135 2 162 137 0 163 139 0 164 141 0 165 143 0 166 145 0 168 148 0 169 150 0 171 152 0 173 155 0 175 157 0 178 159 0 180 161 0 182 164 0 185 166 0 188 168 0 191 171 0 194 174 3 199 180 21 203 186 39 208 192 57 212 198 74 215 201 82 218 205 91 221 208 99 224 212 107 226 213 108 227 215 108 228 216 109 230 217 110 230 218 111 231 218 111 232 218 112 233 219 112 233 219 112 233 219 113 234 220 113 234 220 113 234 220 113 235 220 113 235 219 113 235 219 113 235 219 114 235 219 114 235 219 114 235 219 114 236 219 114 236 219 114 236 219 114 236 218 114 236 218 114 236 218 114 236 218 114 236 218 114 236 218 114 236 218 114 236 218 114 236 218 114 236 218 114 236 218 114 236 218 114 236 217 114 236 217 114 236 217 114 236 217 114 236 216 114 236 215 109 234 212 100 233 209 92 232 206 83 229 201 69 226 193 49 223 186 30 220 178 10 218 173 0 216 169 1 215 166 2 214 162 3 211 163 21 207 170 61 203 177 100 199 184 140 197 189 168 197 192 177 198 195 185 199 198 194 200 200 200 202 202 202 203 203 203 205 205 205 207 207 207 209 209 209 211 211 211 213 213 213 215 215 215 217 217 217 219 219 219 222 222 222 224 224 224 226 226 226 228 228 228 230 230 230 233 233 233 235 235 235 237 237 237 239 239 239 242 242 242 243 243 243 245 245 245 247 247 247 249 249 249 250 250 250 250 250 250 251 251 251 252 252 252 
253 253 253 252 252 252 251 251 251 250 250 250 248 248 248 247 247 247 245 245 245 243 243 243 241 241 241 239 239 239 236 236 236 234 234 234 231 231 231 229 229 229 226 226 226 224 224 224 221 221 221 218 218 218 216 216 216 213 213 213 211 211 211 208 208 208 206 206 206 204 204 204 202 202 202 200 200 200 198 198 198 196 196 196 194 194 194 192 192 190 191 190 186 190 188 181 189 186 177 192 183 153 196 179 116 201 174 80 206 170 44 209 170 24 211 174 17 214 177 10 216 180 3 218 184 3 220 188 8 221 192 13 223 196 18 225 201 30 228 206 51 231 212 71 234 218 92 235 221 104 235 221 104 235 222 104 236 222 104 236 222 105 236 222 105 236 221 105 236 221 105 236 221 105 236 221 105 236 221 105 236 221 105 236 221 105 236 220 105 236 220 105 236 219 105 236 219 105 236 219 105 236 219 105 236 218 105 235 218 105 235 218 105 235 218 105 235 217 105 235 217 105 235 217 105 235 216 105 235 216 105 235 215 104 234 215 104 234 214 104 233 214 104 233 213 104 232 212 103 231 212 103 231 211 102 230 210 102 229 209 101 228 208 101 227 207 100 226 205 100 224 204 99 223 202 98 221 200 97 219 199 96 215 192 79 210 185 60 205 177 40 200 170 21 197 166 14 194 163 10 190 159 5 187 156 1 184 154 0 182 151 0 179 149 0 176 147 0 174 145 0 172 143 0 170 141 0 168 139 0 166 137 0 165 135 0 164 133 0 163 132 0 162 130 0 162 128 0 162 126 0 162 124 0 161 125 14 159 129 36 157 132 59 155 136 81 153 139 99 152 142 114 151 145 128 150 149 143 150 150 150 150 150 150 150 150 151 150 150 151 150 149 148 150 148 143 150 147 138 150 145 132 151 143 116 154 139 86 156 134 55 159 130 25 160 128 5 161 130 4 161 133 2 162 135 1 162 138 0 163 140 0 165 142 0 166 144 0 167 146 0 169 148 0 170 151 0 172 153 0 174 156 0 177 158 0 179 160 0 182 163 0 184 165 0 187 167 0 190 170 0 193 172 0 196 175 2 201 181 19 205 187 35 209 192 52 213 198 68 216 201 76 219 205 83 222 208 91 225 212 99 226 213 100 228 214 100 229 215 101 230 216 102 231 216 102 231 217 103 232 217 103 233 217 104 233 217 104 233 218 104 233 218 104 234 218 104 234 218 105 234 218 105 234 217 105 235 217 105 235 217 105 235 217 105 235 217 105 235 217 105 235 217 105 235 217 105 235 216 105 236 216 105 236 216 105 236 216 105 236 216 105 236 216 105 236 216 105 236 216 105 236 216 105 236 216 105 236 216 105 236 216 105 236 215 105 236 215 105 236 215 105 236 215 105 236 214 105 236 214 105 235 212 100 234 210 92 232 207 84 231 204 75 229 199 62 226 192 45 223 185 27 220 179 9 218 173 0 217 169 0 215 166 0 214 162 0 211 162 16 205 167 54 199 172 92 193 177 129 190 182 156 191 184 166 191 187 176 192 190 186 193 193 193 194 194 194 196 196 196 198 198 198 200 200 200 202 202 202 204 204 204 206 206 206 209 209 209 211 211 211 213 213 213 216 216 216 218 218 218 220 220 220 223 223 223 226 226 226 228 228 228 231 231 231 234 234 234 236 236 236 239 239 239 241 241 241 243 243 243 245 245 245 247 247 247 248 248 248 250 250 250 251 251 251 252 252 252 
252 252 252 251 251 251 249 249 249 248 248 248 247 247 247 245 245 245 242 242 242 240 240 240 238 238 238 235 235 235 232 232 232 229 229 229 226 226 226 223 223 223 220 220 220 217 217 217 214 214 214 212 212 212 209 209 209 206 206 206 203 203 203 201 201 201 198 198 198 196 196 196 194 194 194 192 192 192 190 190 190 188 188 188 186 186 186 185 184 182 184 182 177 183 181 172 182 179 168 186 176 144 192 174 109 199 171 74 205 168 39 209 169 20 211 173 14 214 176 9 216 180 3 218 183 2 219 187 6 221 191 10 222 194 14 224 199 25 227 204 44 230 210 62 232 215 81 234 218 93 234 218 93 234 219 94 234 219 95 234 219 95 234 219 95 234 219 95 234 219 95 234 219 95 234 218 95 234 218 95 235 218 95 235 218 95 235 218 95 235 217 95 235 217 95 235 217 95 235 216 95 234 216 95 234 216 95 234 216 95 234 215 95 234 215 95 234 215 95 234 215 95 234 214 95 234 214 95 234 213 95 234 213 95 233 212 95 233 212 95 233 211 95 232 211 95 232 210 94 231 210 94 230 209 94 230 208 93 229 207 93 228 206 93 227 205 92 226 204 92 224 202 90 223 201 89 221 199 88 219 197 86 215 191 70 211 184 52 206 177 34 201 170 16 198 167 11 195 164 8 192 160 4 189 157 1 186 155 0 183 153 0 181 150 0 178 148 0 175 146 0 173 144 0 171 142 0 169 140 0 167 138 0 166 136 0 165 134 0 163 132 0 163 130 0 163 128 0 163 126 0 162 124 0 161 126 14 160 129 36 158 133 58 156 137 81 155 140 99 155 144 115 154 148 130 153 151 145 153 153 153 153 153 153 153 153 153 153 153 153 153 152 151 153 151 145 153 149 139 152 148 133 153 145 116 155 140 85 157 135 55 159 130 24 161 128 4 161 131 3 162 133 2 162 135 1 163 138 0 164 140 0 165 142 0 166 144 0 168 146 0 170 149 0 172 151 0 174 154 0 176 156 0 178 159 0 181 161 0 183 163 0 186 166 0 189 168 0 192 171 0 195 173 0 198 176 2 202 181 16 206 186 30 210 191 43 214 196 57 217 200 65 220 203 74 223 207 83 225 210 91 226 211 91 228 212 92 229 213 92 230 214 93 230 215 93 231 215 94 231 215 94 232 215 95 232 215 95 232 216 95 233 216 95 233 216 95 233 216 95 233 215 95 233 215 95 234 215 95 234 215 95 234 215 95 234 215 95 234 215 95 234 215 95 234 214 95 234 214 95 235 214 95 235 214 95 234 214 95 234 214 95 234 214 95 234 214 95 234 213 95 234 213 95 234 213 95 234 213 95 234 213 95 234 213 95 234 212 95 234 212 95 234 212 95 234 212 95 234 212 95 234 210 90 232 207 81 231 204 73 230 201 64 228 196 52 225 190 37 223 184 22 220 178 8 218 173 0 217 169 0 215 166 0 214 162 0 210 161 15 203 165 51 196 168 87 189 172 122 184 175 148 184 178 158 184 180 168 184 182 178 185 185 185 186 186 186 188 188 188 190 190 190 192 192 192 194 194 194 196 196 196 199 199 199 201 201 201 203 203 203 206 206 206 208 208 208 211 211 211 214 214 214 217 217 217 220 220 220 223 223 223 226 226 226 229 229 229 232 232 232 235 235 235 238 238 238 240 240 240 243 243 243 245 245 245 247 247 247 248 248 248 250 250 250 251 251 251 
251 251 251 250 250 250 248 248 248 247 247 247 246 246 246 243 243 243 240 240 240 237 237 237 235 235 235 231 231 231 228 228 228 225 225 225 221 221 221 218 218 218 214 214 214 211 211 211 208 208 208 205 205 205 202 202 202 199 199 199 195 195 195 193 193 193 191 191 191 188 188 188 186 186 186 184 184 184 182 182 182 180 180 180 178 178 178 177 177 174 177 175 169 176 173 163 176 172 158 181 170 135 189 169 101 197 167 67 205 166 33 209 168 16 211 171 12 214 175 7 216 179 2 218 183 1 219 186 4 220 189 7 222 193 9 223 197 19 226 202 36 228 207 54 231 212 71 233 215 82 233 216 83 233 216 84 233 216 85 233 216 86 233 216 86 233 216 86 233 216 86 233 216 86 233 216 86 233 216 86 234 216 86 234 215 86 234 215 86 234 215 86 234 214 86 234 214 86 233 214 86 233 214 86 233 213 86 233 213 86 233 213 86 233 213 86 233 212 86 233 212 86 233 212 86 233 211 86 233 211 86 233 211 86 232 210 86 232 210 86 232 209 86 232 209 86 231 208 86 231 207 85 230 207 85 229 206 85 229 205 85 228 204 84 227 203 84 226 203 84 224 201 82 223 199 80 221 197 78 220 196 76 216 190 61 211 183 45 207 177 28 203 171 12 199 167 7 197 164 5 194 161 3 191 158 0 188 156 0 185 154 0 182 151 0 179 149 0 177 147 0 175 145 0 172 142 0 170 140 0 168 138 0 167 136 0 166 134 0 164 132 0 164 130 0 163 128 0 163 126 0 163 124 0 162 126 14 161 130 36 159 134 58 158 138 80 157 142 99 157 146 115 156 150 132 156 154 148 155 155 156 155 155 156 155 155 156 155 155 156 155 155 153 155 153 146 155 151 140 155 150 133 156 146 116 157 141 85 159 136 54 160 131 23 161 128 3 162 131 2 162 133 2 162 135 1 163 138 0 164 140 0 166 142 0 167 145 0 168 147 0 171 149 0 173 152 0 175 154 0 177 157 0 180 159 0 182 162 0 185 164 0 188 167 0 191 169 0 194 172 0 197 174 0 200 177 2 203 181 13 207 186 24 211 190 35 214 195 46 217 198 55 220 202 65 223 206 74 226 209 83 227 210 83 228 211 84 228 211 84 229 212 84 230 213 85 230 213 85 231 213 85 231 213 86 231 213 86 232 213 86 232 214 86 232 214 86 232 213 86 232 213 86 233 213 86 233 213 86 233 213 86 233 213 86 233 213 86 233 213 86 233 213 86 233 212 86 234 212 86 234 212 86 234 212 86 233 211 86 233 211 86 233 211 86 233 211 86 233 211 86 233 211 86 233 211 86 233 210 86 233 210 86 233 210 86 233 210 86 233 209 86 233 209 86 233 209 86 233 209 86 232 207 81 231 204 71 230 201 62 228 197 52 226 193 42 224 188 30 222 182 18 220 177 6 218 173 0 216 169 0 215 166 0 214 162 0 209 161 14 201 163 48 193 165 82 184 167 115 179 169 140 178 171 150 177 173 160 177 175 170 177 177 177 178 178 178 180 180 180 182 182 182 184 184 184 186 186 186 189 189 189 191 191 191 193 193 193 196 196 196 199 199 199 201 201 201 204 204 204 208 208 208 211 211 211 214 214 214 218 218 218 221 221 221 225 225 225 228 228 228 231 231 231 234 234 234 237 237 237 240 240 240 243 243 243 245 245 245 247 247 247 249 249 249 250 250 250 
250 250 250 249 249 249 247 247 247 246 246 246 244 244 244 241 241 241 238 238 238 235 235 235 231 231 231 228 228 228 224 224 224 220 220 220 216 216 216 212 212 212 209 209 209 205 205 205 201 201 201 198 198 198 194 194 194 191 191 191 188 188 188 185 185 185 183 183 183 180 180 180 178 178 178 176 176 176 174 174 174 172 172 172 171 171 171 170 169 166 170 167 160 170 166 155 169 164 149 175 164 126 185 164 94 194 164 61 204 164 28 209 166 12 211 170 9 214 174 5 216 178 2 218 182 1 219 185 2 220 188 4 221 191 5 223 195 14 225 199 29 227 204 45 230 209 61 231 212 70 231 213 72 231 213 74 232 214 76 232 214 77 232 214 77 232 214 77 232 214 77 232 214 77 232 213 77 232 213 77 233 213 77 233 213 77 233 212 77 233 212 77 233 212 77 233 212 77 232 211 77 232 211 77 232 211 77 232 211 77 232 210 77 232 210 77 232 210 77 232 210 77 232 209 77 232 209 77 232 209 77 232 208 77 232 208 77 231 207 77 231 207 77 231 206 77 231 206 77 230 205 77 230 205 77 229 204 77 228 203 76 228 203 76 227 202 76 226 201 75 225 199 73 223 198 71 222 196 68 220 194 66 216 189 52 212 183 37 208 177 22 204 171 7 201 168 4 198 165 3 195 162 1 192 160 0 189 157 0 187 155 0 184 152 0 181 150 0 178 148 0 176 145 0 173 143 0 171 141 0 169 139 0 168 137 0 166 135 0 165 133 0 164 131 0 164 129 0 163 127 0 163 125 0 162 126 14 162 130 36 161 135 58 160 139 80 159 143 99 159 147 116 159 152 133 158 156 150 158 158 158 158 158 158 158 158 158 158 158 158 158 157 155 158 155 148 158 154 141 157 152 134 158 148 116 159 143 85 160 137 54 161 131 22 162 129 2 162 131 2 162 133 1 163 135 0 163 138 0 165 140 0 166 143 0 168 145 0 169 147 0 172 150 0 174 152 0 176 155 0 179 157 0 181 160 0 184 163 0 187 165 0 189 168 0 192 170 0 195 173 0 198 175 0 201 178 1 205 182 10 208 186 18 212 189 27 215 193 35 218 197 45 220 201 55 223 204 65 226 208 74 227 208 75 228 209 75 228 210 75 229 210 76 229 211 76 230 211 76 230 211 77 230 211 77 231 211 77 231 211 77 231 211 77 231 211 77 232 211 77 232 211 77 232 211 77 232 211 77 232 210 77 232 210 77 232 210 77 232 210 77 233 210 77 233 210 77 233 210 77 233 210 77 233 209 77 232 209 77 232 209 77 232 209 77 232 208 77 232 208 77 232 208 77 232 208 77 232 208 77 232 207 77 232 207 77 232 207 77 232 207 77 232 207 77 232 207 77 232 207 77 231 205 71 230 201 61 228 198 51 227 194 41 225 190 31 223 185 22 221 181 14 219 177 5 218 172 0 216 169 0 215 165 0 214 162 0 209 160 14 199 160 45 189 161 77 180 161 108 173 162 131 172 164 141 170 165 152 169 167 162 169 169 169 171 171 171 172 172 172 174 174 174 176 176 176 178 178 178 181 181 181 183 183 183 186 186 186 189 189 189 191 191 191 194 194 194 197 197 197 201 201 201 205 205 205 208 208 208 212 212 212 216 216 216 220 220 220 224 224 224 228 228 228 231 231 231 235 235 235 238 238 238 241 241 241 243 243 243 245 245 245 247 247 247 249 249 249 
250 250 250 248 248 248 246 246 246 244 244 244 243 243 243 239 239 239 236 236 236 232 232 232 228 228 228 224 224 224 220 220 220 216 216 216 211 211 211 207 207 207 203 203 203 199 199 199 195 195 195 191 191 191 188 188 188 184 184 184 181 181 181 178 178 178 176 176 176 173 173 173 171 171 171 169 169 169 167 167 167 166 166 166 164 164 164 163 162 159 163 161 154 163 159 148 163 158 142 170 158 120 181 159 89 191 161 58 202 162 26 208 165 11 211 169 8 213 173 5 216 177 1 217 181 0 218 183 1 219 186 2 220 189 2 222 192 9 224 197 23 226 201 36 228 206 50 229 208 59 230 209 61 230 210 64 230 210 66 231 211 68 231 211 68 231 211 68 231 211 68 231 211 68 231 210 68 231 210 68 231 210 68 232 210 68 231 209 68 231 209 68 231 209 68 231 209 68 231 208 68 231 208 68 231 208 68 231 208 68 231 207 68 231 207 68 231 207 68 231 207 68 231 206 68 231 206 68 231 206 68 231 206 68 231 205 68 231 205 68 231 204 68 230 204 68 230 203 68 230 203 68 229 202 68 229 202 68 228 201 68 227 200 68 226 200 67 226 199 67 224 197 64 223 195 61 221 194 58 220 192 55 216 187 43 212 181 30 209 176 17 205 171 4 202 168 1 199 165 1 197 163 1 194 160 0 191 158 0 188 155 0 185 153 0 182 151 0 179 148 0 177 146 0 174 144 0 172 142 0 170 139 0 169 137 0 167 135 0 166 133 0 165 131 0 164 129 0 164 127 0 163 125 0 162 126 14 161 130 36 160 134 57 159 138 79 159 142 98 158 146 115 158 151 132 158 155 149 158 158 158 158 158 158 158 158 158 158 158 158 157 157 154 157 155 147 157 153 140 157 151 133 157 147 115 158 142 84 160 136 53 161 131 22 162 128 2 162 131 2 163 133 1 163 135 0 164 138 0 165 140 0 167 142 0 168 145 0 170 147 0 172 150 0 175 152 0 177 155 0 180 157 0 183 160 0 185 163 0 188 166 0 191 168 0 194 171 0 197 173 0 200 176 0 203 178 1 206 182 7 209 185 13 212 188 19 215 192 26 218 195 36 220 199 46 223 202 56 226 206 65 226 206 66 227 207 66 228 207 67 229 208 67 229 208 68 229 208 68 229 209 68 230 209 68 230 209 68 230 209 68 230 209 68 230 209 68 231 209 68 231 208 68 231 208 68 231 208 68 231 208 68 231 208 68 231 208 68 231 208 68 231 208 68 231 207 68 231 207 68 231 207 68 231 207 68 231 206 68 231 206 68 231 206 68 231 206 68 231 205 68 231 205 68 231 205 68 231 205 68 231 204 68 231 204 68 231 204 68 230 204 68 230 204 68 230 203 68 230 203 67 230 201 61 228 198 51 227 194 41 225 190 31 224 187 22 222 183 16 220 179 10 219 175 3 217 172 0 216 168 0 215 165 0 213 162 0 208 159 13 197 158 43 186 157 73 175 156 103 167 156 126 166 158 135 164 159 145 162 160 155 162 162 162 164 164 164 165 165 165 167 167 167 169 169 169 171 171 171 174 174 174 176 176 176 179 179 179 182 182 182 185 185 185 188 188 188 191 191 191 195 195 195 199 199 199 203 203 203 207 207 207 211 211 211 216 216 216 220 220 220 224 224 224 228 228 228 232 232 232 236 236 236 240 240 240 242 242 242 244 244 244 246 246 246 249 249 249 
249 249 249 247 247 247 245 245 245 243 243 243 241 241 241 237 237 237 233 233 233 230 230 230 226 226 226 221 221 221 216 216 216 212 212 212 207 207 207 203 203 203 198 198 198 194 194 194 190 190 190 186 186 186 182 182 182 179 179 179 175 175 175 173 173 173 170 170 170 168 168 168 165 165 165 164 164 164 162 162 162 160 160 160 159 159 159 158 157 155 158 156 150 158 155 145 157 153 140 164 154 120 176 156 90 187 157 60 198 159 31 205 162 15 208 166 11 211 171 7 215 175 2 217 178 0 218 181 1 219 184 1 220 186 2 221 189 7 223 193 17 224 197 28 226 201 38 227 203 46 228 204 49 228 205 53 229 206 57 229 207 59 229 207 59 229 207 60 229 207 60 229 207 60 230 207 60 230 206 60 230 206 60 230 206 60 230 206 60 230 205 60 230 205 60 230 205 60 229 205 60 229 205 60 229 204 60 229 204 60 229 204 60 229 204 60 229 203 60 229 203 60 229 203 60 229 203 60 229 202 60 229 202 60 229 202 60 229 201 60 229 201 60 229 200 60 229 200 60 228 199 60 228 199 60 227 198 60 227 198 60 226 197 59 225 196 59 225 195 58 223 194 55 222 192 51 220 190 47 219 188 43 215 183 33 212 179 23 209 174 13 205 170 3 203 167 1 200 165 1 197 162 0 195 160 0 192 158 0 189 155 0 186 153 0 183 150 0 180 148 0 178 146 0 175 144 0 173 141 0 171 139 0 169 137 0 168 134 0 166 132 0 165 130 0 165 128 0 164 126 0 164 124 0 162 125 13 159 128 35 156 131 57 154 134 79 152 137 97 152 141 112 151 145 127 150 148 143 150 150 150 150 150 150 150 150 150 150 150 150 150 149 147 150 147 141 149 146 135 149 144 129 150 141 112 153 137 83 156 133 53 159 129 23 161 127 4 162 130 3 162 132 2 163 134 1 164 137 0 166 139 0 167 142 0 169 144 0 171 147 0 173 149 0 176 152 0 178 154 0 181 157 0 183 160 0 186 162 0 189 165 0 192 168 0 195 170 0 198 173 0 201 175 0 203 178 1 206 181 5 209 183 10 212 186 14 215 189 19 217 192 28 219 195 37 222 199 46 224 202 54 225 203 55 226 203 57 227 204 58 227 205 59 228 205 59 228 205 60 228 205 60 228 205 60 229 205 60 229 205 60 229 205 60 229 205 60 229 205 60 229 205 60 229 204 60 229 204 60 229 204 60 229 204 60 229 204 60 230 204 60 230 204 60 230 204 60 230 203 60 230 203 60 230 203 60 229 203 60 229 202 60 229 202 60 229 202 60 229 202 60 229 201 60 229 201 60 229 201 60 229 201 60 229 200 60 229 200 60 229 200 59 229 199 58 229 199 57 228 199 56 228 197 50 226 193 41 225 190 32 223 187 23 222 183 17 221 180 12 219 177 7 218 173 2 217 170 0 215 167 0 214 164 0 213 160 0 207 158 13 195 156 43 182 154 73 170 152 103 162 152 125 160 153 134 159 154 142 157 156 151 157 157 157 159 159 159 160 160 160 162 162 162 163 163 163 166 166 166 168 168 168 171 171 171 173 173 173 176 176 176 179 179 179 182 182 182 186 186 186 190 190 190 194 194 194 198 198 198 202 202 202 207 207 207 212 212 212 216 216 216 221 221 221 225 225 225 230 230 230 234 234 234 238 238 238 240 240 240 243 243 243 245 245 245 248 248 248 
249 249 249 247 247 247 244 244 244 242 242 242 240 240 240 236 236 236 231 231 231 227 227 227 223 223 223 218 218 218 213 213 213 208 208 208 203 203 203 198 198 198 194 194 194 189 189 189 184 184 184 180 180 180 177 177 177 173 173 173 170 170 170 167 167 167 165 165 165 162 162 162 160 160 160 158 158 158 157 157 157 155 155 155 153 153 153 153 152 150 152 151 146 152 150 143 152 149 139 159 149 120 171 152 92 182 154 63 194 156 35 201 160 20 205 164 14 210 168 8 214 173 3 216 176 0 217 179 0 218 181 1 219 184 1 220 187 5 221 190 12 223 193 19 224 196 27 225 198 33 226 199 38 226 201 42 227 202 47 228 203 50 228 203 51 228 203 51 228 203 52 228 203 52 228 203 52 228 203 52 228 202 52 229 202 52 228 202 52 228 202 52 228 202 52 228 201 52 228 201 52 228 201 52 228 201 52 228 200 52 228 200 52 228 200 52 228 200 52 228 199 52 228 199 52 228 199 52 228 199 52 228 198 52 228 198 52 228 198 52 228 197 52 228 197 51 227 196 52 227 196 52 226 195 52 226 195 52 226 194 51 225 193 51 224 193 50 224 192 50 222 190 45 221 188 40 219 186 35 217 183 30 215 180 23 212 176 16 209 172 9 206 169 2 204 166 1 201 164 0 198 162 0 196 160 0 193 157 0 190 155 0 187 152 0 184 150 0 181 148 0 179 146 0 176 143 0 173 141 0 171 139 0 170 136 0 168 134 0 166 132 0 165 130 0 165 128 0 164 126 0 164 124 0 161 124 13 157 126 35 153 128 56 148 129 78 146 132 95 145 135 109 144 138 122 143 141 136 143 143 143 143 143 143 143 143 143 143 143 143 142 142 141 142 140 135 141 139 130 141 137 124 143 135 109 147 132 81 152 129 53 157 127 24 160 126 6 161 128 4 162 131 3 163 133 1 165 136 0 166 138 0 168 141 0 170 143 0 171 146 0 174 149 0 176 151 0 179 154 0 181 156 0 184 159 0 187 162 0 190 165 0 193 167 0 196 170 0 198 172 0 201 175 0 204 177 0 207 179 3 209 182 6 212 184 9 214 187 13 216 189 20 218 192 28 220 195 36 223 198 43 223 199 45 224 200 47 225 201 49 226 202 51 226 202 51 227 202 51 227 202 52 227 202 52 227 202 52 227 202 52 227 202 52 228 202 52 228 202 52 228 201 52 228 201 52 228 200 52 228 200 52 228 200 52 228 200 52 228 200 51 228 200 52 228 200 52 228 200 52 228 199 52 228 199 52 228 199 52 228 199 52 228 198 52 228 198 52 228 198 52 228 198 52 228 197 51 228 197 51 228 197 52 228 197 52 228 196 52 227 196 51 227 195 49 227 194 47 227 194 45 226 192 39 224 189 32 223 186 24 222 183 16 220 180 11 219 177 8 218 174 5 217 171 2 216 168 0 215 165 0 213 162 0 212 159 0 205 156 13 192 154 43 179 151 73 165 149 103 156 148 124 155 149 132 154 150 139 152 151 147 152 152 152 153 153 153 155 155 155 156 156 156 158 158 158 160 160 160 163 163 163 165 165 165 167 167 167 171 171 171 174 174 174 177 177 177 180 180 180 185 185 185 189 189 189 193 193 193 198 198 198 203 203 203 208 208 208 213 213 213 218 218 218 223 223 223 227 227 227 232 232 232 236 236 236 239 239 239 242 242 242 244 244 244 247 247 247 
248 248 248 246 246 246 243 243 243 241 241 241 238 238 238 234 234 234 229 229 229 225 225 225 220 220 220 215 215 215 210 210 210 204 204 204 199 199 199 194 194 194 189 189 189 184 184 184 179 179 179 175 175 175 171 171 171 168 168 168 164 164 164 161 161 161 159 159 159 157 157 157 155 155 155 153 153 153 151 151 151 150 150 150 148 148 148 147 147 146 147 146 143 147 145 140 146 144 137 154 145 119 166 148 93 178 151 66 190 154 40 198 157 24 203 162 17 208 166 10 213 170 3 216 174 0 217 176 0 217 179 0 218 181 0 219 184 3 220 186 7 221 188 11 222 191 15 223 193 20 224 194 26 225 196 32 226 198 38 226 199 42 226 199 42 227 199 43 227 199 43 227 199 44 227 199 44 227 199 44 227 199 44 227 199 44 227 198 44 227 198 44 226 198 44 226 198 44 226 197 44 226 197 44 226 197 44 226 197 44 226 196 44 226 196 44 226 196 44 226 196 44 226 195 44 226 195 44 227 195 44 227 195 44 227 194 44 226 194 43 226 194 43 226 193 43 226 193 43 225 192 43 225 192 44 225 191 44 224 191 43 224 190 43 223 189 42 223 189 41 221 186 35 219 184 30 218 182 24 216 179 18 214 176 13 211 174 9 209 171 5 207 168 1 204 166 0 202 164 0 199 162 0 197 160 0 194 157 0 191 155 0 188 152 0 185 150 0 182 147 0 180 145 0 177 143 0 174 141 0 172 138 0 170 136 0 168 134 0 166 131 0 165 129 0 165 127 0 165 125 0 164 123 0 160 123 13 154 124 35 149 124 56 143 125 77 140 127 93 138 129 105 137 132 118 136 134 130 135 135 135 135 135 136 135 135 136 135 135 136 135 135 134 134 133 129 134 131 125 133 130 120 135 128 106 142 127 79 148 126 52 155 125 25 159 125 8 161 127 6 162 130 4 164 132 1 165 135 0 167 137 0 169 140 0 170 143 0 172 145 0 175 148 0 177 151 0 180 153 0 182 156 0 185 159 0 188 161 0 191 164 0 194 167 0 197 169 0 199 172 0 202 174 0 205 177 0 207 178 2 209 180 3 211 182 4 214 184 6 215 186 13 217 189 19 219 191 26 221 194 32 222 195 35 223 196 37 224 197 40 225 198 43 225 198 43 225 198 43 226 198 44 226 198 44 226 198 44 226 198 44 226 198 44 226 198 44 226 198 44 226 198 44 226 197 44 226 197 44 226 197 44 226 197 43 226 197 43 226 197 43 226 196 43 226 196 43 226 196 44 226 196 44 226 195 44 226 195 44 226 195 44 226 195 44 226 194 44 226 194 43 226 194 43 226 194 43 226 193 43 226 193 43 226 193 44 226 193 44 226 192 42 225 191 39 225 190 36 225 189 34 224 187 29 222 184 22 221 182 15 220 179 9 219 176 5 218 174 4 217 172 2 217 169 1 216 167 0 214 164 0 213 161 1 211 158 1 204 155 14 190 151 43 175 148 73 160 145 103 151 143 124 150 144 130 148 145 136 147 146 142 147 147 147 148 148 148 150 150 150 151 151 151 153 153 153 155 155 155 157 157 157 159 159 159 162 162 162 165 165 165 168 168 168 171 171 171 175 175 175 179 179 179 184 184 184 188 188 188 193 193 193 199 199 199 204 204 204 209 209 209 215 215 215 220 220 220 225 225 225 230 230 230 234 234 234 237 237 237 240 240 240 243 243 243 247 247 247 
248 248 248 245 245 245 243 243 243 240 240 240 237 237 237 232 232 232 228 228 228 223 223 223 218 218 218 213 213 213 207 207 207 201 201 201 196 196 196 190 190 190 185 185 185 180 180 180 175 175 175 171 171 171 167 167 167 163 163 163 160 160 160 157 157 157 155 155 155 153 153 153 150 150 150 149 149 149 147 147 147 146 146 146 144 144 144 143 143 142 143 142 140 142 141 138 142 140 136 149 142 120 161 145 96 172 148 72 184 151 48 193 155 32 199 159 23 205 163 14 211 168 5 215 171 1 215 174 1 216 176 0 217 179 0 218 181 1 219 182 3 219 184 5 220 186 6 221 187 10 222 189 16 223 191 23 224 193 29 224 194 33 225 194 34 225 194 35 225 194 35 225 194 36 225 194 36 225 194 36 225 194 36 225 194 36 225 194 36 225 194 36 225 194 36 224 193 36 224 193 36 224 193 36 224 193 36 224 192 36 224 192 36 224 192 36 224 192 36 224 191 36 225 191 36 225 191 36 225 191 36 225 190 36 225 190 36 225 190 36 225 190 35 224 189 35 224 189 35 224 189 36 224 188 36 223 188 36 223 187 35 222 186 34 222 185 34 221 184 33 220 182 27 218 180 20 217 178 14 215 175 8 213 173 6 211 171 4 209 169 2 207 167 0 205 165 0 202 163 0 200 161 0 197 159 0 195 156 0 192 154 0 189 152 0 186 149 0 183 147 0 180 145 0 178 142 0 175 140 0 173 138 0 171 135 0 169 133 0 167 130 0 166 128 1 165 127 1 164 125 2 164 123 3 159 122 16 152 122 37 145 122 58 138 122 80 135 123 94 133 125 105 132 127 115 130 129 125 130 130 130 130 130 130 130 130 130 130 130 131 129 129 129 129 128 125 128 126 122 127 125 118 130 124 105 137 124 80 145 124 55 152 123 30 157 124 14 159 126 10 162 129 6 164 131 3 166 134 0 167 136 0 169 139 0 171 142 0 173 144 0 175 147 0 178 150 0 180 152 0 183 155 0 186 158 0 189 160 0 192 163 0 195 166 0 197 168 0 200 171 0 203 173 0 205 175 0 207 177 0 209 178 0 211 180 1 213 181 1 215 183 7 216 185 12 218 188 17 220 190 22 221 191 26 221 192 29 222 193 32 223 194 35 224 194 35 224 194 35 224 194 36 224 194 36 224 194 36 224 194 36 224 194 36 224 194 36 224 194 36 224 194 36 224 193 36 224 193 36 224 193 36 224 193 36 224 193 36 224 193 35 224 192 35 224 192 36 224 192 36 224 192 36 224 191 36 224 191 36 224 191 36 224 191 36 224 190 36 224 190 36 224 190 35 224 190 35 224 189 35 224 189 35 224 189 35 224 188 36 224 188 34 224 186 30 223 185 27 223 184 24 222 182 19 221 180 14 219 177 9 218 175 3 217 173 1 217 171 1 216 169 0 216 167 0 215 165 1 213 162 2 211 159 4 209 156 5 201 153 18 186 149 47 171 146 75 156 142 104 146 140 124 145 141 129 144 142 134 143 142 139 143 143 143 144 144 144 146 146 146 147 147 147 148 148 148 151 151 151 153 153 153 155 155 155 158 158 158 161 161 161 164 164 164 167 167 167 171 171 171 175 175 175 180 180 180 185 185 185 190 190 190 195 195 195 201 201 201 207 207 207 212 212 212 218 218 218 223 223 223 228 228 228 233 233 233 236 236 236 240 240 240 243 243 243 246 246 246 
248 248 248 245 245 245 242 242 242 240 240 240 237 237 237 232 232 232 227 227 227 223 223 223 218 218 218 212 212 212 206 206 206 201 201 201 195 195 195 190 190 190 184 184 184 179 179 179 174 174 174 170 170 170 166 166 166 163 163 163 159 159 159 157 157 157 154 154 154 152 152 152 150 150 150 148 148 148 147 147 147 145 145 145 144 144 144 143 142 142 142 141 140 141 140 138 141 139 136 146 141 123 156 143 104 165 145 84 175 148 64 184 151 49 191 156 36 199 160 23 207 164 10 212 167 4 213 170 3 214 172 2 216 175 1 217 177 1 217 178 2 218 180 3 218 181 5 219 183 7 220 184 12 221 186 17 221 187 22 222 188 25 222 188 26 222 188 27 223 189 28 223 189 29 223 189 29 223 189 29 223 189 29 223 189 29 223 189 30 222 188 30 222 188 30 222 188 30 222 188 30 222 187 30 222 187 30 222 187 30 222 187 30 222 186 30 222 186 30 222 186 30 222 186 30 223 185 30 223 185 30 223 185 30 223 185 30 223 185 29 222 184 29 222 184 29 222 184 29 222 183 29 222 183 29 221 182 29 221 182 28 220 181 27 220 180 26 219 179 25 218 177 20 217 175 15 215 174 11 214 172 6 212 170 4 210 168 3 209 166 2 207 164 0 205 163 0 202 161 0 200 159 0 197 157 0 195 155 0 192 152 0 189 150 0 186 147 0 184 145 0 181 143 0 178 141 0 175 139 0 173 136 0 171 134 0 169 132 0 168 129 0 166 127 2 165 126 6 163 125 9 162 123 12 157 123 26 150 123 47 143 123 68 136 123 89 133 124 102 132 126 110 131 127 118 130 128 125 129 129 129 129 129 129 129 129 129 129 129 130 129 129 128 128 128 126 128 127 123 127 126 120 130 125 110 136 124 88 142 124 67 148 124 46 153 124 30 156 126 22 160 128 15 163 130 7 166 132 2 168 135 1 170 137 1 171 140 0 173 143 0 176 145 0 178 148 0 181 150 0 183 153 0 186 156 0 189 158 0 192 161 0 195 164 0 197 166 0 200 168 0 202 170 0 205 172 0 207 174 0 209 175 0 210 177 1 212 178 1 214 180 5 215 181 9 216 183 13 218 185 17 219 186 19 219 187 22 220 188 24 221 189 27 221 189 28 222 189 28 222 189 29 222 189 29 222 189 29 222 189 30 222 189 30 222 189 30 222 189 30 222 188 30 222 188 30 222 187 30 222 187 30 222 187 29 222 187 29 222 187 29 222 187 29 222 187 29 222 187 30 222 186 30 222 186 30 222 186 30 222 185 30 222 185 30 222 185 30 222 185 29 222 185 29 222 184 29 222 184 29 222 184 28 222 183 28 222 183 28 222 182 26 221 181 23 221 180 20 220 179 18 220 177 14 219 175 10 218 173 6 217 171 3 216 170 1 216 168 1 215 166 1 214 164 1 212 162 3 208 159 9 204 156 14 200 153 19 192 150 33 179 147 58 166 144 84 152 141 110 144 139 127 143 140 131 143 141 135 142 142 139 142 142 142 144 144 144 145 145 145 146 146 146 148 148 148 150 150 150 152 152 152 154 154 154 157 157 157 160 160 160 163 163 163 166 166 166 170 170 170 175 175 175 180 180 180 184 184 184 189 189 189 195 195 195 201 201 201 206 206 206 212 212 212 217 217 217 222 222 222 228 228 228 233 233 233 236 236 236 239 239 239 243 243 243 246 246 246 
248 248 248 245 245 245 242 242 242 239 239 239 237 237 237 232 232 232 227 227 227 222 222 222 217 217 217 212 212 212 206 206 206 200 200 200 194 194 194 189 189 189 184 184 184 178 178 178 173 173 173 169 169 169 166 166 166 162 162 162 159 159 159 156 156 156 154 154 154 151 151 151 149 149 149 147 147 147 146 146 146 144 144 144 143 143 143 142 142 141 141 141 140 140 140 138 139 139 137 144 139 127 151 141 111 158 143 96 166 145 81 174 148 65 184 152 49 194 156 32 204 161 16 209 164 7 211 166 5 213 168 3 214 171 1 215 173 0 216 174 1 216 175 2 217 177 3 217 178 5 218 179 8 218 180 11 219 181 14 219 182 17 220 182 18 220 183 19 220 183 21 220 183 22 220 183 22 220 183 22 220 183 23 220 184 23 220 183 23 220 183 23 220 183 23 220 183 23 220 182 23 220 182 23 220 182 23 220 182 23 220 181 23 220 181 23 220 181 23 220 181 23 220 180 23 220 180 24 221 180 24 221 180 24 221 179 23 220 179 23 220 179 23 220 179 22 220 179 22 220 178 22 220 178 22 219 177 22 219 176 20 218 175 19 218 174 18 218 174 16 216 172 13 215 171 10 214 170 7 213 168 4 211 167 3 210 165 2 208 164 1 207 162 0 204 160 0 202 159 0 200 157 0 197 155 0 195 153 0 192 150 0 189 148 0 187 146 0 184 143 0 181 141 0 179 139 0 176 137 0 174 135 0 172 133 0 170 130 0 168 128 1 166 127 4 164 126 10 162 125 16 160 124 22 155 123 37 148 124 57 141 124 78 134 125 99 131 125 110 130 126 116 129 127 121 129 128 126 128 128 128 128 128 128 128 128 129 128 128 129 128 128 128 128 127 126 128 127 124 127 126 123 129 125 114 134 125 96 139 124 79 144 124 61 148 124 46 153 126 34 158 127 23 162 129 11 166 131 3 168 133 2 170 136 1 172 138 1 174 141 0 176 143 0 179 146 0 181 149 0 184 151 0 187 154 0 189 156 0 192 159 0 195 161 0 197 163 0 200 165 0 202 167 0 205 169 0 206 171 0 208 172 0 210 173 0 211 175 1 213 176 3 214 177 6 215 179 8 216 180 11 217 181 13 217 181 15 218 182 17 219 183 19 219 183 20 219 183 21 220 183 22 220 184 23 220 184 23 220 184 23 220 184 23 220 184 23 220 183 23 220 183 23 220 183 23 220 182 23 220 182 23 220 182 23 220 182 23 220 182 23 220 182 23 220 182 23 220 181 23 220 181 23 220 181 23 220 180 23 220 180 23 220 180 23 220 179 23 220 179 23 220 179 23 220 179 22 220 179 22 220 178 21 220 178 20 219 177 20 219 176 18 219 175 16 218 175 14 218 174 11 218 172 9 217 171 7 216 169 4 215 168 2 215 166 1 214 165 1 214 163 1 213 161 2 210 159 6 204 156 15 198 153 24 192 150 33 184 148 47 172 145 70 160 142 93 149 140 115 141 139 131 141 139 134 141 140 136 141 141 139 142 142 142 143 143 143 144 144 144 145 145 145 147 147 147 149 149 149 151 151 151 154 154 154 156 156 156 159 159 159 162 162 162 166 166 166 169 169 169 174 174 174 179 179 179 184 184 184 189 189 189 194 194 194 200 200 200 206 206 206 211 211 211 217 217 217 222 222 222 227 227 227 233 233 233 236 236 236 239 239 239 243 243 243 246 246 246 
248 248 248 245 245 245 242 242 242 239 239 239 236 236 236 232 232 232 227 227 227 222 222 222 217 217 217 211 211 211 205 205 205 199 199 199 193 193 193 188 188 188 183 183 183 178 178 178 173 173 173 169 169 169 165 165 165 162 162 162 158 158 158 156 156 156 153 153 153 151 151 151 148 148 148 147 147 147 145 145 145 144 144 144 142 142 142 141 141 141 140 140 140 139 139 138 138 138 137 141 138 130 146 140 119 151 141 108 157 142 98 165 145 81 177 149 61 188 153 41 200 157 21 206 160 10 209 162 7 211 165 4 213 167 1 214 169 0 214 170 1 215 171 1 215 172 1 215 173 2 216 174 4 216 174 6 217 175 7 217 176 9 217 176 10 217 177 12 218 177 13 218 177 15 218 178 15 218 178 15 218 178 16 218 178 16 218 178 16 218 178 17 218 177 17 218 177 17 218 177 17 218 177 17 218 176 17 218 176 17 218 176 17 218 176 17 218 175 17 218 175 17 218 175 17 218 175 17 218 174 18 219 174 18 218 174 17 218 174 17 218 174 16 218 174 16 218 173 16 218 173 15 218 172 15 218 172 14 217 171 13 217 170 11 216 169 10 216 168 8 215 167 7 214 166 5 213 166 3 212 165 2 211 164 1 209 162 1 208 161 0 206 160 0 204 158 0 202 156 0 200 155 0 197 153 0 195 151 0 192 148 0 190 146 0 187 144 0 185 142 0 182 140 0 179 138 0 176 136 0 174 134 0 173 131 0 171 129 1 169 127 1 167 126 6 164 125 15 161 124 23 158 124 31 153 124 47 146 125 67 139 125 88 132 126 108 129 126 118 129 127 121 128 127 124 128 127 126 128 128 128 128 128 128 128 128 128 128 128 128 127 127 127 127 127 127 127 127 126 127 127 125 129 126 119 132 126 105 136 125 90 140 124 76 144 124 62 150 126 46 156 127 31 162 128 15 166 130 4 168 132 3 170 134 2 172 137 1 174 139 0 177 142 0 179 144 0 182 147 0 184 149 0 187 152 0 190 154 0 193 157 0 195 159 0 198 161 0 200 163 0 202 165 0 204 166 0 206 168 0 208 169 0 209 170 0 211 172 0 212 172 1 213 173 2 213 174 3 214 175 5 215 175 6 216 176 8 216 177 10 217 177 12 217 178 13 217 178 14 217 178 15 218 178 16 218 178 16 218 178 16 218 178 17 218 178 17 219 178 17 219 178 17 219 177 17 219 177 17 218 177 17 218 177 17 218 177 17 218 177 17 218 177 17 218 177 17 218 176 17 218 176 17 218 176 17 218 175 17 218 175 17 218 174 17 218 174 17 218 174 16 218 174 16 218 174 16 218 174 15 217 173 14 217 172 13 217 172 12 217 171 10 216 170 9 216 169 7 216 168 5 215 167 4 215 166 3 215 165 2 214 164 1 214 163 0 213 161 1 212 160 2 211 158 2 207 156 8 200 153 21 192 150 34 184 148 47 176 145 62 165 143 82 155 141 101 145 139 121 139 138 134 139 139 136 140 139 138 140 140 139 141 141 141 142 142 142 143 143 143 145 145 145 146 146 146 148 148 148 151 151 151 153 153 153 155 155 155 159 159 159 162 162 162 165 165 165 168 168 168 173 173 173 178 178 178 183 183 183 188 188 188 194 194 194 200 200 200 205 205 205 211 211 211 216 216 216 222 222 222 227 227 227 232 232 232 236 236 236 239 239 239 243 243 243 246 246 246 
248 248 248 245 245 245 242 242 242 239 239 239 236 236 236 232 232 232 227 227 227 222 222 222 217 217 217 211 211 211 205 205 205 200 200 200 194 194 194 188 188 188 183 183 183 178 178 178 173 173 173 169 169 169 166 166 166 162 162 162 159 159 159 156 156 156 154 154 154 151 151 151 149 149 149 147 147 147 145 145 145 144 144 144 142 142 142 141 141 141 140 140 140 139 139 139 138 138 138 140 138 134 143 139 127 146 140 119 149 140 112 158 143 97 170 146 75 182 150 53 194 154 32 201 156 20 203 159 16 206 161 12 208 163 9 210 164 7 210 165 7 210 166 7 210 167 7 211 168 7 211 168 7 211 169 8 211 169 8 211 170 9 212 170 11 212 170 12 212 171 14 212 171 15 212 171 15 212 172 16 212 172 16 212 172 17 212 172 17 212 171 17 212 171 17 212 171 18 212 171 18 212 171 18 212 170 18 212 170 18 212 170 18 212 170 17 212 169 17 212 169 18 212 169 18 213 169 18 213 168 18 213 168 18 213 168 18 212 168 17 212 168 17 212 168 16 212 168 16 212 167 16 212 167 15 212 166 15 211 165 13 211 164 11 211 163 10 210 162 8 209 162 8 209 161 7 208 161 7 207 160 6 206 160 6 205 159 6 204 158 6 203 157 6 201 155 6 199 154 6 196 152 6 194 150 6 192 148 6 190 146 6 187 144 6 185 142 6 182 140 6 180 138 6 177 136 6 175 134 6 173 132 6 171 130 7 169 128 7 168 126 7 165 125 14 161 125 24 158 125 34 155 124 43 150 125 59 143 125 78 137 126 97 131 127 116 128 127 125 128 127 125 127 127 126 127 127 127 127 127 127 127 127 127 127 127 127 127 127 127 127 127 127 127 127 127 127 127 127 127 127 127 128 127 123 131 126 112 133 125 101 136 125 90 140 125 77 147 126 60 153 127 42 160 127 24 165 129 12 167 131 11 169 133 9 170 135 7 173 137 6 175 140 6 177 142 6 180 144 6 182 147 6 185 149 6 187 151 6 190 154 6 192 156 6 195 158 6 197 159 6 199 161 6 201 162 6 202 164 6 204 165 6 205 166 6 206 167 6 207 168 6 208 168 6 208 169 6 209 169 6 210 169 8 210 170 9 211 170 10 211 171 12 211 171 13 212 171 14 212 172 15 212 172 16 212 172 17 212 172 17 213 172 17 213 172 17 213 172 17 213 171 17 213 171 17 213 171 17 213 171 17 213 171 17 212 171 18 212 171 18 212 171 18 212 171 18 212 170 18 212 170 18 212 170 18 213 169 18 213 169 18 213 168 18 213 168 17 213 168 17 213 168 17 212 168 17 212 168 16 212 167 14 212 166 13 211 166 12 211 165 10 211 164 9 211 164 8 211 163 7 210 162 7 210 162 7 210 161 7 210 160 7 209 159 7 208 158 8 208 157 9 207 155 10 202 153 18 194 151 32 185 148 47 176 146 62 168 144 78 160 142 94 151 140 110 143 139 127 138 138 137 139 139 138 140 140 139 140 140 140 141 141 141 143 143 143 144 144 144 145 145 145 147 147 147 149 149 149 151 151 151 153 153 153 156 156 156 159 159 159 162 162 162 165 165 165 169 169 169 174 174 174 179 179 179 184 184 184 189 189 189 194 194 194 200 200 200 206 206 206 211 211 211 217 217 217 222 222 222 227 227 227 233 233 233 236 236 236 239 239 239 243 243 243 246 246 246 
249 249 249 246 246 246 243 243 243 240 240 240 238 238 238 233 233 233 229 229 229 224 224 224 219 219 219 214 214 214 208 208 208 203 203 203 197 197 197 192 192 192 187 187 187 182 182 182 177 177 177 174 174 174 170 170 170 167 167 167 163 163 163 161 161 161 158 158 158 156 156 156 153 153 153 151 151 151 150 150 150 148 148 148 147 147 147 145 145 145 144 144 144 143 143 143 142 142 142 143 142 138 145 142 133 147 142 127 149 142 122 155 144 110 164 146 93 173 149 77 182 151 60 187 153 50 189 155 46 192 157 43 194 158 39 195 159 36 196 160 36 196 160 35 196 161 35 196 161 34 196 162 35 196 162 35 196 162 35 196 163 35 196 163 37 197 163 38 197 163 39 197 164 40 197 164 40 196 164 40 196 164 40 196 164 41 196 164 41 196 163 41 196 163 41 196 163 41 196 163 41 196 162 41 196 162 41 196 162 41 196 162 41 196 161 41 196 161 41 196 161 40 196 161 41 196 160 41 196 160 41 196 160 41 196 160 41 196 160 40 195 160 40 195 160 39 195 159 39 195 159 39 195 159 38 195 158 38 195 158 37 194 157 36 194 156 34 194 155 33 193 155 33 193 155 32 192 154 32 191 154 32 191 153 32 190 152 32 189 152 32 188 151 32 186 150 32 185 148 32 183 147 32 181 146 32 179 144 31 177 142 31 176 141 31 174 139 31 172 138 31 170 136 31 168 135 32 166 133 32 164 132 32 162 130 33 161 128 34 159 127 35 157 126 41 154 126 49 151 126 57 148 126 65 144 126 77 140 126 91 135 127 105 130 127 119 128 128 126 128 128 126 128 128 127 128 128 127 128 128 128 128 128 128 128 128 128 128 128 128 128 128 128 128 128 128 128 128 128 128 128 128 128 127 124 130 127 116 132 126 108 134 126 101 137 126 91 142 126 77 147 127 63 152 128 50 156 129 40 158 130 38 160 132 36 162 134 34 164 135 32 166 137 32 168 139 32 170 141 31 172 143 31 174 145 31 176 147 31 178 148 31 180 150 32 181 151 32 183 153 32 185 154 32 186 155 32 187 156 32 188 157 32 190 158 32 191 159 32 191 160 32 192 160 32 192 160 32 193 161 32 193 161 33 194 161 34 194 162 35 195 162 36 195 162 37 195 162 38 195 163 39 195 163 39 195 163 40 196 163 40 196 163 40 196 163 40 196 163 40 196 163 40 196 162 40 196 162 40 196 162 41 196 162 41 196 163 41 196 163 41 196 162 41 196 162 41 196 162 41 196 162 41 196 162 41 196 161 41 196 161 41 197 161 41 197 161 41 197 161 41 197 161 41 196 161 41 196 161 40 196 160 39 196 160 38 196 159 37 196 159 36 196 158 36 196 158 35 196 158 34 196 157 34 196 157 34 196 156 35 195 156 35 195 155 36 194 154 38 193 153 40 192 152 41 189 151 48 182 149 60 175 148 72 169 146 84 163 145 96 157 144 108 151 143 121 145 142 133 142 142 141 143 143 142 144 144 143 145 145 144 146 146 146 147 147 147 148 148 148 150 150 150 151 151 151 153 153 153 156 156 156 158 158 158 161 161 161 164 164 164 167 167 167 170 170 170 173 173 173 178 178 178 183 183 183 188 188 188 192 192 192 198 198 198 203 203 203 208 208 208 214 214 214 219 219 219 224 224 224 229 229 229 234 234 234 237 237 237 240 240 240 243 243 243 247 247 247 
249 249 249 247 247 247 244 244 244 241 241 241 239 239 239 235 235 235 230 230 230 226 226 226 222 222 222 217 217 217 212 212 212 206 206 206 201 201 201 196 196 196 191 191 191 187 187 187 182 182 182 178 178 178 175 175 175 171 171 171 168 168 168 165 165 165 163 163 163 160 160 160 158 158 158 156 156 156 154 154 154 153 153 153 151 151 151 150 150 150 149 149 149 147 147 147 146 146 146 146 146 143 147 145 139 148 145 135 149 145 131 153 145 123 158 147 112 164 148 100 169 149 89 173 150 81 175 151 77 178 152 73 180 153 69 181 154 66 181 154 65 181 155 64 181 155 63 181 155 62 181 155 62 181 155 62 181 155 62 181 156 62 181 156 63 181 156 63 181 156 64 181 156 64 181 156 64 181 156 64 180 156 65 180 156 65 180 155 65 180 155 65 180 155 65 180 155 64 180 154 64 180 154 64 180 154 64 179 154 64 179 153 64 179 153 64 179 153 64 179 153 63 179 152 64 179 152 64 179 152 64 179 152 64 179 152 63 179 151 63 179 151 63 178 151 62 178 151 62 178 151 62 178 151 62 178 150 62 178 150 61 177 149 60 177 149 59 177 149 58 177 148 58 176 148 58 176 147 57 176 147 57 175 147 57 174 146 57 174 145 57 173 145 57 172 144 57 170 143 57 169 142 57 168 141 57 167 140 57 165 139 57 164 137 57 162 136 56 161 135 57 159 134 57 158 133 57 157 132 57 155 131 58 154 130 60 152 129 61 151 128 62 149 127 67 146 127 74 144 127 80 142 127 87 139 127 95 136 127 104 133 128 114 130 128 123 128 128 127 128 128 127 128 128 128 128 128 128 128 128 128 128 128 128 128 128 128 128 128 128 128 128 128 128 128 128 128 128 128 128 128 128 129 128 126 130 128 121 131 127 116 132 127 111 134 127 104 138 127 94 141 128 85 145 128 75 148 129 68 149 130 66 151 131 63 153 132 60 155 134 58 156 135 58 158 136 57 160 138 57 161 139 56 163 140 57 164 142 57 166 143 57 167 144 57 168 145 57 169 146 57 170 147 57 172 148 57 172 149 57 173 150 57 174 151 57 175 151 57 176 152 57 176 152 57 176 152 57 177 152 57 177 152 58 177 153 59 178 153 59 178 153 60 178 153 61 178 153 61 178 153 62 178 154 62 179 154 63 179 154 63 179 154 63 179 154 63 179 154 63 179 154 63 179 154 63 179 154 63 179 154 64 179 154 64 179 154 64 180 154 64 180 154 64 180 154 64 180 154 64 180 154 64 180 154 64 180 154 64 180 154 64 180 153 64 181 153 65 181 153 65 181 153 65 181 153 65 181 153 64 181 153 64 181 153 63 181 153 63 181 153 62 181 153 62 181 152 62 181 152 61 181 152 62 181 152 62 181 152 63 181 152 63 180 151 65 180 151 67 179 150 70 178 150 72 175 149 78 171 148 87 166 147 96 161 146 106 157 146 114 154 145 123 150 145 131 147 145 139 145 145 145 146 146 146 147 147 147 149 149 149 150 150 150 151 151 151 153 153 153 154 154 154 156 156 156 158 158 158 160 160 160 163 163 163 165 165 165 168 168 168 171 171 171 174 174 174 178 178 178 182 182 182 187 187 187 191 191 191 196 196 196 201 201 201 206 206 206 211 211 211 217 217 217 221 221 221 226 226 226 231 231 231 235 235 235 238 238 238 241 241 241 244 244 244 247 247 247 
250 250 250 247 247 247 245 245 245 242 242 242 240 240 240 236 236 236 232 232 232 228 228 228 224 224 224 220 220 220 215 215 215 210 210 210 205 205 205 200 200 200 195 195 195 191 191 191 186 186 186 183 183 183 179 179 179 176 176 176 172 172 172 170 170 170 167 167 167 165 165 165 162 162 162 160 160 160 159 159 159 157 157 157 155 155 155 154 154 154 153 153 153 151 151 151 150 150 150 150 149 148 149 148 146 149 148 143 149 147 141 150 147 136 152 147 130 155 147 123 157 147 117 159 147 112 161 148 107 163 148 103 166 149 98 167 149 95 167 149 94 167 149 92 167 149 91 167 149 89 167 149 89 166 149 89 166 149 89 166 149 88 166 148 89 166 148 89 166 148 89 165 148 89 165 148 89 165 148 89 164 148 89 164 148 89 164 147 88 164 147 88 164 147 88 164 147 88 164 146 88 164 146 88 163 146 87 163 146 87 163 145 87 163 145 87 163 145 87 162 145 86 162 144 86 163 144 87 163 144 87 163 144 87 162 143 86 162 143 86 162 143 86 162 143 85 161 143 85 161 143 85 161 142 85 161 142 85 161 142 85 161 142 84 161 142 84 160 142 84 160 141 83 160 141 83 160 141 83 160 140 82 159 140 82 159 140 82 159 139 82 158 139 82 157 138 82 156 138 82 156 137 82 155 137 82 154 136 82 153 135 82 152 134 82 151 133 82 150 133 82 149 132 82 148 132 83 147 131 83 146 130 85 145 130 86 144 129 88 142 128 90 141 128 94 139 128 99 137 128 104 136 128 109 134 128 113 133 128 118 131 128 122 129 129 126 129 129 128 129 129 128 129 129 128 129 129 129 129 129 129 129 129 129 129 129 129 129 129 129 129 129 129 129 129 129 129 129 129 129 129 129 129 129 128 129 128 125 130 128 123 130 128 121 132 128 117 134 128 112 136 128 106 137 129 101 139 129 96 141 130 93 142 130 90 144 131 87 146 132 85 147 133 84 148 133 83 149 134 82 151 135 82 152 136 82 153 137 82 153 138 82 154 139 82 155 139 82 156 140 82 156 140 82 157 141 82 158 142 83 158 142 83 159 143 83 160 143 83 160 144 83 160 144 83 160 144 83 160 144 82 161 144 83 161 144 83 161 144 84 161 144 84 161 144 85 161 144 85 162 144 85 162 144 85 162 145 85 162 145 85 162 145 86 162 145 86 162 145 86 162 145 86 162 145 86 163 145 86 163 145 87 163 145 87 163 146 87 163 146 87 163 146 87 163 146 87 163 146 87 163 146 87 163 146 87 164 146 88 164 146 88 164 146 88 164 146 88 164 146 88 165 146 88 165 146 89 165 146 89 165 146 88 165 146 88 165 146 88 166 146 88 166 147 88 166 147 89 167 147 89 167 147 89 167 147 90 167 147 91 167 147 92 166 147 94 165 147 97 164 147 100 163 147 104 162 147 108 159 147 115 156 147 121 154 146 127 152 147 133 151 147 137 150 147 141 149 148 145 149 149 149 150 150 150 151 151 151 153 153 153 154 154 154 156 156 156 157 157 157 158 158 158 160 160 160 163 163 163 165 165 165 167 167 167 170 170 170 173 173 173 176 176 176 179 179 179 182 182 182 187 187 187 191 191 191 195 195 195 200 200 200 205 205 205 209 209 209 214 214 214 219 219 219 224 224 224 228 228 228 233 233 233 237 237 237 240 240 240 242 242 242 245 245 245 248 248 248 
250 250 250 248 248 248 246 246 246 244 244 244 241 241 241 238 238 238 234 234 234 231 231 231 227 227 227 222 222 222 218 218 218 213 213 213 209 209 209 204 204 204 200 200 200 195 195 195 191 191 191 188 188 188 184 184 184 181 181 181 177 177 177 175 175 175 172 172 172 170 170 170 167 167 167 165 165 165 163 163 163 162 162 162 160 160 160 159 159 159 157 157 157 156 156 156 155 155 155 154 154 154 152 152 152 151 151 151 150 150 150 149 149 148 149 148 146 149 147 144 148 147 141 149 146 138 151 146 134 153 146 129 155 146 125 155 146 121 155 146 119 155 145 117 155 145 115 155 145 114 155 144 114 155 144 113 154 144 113 154 144 112 154 143 112 154 143 112 153 143 111 153 143 111 152 142 111 152 142 111 151 142 110 151 141 110 151 141 110 151 141 109 151 141 109 151 140 109 151 140 109 150 140 108 150 140 108 150 139 108 150 139 108 149 139 107 149 139 107 149 138 107 149 138 107 149 138 107 149 138 107 149 137 107 149 137 107 148 137 106 148 137 106 148 136 106 148 136 106 147 136 106 147 136 106 147 136 106 147 136 106 147 136 106 147 136 106 147 136 106 147 136 106 147 136 105 147 136 105 147 135 105 146 135 105 146 135 105 146 135 105 146 134 105 145 134 105 145 134 105 144 134 105 144 133 105 143 133 105 143 132 104 142 132 104 142 131 104 142 131 104 141 131 105 141 131 105 140 130 106 139 130 107 138 130 109 137 130 111 136 130 114 134 129 117 133 129 120 132 129 124 131 129 127 130 129 129 130 129 129 130 129 129 130 129 129 129 129 129 129 129 129 129 129 129 129 129 129 129 129 129 129 129 129 129 129 129 129 129 129 129 129 129 129 129 129 129 129 129 129 129 129 129 129 129 129 129 129 129 129 129 129 129 129 130 129 129 130 129 127 131 129 124 132 129 122 133 130 120 134 130 116 136 130 113 137 130 110 138 131 107 139 131 106 140 131 105 141 132 104 142 132 104 142 133 104 143 133 104 143 134 105 144 134 105 144 135 105 144 135 105 145 135 105 145 135 105 145 136 105 146 136 105 146 137 106 147 137 106 147 137 105 147 137 105 147 137 105 147 137 105 147 137 105 147 137 105 147 137 106 148 137 106 148 137 106 148 137 106 148 137 106 148 137 106 148 138 106 148 138 106 148 138 106 148 138 106 148 138 106 148 138 106 149 138 107 149 138 107 149 139 107 149 139 107 150 139 108 150 139 108 150 139 108 150 139 108 150 139 108 150 140 108 150 140 108 150 140 109 151 140 109 151 140 109 151 141 109 151 141 110 152 141 110 152 141 110 152 141 110 153 141 111 153 141 111 153 142 111 154 142 112 154 143 112 155 143 113 155 144 113 155 144 114 155 144 115 155 145 116 155 145 117 155 145 119 154 145 123 153 146 127 152 146 131 151 146 135 151 147 138 150 147 142 149 148 146 149 149 149 150 150 150 151 151 151 152 152 152 153 153 153 154 154 154 156 156 156 157 157 157 159 159 159 160 160 160 162 162 162 163 163 163 165 165 165 168 168 168 170 170 170 173 173 173 175 175 175 178 178 178 181 181 181 184 184 184 187 187 187 191 191 191 195 195 195 200 200 200 204 204 204 208 208 208 213 213 213 218 218 218 222 222 222 226 226 226 230 230 230 234 234 234 238 238 238 241 241 241 243 243 243 246 246 246 248 248 248 
251 251 251 249 249 249 247 247 247 245 245 245 243 243 243 240 240 240 237 237 237 233 233 233 230 230 230 226 226 226 222 222 222 218 218 218 214 214 214 210 210 210 206 206 206 202 202 202 198 198 198 194 194 194 191 191 191 188 188 188 185 185 185 182 182 182 180 180 180 177 177 177 175 175 175 173 173 173 171 171 171 169 169 169 167 167 167 166 166 166 165 165 165 163 163 163 162 162 162 160 160 160 159 159 159 158 158 158 157 157 157 156 155 155 155 155 153 155 154 151 154 153 149 154 152 146 155 152 143 157 152 139 158 151 135 158 151 133 158 150 131 158 150 129 157 150 128 157 149 126 156 149 126 156 148 125 155 148 125 155 147 124 155 147 124 154 146 123 154 146 123 153 146 122 153 145 122 152 145 122 152 145 121 152 144 121 151 144 121 151 144 120 151 143 120 151 143 120 150 143 119 150 142 119 150 142 119 149 142 118 149 141 118 149 141 118 149 141 118 148 141 117 148 140 117 148 140 117 148 140 117 148 139 117 148 139 116 147 139 116 147 139 116 147 138 116 147 138 116 146 138 116 146 138 116 146 138 115 146 138 115 146 138 115 146 138 115 146 138 115 145 138 115 145 137 115 145 137 114 145 137 114 145 137 114 145 136 114 145 136 114 144 136 114 144 136 114 144 135 114 143 135 114 143 135 114 142 135 114 142 134 113 142 134 113 141 133 113 141 133 113 141 133 113 140 133 114 140 133 114 139 133 115 138 132 117 137 132 119 136 132 120 136 132 122 135 132 125 134 132 127 133 132 130 132 132 131 132 132 131 132 132 131 132 132 132 132 132 132 132 132 132 132 132 132 132 132 132 132 132 132 132 132 132 132 132 132 132 132 132 132 132 132 132 132 132 132 132 132 132 132 132 132 132 132 132 132 132 132 132 132 132 132 132 132 132 131 132 132 130 133 132 128 134 132 127 134 132 125 135 132 122 137 132 120 138 133 117 138 133 116 139 133 115 140 133 114 141 134 113 141 134 113 142 135 113 142 135 113 142 135 114 143 136 114 143 136 114 143 136 114 143 136 114 144 137 114 144 137 114 144 137 114 145 138 115 145 138 115 145 138 115 145 138 115 145 138 114 145 138 114 145 138 114 146 138 115 146 138 115 146 138 115 146 139 115 147 139 115 147 139 116 147 139 116 147 139 116 147 140 116 147 140 116 147 140 116 147 140 116 148 140 117 148 140 117 148 140 117 148 141 117 149 141 118 149 141 118 149 142 118 150 142 118 150 142 119 150 142 119 150 142 119 150 142 119 151 143 120 151 143 120 151 143 120 152 144 120 152 144 121 152 144 121 152 144 121 153 144 122 153 145 122 154 145 123 154 146 123 155 146 124 155 147 124 156 147 125 156 148 125 157 149 126 157 149 127 158 149 128 158 150 129 158 150 131 157 151 134 157 151 137 157 152 141 156 152 144 156 153 147 155 154 150 155 155 153 155 155 155 157 157 157 158 158 158 159 159 159 160 160 160 162 162 162 163 163 163 165 165 165 166 166 166 168 168 168 169 169 169 171 171 171 173 173 173 175 175 175 178 178 178 180 180 180 182 182 182 185 185 185 188 188 188 191 191 191 194 194 194 198 198 198 202 202 202 205 205 205 209 209 209 214 214 214 218 218 218 222 222 222 226 226 226 230 230 230 233 233 233 237 237 237 240 240 240 243 243 243 245 245 245 247 247 247 249 249 249 
251 251 251 250 250 250 248 248 248 246 246 246 245 245 245 242 242 242 239 239 239 236 236 236 233 233 233 230 230 230 226 226 226 223 223 223 219 219 219 215 215 215 212 212 212 208 208 208 204 204 204 201 201 201 198 198 198 195 195 195 192 192 192 190 190 190 187 187 187 185 185 185 182 182 182 180 180 180 179 179 179 177 177 177 175 175 175 173 173 173 172 172 172 170 170 170 169 169 169 167 167 167 166 166 166 165 165 165 163 163 163 162 162 162 161 161 160 161 160 158 160 159 157 160 158 154 160 158 152 160 157 149 161 157 146 161 156 144 160 155 143 160 155 141 159 154 140 159 153 139 158 153 138 157 152 137 157 152 136 156 151 136 155 150 135 155 150 135 154 149 134 154 149 134 153 149 133 153 148 133 152 148 133 152 147 132 152 147 132 151 146 131 151 146 131 150 145 130 150 145 130 150 145 129 149 144 129 149 144 129 149 144 128 148 143 128 148 143 128 148 143 128 148 142 127 147 142 127 147 142 127 147 141 127 147 141 126 146 141 126 146 141 126 146 140 126 146 140 126 145 140 125 145 140 125 145 140 125 145 140 125 145 140 125 144 139 125 144 139 125 144 139 124 144 139 124 144 139 124 144 138 124 144 138 123 143 138 123 143 138 123 143 137 123 143 137 123 142 137 123 142 137 123 142 137 123 142 136 123 141 136 123 141 136 122 140 135 122 140 135 122 140 135 122 140 135 123 140 135 123 139 135 124 138 135 125 138 135 126 137 134 127 137 134 128 136 134 130 135 134 131 135 134 133 134 134 133 134 134 134 134 134 134 134 134 134 134 134 134 134 134 134 134 134 134 134 134 134 134 134 134 134 134 134 134 134 134 134 134 134 134 134 134 134 134 134 134 134 134 134 134 134 134 134 134 134 134 134 134 134 134 134 134 134 134 134 134 135 134 133 135 134 132 135 134 131 136 134 130 137 135 128 137 135 127 138 135 125 139 135 124 139 135 123 140 135 123 140 136 122 140 136 122 141 136 122 141 137 123 142 137 123 142 137 123 142 137 123 142 137 123 142 138 123 142 138 123 143 138 123 143 138 124 143 139 124 144 139 124 144 139 124 144 139 124 144 139 124 144 139 124 144 139 124 144 139 124 145 140 124 145 140 125 145 140 125 145 140 125 146 141 125 146 141 126 146 141 126 146 141 126 146 142 126 146 142 126 147 142 126 147 142 127 147 142 127 147 142 127 148 143 128 148 143 128 148 143 128 149 144 129 149 144 129 149 144 129 150 145 129 150 145 130 150 145 130 151 146 130 151 146 131 151 146 131 152 147 132 152 147 132 153 147 132 153 147 133 153 148 133 154 148 134 154 149 134 155 149 135 156 150 135 156 151 136 157 152 137 158 152 138 159 153 139 159 154 140 160 154 141 160 155 142 160 156 143 161 156 146 161 157 148 161 158 150 161 158 153 161 159 155 161 160 158 161 161 160 162 162 162 163 163 163 165 165 165 166 166 166 167 167 167 169 169 169 171 171 171 172 172 172 174 174 174 175 175 175 177 177 177 179 179 179 180 180 180 183 183 183 185 185 185 187 187 187 190 190 190 193 193 193 195 195 195 198 198 198 201 201 201 204 204 204 208 208 208 211 211 211 215 215 215 219 219 219 223 223 223 226 226 226 230 230 230 233 233 233 236 236 236 239 239 239 242 242 242 244 244 244 246 246 246 248 248 248 250 250 250 
252 252 252 250 250 250 249 249 249 248 248 248 247 247 247 244 244 244 242 242 242 239 239 239 236 236 236 233 233 233 230 230 230 227 227 227 224 224 224 221 221 221 217 217 217 214 214 214 211 211 211 208 208 208 205 205 205 203 203 203 200 200 200 198 198 198 195 195 195 193 193 193 190 190 190 188 188 188 186 186 186 184 184 184 182 182 182 181 181 181 179 179 179 177 177 177 176 176 176 174 174 174 173 173 173 171 171 171 170 170 170 169 169 168 168 168 167 167 166 166 166 165 164 165 164 163 165 164 161 164 163 159 164 162 157 163 161 156 163 160 154 162 159 153 161 159 152 160 158 151 159 157 150 158 156 149 158 155 148 157 155 148 156 154 147 156 153 146 155 153 146 154 152 145 154 152 145 153 151 144 153 151 144 152 150 143 152 150 143 151 149 142 151 148 141 150 148 141 150 147 140 149 147 140 149 146 139 148 146 139 148 146 139 148 146 139 148 145 138 147 145 138 147 145 138 147 144 137 146 144 137 146 143 137 146 143 136 145 143 136 145 143 136 145 142 136 145 142 135 144 142 135 144 142 135 144 142 135 144 141 135 143 141 134 143 141 134 143 141 134 143 140 134 143 140 133 142 140 133 142 140 133 142 140 133 142 139 133 142 139 132 141 139 132 141 139 132 141 139 132 141 139 132 141 139 132 141 138 132 140 138 132 140 138 131 140 137 131 140 137 131 139 137 131 139 137 131 139 137 132 139 137 132 139 137 132 139 137 133 138 137 133 138 137 134 137 137 134 137 136 135 136 136 136 136 136 136 136 136 136 136 136 136 136 136 136 136 136 136 136 136 136 136 136 136 136 136 136 136 136 136 136 136 136 136 136 136 136 136 136 136 136 136 136 136 136 136 136 136 136 136 136 136 136 136 136 136 136 136 136 136 136 136 136 136 136 136 137 136 136 137 137 135 137 137 135 138 137 135 138 137 134 138 137 133 139 137 133 139 137 132 139 137 132 139 137 132 139 137 131 140 138 131 140 138 131 140 138 132 141 138 132 141 139 132 141 139 132 141 139 132 141 139 132 141 139 132 141 139 132 142 140 133 142 140 133 142 140 133 142 140 133 142 140 133 142 140 133 142 140 133 143 140 133 143 141 133 143 141 134 143 141 134 144 141 134 144 142 135 144 142 135 145 142 136 145 143 136 145 143 136 145 143 136 146 143 136 146 144 137 146 144 137 146 144 137 147 144 137 147 145 138 147 145 138 148 146 139 148 146 139 149 146 139 149 147 140 150 147 140 150 148 141 150 148 141 151 148 141 151 149 142 152 149 142 152 150 143 153 150 143 153 151 144 153 151 144 154 151 145 155 152 145 155 153 146 156 153 147 157 154 147 158 155 148 158 156 149 159 157 150 160 158 151 161 158 152 162 159 153 163 160 154 163 161 155 164 162 157 164 163 158 165 163 160 166 164 162 166 166 164 167 167 165 168 168 167 169 169 169 170 170 170 172 172 172 173 173 173 174 174 174 176 176 176 178 178 178 180 180 180 181 181 181 183 183 183 185 185 185 186 186 186 188 188 188 190 190 190 193 193 193 195 195 195 197 197 197 200 200 200 202 202 202 205 205 205 208 208 208 211 211 211 214 214 214 217 217 217 221 221 221 224 224 224 227 227 227 231 231 231 234 234 234 237 237 237 239 239 239 242 242 242 244 244 244 246 246 246 247 247 247 249 249 249 250 250 250 
252 252 252 251 251 251 250 250 250 249 249 249 248 248 248 246 246 246 244 244 244 242 242 242 240 240 240 237 237 237 234 234 234 232 232 232 229 229 229 226 226 226 223 223 223 220 220 220 217 217 217 215 215 215 212 212 212 210 210 210 207 207 207 205 205 205 203 203 203 200 200 200 198 198 198 196 196 196 194 194 194 192 192 192 190 190 190 188 188 188 186 186 186 185 185 185 183 183 183 181 181 181 180 180 180 178 178 178 177 177 177 175 175 175 174 174 174 173 173 173 172 172 172 171 171 171 170 170 170 169 169 169 168 168 168 167 167 167 166 166 166 165 165 165 164 164 164 163 163 163 162 162 162 161 161 161 160 160 160 159 159 159 158 158 158 157 157 157 157 157 157 156 156 156 155 155 155 155 155 155 154 154 154 154 154 154 153 153 153 152 152 152 152 152 152 151 151 151 150 150 150 150 150 150 149 149 149 149 149 149 149 149 149 148 148 148 148 148 148 148 148 148 147 147 147 147 147 147 146 146 146 146 146 146 146 146 146 145 145 145 145 145 145 145 145 145 145 145 145 144 144 144 144 144 144 144 144 144 144 144 144 143 143 143 143 143 143 143 143 143 143 143 143 142 142 142 142 142 142 142 142 142 142 142 142 141 141 141 141 141 141 141 141 141 141 141 141 141 141 141 141 141 141 141 141 141 141 141 141 140 140 140 140 140 140 140 140 140 140 140 140 140 140 140 140 140 140 140 140 140 140 140 140 140 140 140 140 140 140 140 140 140 140 140 140 139 139 139 139 139 139 139 139 139 139 139 139 139 139 139 139 139 139 139 139 139 139 139 139 139 139 139 139 139 139 139 139 139 139 139 139 139 139 139 139 139 139 139 139 139 139 139 139 139 139 139 139 139 139 139 139 139 139 139 139 139 139 139 139 139 139 139 139 139 139 139 139 139 139 139 139 139 139 140 140 140 140 140 140 140 140 140 140 140 140 140 140 140 140 140 140 140 140 140 140 140 140 140 140 140 140 140 140 140 140 140 140 140 140 141 141 141 141 141 141 141 141 141 141 141 141 141 141 141 141 141 141 141 141 141 141 141 141 142 142 142 142 142 142 142 142 142 142 142 142 142 142 142 142 142 142 142 142 142 142 142 142 143 143 143 143 143 143 143 143 143 144 144 144 144 144 144 145 145 145 145 145 145 145 145 145 146 146 146 146 146 146 146 146 146 146 146 146 147 147 147 147 147 147 147 147 147 148 148 148 148 148 148 149 149 149 149 149 149 150 150 150 150 150 150 151 151 151 151 151 151 152 152 152 152 152 152 153 153 153 153 153 153 154 154 154 154 154 154 155 155 155 156 156 156 156 156 156 157 157 157 158 158 158 159 159 159 160 160 160 161 161 161 162 162 162 163 163 163 164 164 164 165 165 165 166 166 166 167 167 167 168 168 168 169 169 169 170 170 170 171 171 171 172 172 172 173 173 173 174 174 174 176 176 176 177 177 177 179 179 179 180 180 180 182 182 182 184 184 184 185 185 185 187 187 187 189 189 189 190 190 190 192 192 192 194 194 194 196 196 196 198 198 198 200 200 200 202 202 202 205 205 205 207 207 207 209 209 209 212 212 212 214 214 214 217 217 217 220 220 220 223 223 223 226 226 226 229 229 229 232 232 232 235 235 235 238 238 238 240 240 240 242 242 242 244 244 244 246 246 246 247 247 247 249 249 249 250 250 250 251 251 251 
253 253 253 252 252 252 251 251 251 250 250 250 249 249 249 247 247 247 246 246 246 244 244 244 242 242 242 240 240 240 237 237 237 235 235 235 233 233 233 230 230 230 228 228 228 225 225 225 223 223 223 220 220 220 218 218 218 216 216 216 214 214 214 212 212 212 209 209 209 207 207 207 205 205 205 203 203 203 201 201 201 199 199 199 198 198 198 196 196 196 194 194 194 193 193 193 191 191 191 189 189 189 188 188 188 186 186 186 185 185 185 184 184 184 182 182 182 181 181 181 180 180 180 179 179 179 178 178 178 177 177 177 176 176 176 175 175 175 174 174 174 173 173 173 172 172 172 171 171 171 170 170 170 169 169 169 168 168 168 167 167 167 166 166 166 165 165 165 164 164 164 164 164 164 163 163 163 162 162 162 162 162 162 161 161 161 160 160 160 159 159 159 159 159 159 158 158 158 157 157 157 157 157 157 156 156 156 156 156 156 156 156 156 155 155 155 155 155 155 155 155 155 154 154 154 153 153 153 153 153 153 152 152 152 152 152 152 152 152 152 151 151 151 151 151 151 151 151 151 150 150 150 150 150 150 150 150 150 150 150 150 149 149 149 149 149 149 149 149 149 148 148 148 148 148 148 148 148 148 148 148 148 147 147 147 147 147 147 147 147 147 147 147 147 146 146 146 146 146 146 146 146 146 146 146 146 146 146 146 146 146 146 146 146 146 145 145 145 145 145 145 145 145 145 145 145 145 145 145 145 145 145 145 145 145 145 145 145 145 145 145 145 145 145 145 145 145 145 144 144 144 144 144 144 144 144 144 144 144 144 144 144 144 144 144 144 144 144 144 144 144 144 144 144 144 144 144 144 144 144 144 144 144 144 144 144 144 144 144 144 144 144 144 144 144 144 144 144 144 144 144 144 144 144 144 144 144 144 144 144 144 144 144 144 144 144 144 144 144 144 145 145 145 145 145 145 145 145 145 145 145 145 145 145 145 145 145 145 145 145 145 145 145 145 145 145 145 145 145 145 145 145 145 146 146 146 146 146 146 146 146 146 146 146 146 146 146 146 146 146 146 146 146 146 147 147 147 147 147 147 147 147 147 147 147 147 148 148 148 148 148 148 148 148 148 148 148 148 148 148 148 148 148 148 148 148 148 149 149 149 149 149 149 150 150 150 150 150 150 151 151 151 151 151 151 151 151 151 152 152 152 152 152 152 152 152 152 153 153 153 153 153 153 153 153 153 154 154 154 154 154 154 155 155 155 155 155 155 156 156 156 156 156 156 157 157 157 157 157 157 158 158 158 158 158 158 159 159 159 159 159 159 160 160 160 161 161 161 161 161 161 162 162 162 163 163 163 163 163 163 164 164 164 165 165 165 166 166 166 167 167 167 168 168 168 169 169 169 170 170 170 171 171 171 172 172 172 173 173 173 174 174 174 175 175 175 176 176 176 177 177 177 178 178 178 179 179 179 180 180 180 181 181 181 183 183 183 184 184 184 185 185 185 187 187 187 188 188 188 190 190 190 191 191 191 193 193 193 195 195 195 196 196 196 198 198 198 200 200 200 201 201 201 203 203 203 205 205 205 207 207 207 209 209 209 211 211 211 213 213 213 216 216 216 218 218 218 220 220 220 223 223 223 225 225 225 228 228 228 230 230 230 233 233 233 235 235 235 238 238 238 240 240 240 242 242 242 244 244 244 246 246 246 247 247 247 248 248 248 250 250 250 251 251 251 252 252 252 
253 253 253 252 252 252 252 252 252 251 251 251 250 250 250 249 249 249 247 247 247 246 246 246 244 244 244 243 243 243 241 241 241 239 239 239 237 237 237 235 235 235 232 232 232 230 230 230 228 228 228 226 226 226 224 224 224 222 222 222 220 220 220 218 218 218 216 216 216 214 214 214 212 212 212 211 211 211 209 209 209 207 207 207 206 206 206 204 204 204 202 202 202 201 201 201 199 199 199 198 198 198 196 196 196 195 195 195 193 193 193 192 192 192 191 191 191 189 189 189 188 188 188 187 187 187 186 186 186 185 185 185 184 184 184 182 182 182 181 181 181 180 180 180 180 180 180 179 179 179 178 178 178 177 177 177 176 176 176 175 175 175 174 174 174 173 173 173 172 172 172 171 171 171 170 170 170 170 170 170 169 169 169 168 168 168 167 167 167 167 167 167 166 166 166 165 165 165 165 165 165 164 164 164 163 163 163 163 163 163 162 162 162 162 162 162 162 162 162 161 161 161 161 161 161 160 160 160 159 159 159 159 159 159 158 158 158 158 158 158 158 158 158 157 157 157 157 157 157 156 156 156 156 156 156 156 156 156 155 155 155 155 155 155 155 155 155 155 155 155 154 154 154 154 154 154 154 154 154 153 153 153 153 153 153 153 153 153 152 152 152 152 152 152 152 152 152 152 152 152 152 152 152 152 152 152 151 151 151 151 151 151 151 151 151 151 151 151 151 151 151 151 151 151 151 151 151 151 151 151 151 151 151 150 150 150 150 150 150 150 150 150 150 150 150 150 150 150 150 150 150 150 150 150 150 150 150 149 149 149 149 149 149 149 149 149 149 149 149 149 149 149 149 149 149 149 149 149 149 149 149 149 149 149 149 149 149 149 149 149 149 149 149 149 149 149 149 149 149 149 149 149 149 149 149 149 149 149 149 149 149 150 150 150 150 150 150 150 150 150 150 150 150 150 150 150 150 150 150 150 150 150 150 150 150 151 151 151 151 151 151 151 151 151 151 151 151 151 151 151 151 151 151 151 151 151 151 151 151 151 151 151 152 152 152 152 152 152 152 152 152 152 152 152 152 152 152 152 152 152 153 153 153 153 153 153 153 153 153 153 153 153 153 153 153 154 154 154 154 154 154 154 154 154 154 154 154 155 155 155 155 155 155 156 156 156 156 156 156 157 157 157 157 157 157 158 158 158 158 158 158 158 158 158 159 159 159 159 159 159 159 159 159 160 160 160 160 160 160 161 161 161 161 161 161 162 162 162 163 163 163 163 163 163 164 164 164 164 164 164 165 165 165 165 165 165 166 166 166 167 167 167 167 167 167 168 168 168 169 169 169 169 169 169 170 170 170 171 171 171 172 172 172 173 173 173 174 174 174 175 175 175 176 176 176 177 177 177 178 178 178 179 179 179 179 179 179 180 180 180 181 181 181 183 183 183 184 184 184 185 185 185 186 186 186 187 187 187 188 188 188 190 190 190 191 191 191 192 192 192 193 193 193 195 195 195 196 196 196 198 198 198 199 199 199 201 201 201 202 202 202 204 204 204 206 206 206 207 207 207 209 209 209 210 210 210 212 212 212 214 214 214 216 216 216 218 218 218 220 220 220 222 222 222 224 224 224 226 226 226 228 228 228 230 230 230 233 233 233 235 235 235 237 237 237 239 239 239 241 241 241 243 243 243 244 244 244 246 246 246 247 247 247 249 249 249 250 250 250 250 250 250 251 251 251 252 252 252 
254 254 254 253 253 253 252 252 252 252 252 252 251 251 251 250 250 250 249 249 249 248 248 248 247 247 247 245 245 245 244 244 244 242 242 242 241 241 241 239 239 239 237 237 237 235 235 235 233 233 233 232 232 232 230 230 230 228 228 228 227 227 227 225 225 225 223 223 223 221 221 221 220 220 220 218 218 218 217 217 217 215 215 215 213 213 213 212 212 212 210 210 210 209 209 209 207 207 207 206 206 206 204 204 204 203 203 203 201 201 201 200 200 200 199 199 199 197 197 197 196 196 196 195 195 195 194 194 194 193 193 193 191 191 191 190 190 190 189 189 189 188 188 188 187 187 187 186 186 186 185 185 185 184 184 184 183 183 183 182 182 182 182 182 182 181 181 181 180 180 180 179 179 179 178 178 178 177 177 177 176 176 176 175 175 175 175 175 175 174 174 174 173 173 173 172 172 172 172 172 172 171 171 171 170 170 170 170 170 170 169 169 169 169 169 169 168 168 168 168 168 168 167 167 167 166 166 166 166 166 166 165 165 165 165 165 165 164 164 164 164 164 164 163 163 163 163 163 163 163 163 163 162 162 162 162 162 162 161 161 161 161 161 161 161 161 161 161 161 161 160 160 160 160 160 160 159 159 159 159 159 159 159 159 159 158 158 158 158 158 158 158 158 158 158 158 158 158 158 158 157 157 157 157 157 157 157 157 157 157 157 157 156 156 156 156 156 156 156 156 156 156 156 156 156 156 156 156 156 156 156 156 156 156 156 156 156 156 156 155 155 155 155 155 155 155 155 155 155 155 155 155 155 155 155 155 155 155 155 155 155 155 155 154 154 154 154 154 154 154 154 154 154 154 154 154 154 154 154 154 154 154 154 154 154 154 154 154 154 154 154 154 154 154 154 154 154 154 154 154 154 154 154 154 154 155 155 155 155 155 155 155 155 155 155 155 155 155 155 155 155 155 155 155 155 155 155 155 155 156 156 156 156 156 156 156 156 156 156 156 156 156 156 156 156 156 156 156 156 156 156 156 156 156 156 156 157 157 157 157 157 157 157 157 157 157 157 157 158 158 158 158 158 158 158 158 158 158 158 158 158 158 158 159 159 159 159 159 159 159 159 159 159 159 159 159 159 159 160 160 160 160 160 160 161 161 161 161 161 161 161 161 161 162 162 162 162 162 162 163 163 163 163 163 163 164 164 164 164 164 164 165 165 165 165 165 165 166 166 166 166 166 166 166 166 166 167 167 167 168 168 168 168 168 168 169 169 169 170 170 170 170 170 170 171 171 171 171 171 171 172 172 172 172 172 172 173 173 173 174 174 174 174 174 174 175 175 175 176 176 176 177 177 177 178 178 178 179 179 179 180 180 180 181 181 181 181 181 181 182 182 182 183 183 183 184 184 184 185 185 185 186 186 186 187 187 187 188 188 188 189 189 189 190 190 190 192 192 192 193 193 193 194 194 194 195 195 195 196 196 196 198 198 198 199 199 199 200 200 200 201 201 201 203 203 203 204 204 204 205 205 205 207 207 207 209 209 209 210 210 210 212 212 212 213 213 213 215 215 215 216 216 216 218 218 218 219 219 219 221 221 221 223 223 223 224 224 224 226 226 226 228 228 228 230 230 230 232 232 232 234 234 234 236 236 236 237 237 237 239 239 239 241 241 241 242 242 242 244 244 244 246 246 246 247 247 247 248 248 248 249 249 249 250 250 250 251 251 251 251 251 251 252 252 252 253 253 253 
254 254 254 254 254 254 253 253 253 253 253 253 252 252 252 251 251 251 251 251 251 250 250 250 249 249 249 248 248 248 247 247 247 246 246 246 244 244 244 243 243 243 241 241 241 240 240 240 239 239 239 237 237 237 236 236 236 234 234 234 233 233 233 231 231 231 230 230 230 228 228 228 227 227 227 225 225 225 224 224 224 222 222 222 221 221 221 220 220 220 218 218 218 217 217 217 215 215 215 214 214 214 212 212 212 211 211 211 209 209 209 208 208 208 207 207 207 205 205 205 204 204 204 203 203 203 202 202 202 201 201 201 199 199 199 198 198 198 197 197 197 196 196 196 195 195 195 194 194 194 193 193 193 192 192 192 191 191 191 190 190 190 189 189 189 188 188 188 187 187 187 186 186 186 185 185 185 184 184 184 183 183 183 183 183 183 182 182 182 181 181 181 180 180 180 180 180 180 179 179 179 178 178 178 177 177 177 177 177 177 176 176 176 176 176 176 175 175 175 175 175 175 174 174 174 173 173 173 172 172 172 172 172 172 171 171 171 171 171 171 170 170 170 170 170 170 169 169 169 169 169 169 168 168 168 168 168 168 168 168 168 167 167 167 167 167 167 167 167 167 166 166 166 166 166 166 165 165 165 165 165 165 165 165 165 164 164 164 164 164 164 164 164 164 164 164 164 163 163 163 163 163 163 163 163 163 163 163 163 162 162 162 162 162 162 162 162 162 162 162 162 162 162 162 162 162 162 162 162 162 162 162 162 161 161 161 161 161 161 161 161 161 161 161 161 161 161 161 161 161 161 161 161 161 161 161 161 160 160 160 160 160 160 160 160 160 160 160 160 160 160 160 160 160 160 160 160 160 160 160 160 160 160 160 160 160 160 160 160 160 160 160 160 160 160 160 160 160 160 160 160 160 160 160 160 160 160 160 160 160 160 161 161 161 161 161 161 161 161 161 161 161 161 161 161 161 161 161 161 161 161 161 161 161 161 162 162 162 162 162 162 162 162 162 162 162 162 162 162 162 162 162 162 162 162 162 162 162 162 163 163 163 163 163 163 163 163 163 163 163 163 164 164 164 164 164 164 164 164 164 164 164 164 165 165 165 165 165 165 165 165 165 165 165 165 166 166 166 166 166 166 166 166 166 167 167 167 167 167 167 168 168 168 168 168 168 169 169 169 169 169 169 170 170 170 170 170 170 171 171 171 171 171 171 172 172 172 172 172 172 173 173 173 173 173 173 174 174 174 174 174 174 175 175 175 176 176 176 177 177 177 177 177 177 178 178 178 178 178 178 179 179 179 179 179 179 180 180 180 181 181 181 182 182 182 182 182 182 183 183 183 184 184 184 185 185 185 186 186 186 187 187 187 188 188 188 189 189 189 190 190 190 191 191 191 192 192 192 193 193 193 194 194 194 195 195 195 196 196 196 197 197 197 198 198 198 200 200 200 201 201 201 202 202 202 203 203 203 204 204 204 206 206 206 207 207 207 208 208 208 209 209 209 211 211 211 212 212 212 213 213 213 215 215 215 216 216 216 218 218 218 219 219 219 220 220 220 222 222 222 223 223 223 225 225 225 226 226 226 228 228 228 229 229 229 231 231 231 233 233 233 234 234 234 236 236 236 238 238 238 239 239 239 240 240 240 242 242 242 243 243 243 245 245 245 246 246 246 247 247 247 248 248 248 249 249 249 250 250 250 250 250 250 251 251 251 252 252 252 252 252 252 253 253 253 253 253 253 
254 254 254 254 254 254 253 253 253 253 253 253 253 253 253 252 252 252 251 251 251 251 251 251 250 250 250 249 249 249 248 248 248 247 247 247 246 246 246 245 245 245 244 244 244 243 243 243 241 241 241 240 240 240 239 239 239 238 238 238 236 236 236 235 235 235 234 234 234 233 233 233 231 231 231 230 230 230 229 229 229 227 227 227 226 226 226 225 225 225 224 224 224 222 222 222 221 221 221 220 220 220 218 218 218 217 217 217 216 216 216 215 215 215 213 213 213 212 212 212 211 211 211 210 210 210 209 209 209 208 208 208 207 207 207 206 206 206 205 205 205 204 204 204 203 203 203 202 202 202 201 201 201 200 200 200 199 199 199 198 198 198 197 197 197 196 196 196 195 195 195 194 194 194 193 193 193 193 193 193 192 192 192 191 191 191 190 190 190 189 189 189 188 188 188 188 188 188 187 187 187 186 186 186 186 186 186 185 185 185 184 184 184 184 184 184 183 183 183 183 183 183 182 182 182 181 181 181 181 181 181 180 180 180 180 180 180 179 179 179 178 178 178 178 178 178 177 177 177 177 177 177 177 177 177 176 176 176 176 176 176 176 176 176 175 175 175 175 175 175 174 174 174 174 174 174 173 173 173 173 173 173 173 173 173 172 172 172 172 172 172 172 172 172 172 172 172 171 171 171 171 171 171 171 171 171 171 171 171 170 170 170 170 170 170 170 170 170 170 170 170 170 170 170 170 170 170 170 170 170 169 169 169 169 169 169 169 169 169 169 169 169 169 169 169 169 169 169 168 168 168 168 168 168 168 168 168 168 168 168 168 168 168 168 168 168 168 168 168 168 168 168 168 168 168 168 168 168 168 168 168 168 168 168 168 168 168 168 168 168 168 168 168 168 168 168 168 168 168 168 168 168 168 168 168 168 168 168 168 168 168 168 168 168 168 168 168 168 168 168 169 169 169 169 169 169 169 169 169 169 169 169 169 169 169 169 169 169 169 169 169 169 169 169 170 170 170 170 170 170 170 170 170 170 170 170 170 170 170 170 170 170 171 171 171 171 171 171 171 171 171 171 171 171 172 172 172 172 172 172 172 172 172 173 173 173 173 173 173 173 173 173 173 173 173 174 174 174 174 174 174 174 174 174 175 175 175 175 175 175 176 176 176 176 176 176 177 177 177 177 177 177 178 178 178 178 178 178 179 179 179 179 179 179 180 180 180 180 180 180 181 181 181 181 181 181 182 182 182 183 183 183 183 183 183 184 184 184 185 185 185 185 185 185 186 186 186 186 186 186 187 187 187 187 187 187 188 188 188 189 189 189 190 190 190 191 191 191 192 192 192 192 192 192 193 193 193 194 194 194 195 195 195 196 196 196 197 197 197 198 198 198 199 199 199 200 200 200 201 201 201 202 202 202 203 203 203 204 204 204 205 205 205 206 206 206 207 207 207 208 208 208 209 209 209 210 210 210 211 211 211 212 212 212 214 214 214 215 215 215 216 216 216 217 217 217 218 218 218 219 219 219 221 221 221 222 222 222 223 223 223 225 225 225 226 226 226 227 227 227 228 228 228 230 230 230 231 231 231 232 232 232 234 234 234 235 235 235 236 236 236 238 238 238 239 239 239 240 240 240 242 242 242 243 243 243 244 244 244 245 245 245 246 246 246 247 247 247 248 248 248 249 249 249 250 250 250 251 251 251 251 251 251 252 252 252 252 252 252 253 253 253 253 253 253 254 254 254 
255 255 255 254 254 254 254 254 254 253 253 253 253 253 253 253 253 253 252 252 252 252 252 252 251 251 251 250 250 250 250 250 250 249 249 249 248 248 248 247 247 247 246 246 246 245 245 245 244 244 244 243 243 243 242 242 242 241 241 241 240 240 240 239 239 239 238 238 238 237 237 237 236 236 236 235 235 235 234 234 234 233 233 233 231 231 231 230 230 230 229 229 229 228 228 228 227 227 227 226 226 226 225 225 225 224 224 224 222 222 222 221 221 221 220 220 220 219 219 219 218 218 218 217 217 217 216 216 216 215 215 215 214 214 214 213 213 213 212 212 212 211 211 211 210 210 210 209 209 209 208 208 208 207 207 207 207 207 207 206 206 206 205 205 205 204 204 204 203 203 203 202 202 202 201 201 201 201 201 201 200 200 200 199 199 199 198 198 198 197 197 197 197 197 197 196 196 196 195 195 195 194 194 194 194 194 194 193 193 193 192 192 192 192 192 192 192 192 192 191 191 191 190 190 190 190 190 190 189 189 189 189 189 189 188 188 188 187 187 187 187 187 187 186 186 186 186 186 186 185 185 185 185 185 185 185 185 185 184 184 184 184 184 184 183 183 183 183 183 183 183 183 183 182 182 182 182 182 182 181 181 181 181 181 181 181 181 181 180 180 180 180 180 180 180 180 180 180 180 180 179 179 179 179 179 179 179 179 179 178 178 178 178 178 178 178 178 178 178 178 178 178 178 178 178 178 178 178 178 178 177 177 177 177 177 177 177 177 177 177 177 177 176 176 176 176 176 176 176 176 176 176 176 176 176 176 176 176 176 176 176 176 176 176 176 176 176 176 176 176 176 176 176 176 176 176 176 176 176 176 176 176 176 176 176 176 176 176 176 176 176 176 176 176 176 176 176 176 176 176 176 176 176 176 176 176 176 176 176 176 176 176 176 176 176 176 176 176 176 176 176 176 176 176 176 176 177 177 177 177 177 177 177 177 177 177 177 177 177 177 177 177 177 177 177 177 177 177 177 177 178 178 178 178 178 178 178 178 178 178 178 178 179 179 179 179 179 179 179 179 179 179 179 179 180 180 180 180 180 180 180 180 180 181 181 181 181 181 181 181 181 181 182 182 182 182 182 182 182 182 182 183 183 183 183 183 183 184 184 184 184 184 184 185 185 185 185 185 185 186 186 186 186 186 186 187 187 187 187 187 187 188 188 188 188 188 188 189 189 189 189 189 189 190 190 190 190 190 190 191 191 191 191 191 191 192 192 192 193 193 193 193 193 193 194 194 194 194 194 194 195 195 195 196 196 196 196 196 196 197 197 197 198 198 198 199 199 199 200 200 200 200 200 200 201 201 201 202 202 202 203 203 203 204 204 204 205 205 205 206 206 206 207 207 207 208 208 208 209 209 209 210 210 210 210 210 210 211 211 211 212 212 212 213 213 213 214 214 214 215 215 215 216 216 216 217 217 217 218 218 218 219 219 219 220 220 220 221 221 221 222 222 222 223 223 223 224 224 224 225 225 225 227 227 227 228 228 228 229 229 229 230 230 230 231 231 231 232 232 232 234 234 234 235 235 235 236 236 236 237 237 237 238 238 238 239 239 239 240 240 240 241 241 241 242 242 242 243 243 243 244 244 244 245 245 245 246 246 246 247 247 247 248 248 248 249 249 249 250 250 250 251 251 251 251 251 251 252 252 252 252 252 252 253 253 253 253 253 253 253 253 253 254 254 254 254 254 254 
255 255 255 254 254 254 254 254 254 254 254 254 254 254 254 253 253 253 253 253 253 252 252 252 252 252 252 252 252 252 251 251 251 251 251 251 250 250 250 249 249 249 249 249 249 248 248 248 247 247 247 246 246 246 246 246 246 245 245 245 244 244 244 243 243 243 242 242 242 241 241 241 241 241 241 240 240 240 239 239 239 238 238 238 236 236 236 235 235 235 235 235 235 234 234 234 233 233 233 232 232 232 231 231 231 230 230 230 229 229 229 228 228 228 227 227 227 226 226 226 225 225 225 224 224 224 223 223 223 222 222 222 221 221 221 220 220 220 219 219 219 218 218 218 218 218 218 217 217 217 216 216 216 215 215 215 214 214 214 213 213 213 213 213 213 212 212 212 211 211 211 210 210 210 209 209 209 209 209 209 208 208 208 207 207 207 206 206 206 206 206 206 205 205 205 204 204 204 203 203 203 203 203 203 202 202 202 201 201 201 201 201 201 200 200 200 200 200 200 199 199 199 199 199 199 198 198 198 197 197 197 197 197 197 196 196 196 196 196 196 195 195 195 194 194 194 194 194 194 194 194 194 193 193 193 193 193 193 193 193 193 192 192 192 192 192 192 191 191 191 191 191 191 190 190 190 190 190 190 189 189 189 189 189 189 189 189 189 189 189 189 188 188 188 188 188 188 188 188 188 188 188 188 187 187 187 187 187 187 186 186 186 186 186 186 186 186 186 185 185 185 185 185 185 185 185 185 185 185 185 185 185 185 185 185 185 185 185 185 185 185 185 184 184 184 184 184 184 184 184 184 184 184 184 184 184 184 184 184 184 184 184 184 183 183 183 183 183 183 183 183 183 183 183 183 183 183 183 183 183 183 183 183 183 183 183 183 183 183 183 183 183 183 183 183 183 183 183 183 183 183 183 183 183 183 184 184 184 184 184 184 184 184 184 184 184 184 184 184 184 184 184 184 184 184 184 184 184 184 185 185 185 185 185 185 185 185 185 185 185 185 185 185 185 185 185 185 185 185 185 186 186 186 186 186 186 186 186 186 186 186 186 187 187 187 187 187 187 187 187 187 187 187 187 188 188 188 188 188 188 188 188 188 189 189 189 189 189 189 190 190 190 190 190 190 190 190 190 190 190 190 191 191 191 191 191 191 192 192 192 192 192 192 193 193 193 193 193 193 194 194 194 194 194 194 195 195 195 195 195 195 196 196 196 196 196 196 197 197 197 197 197 197 198 198 198 198 198 198 199 199 199 200 200 200 200 200 200 201 201 201 202 202 202 202 202 202 203 203 203 203 203 203 204 204 204 205 205 205 205 205 205 206 206 206 207 207 207 208 208 208 208 208 208 209 209 209 210 210 210 211 211 211 212 212 212 212 212 212 213 213 213 214 214 214 215 215 215 216 216 216 217 217 217 218 218 218 219 219 219 220 220 220 220 220 220 221 221 221 222 222 222 223 223 223 224 224 224 225 225 225 226 226 226 227 227 227 228 228 228 229 229 229 230 230 230 231 231 231 232 232 232 233 233 233 234 234 234 235 235 235 236 236 236 237 237 237 238 238 238 239 239 239 240 240 240 240 240 240 241 241 241 242 242 242 243 243 243 244 244 244 245 245 245 246 246 246 246 246 246 247 247 247 248 248 248 248 248 248 249 249 249 250 250 250 251 251 251 251 251 251 252 252 252 252 252 252 253 253 253 253 253 253 253 253 253 254 254 254 254 254 254 254 254 254 255 255 255 
255 255 255 255 255 255 255 255 255 254 254 254 254 254 254 254 254 254 254 254 254 253 253 253 253 253 253 253 253 253 253 253 253 252 252 252 252 252 252 252 252 252 251 251 251 251 251 251 250 250 250 249 249 249 249 249 249 248 248 248 247 247 247 247 247 247 246 246 246 246 246 246 245 245 245 244 244 244 243 243 243 242 242 242 241 241 241 241 241 241 240 240 240 239 239 239 238 238 238 238 238 238 237 237 237 236 236 236 235 235 235 235 235 235 234 234 234 233 233 233 232 232 232 231 231 231 230 230 230 229 229 229 229 229 229 228 228 228 227 227 227 226 226 226 225 225 225 224 224 224 223 223 223 222 222 222 222 222 222 221 221 221 220 220 220 219 219 219 219 219 219 218 218 218 217 217 217 217 217 217 216 216 216 215 215 215 214 214 214 214 214 214 213 213 213 212 212 212 211 211 211 211 211 211 210 210 210 209 209 209 209 209 209 208 208 208 208 208 208 207 207 207 207 207 207 206 206 206 206 206 206 205 205 205 205 205 205 204 204 204 203 203 203 202 202 202 202 202 202 202 202 202 202 202 202 201 201 201 201 201 201 200 200 200 200 200 200 199 199 199 199 199 199 198 198 198 198 198 198 197 197 197 197 197 197 197 197 197 197 197 197 196 196 196 196 196 196 196 196 196 196 196 196 195 195 195 195 195 195 194 194 194 194 194 194 193 193 193 193 193 193 193 193 193 193 193 193 193 193 193 193 193 193 193 193 193 193 193 193 192 192 192 192 192 192 192 192 192 192 192 192 191 191 191 191 191 191 191 191 191 191 191 191 191 191 191 191 191 191 191 191 191 191 191 191 191 191 191 191 191 191 191 191 191 191 191 191 191 191 191 191 191 191 191 191 191 191 191 191 191 191 191 191 191 191 191 191 191 191 191 191 191 191 191 191 191 191 192 192 192 192 192 192 192 192 192 192 192 192 192 192 192 192 192 192 192 192 192 192 192 192 193 193 193 193 193 193 193 193 193 193 193 193 194 194 194 194 194 194 194 194 194 194 194 194 195 195 195 195 195 195 195 195 195 195 195 195 196 196 196 196 196 196 197 197 197 197 197 197 198 198 198 198 198 198 198 198 198 198 198 198 199 199 199 199 199 199 200 200 200 200 200 200 201 201 201 201 201 201 202 202 202 202 202 202 203 203 203 203 203 203 204 204 204 204 204 204 205 205 205 205 205 205 206 206 206 206 206 206 207 207 207 208 208 208 208 208 208 209 209 209 210 210 210 210 210 210 211 211 211 211 211 211 212 212 212 213 213 213 213 213 213 214 214 214 215 215 215 216 216 216 216 216 216 217 217 217 218 218 218 219 219 219 219 219 219 220 220 220 221 221 221 222 222 222 223 223 223 224 224 224 225 225 225 225 225 225 226 226 226 227 227 227 228 228 228 228 228 228 229 229 229 230 230 230 231 231 231 232 232 232 233 233 233 234 234 234 234 234 234 235 235 235 236 236 236 237 237 237 238 238 238 239 239 239 239 239 239 240 240 240 241 241 241 242 242 242 243 243 243 244 244 244 244 244 244 245 245 245 246 246 246 247 247 247 247 247 247 248 248 248 248 248 248 249 249 249 249 249 249 250 250 250 250 250 250 251 251 251 251 251 251 252 252 252 252 252 252 253 253 253 253 253 253 253 253 253 254 254 254 254 254 254 254 254 254 254 254 254 255 255 255 255 255 255 255 255 255 
255 255 255 255 255 255 255 255 255 254 254 254 254 254 254 254 254 254 254 254 254 254 254 254 253 253 253 253 253 253 253 253 253 253 253 253 253 253 253 252 252 252 252 252 252 251 251 251 251 251 251 251 251 251 250 250 250 249 249 249 249 249 249 248 248 248 248 248 248 247 247 247 247 247 247 246 246 246 245 245 245 245 245 245 244 244 244 243 243 243 243 243 243 242 242 242 241 241 241 241 241 241 240 240 240 239 239 239 239 239 239 238 238 238 237 237 237 236 236 236 236 236 236 235 235 235 234 234 234 234 234 234 233 233 233 232 232 232 231 231 231 231 231 231 230 230 230 229 229 229 228 228 228 228 228 228 227 227 227 226 226 226 226 226 226 225 225 225 224 224 224 223 223 223 223 223 223 222 222 222 222 222 222 221 221 221 220 220 220 220 220 220 219 219 219 218 218 218 218 218 218 217 217 217 216 216 216 216 216 216 215 215 215 215 215 215 214 214 214 214 214 214 213 213 213 213 213 213 213 213 213 212 212 212 212 212 212 211 211 211 210 210 210 209 209 209 209 209 209 209 209 209 209 209 209 209 209 209 208 208 208 208 208 208 207 207 207 207 207 207 206 206 206 206 206 206 205 205 205 205 205 205 205 205 205 204 204 204 204 204 204 204 204 204 204 204 204 203 203 203 203 203 203 203 203 203 202 202 202 202 202 202 202 202 202 201 201 201 201 201 201 201 201 201 201 201 201 201 201 201 201 201 201 201 201 201 200 200 200 200 200 200 200 200 200 200 200 200 200 200 200 199 199 199 199 199 199 199 199 199 199 199 199 199 199 199 199 199 199 199 199 199 199 199 199 199 199 199 199 199 199 199 199 199 199 199 199 199 199 199 199 199 199 199 199 199 199 199 199 199 199 199 199 199 199 199 199 199 199 199 199 199 199 199 199 199 199 200 200 200 200 200 200 200 200 200 200 200 200 200 200 200 200 200 200 200 200 200 200 200 200 201 201 201 201 201 201 201 201 201 201 201 201 201 201 201 202 202 202 202 202 202 202 202 202 202 202 202 203 203 203 203 203 203 203 203 203 204 204 204 204 204 204 204 204 204 205 205 205 205 205 205 205 205 205 206 206 206 206 206 206 206 206 206 207 207 207 207 207 207 208 208 208 208 208 208 208 208 208 209 209 209 209 209 209 210 210 210 210 210 210 211 211 211 211 211 211 212 212 212 212 212 212 213 213 213 213 213 213 214 214 214 214 214 214 215 215 215 216 216 216 216 216 216 217 217 217 217 217 217 218 218 218 218 218 218 219 219 219 220 220 220 220 220 220 221 221 221 222 222 222 222 222 222 223 223 223 223 223 223 224 224 224 225 225 225 225 225 225 226 226 226 227 227 227 228 228 228 229 229 229 230 230 230 230 230 230 231 231 231 231 231 231 232 232 232 233 233 233 233 233 233 234 234 234 235 235 235 236 236 236 237 237 237 237 237 237 238 238 238 239 239 239 239 239 239 240 240 240 241 241 241 241 241 241 242 242 242 243 243 243 244 244 244 244 244 244 245 245 245 246 246 246 246 246 246 247 247 247 247 247 247 248 248 248 249 249 249 249 249 249 250 250 250 250 250 250 250 250 250 251 251 251 251 251 251 251 251 251 252 252 252 252 252 252 253 253 253 253 253 253 253 253 253 254 254 254 254 254 254 254 254 254 254 254 254 254 254 254 255 255 255 255 255 255 255 255 255 
255 255 255 255 255 255 255 255 255 255 255 255 255 255 255 254 254 254 254 254 254 254 254 254 254 254 254 253 253 253 253 253 253 253 253 253 253 253 253 253 253 253 253 253 253 252 252 252 252 252 252 252 252 252 251 251 251 251 251 251 250 250 250 250 250 250 249 249 249 249 249 249 249 249 249 248 248 248 247 247 247 247 247 247 246 246 246 246 246 246 245 245 245 245 245 245 244 244 244 244 244 244 243 243 243 243 243 243 242 242 242 242 242 242 241 241 241 240 240 240 239 239 239 239 239 239 238 238 238 238 238 238 237 237 237 237 237 237 236 236 236 235 235 235 235 235 235 234 234 234 233 233 233 233 233 233 232 232 232 231 231 231 231 231 231 230 230 230 230 230 230 229 229 229 228 228 228 228 228 228 227 227 227 227 227 227 226 226 226 226 226 226 225 225 225 225 225 225 224 224 224 224 224 224 223 223 223 223 223 223 222 222 222 222 222 222 221 221 221 221 221 221 220 220 220 220 220 220 219 219 219 219 219 219 218 218 218 218 218 218 217 217 217 217 217 217 216 216 216 216 216 216 216 216 216 216 216 216 215 215 215 215 215 215 214 214 214 214 214 214 213 213 213 213 213 213 213 213 213 212 212 212 212 212 212 212 212 212 211 211 211 211 211 211 211 211 211 211 211 211 210 210 210 210 210 210 210 210 210 210 210 210 209 209 209 209 209 209 209 209 209 209 209 209 209 209 209 209 209 209 209 209 209 208 208 208 208 208 208 208 208 208 208 208 208 207 207 207 207 207 207 207 207 207 207 207 207 207 207 207 207 207 207 207 207 207 207 207 207 207 207 207 207 207 207 207 207 207 207 207 207 207 207 207 207 207 207 207 207 207 207 207 207 207 207 207 207 207 207 207 207 207 207 207 207 207 207 207 207 207 207 207 207 207 207 207 207 207 207 207 207 207 207 208 208 208 208 208 208 208 208 208 208 208 208 208 208 208 208 208 208 208 208 208 208 208 208 209 209 209 209 209 209 209 209 209 209 209 209 209 209 209 210 210 210 210 210 210 210 210 210 210 210 210 211 211 211 211 211 211 211 211 211 212 212 212 212 212 212 212 212 212 213 213 213 213 213 213 213 213 213 214 214 214 214 214 214 214 214 214 215 215 215 215 215 215 216 216 216 216 216 216 217 217 217 217 217 217 217 217 217 218 218 218 218 218 218 219 219 219 219 219 219 220 220 220 220 220 220 221 221 221 221 221 221 222 222 222 222 222 222 223 223 223 223 223 223 224 224 224 224 224 224 225 225 225 225 225 225 226 226 226 226 226 226 227 227 227 227 227 227 228 228 228 228 228 228 229 229 229 230 230 230 230 230 230 231 231 231 232 232 232 232 232 232 233 233 233 234 234 234 234 234 234 235 235 235 235 235 235 236 236 236 236 236 236 237 237 237 238 238 238 238 238 238 239 239 239 240 240 240 240 240 240 241 241 241 242 242 242 242 242 242 243 243 243 243 243 243 244 244 244 244 244 244 245 245 245 246 246 246 246 246 246 247 247 247 247 247 247 248 248 248 248 248 248 249 249 249 249 249 249 250 250 250 250 250 250 250 250 250 251 251 251 251 251 251 252 252 252 252 252 252 252 252 252 252 252 252 253 253 253 253 253 253 253 253 253 253 253 253 254 254 254 254 254 254 254 254 254 254 254 254 255 255 255 255 255 255 255 255 255 255 255 255 255 255 255 
255 255 255 255 255 255 255 255 255 255 255 255 255 255 255 255 255 255 254 254 254 254 254 254 254 254 254 254 254 254 254 254 254 254 254 254 254 254 254 253 253 253 253 253 253 253 253 253 253 253 253 253 253 253 252 252 252 252 252 252 252 252 252 251 251 251 251 251 251 251 251 251 250 250 250 250 250 250 250 250 250 249 249 249 249 249 249 248 248 248 248 248 248 248 248 248 247 247 247 247 247 247 246 246 246 246 246 246 246 246 246 245 245 245 245 245 245 244 244 244 243 243 243 243 243 243 242 242 242 242 242 242 242 242 242 241 241 241 241 241 241 240 240 240 239 239 239 239 239 239 238 238 238 238 238 238 237 237 237 237 237 237 236 236 236 235 235 235 235 235 235 234 234 234 234 234 234 234 234 234 233 233 233 233 233 233 232 232 232 232 232 232 231 231 231 231 231 231 230 230 230 230 230 230 230 230 230 229 229 229 229 229 229 228 228 228 228 228 228 227 227 227 227 227 227 227 227 227 226 226 226 226 226 226 225 225 225 225 225 225 224 224 224 224 224 224 224 224 224 223 223 223 223 223 223 223 223 223 222 222 222 222 222 222 221 221 221 221 221 221 221 221 221 220 220 220 220 220 220 220 220 220 219 219 219 219 219 219 219 219 219 219 219 219 218 218 218 218 218 218 218 218 218 218 218 218 217 217 217 217 217 217 217 217 217 217 217 217 217 217 217 217 217 217 217 217 217 216 216 216 216 216 216 216 216 216 216 216 216 215 215 215 215 215 215 215 215 215 215 215 215 215 215 215 215 215 215 215 215 215 215 215 215 215 215 215 215 215 215 215 215 215 215 215 215 215 215 215 215 215 215 215 215 215 215 215 215 215 215 215 215 215 215 215 215 215 215 215 215 214 214 214 214 214 214 215 215 215 215 215 215 215 215 215 215 215 215 215 215 215 215 215 215 215 215 215 215 215 215 216 216 216 216 216 216 216 216 216 216 216 216 216 216 216 216 216 216 216 216 216 216 216 216 217 217 217 217 217 217 217 217 217 217 217 217 218 218 218 218 218 218 218 218 218 218 218 218 219 219 219 219 219 219 219 219 219 220 220 220 220 220 220 220 220 220 220 220 220 221 221 221 221 221 221 221 221 221 222 222 222 222 222 222 222 222 222 223 223 223 223 223 223 224 224 224 224 224 224 224 224 224 225 225 225 225 225 225 226 226 226 226 226 226 227 227 227 227 227 227 227 227 227 228 228 228 228 228 228 229 229 229 229 229 229 229 229 229 230 230 230 230 230 230 231 231 231 232 232 232 232 232 232 233 233 233 233 233 233 233 233 233 234 234 234 234 234 234 235 235 235 235 235 235 236 236 236 236 236 236 237 237 237 238 238 238 238 238 238 239 239 239 239 239 239 240 240 240 240 240 240 240 240 240 241 241 241 241 241 241 242 242 242 243 243 243 243 243 243 244 244 244 244 244 244 245 245 245 245 245 245 246 246 246 246 246 246 247 247 247 247 247 247 247 247 247 248 248 248 248 248 248 249 249 249 249 249 249 249 249 249 250 250 250 250 250 250 250 250 250 251 251 251 251 251 251 252 252 252 252 252 252 252 252 252 253 253 253 253 253 253 253 253 253 253 253 253 253 253 253 253 253 253 253 253 253 254 254 254 254 254 254 254 254 254 254 254 254 254 254 254 255 255 255 255 255 255 255 255 255 255 255 255 255 255 255 255 255 255 
255 255 255 255 255 255 255 255 255 255 255 255 255 255 255 255 255 255 255 255 255 254 254 254 254 254 254 254 254 254 254 254 254 254 254 254 254 254 254 254 254 254 254 254 254 254 254 254 254 254 254 254 254 254 254 254 254 253 253 253 253 253 253 253 253 253 253 253 253 252 252 252 252 252 252 252 252 252 252 252 252 251 251 251 251 251 251 251 251 251 251 251 251 250 250 250 250 250 250 250 250 250 250 250 250 249 249 249 249 249 249 249 249 249 248 248 248 248 248 248 247 247 247 247 247 247 247 247 247 246 246 246 246 246 246 246 246 246 245 245 245 245 245 245 244 244 244 244 244 244 243 243 243 243 243 243 242 242 242 242 242 242 241 241 241 241 241 241 240 240 240 240 240 240 240 240 240 239 239 239 239 239 239 239 239 239 238 238 238 238 238 238 237 237 237 237 237 237 237 237 237 236 236 236 236 236 236 236 236 236 235 235 235 235 235 235 234 234 234 234 234 234 234 234 234 233 233 233 233 233 233 233 233 233 232 232 232 232 232 232 231 231 231 231 231 231 231 231 231 230 230 230 230 230 230 230 230 230 230 230 230 229 229 229 229 229 229 228 228 228 228 228 228 228 228 228 227 227 227 227 227 227 227 227 227 227 227 227 226 226 226 226 226 226 226 226 226 226 226 226 225 225 225 225 225 225 225 225 225 225 225 225 225 225 225 225 225 225 225 225 225 225 225 225 224 224 224 224 224 224 224 224 224 224 224 224 223 223 223 223 223 223 223 223 223 223 223 223 223 223 223 223 223 223 223 223 223 223 223 223 223 223 223 223 223 223 223 223 223 223 223 223 223 223 223 223 223 223 223 223 223 223 223 223 223 223 223 223 223 223 223 223 223 223 223 223 222 222 222 222 222 222 222 222 222 222 222 222 223 223 223 223 223 223 223 223 223 223 223 223 223 223 223 223 223 223 223 223 223 223 223 223 224 224 224 224 224 224 224 224 224 224 224 224 224 224 224 224 224 224 224 224 224 224 224 224 225 225 225 225 225 225 225 225 225 225 225 225 226 226 226 226 226 226 226 226 226 226 226 226 227 227 227 227 227 227 227 227 227 227 227 227 228 228 228 228 228 228 228 228 228 228 228 228 229 229 229 229 229 229 229 229 229 229 229 229 230 230 230 230 230 230 231 231 231 231 231 231 231 231 231 232 232 232 232 232 232 232 232 232 233 233 233 233 233 233 234 234 234 234 234 234 234 234 234 235 235 235 235 235 235 235 235 235 236 236 236 236 236 236 237 237 237 237 237 237 238 238 238 238 238 238 239 239 239 239 239 239 239 239 239 240 240 240 240 240 240 240 240 240 241 241 241 241 241 241 242 242 242 242 242 242 243 243 243 243 243 243 244 244 244 244 244 244 244 244 244 245 245 245 245 245 245 245 245 245 246 246 246 246 246 246 247 247 247 247 247 247 248 248 248 248 248 248 249 249 249 249 249 249 249 249 249 250 250 250 250 250 250 250 250 250 250 250 250 251 251 251 251 251 251 251 251 251 251 251 251 252 252 252 252 252 252 252 252 252 252 252 252 253 253 253 253 253 253 253 253 253 253 253 253 254 254 254 254 254 254 254 254 254 254 254 254 254 254 254 254 254 254 254 254 254 254 254 254 254 254 254 254 254 254 254 254 254 254 254 254 255 255 255 255 255 255 255 255 255 255 255 255 255 255 255 255 255 255 255 255 255 
