P3
128 128
255
255 255 255 255 255 255 255 255 255 255 255 255 255 255 255 255 255 255 255 255 255 255 255 255 255 255 255 255 255 255 255 255 255 255 255 255 255 255 255 255 255 255 255 255 255 255 255 255 255 255 255 255 255 255 255 255 255 255 255 255 255 255 255 255 255 255 255 255 255 255 255 255 255 255 255 255 255 255 255 255 255 255 255 255 255 255 255 255 255 255 255 255 255 255 255 255 255 255 255 255 255 255 255 255 255 255 255 255 255 255 255 255 255 255 255 255 255 255 255 255 255 255 255 255 255 255 255 255 255 255 255 255 255 255 255 255 255 255 252 252 252 248 248 248 244 244 244 241 241 241 230 230 230 218 218 218 207 207 207 195 195 195 193 193 193 194 194 194 195 195 195 197 197 197 197 197 197 196 196 196 196 196 196 195 195 195 195 195 195 196 196 196 196 196 196 197 197 197 198 198 198 199 199 199 200 200 200 201 201 201 202 202 202 202 202 202 202 202 202 202 202 202 205 205 205 215 215 215 226 226 226 236 236 236 245 245 245 248 248 248 250 250 250 253 253 253 255 255 255 255 255 255 255 255 255 255 255 255 255 255 255 255 255 255 255 255 255 255 255 255 255 255 255 255 255 255 255 255 255 255 255 255 255 255 255 255 255 255 255 255 255 255 255 255 255 255 255 255 255 255 255 255 255 255 255 255 255 255 255 255 255 255 255 255 255 255 255 255 255 255 255 255 255 255 255 255 255 255 255 255 255 255 255 255 255 255 255 255 255 255 255 255 255 255 255 255 255 255 255 255 255 255 255 255 255 255 255 255 255 255 255 255 255 255 255 255 255 255 255 255 255 255 255 255 255 255 255 255 255 255 255 255 255 255 
255 255 255 255 255 255 255 255 255 255 255 255 255 255 255 255 255 255 255 255 255 255 255 255 255 255 255 255 255 255 255 255 255 255 255 255 255 255 255 255 255 255 255 255 255 255 255 255 255 255 255 255 255 255 255 255 255 255 255 255 255 255 255 255 255 255 255 255 255 255 255 255 255 255 255 255 255 255 255 255 255 255 255 255 255 255 255 255 255 255 255 255 255 255 255 255 255 255 255 255 255 255 255 255 255 255 255 255 255 255 255 255 255 255 255 255 255 254 254 254 254 254 254 253 253 253 248 248 248 243 243 243 238 238 238 233 233 233 231 231 231 229 229 229 228 228 228 226 226 226 221 221 221 215 215 215 210 210 210 204 204 204 204 204 204 205 205 205 206 206 206 207 207 207 207 207 207 207 207 207 206 206 206 206 206 206 206 206 206 206 206 206 207 207 207 207 207 207 208 208 208 209 209 209 210 210 210 210 210 210 211 211 211 211 211 211 211 211 211 211 211 211 212 212 212 217 217 217 222 222 222 227 227 227 231 231 231 233 233 233 234 234 234 236 236 236 238 238 238 242 242 242 246 246 246 250 250 250 254 254 254 254 254 254 255 255 255 255 255 255 255 255 255 255 255 255 255 255 255 255 255 255 255 255 255 255 255 255 255 255 255 255 255 255 255 255 255 255 255 255 255 255 255 255 255 255 255 255 255 255 255 255 255 255 255 255 255 255 255 255 255 255 255 255 255 255 255 255 255 255 255 255 255 255 255 255 255 255 255 255 255 255 255 255 255 255 255 255 255 255 255 255 255 255 255 255 255 255 255 255 255 255 255 255 255 255 255 255 255 255 255 255 255 255 255 255 255 255 255 255 255 255 255 255 
255 255 255 255 255 255 255 255 255 255 255 255 255 255 255 255 255 255 255 255 255 255 255 255 255 255 255 255 255 255 255 255 255 255 255 255 255 255 255 255 255 255 255 255 255 255 255 255 255 255 255 255 255 255 255 255 255 255 255 255 255 255 255 255 255 255 255 255 255 255 255 255 255 255 255 255 255 255 255 255 255 255 255 255 255 255 255 255 255 255 255 255 255 255 255 255 255 255 255 255 255 255 255 255 255 255 255 255 255 255 255 255 255 255 254 254 254 253 253 253 252 252 252 251 251 251 241 241 241 231 231 231 222 222 222 212 212 212 211 211 211 211 211 211 211 211 211 211 211 211 211 211 211 212 212 212 213 213 213 214 214 214 215 215 215 215 215 215 216 216 216 217 217 217 217 217 217 217 217 217 217 217 217 217 217 217 217 217 217 217 217 217 217 217 217 217 217 217 218 218 218 218 218 218 219 219 219 220 220 220 220 220 220 220 220 220 220 220 220 219 219 219 219 219 219 218 218 218 218 218 218 217 217 217 217 217 217 218 218 218 219 219 219 220 220 220 221 221 221 229 229 229 237 237 237 245 245 245 253 253 253 254 254 254 254 254 254 255 255 255 255 255 255 255 255 255 255 255 255 255 255 255 255 255 255 255 255 255 255 255 255 255 255 255 255 255 255 255 255 255 255 255 255 255 255 255 255 255 255 255 255 255 255 255 255 255 255 255 255 255 255 255 255 255 255 255 255 255 255 255 255 255 255 255 255 255 255 255 255 255 255 255 255 255 255 255 255 255 255 255 255 255 255 255 255 255 255 255 255 255 255 255 255 255 255 255 255 255 255 255 255 255 255 255 255 255 255 255 255 255 255 255 255 255 
255 255 255 255 255 255 255 255 255 255 255 255 255 255 255 255 255 255 255 255 255 255 255 255 255 255 255 255 255 255 255 255 255 255 255 255 255 255 255 255 255 255 255 255 255 255 255 255 255 255 255 255 255 255 255 255 255 255 255 255 255 255 255 255 255 255 255 255 255 255 255 255 255 255 255 255 255 255 255 255 255 255 255 255 255 255 255 255 255 255 255 255 255 255 255 255 255 255 255 255 255 255 255 255 255 255 255 255 255 255 255 255 255 255 254 254 254 252 252 252 251 251 251 249 249 249 235 235 235 220 220 220 205 205 205 190 190 190 191 191 191 192 192 192 194 194 194 196 196 196 202 202 202 209 209 209 216 216 216 223 223 223 225 225 225 226 226 226 227 227 227 228 228 228 228 228 228 228 228 228 227 227 227 227 227 227 227 227 227 227 227 227 228 228 228 228 228 228 228 228 228 228 228 228 229 229 229 229 229 229 229 229 229 229 229 229 228 228 228 228 228 228 226 226 226 220 220 220 214 214 214 208 208 208 203 203 203 203 203 203 203 203 203 203 203 203 204 204 204 216 216 216 228 228 228 240 240 240 252 252 252 253 253 253 254 254 254 254 254 254 255 255 255 255 255 255 255 255 255 255 255 255 255 255 255 255 255 255 255 255 255 255 255 255 255 255 255 255 255 255 255 255 255 255 255 255 255 255 255 255 255 255 255 255 255 255 255 255 255 255 255 255 255 255 255 255 255 255 255 255 255 255 255 255 255 255 255 255 255 255 255 255 255 255 255 255 255 255 255 255 255 255 255 255 255 255 255 255 255 255 255 255 255 255 255 255 255 255 255 255 255 255 255 255 255 255 255 255 255 255 255 255 255 255 
255 255 255 255 255 255 255 255 255 255 255 255 255 255 255 255 255 255 255 255 255 255 255 255 255 255 255 255 255 255 255 255 255 255 255 255 255 255 255 255 255 255 255 255 255 255 255 255 255 255 255 255 255 255 255 255 255 255 255 255 255 255 255 255 255 255 255 255 255 255 255 255 255 255 255 255 255 255 255 255 255 255 255 255 255 255 255 255 255 255 255 255 255 255 255 255 255 255 255 255 255 255 255 255 255 255 255 255 255 255 255 255 255 255 253 253 253 251 251 251 250 250 250 248 248 248 228 228 228 208 208 208 188 188 188 168 168 168 170 170 170 174 174 174 177 177 177 181 181 181 193 193 193 206 206 206 219 219 219 233 233 233 236 236 236 237 237 237 237 237 237 238 238 238 238 238 238 238 238 238 238 238 238 238 238 238 238 238 238 238 238 238 238 238 238 238 238 238 238 238 238 238 238 238 238 238 238 238 238 238 238 238 238 237 237 237 237 237 237 237 237 237 233 233 233 221 221 221 210 210 210 198 198 198 188 188 188 188 188 188 187 187 187 186 186 186 187 187 187 203 203 203 219 219 219 235 235 235 252 252 252 253 253 253 253 253 253 254 254 254 255 255 255 255 255 255 255 255 255 255 255 255 255 255 255 255 255 255 255 255 255 255 255 255 255 255 255 255 255 255 255 255 255 255 255 255 255 255 255 255 255 255 255 255 255 255 255 255 255 255 255 255 255 255 255 255 255 255 255 255 255 255 255 255 255 255 255 255 255 255 255 255 255 255 255 255 255 255 255 255 255 255 255 255 255 255 255 255 255 255 255 255 255 255 255 255 255 255 255 255 255 255 255 255 255 255 255 255 255 255 255 255 255 255 
255 255 255 255 255 255 255 255 255 255 255 255 255 255 255 255 255 255 255 255 255 255 255 255 255 255 255 255 255 255 255 255 255 255 255 255 255 255 255 255 255 255 255 255 255 255 255 255 255 255 255 255 255 255 255 255 255 255 255 255 255 255 255 255 255 255 255 255 255 255 255 255 255 255 255 255 255 255 255 255 255 255 255 255 255 255 255 255 255 255 255 255 255 255 255 255 255 255 255 255 255 255 254 254 254 253 253 253 252 252 252 250 250 250 242 242 242 234 234 234 227 227 227 219 219 219 208 208 208 197 197 197 186 186 186 175 175 175 178 178 178 181 181 181 185 185 185 188 188 188 198 198 198 209 209 209 220 220 220 230 230 230 234 234 234 234 234 234 234 234 234 235 235 235 235 235 235 235 235 235 235 235 235 235 235 235 235 235 235 235 235 235 235 235 235 235 235 235 235 235 235 235 235 235 235 235 235 235 235 235 235 235 235 234 234 234 234 234 234 234 234 234 231 231 231 221 221 221 212 212 212 202 202 202 194 194 194 193 193 193 192 192 192 190 190 190 190 190 190 199 199 199 208 208 208 217 217 217 227 227 227 233 233 233 239 239 239 246 246 246 252 252 252 253 253 253 254 254 254 254 254 254 255 255 255 255 255 255 255 255 255 255 255 255 255 255 255 255 255 255 255 255 255 255 255 255 255 255 255 255 255 255 255 255 255 255 255 255 255 255 255 255 255 255 255 255 255 255 255 255 255 255 255 255 255 255 255 255 255 255 255 255 255 255 255 255 255 255 255 255 255 255 255 255 255 255 255 255 255 255 255 255 255 255 255 255 255 255 255 255 255 255 255 255 255 255 255 255 255 255 255 255 255 255 
255 255 255 255 255 255 255 255 255 255 255 255 255 255 255 255 255 255 255 255 255 255 255 255 255 255 255 255 255 255 255 255 255 255 255 255 255 255 255 255 255 255 255 255 255 255 255 255 255 255 255 255 255 255 255 255 255 255 255 255 255 255 255 255 255 255 255 255 255 255 255 255 255 255 255 255 255 255 255 255 255 255 255 255 255 255 255 255 255 255 255 255 255 255 255 255 255 255 255 254 254 254 252 252 252 250 250 250 248 248 248 244 244 244 230 230 230 215 215 215 201 201 201 187 187 187 187 187 187 186 186 186 186 186 186 185 185 185 188 188 188 191 191 191 195 195 195 198 198 198 205 205 205 212 212 212 220 220 220 227 227 227 229 229 229 230 230 230 230 230 230 230 230 230 230 230 230 230 230 230 230 230 230 230 230 230 230 230 230 230 230 230 230 230 230 230 230 230 230 230 230 230 230 230 230 230 230 230 230 230 230 230 230 230 230 230 230 230 230 229 229 229 227 227 227 221 221 221 214 214 214 208 208 208 202 202 202 200 200 200 199 199 199 197 197 197 195 195 195 196 196 196 197 197 197 198 198 198 199 199 199 211 211 211 224 224 224 236 236 236 249 249 249 251 251 251 252 252 252 254 254 254 255 255 255 255 255 255 255 255 255 255 255 255 255 255 255 255 255 255 255 255 255 255 255 255 255 255 255 255 255 255 255 255 255 255 255 255 255 255 255 255 255 255 255 255 255 255 255 255 255 255 255 255 255 255 255 255 255 255 255 255 255 255 255 255 255 255 255 255 255 255 255 255 255 255 255 255 255 255 255 255 255 255 255 255 255 255 255 255 255 255 255 255 255 255 255 255 255 255 255 255 255 255 
255 255 255 255 255 255 255 255 255 255 255 255 255 255 255 255 255 255 255 255 255 255 255 255 255 255 255 255 255 255 255 255 255 255 255 255 255 255 255 255 255 255 255 255 255 255 255 255 255 255 255 255 255 255 255 255 255 255 255 255 255 255 255 255 255 255 255 255 255 255 255 255 255 255 255 255 255 255 255 255 255 255 255 255 255 255 255 255 255 255 255 255 255 255 255 255 255 255 255 254 254 254 251 251 251 247 247 247 244 244 244 238 238 238 217 217 217 196 196 196 175 175 175 155 155 155 165 165 165 175 175 175 185 185 185 195 195 195 198 198 198 202 202 202 205 205 205 208 208 208 212 212 212 216 216 216 220 220 220 224 224 224 225 225 225 225 225 225 225 225 225 225 225 225 226 226 226 226 226 226 226 226 226 226 226 226 226 226 226 226 226 226 226 226 226 226 226 226 226 226 226 226 226 226 226 226 226 226 226 226 225 225 225 225 225 225 225 225 225 225 225 225 224 224 224 220 220 220 217 217 217 213 213 213 210 210 210 208 208 208 205 205 205 203 203 203 201 201 201 193 193 193 186 186 186 179 179 179 171 171 171 189 189 189 208 208 208 227 227 227 245 245 245 249 249 249 251 251 251 253 253 253 255 255 255 255 255 255 255 255 255 255 255 255 255 255 255 255 255 255 255 255 255 255 255 255 255 255 255 255 255 255 255 255 255 255 255 255 255 255 255 255 255 255 255 255 255 255 255 255 255 255 255 255 255 255 255 255 255 255 255 255 255 255 255 255 255 255 255 255 255 255 255 255 255 255 255 255 255 255 255 255 255 255 255 255 255 255 255 255 255 255 255 255 255 255 255 255 255 255 255 255 255 255 
255 255 255 255 255 255 255 255 255 255 255 255 255 255 255 255 255 255 255 255 255 255 255 255 255 255 255 255 255 255 255 255 255 255 255 255 255 255 255 255 255 255 255 255 255 255 255 255 255 255 255 255 255 255 255 255 255 255 255 255 255 255 255 255 255 255 255 255 255 255 255 255 255 255 255 255 255 255 255 255 255 255 255 255 255 255 255 255 255 255 255 255 255 255 255 255 255 255 255 254 254 254 249 249 249 245 245 245 240 240 240 232 232 232 205 205 205 177 177 177 150 150 150 124 124 124 144 144 144 164 164 164 184 184 184 205 205 205 209 209 209 212 212 212 215 215 215 218 218 218 219 219 219 219 219 219 220 220 220 221 221 221 221 221 221 221 221 221 221 221 221 221 221 221 221 221 221 221 221 221 221 221 221 221 221 221 221 221 221 221 221 221 221 221 221 221 221 221 221 221 221 221 221 221 221 221 221 221 221 221 221 221 221 221 221 221 221 221 221 221 221 221 221 221 221 220 220 220 220 220 220 219 219 219 218 218 218 215 215 215 212 212 212 210 210 210 206 206 206 190 190 190 175 175 175 159 159 159 144 144 144 168 168 168 192 192 192 217 217 217 242 242 242 247 247 247 250 250 250 252 252 252 254 254 254 255 255 255 255 255 255 255 255 255 255 255 255 255 255 255 255 255 255 255 255 255 255 255 255 255 255 255 255 255 255 255 255 255 255 255 255 255 255 255 255 255 255 255 255 255 255 255 255 255 255 255 255 255 255 255 255 255 255 255 255 255 255 255 255 255 255 255 255 255 255 255 255 255 255 255 255 255 255 255 255 255 255 255 255 255 255 255 255 255 255 255 255 255 255 255 255 255 255 255 
255 255 255 255 255 255 255 255 255 255 255 255 255 255 255 255 255 255 255 255 255 255 255 255 255 255 255 255 255 255 255 255 255 255 255 255 255 255 255 255 255 255 255 255 255 255 255 255 255 255 255 255 255 255 255 255 255 255 255 255 255 255 255 255 255 255 255 255 255 255 255 255 255 255 255 255 255 255 255 255 255 255 255 255 255 255 255 255 255 255 254 254 254 254 254 254 254 254 254 251 251 251 239 239 239 227 227 227 215 215 215 202 202 202 184 184 184 166 166 166 148 148 148 131 131 131 149 149 149 168 168 168 186 186 186 204 204 204 208 208 208 210 210 210 212 212 212 215 215 215 215 215 215 215 215 215 215 215 215 215 215 215 215 215 215 215 215 215 215 215 215 215 215 215 215 215 215 215 215 215 215 215 215 215 215 215 215 215 215 215 215 215 215 215 215 215 215 215 215 215 215 215 215 215 215 215 215 215 215 215 215 215 215 215 215 215 215 215 215 215 215 215 215 215 215 215 215 215 215 215 215 215 215 215 215 215 215 213 213 213 210 210 210 208 208 208 205 205 205 190 190 190 176 176 176 162 162 162 148 148 148 164 164 164 181 181 181 198 198 198 215 215 215 225 225 225 234 234 234 243 243 243 252 252 252 255 255 255 255 255 255 255 255 255 255 255 255 255 255 255 255 255 255 255 255 255 255 255 255 255 255 255 255 255 255 255 255 255 255 255 255 255 255 255 255 255 255 255 255 255 255 255 255 255 255 255 255 255 255 255 255 255 255 255 255 255 255 255 255 255 255 255 255 255 255 255 255 255 255 255 255 255 255 255 255 255 255 255 255 255 255 255 255 255 255 255 255 255 255 255 255 255 255 255 
255 255 255 255 255 255 255 255 255 255 255 255 255 255 255 255 255 255 255 255 255 255 255 255 255 255 255 255 255 255 255 255 255 255 255 255 255 255 255 255 255 255 255 255 255 255 255 255 255 255 255 255 255 255 255 255 255 255 255 255 255 255 255 255 255 255 255 255 255 255 255 255 255 255 255 255 255 255 255 255 255 255 255 255 255 255 255 255 255 255 254 254 254 253 253 253 252 252 252 246 246 246 226 226 226 205 205 205 185 185 185 166 166 166 161 161 161 156 156 156 152 152 152 147 147 147 161 161 161 175 175 175 188 188 188 202 202 202 204 204 204 205 205 205 207 207 207 208 208 208 209 209 209 209 209 209 209 209 209 209 209 209 209 209 209 209 209 209 209 209 209 209 209 209 209 209 209 209 209 209 209 209 209 209 209 209 209 209 209 209 209 209 209 209 209 209 209 209 209 209 209 209 209 209 209 209 209 209 209 209 209 209 209 209 209 209 209 209 209 209 209 209 209 209 209 209 209 209 209 209 209 209 209 209 209 209 209 208 208 208 206 206 206 204 204 204 202 202 202 191 191 191 181 181 181 170 170 170 159 159 159 165 165 165 171 171 171 177 177 177 182 182 182 198 198 198 215 215 215 233 233 233 250 250 250 254 254 254 254 254 254 255 255 255 255 255 255 255 255 255 255 255 255 255 255 255 255 255 255 255 255 255 255 255 255 255 255 255 255 255 255 255 255 255 255 255 255 255 255 255 255 255 255 255 255 255 255 255 255 255 255 255 255 255 255 255 255 255 255 255 255 255 255 255 255 255 255 255 255 255 255 255 255 255 255 255 255 255 255 255 255 255 255 255 255 255 255 255 255 255 255 255 255 255 
255 255 255 255 255 255 255 255 255 255 255 255 255 255 255 255 255 255 255 255 255 255 255 255 255 255 255 255 255 255 255 255 255 255 255 255 255 255 255 255 255 255 255 255 255 255 255 255 255 255 255 255 255 255 255 255 255 255 255 255 255 255 255 255 255 255 255 255 255 255 255 255 255 255 255 255 255 255 255 255 255 255 255 255 255 255 255 255 255 255 253 253 253 252 252 252 250 250 250 242 242 242 213 213 213 184 184 184 154 154 154 130 130 130 138 138 138 147 147 147 155 155 155 164 164 164 173 173 173 182 182 182 190 190 190 199 199 199 200 200 200 201 201 201 202 202 202 202 202 202 202 202 202 202 202 202 203 203 203 203 203 203 203 203 203 203 203 203 203 203 203 203 203 203 204 204 204 204 204 204 204 204 204 204 204 204 204 204 204 204 204 204 204 204 204 204 204 204 204 204 204 204 204 204 204 204 204 204 204 204 204 204 204 204 204 204 204 204 204 204 204 204 204 204 204 204 204 204 204 204 204 204 204 204 203 203 203 202 202 202 202 202 202 201 201 201 199 199 199 192 192 192 185 185 185 178 178 178 170 170 170 165 165 165 160 160 160 155 155 155 150 150 150 171 171 171 197 197 197 222 222 222 247 247 247 253 253 253 254 254 254 254 254 254 255 255 255 255 255 255 255 255 255 255 255 255 255 255 255 255 255 255 255 255 255 255 255 255 255 255 255 255 255 255 255 255 255 255 255 255 255 255 255 255 255 255 255 255 255 255 255 255 255 255 255 255 255 255 255 255 255 255 255 255 255 255 255 255 255 255 255 255 255 255 255 255 255 255 255 255 255 255 255 255 255 255 255 255 255 255 255 255 255 255 
255 255 255 255 255 255 255 255 255 255 255 255 255 255 255 255 255 255 255 255 255 255 255 255 255 255 255 255 255 255 255 255 255 255 255 255 255 255 255 255 255 255 255 255 255 255 255 255 255 255 255 255 255 255 255 255 255 255 255 255 255 255 255 255 255 255 255 255 255 255 255 255 255 255 255 255 255 255 255 255 255 255 255 255 255 255 255 254 254 254 252 252 252 250 250 250 248 248 248 238 238 238 200 200 200 162 162 162 124 124 124 94 94 94 116 116 116 137 137 137 159 159 159 180 180 180 184 184 184 188 188 188 193 193 193 197 197 197 197 197 197 196 196 196 196 196 196 196 196 196 196 196 196 196 196 196 196 196 196 197 197 197 197 197 197 197 197 197 197 197 197 198 198 198 198 198 198 198 198 198 198 198 198 198 198 198 198 198 198 198 198 198 198 198 198 198 198 198 198 198 198 198 198 198 198 198 198 198 198 198 198 198 198 198 198 198 198 198 198 198 198 198 198 198 198 198 198 198 198 198 198 198 198 198 198 198 198 197 197 197 197 197 197 197 197 197 197 197 197 193 193 193 189 189 189 185 185 185 182 182 182 166 166 166 150 150 150 133 133 133 117 117 117 144 144 144 178 178 178 211 211 211 245 245 245 253 253 253 253 253 253 254 254 254 255 255 255 255 255 255 255 255 255 255 255 255 255 255 255 255 255 255 255 255 255 255 255 255 255 255 255 255 255 255 255 255 255 255 255 255 255 255 255 255 255 255 255 255 255 255 255 255 255 255 255 255 255 255 255 255 255 255 255 255 255 255 255 255 255 255 255 255 255 255 255 255 255 255 255 255 255 255 255 255 255 255 255 255 255 255 255 255 255 255 
255 255 255 255 255 255 255 255 255 255 255 255 255 255 255 255 255 255 255 255 255 255 255 255 255 255 255 255 255 255 255 255 255 255 255 255 255 255 255 255 255 255 255 255 255 255 255 255 255 255 255 255 255 255 255 255 255 255 255 255 255 255 255 255 255 255 255 255 255 255 255 255 255 255 255 255 255 255 255 255 255 255 255 255 255 255 255 253 253 253 245 245 245 238 238 238 231 231 231 217 217 217 183 183 183 148 148 148 114 114 114 87 87 87 110 110 110 134 134 134 158 158 158 180 180 180 181 181 181 181 181 181 182 182 182 182 182 182 181 181 181 181 181 181 180 180 180 179 179 179 179 179 179 179 179 179 179 179 179 180 180 180 180 180 180 181 181 181 182 182 182 183 183 183 184 184 184 186 186 186 188 188 188 190 190 190 191 191 191 191 191 191 191 191 191 191 191 191 191 191 191 191 191 191 191 191 191 191 191 191 191 191 191 191 191 191 191 191 191 191 191 191 191 191 191 191 191 191 191 191 191 191 191 191 191 191 191 191 191 191 191 191 191 191 191 191 191 191 191 189 189 189 187 187 187 185 185 185 182 182 182 164 164 164 145 145 145 126 126 126 107 107 107 132 132 132 164 164 164 197 197 197 229 229 229 240 240 240 244 244 244 249 249 249 253 253 253 255 255 255 255 255 255 255 255 255 255 255 255 255 255 255 255 255 255 255 255 255 255 255 255 255 255 255 255 255 255 255 255 255 255 255 255 255 255 255 255 255 255 255 255 255 255 255 255 255 255 255 255 255 255 255 255 255 255 255 255 255 255 255 255 255 255 255 255 255 255 255 255 255 255 255 255 255 255 255 255 255 255 255 255 255 255 255 
255 255 255 255 255 255 255 255 255 255 255 255 255 255 255 255 255 255 255 255 255 255 255 255 255 255 255 255 255 255 255 255 255 255 255 255 255 255 255 255 255 255 255 255 255 255 255 255 255 255 255 255 255 255 255 255 255 255 255 255 255 255 255 255 255 255 255 255 255 255 255 255 255 255 255 255 255 255 255 255 255 255 255 255 255 255 255 250 250 250 236 236 236 222 222 222 207 207 207 190 190 190 164 164 164 138 138 138 112 112 112 92 92 92 112 112 112 133 133 133 154 154 154 174 174 174 171 171 171 168 168 168 166 166 166 163 163 163 162 162 162 160 160 160 159 159 159 157 157 157 157 157 157 157 157 157 158 158 158 158 158 158 159 159 159 161 161 161 162 162 162 164 164 164 168 168 168 172 172 172 176 176 176 181 181 181 183 183 183 184 184 184 184 184 184 185 185 185 185 185 185 185 185 185 185 185 185 185 185 185 185 185 185 185 185 185 185 185 185 185 185 185 185 185 185 185 185 185 185 185 185 185 185 185 185 185 185 185 185 185 185 185 185 185 185 185 185 185 185 183 183 183 182 182 182 180 180 180 179 179 179 161 161 161 143 143 143 124 124 124 106 106 106 127 127 127 154 154 154 180 180 180 207 207 207 221 221 221 231 231 231 242 242 242 252 252 252 255 255 255 255 255 255 255 255 255 255 255 255 255 255 255 255 255 255 255 255 255 255 255 255 255 255 255 255 255 255 255 255 255 255 255 255 255 255 255 255 255 255 255 255 255 255 255 255 255 255 255 255 255 255 255 255 255 255 255 255 255 255 255 255 255 255 255 255 255 255 255 255 255 255 255 255 255 255 255 255 255 255 255 255 255 255 255 
255 255 255 255 255 255 255 255 255 255 255 255 255 255 255 255 255 255 255 255 255 255 255 255 255 255 255 255 255 255 255 255 255 255 255 255 255 255 255 255 255 255 255 255 255 255 255 255 255 255 255 255 255 255 255 255 255 255 255 255 255 255 255 255 255 255 255 255 255 255 255 255 255 255 255 255 255 255 255 255 255 255 255 255 255 255 255 248 248 248 226 226 226 205 205 205 183 183 183 163 163 163 145 145 145 127 127 127 110 110 110 97 97 97 115 115 115 132 132 132 150 150 150 167 167 167 161 161 161 156 156 156 150 150 150 144 144 144 142 142 142 140 140 140 138 138 138 135 135 135 135 135 135 136 136 136 136 136 136 136 136 136 138 138 138 140 140 140 143 143 143 146 146 146 151 151 151 158 158 158 165 165 165 172 172 172 175 175 175 176 176 176 177 177 177 178 178 178 179 179 179 179 179 179 179 179 179 179 179 179 179 179 179 179 179 179 179 179 179 179 179 179 179 179 179 179 179 179 179 179 179 179 179 179 179 179 179 179 179 179 179 179 179 179 179 179 179 179 179 178 178 178 177 177 177 176 176 176 175 175 175 158 158 158 140 140 140 123 123 123 105 105 105 122 122 122 143 143 143 164 164 164 186 186 186 203 203 203 218 218 218 234 234 234 250 250 250 255 255 255 255 255 255 255 255 255 255 255 255 255 255 255 255 255 255 255 255 255 255 255 255 255 255 255 255 255 255 255 255 255 255 255 255 255 255 255 255 255 255 255 255 255 255 255 255 255 255 255 255 255 255 255 255 255 255 255 255 255 255 255 255 255 255 255 255 255 255 255 255 255 255 255 255 255 255 255 255 255 255 255 255 255 255 255 
255 255 255 255 255 255 255 255 255 255 255 255 255 255 255 255 255 255 255 255 255 255 255 255 255 255 255 255 255 255 255 255 255 255 255 255 255 255 255 255 255 255 255 255 255 255 255 255 255 255 255 255 255 255 255 255 255 255 255 255 255 255 255 255 255 255 255 255 255 255 255 255 255 255 255 255 255 255 255 255 255 255 255 255 255 255 255 246 246 246 217 217 217 188 188 188 160 160 160 135 135 135 126 126 126 117 117 117 108 108 108 102 102 102 117 117 117 131 131 131 146 146 146 160 160 160 151 151 151 143 143 143 134 134 134 125 125 125 122 122 122 119 119 119 117 117 117 114 114 114 114 114 114 114 114 114 114 114 114 114 114 114 117 117 117 120 120 120 124 124 124 127 127 127 134 134 134 144 144 144 153 153 153 163 163 163 168 168 168 169 169 169 170 170 170 172 172 172 172 172 172 172 172 172 172 172 172 172 172 172 172 172 172 172 172 172 172 172 172 172 172 172 172 172 172 172 172 172 172 172 172 172 172 172 172 172 172 172 172 172 172 172 172 172 172 172 172 172 172 172 172 172 172 172 172 172 172 172 171 171 171 155 155 155 138 138 138 121 121 121 104 104 104 116 116 116 132 132 132 148 148 148 164 164 164 184 184 184 206 206 206 227 227 227 248 248 248 255 255 255 255 255 255 255 255 255 255 255 255 255 255 255 255 255 255 255 255 255 255 255 255 255 255 255 255 255 255 255 255 255 255 255 255 255 255 255 255 255 255 255 255 255 255 255 255 255 255 255 255 255 255 255 255 255 255 255 255 255 255 255 255 255 255 255 255 255 255 255 255 255 255 255 255 255 255 255 255 255 255 255 255 255 255 255 
255 255 255 255 255 255 255 255 255 255 255 255 255 255 255 255 255 255 255 255 255 255 255 255 255 255 255 255 255 255 255 255 255 255 255 255 255 255 255 255 255 255 255 255 255 255 255 255 255 255 255 255 255 255 255 255 255 255 255 255 255 255 255 255 255 255 255 255 255 255 255 255 255 255 255 255 255 255 254 254 254 254 254 254 253 253 253 241 241 241 206 206 206 171 171 171 136 136 136 109 109 109 108 108 108 107 107 107 106 106 106 106 106 106 116 116 116 126 126 126 136 136 136 145 145 145 138 138 138 130 130 130 122 122 122 114 114 114 114 114 114 115 115 115 115 115 115 116 116 116 116 116 116 116 116 116 117 117 117 117 117 117 117 117 117 118 118 118 118 118 118 118 118 118 124 124 124 132 132 132 140 140 140 148 148 148 154 154 154 157 157 157 160 160 160 164 164 164 165 165 165 164 164 164 164 164 164 163 163 163 162 162 162 162 162 162 162 162 162 162 162 162 162 162 162 162 162 162 162 162 162 162 162 162 162 162 162 162 162 162 162 162 162 162 162 162 162 162 162 162 162 162 163 163 163 164 164 164 165 165 165 151 151 151 137 137 137 122 122 122 108 108 108 113 113 113 122 122 122 130 130 130 138 138 138 162 162 162 190 190 190 217 217 217 245 245 245 254 254 254 255 255 255 255 255 255 255 255 255 255 255 255 255 255 255 255 255 255 255 255 255 255 255 255 255 255 255 255 255 255 255 255 255 255 255 255 255 255 255 255 255 255 255 255 255 255 255 255 255 255 255 255 255 255 255 255 255 255 255 255 255 255 255 255 255 255 255 255 255 255 255 255 255 255 255 255 255 255 255 255 255 255 255 255 
255 255 255 255 255 255 255 255 255 255 255 255 255 255 255 255 255 255 255 255 255 255 255 255 255 255 255 255 255 255 255 255 255 255 255 255 255 255 255 255 255 255 255 255 255 255 255 255 255 255 255 255 255 255 255 255 255 255 255 255 255 255 255 255 255 255 255 255 255 255 255 255 255 255 255 254 254 254 253 253 253 251 251 251 250 250 250 236 236 236 195 195 195 154 154 154 113 113 113 83 83 83 90 90 90 97 97 97 104 104 104 110 110 110 114 114 114 118 118 118 122 122 122 125 125 125 121 121 121 117 117 117 113 113 113 109 109 109 114 114 114 120 120 120 126 126 126 132 132 132 134 134 134 134 134 134 134 134 134 135 135 135 131 131 131 126 126 126 121 121 121 116 116 116 117 117 117 121 121 121 126 126 126 130 130 130 136 136 136 142 142 142 148 148 148 155 155 155 157 157 157 155 155 155 153 153 153 152 152 152 150 150 150 150 150 150 149 149 149 149 149 149 148 148 148 149 149 149 149 149 149 150 150 150 150 150 150 149 149 149 149 149 149 148 148 148 148 148 148 150 150 150 152 152 152 154 154 154 157 157 157 146 146 146 135 135 135 124 124 124 114 114 114 112 112 112 111 111 111 110 110 110 110 110 110 137 137 137 172 172 172 207 207 207 242 242 242 253 253 253 254 254 254 254 254 254 255 255 255 255 255 255 255 255 255 255 255 255 255 255 255 255 255 255 255 255 255 255 255 255 255 255 255 255 255 255 255 255 255 255 255 255 255 255 255 255 255 255 255 255 255 255 255 255 255 255 255 255 255 255 255 255 255 255 255 255 255 255 255 255 255 255 255 255 255 255 255 255 255 255 255 255 255 255 
255 255 255 255 255 255 255 255 255 255 255 255 255 255 255 255 255 255 255 255 255 255 255 255 255 255 255 255 255 255 255 255 255 255 255 255 255 255 255 255 255 255 255 255 255 255 255 255 255 255 255 255 255 255 255 255 255 255 255 255 255 255 255 255 255 255 255 255 255 255 255 255 255 255 255 254 254 254 251 251 251 249 249 249 246 246 246 230 230 230 183 183 183 137 137 137 91 91 91 58 58 58 72 72 72 87 87 87 101 101 101 114 114 114 112 112 112 109 109 109 107 107 107 105 105 105 105 105 105 104 104 104 104 104 104 103 103 103 114 114 114 126 126 126 137 137 137 149 149 149 151 151 151 152 152 152 152 152 152 152 152 152 145 145 145 135 135 135 124 124 124 114 114 114 111 111 111 111 111 111 112 112 112 112 112 112 117 117 117 127 127 127 136 136 136 146 146 146 149 149 149 146 146 146 143 143 143 140 140 140 138 138 138 137 137 137 136 136 136 135 135 135 135 135 135 136 136 136 136 136 136 137 137 137 137 137 137 136 136 136 135 135 135 135 135 135 134 134 134 137 137 137 141 141 141 145 145 145 148 148 148 141 141 141 134 134 134 127 127 127 120 120 120 110 110 110 100 100 100 91 91 91 81 81 81 111 111 111 154 154 154 196 196 196 238 238 238 252 252 252 253 253 253 254 254 254 255 255 255 255 255 255 255 255 255 255 255 255 255 255 255 255 255 255 255 255 255 255 255 255 255 255 255 255 255 255 255 255 255 255 255 255 255 255 255 255 255 255 255 255 255 255 255 255 255 255 255 255 255 255 255 255 255 255 255 255 255 255 255 255 255 255 255 255 255 255 255 255 255 255 255 255 255 255 
255 255 255 255 255 255 255 255 255 255 255 255 255 255 255 255 255 255 255 255 255 255 255 255 255 255 255 255 255 255 255 255 255 255 255 255 255 255 255 255 255 255 255 255 255 255 255 255 255 255 255 255 255 255 255 255 255 255 255 255 255 255 255 255 255 255 255 255 255 255 255 255 255 255 255 254 254 254 250 250 250 247 247 247 243 243 243 224 224 224 172 172 172 120 120 120 68 68 68 32 32 32 55 55 55 77 77 77 99 99 99 118 118 118 109 109 109 101 101 101 93 93 93 85 85 85 88 88 88 91 91 91 94 94 94 97 97 97 114 114 114 131 131 131 148 148 148 166 166 166 169 169 169 169 169 169 170 170 170 170 170 170 159 159 159 143 143 143 127 127 127 112 112 112 104 104 104 101 101 101 97 97 97 94 94 94 99 99 99 112 112 112 124 124 124 137 137 137 142 142 142 137 137 137 133 133 133 129 129 129 126 126 126 124 124 124 123 123 123 122 122 122 122 122 122 123 123 123 123 123 123 124 124 124 125 125 125 124 124 124 122 122 122 121 121 121 120 120 120 125 125 125 130 130 130 135 135 135 140 140 140 136 136 136 133 133 133 129 129 129 125 125 125 109 109 109 90 90 90 71 71 71 52 52 52 86 86 86 136 136 136 185 185 185 235 235 235 251 251 251 252 252 252 253 253 253 255 255 255 255 255 255 255 255 255 255 255 255 255 255 255 255 255 255 255 255 255 255 255 255 255 255 255 255 255 255 255 255 255 255 255 255 255 255 255 255 255 255 255 255 255 255 255 255 255 255 255 255 255 255 255 255 255 255 255 255 255 255 255 255 255 255 255 255 255 255 255 255 255 255 255 255 255 255 
255 255 255 255 255 255 255 255 255 255 255 255 255 255 255 255 255 255 255 255 255 255 255 255 255 255 255 255 255 255 255 255 255 255 255 255 255 255 255 255 255 255 255 255 255 255 255 255 255 255 255 255 255 255 255 255 255 255 255 255 255 255 255 255 255 255 255 255 255 255 255 255 255 255 255 252 252 252 246 246 246 240 240 240 234 234 234 213 213 213 159 159 159 106 106 106 53 53 53 18 18 18 43 43 43 68 68 68 93 93 93 113 113 113 103 103 103 93 93 93 83 83 83 73 73 73 81 81 81 90 90 90 98 98 98 106 106 106 124 124 124 143 143 143 162 162 162 181 181 181 184 184 184 185 185 185 186 186 186 187 187 187 175 175 175 158 158 158 142 142 142 125 125 125 113 113 113 104 104 104 95 95 95 85 85 85 88 88 88 99 99 99 111 111 111 123 123 123 128 128 128 124 124 124 120 120 120 116 116 116 113 113 113 113 113 113 113 113 113 113 113 113 114 114 114 115 115 115 116 116 116 117 117 117 118 118 118 115 115 115 113 113 113 110 110 110 108 108 108 113 113 113 117 117 117 122 122 122 126 126 126 126 126 126 126 126 126 125 125 125 125 125 125 104 104 104 81 81 81 57 57 57 34 34 34 69 69 69 122 122 122 174 174 174 226 226 226 245 245 245 248 248 248 251 251 251 254 254 254 255 255 255 255 255 255 255 255 255 255 255 255 255 255 255 255 255 255 255 255 255 255 255 255 255 255 255 255 255 255 255 255 255 255 255 255 255 255 255 255 255 255 255 255 255 255 255 255 255 255 255 255 255 255 255 255 255 255 255 255 255 255 255 255 255 255 255 255 255 255 255 255 255 255 255 
255 255 255 255 255 255 255 255 255 255 255 255 255 255 255 255 255 255 255 255 255 255 255 255 255 255 255 255 255 255 255 255 255 255 255 255 255 255 255 255 255 255 255 255 255 255 255 255 255 255 255 255 255 255 255 255 255 255 255 255 255 255 255 255 255 255 255 255 255 255 255 255 255 255 255 251 251 251 240 240 240 229 229 229 219 219 219 196 196 196 146 146 146 97 97 97 47 47 47 14 14 14 37 37 37 60 60 60 82 82 82 101 101 101 93 93 93 85 85 85 77 77 77 70 70 70 84 84 84 99 99 99 113 113 113 128 128 128 145 145 145 161 161 161 178 178 178 194 194 194 198 198 198 200 200 200 201 201 201 202 202 202 193 193 193 180 180 180 167 167 167 154 154 154 138 138 138 121 121 121 103 103 103 86 86 86 82 82 82 89 89 89 97 97 97 104 104 104 108 108 108 106 106 106 104 104 104 102 102 102 102 102 102 104 104 104 106 106 106 109 109 109 111 111 111 113 113 113 114 114 114 116 116 116 116 116 116 112 112 112 107 107 107 103 103 103 99 99 99 101 101 101 103 103 103 106 106 106 108 108 108 111 111 111 113 113 113 115 115 115 118 118 118 97 97 97 74 74 74 50 50 50 26 26 26 60 60 60 111 111 111 162 162 162 213 213 213 234 234 234 240 240 240 246 246 246 252 252 252 255 255 255 255 255 255 255 255 255 255 255 255 255 255 255 255 255 255 255 255 255 255 255 255 255 255 255 255 255 255 255 255 255 255 255 255 255 255 255 255 255 255 255 255 255 255 255 255 255 255 255 255 255 255 255 255 255 255 255 255 255 255 255 255 255 255 255 255 255 255 255 255 255 255 255 
255 255 255 255 255 255 255 255 255 255 255 255 255 255 255 255 255 255 255 255 255 255 255 255 255 255 255 255 255 255 255 255 255 255 255 255 255 255 255 255 255 255 255 255 255 255 255 255 255 255 255 255 255 255 255 255 255 255 255 255 255 255 255 255 255 255 255 255 255 255 255 255 255 255 255 249 249 249 234 234 234 219 219 219 204 204 204 179 179 179 133 133 133 87 87 87 41 41 41 10 10 10 31 31 31 51 51 51 72 72 72 89 89 89 83 83 83 77 77 77 71 71 71 66 66 66 87 87 87 108 108 108 129 129 129 150 150 150 165 165 165 179 179 179 194 194 194 208 208 208 212 212 212 214 214 214 216 216 216 218 218 218 211 211 211 202 202 202 192 192 192 182 182 182 162 162 162 137 137 137 111 111 111 86 86 86 76 76 76 79 79 79 83 83 83 86 86 86 88 88 88 88 88 88 88 88 88 88 88 88 90 90 90 95 95 95 99 99 99 104 104 104 108 108 108 110 110 110 112 112 112 114 114 114 115 115 115 108 108 108 102 102 102 95 95 95 89 89 89 89 89 89 89 89 89 90 90 90 90 90 90 95 95 95 100 100 100 105 105 105 111 111 111 90 90 90 66 66 66 42 42 42 18 18 18 51 51 51 101 101 101 150 150 150 200 200 200 222 222 222 232 232 232 241 241 241 251 251 251 255 255 255 255 255 255 255 255 255 255 255 255 255 255 255 255 255 255 255 255 255 255 255 255 255 255 255 255 255 255 255 255 255 255 255 255 255 255 255 255 255 255 255 255 255 255 255 255 255 255 255 255 255 255 255 255 255 255 255 255 255 255 255 255 255 255 255 255 255 255 255 255 255 255 255 
255 255 255 255 255 255 255 255 255 255 255 255 255 255 255 255 255 255 255 255 255 255 255 255 255 255 255 255 255 255 255 255 255 255 255 255 255 255 255 255 255 255 255 255 255 255 255 255 255 255 255 255 255 255 255 255 255 255 255 255 255 255 255 255 255 255 255 255 255 255 255 255 255 255 255 247 247 247 227 227 227 208 208 208 189 189 189 162 162 162 119 119 119 77 77 77 35 35 35 6 6 6 24 24 24 43 43 43 61 61 61 77 77 77 73 73 73 69 69 69 65 65 65 62 62 62 90 90 90 117 117 117 145 145 145 172 172 172 185 185 185 197 197 197 209 209 209 221 221 221 226 226 226 228 228 228 231 231 231 233 233 233 229 229 229 223 223 223 217 217 217 211 211 211 187 187 187 153 153 153 120 120 120 86 86 86 70 70 70 69 69 69 69 69 69 68 68 68 68 68 68 70 70 70 72 72 72 74 74 74 78 78 78 85 85 85 92 92 92 99 99 99 105 105 105 108 108 108 110 110 110 113 113 113 113 113 113 105 105 105 96 96 96 88 88 88 79 79 79 77 77 77 76 76 76 74 74 74 72 72 72 79 79 79 88 88 88 96 96 96 104 104 104 84 84 84 59 59 59 35 35 35 10 10 10 42 42 42 90 90 90 138 138 138 186 186 186 211 211 211 224 224 224 237 237 237 250 250 250 255 255 255 255 255 255 255 255 255 255 255 255 255 255 255 255 255 255 255 255 255 255 255 255 255 255 255 255 255 255 255 255 255 255 255 255 255 255 255 255 255 255 255 255 255 255 255 255 255 255 255 255 255 255 255 255 255 255 255 255 255 255 255 255 255 255 255 255 255 255 255 255 255 255 255 
255 255 255 255 255 255 255 255 255 255 255 255 255 255 255 255 255 255 255 255 255 255 255 255 255 255 255 255 255 255 255 255 255 255 255 255 255 255 255 255 255 255 255 255 255 255 255 255 255 255 255 255 255 255 255 255 255 255 255 255 255 255 255 255 255 255 255 255 255 255 255 255 255 255 255 245 245 245 222 222 222 198 198 198 175 175 175 147 147 147 108 108 108 69 69 69 30 30 30 4 4 4 19 19 19 35 35 35 51 51 51 64 64 64 65 65 65 65 65 65 66 66 66 67 67 67 97 97 97 127 127 127 157 157 157 187 187 187 198 198 198 208 208 208 218 218 218 228 228 228 232 232 232 235 235 235 238 238 238 241 241 241 239 239 239 235 235 235 231 231 231 227 227 227 202 202 202 165 165 165 129 129 129 92 92 92 73 73 73 67 67 67 62 62 62 57 57 57 57 57 57 63 63 63 69 69 69 75 75 75 81 81 81 90 90 90 98 98 98 106 106 106 113 113 113 117 117 117 120 120 120 123 123 123 124 124 124 115 115 115 106 106 106 97 97 97 89 89 89 82 82 82 76 76 76 69 69 69 63 63 63 70 70 70 77 77 77 85 85 85 92 92 92 73 73 73 51 51 51 28 28 28 5 5 5 36 36 36 81 81 81 127 127 127 173 173 173 199 199 199 215 215 215 232 232 232 248 248 248 255 255 255 255 255 255 255 255 255 255 255 255 255 255 255 255 255 255 255 255 255 255 255 255 255 255 255 255 255 255 255 255 255 255 255 255 255 255 255 255 255 255 255 255 255 255 255 255 255 255 255 255 255 255 255 255 255 255 255 255 255 255 255 255 255 255 255 255 255 255 255 255 255 255 255 
255 255 255 255 255 255 255 255 255 255 255 255 255 255 255 255 255 255 255 255 255 255 255 255 255 255 255 255 255 255 255 255 255 255 255 255 255 255 255 255 255 255 255 255 255 255 255 255 255 255 255 255 255 255 255 255 255 255 255 255 255 255 255 255 255 255 255 255 255 255 255 255 255 255 255 244 244 244 217 217 217 190 190 190 163 163 163 133 133 133 98 98 98 63 63 63 27 27 27 3 3 3 15 15 15 28 28 28 40 40 40 52 52 52 60 60 60 68 68 68 76 76 76 84 84 84 111 111 111 138 138 138 165 165 165 192 192 192 201 201 201 209 209 209 218 218 218 226 226 226 229 229 229 232 232 232 235 235 235 237 237 237 236 236 236 232 232 232 229 229 229 226 226 226 204 204 204 171 171 171 139 139 139 106 106 106 86 86 86 76 76 76 67 67 67 57 57 57 58 58 58 70 70 70 82 82 82 95 95 95 106 106 106 114 114 114 122 122 122 130 130 130 137 137 137 141 141 141 146 146 146 150 150 150 153 153 153 146 146 146 138 138 138 131 131 131 124 124 124 109 109 109 95 95 95 81 81 81 66 66 66 68 68 68 70 70 70 72 72 72 74 74 74 58 58 58 40 40 40 22 22 22 4 4 4 33 33 33 75 75 75 118 118 118 160 160 160 187 187 187 207 207 207 227 227 227 247 247 247 255 255 255 255 255 255 255 255 255 255 255 255 255 255 255 255 255 255 255 255 255 255 255 255 255 255 255 255 255 255 255 255 255 255 255 255 255 255 255 255 255 255 255 255 255 255 255 255 255 255 255 255 255 255 255 255 255 255 255 255 255 255 255 255 255 255 255 255 255 255 255 255 255 255 255 
255 255 255 255 255 255 255 255 255 255 255 255 255 255 255 255 255 255 255 255 255 255 255 255 255 255 255 255 255 255 255 255 255 255 255 255 255 255 255 255 255 255 255 255 255 255 255 255 255 255 255 255 255 255 255 255 255 255 255 255 255 255 255 255 255 255 255 255 255 255 255 255 255 255 255 242 242 242 212 212 212 182 182 182 151 151 151 120 120 120 89 89 89 57 57 57 25 25 25 2 2 2 11 11 11 20 20 20 30 30 30 39 39 39 55 55 55 70 70 70 85 85 85 101 101 101 125 125 125 149 149 149 172 172 172 196 196 196 204 204 204 210 210 210 217 217 217 223 223 223 226 226 226 229 229 229 231 231 231 234 234 234 232 232 232 230 230 230 228 228 228 226 226 226 206 206 206 177 177 177 149 149 149 120 120 120 99 99 99 85 85 85 71 71 71 57 57 57 58 58 58 77 77 77 96 96 96 115 115 115 130 130 130 138 138 138 145 145 145 153 153 153 160 160 160 166 166 166 171 171 171 177 177 177 181 181 181 176 176 176 170 170 170 165 165 165 159 159 159 137 137 137 114 114 114 92 92 92 70 70 70 66 66 66 62 62 62 59 59 59 55 55 55 43 43 43 30 30 30 16 16 16 3 3 3 30 30 30 69 69 69 108 108 108 147 147 147 175 175 175 199 199 199 222 222 222 245 245 245 255 255 255 255 255 255 255 255 255 255 255 255 255 255 255 255 255 255 255 255 255 255 255 255 255 255 255 255 255 255 255 255 255 255 255 255 255 255 255 255 255 255 255 255 255 255 255 255 255 255 255 255 255 255 255 255 255 255 255 255 255 255 255 255 255 255 255 255 255 255 255 255 255 255 255 
255 255 255 255 255 255 255 255 255 255 255 255 255 255 255 255 255 255 255 255 255 255 255 255 255 255 255 255 255 255 255 255 255 255 255 255 255 255 255 255 255 255 255 255 255 255 255 255 255 255 255 255 255 255 255 255 255 255 255 255 255 255 255 255 255 255 255 255 255 255 255 255 255 255 255 241 241 241 207 207 207 173 173 173 139 139 139 107 107 107 79 79 79 50 50 50 22 22 22 1 1 1 7 7 7 13 13 13 19 19 19 27 27 27 50 50 50 73 73 73 95 95 95 118 118 118 139 139 139 159 159 159 180 180 180 201 201 201 207 207 207 211 211 211 216 216 216 221 221 221 224 224 224 226 226 226 228 228 228 230 230 230 229 229 229 228 228 228 226 226 226 225 225 225 208 208 208 183 183 183 159 159 159 134 134 134 112 112 112 94 94 94 76 76 76 58 58 58 59 59 59 85 85 85 110 110 110 136 136 136 155 155 155 162 162 162 169 169 169 176 176 176 183 183 183 190 190 190 197 197 197 204 204 204 209 209 209 206 206 206 203 203 203 199 199 199 194 194 194 164 164 164 134 134 134 104 104 104 74 74 74 64 64 64 55 55 55 46 46 46 37 37 37 28 28 28 20 20 20 11 11 11 2 2 2 28 28 28 63 63 63 99 99 99 134 134 134 164 164 164 190 190 190 217 217 217 244 244 244 255 255 255 255 255 255 255 255 255 255 255 255 255 255 255 255 255 255 255 255 255 255 255 255 255 255 255 255 255 255 255 255 255 255 255 255 255 255 255 255 255 255 255 255 255 255 255 255 255 255 255 255 255 255 255 255 255 255 255 255 255 255 255 255 255 255 255 255 255 255 255 255 255 255 255 
255 255 255 255 255 255 255 255 255 255 255 255 255 255 255 255 255 255 255 255 255 255 255 255 255 255 255 255 255 255 255 255 255 255 255 255 255 255 255 255 255 255 255 255 255 255 255 255 255 255 255 255 255 255 255 255 255 255 255 255 255 255 255 255 255 255 255 255 255 255 255 255 255 255 255 240 240 240 203 203 203 166 166 166 129 129 129 96 96 96 71 71 71 45 45 45 20 20 20 1 1 1 4 4 4 8 8 8 11 11 11 18 18 18 46 46 46 75 75 75 104 104 104 133 133 133 151 151 151 169 169 169 186 186 186 204 204 204 209 209 209 212 212 212 216 216 216 219 219 219 221 221 221 223 223 223 225 225 225 227 227 227 225 225 225 222 222 222 219 219 219 216 216 216 202 202 202 182 182 182 163 163 163 143 143 143 122 122 122 101 101 101 80 80 80 59 59 59 61 61 61 91 91 91 120 120 120 150 150 150 171 171 171 179 179 179 186 186 186 193 193 193 200 200 200 208 208 208 215 215 215 222 222 222 228 228 228 226 226 226 224 224 224 222 222 222 218 218 218 184 184 184 151 151 151 117 117 117 84 84 84 68 68 68 54 54 54 39 39 39 24 24 24 17 17 17 12 12 12 6 6 6 1 1 1 25 25 25 58 58 58 90 90 90 123 123 123 153 153 153 183 183 183 213 213 213 243 243 243 255 255 255 255 255 255 255 255 255 255 255 255 255 255 255 255 255 255 255 255 255 255 255 255 255 255 255 255 255 255 255 255 255 255 255 255 255 255 255 255 255 255 255 255 255 255 255 255 255 255 255 255 255 255 255 255 255 255 255 255 255 255 255 255 255 255 255 255 255 255 255 255 255 255 255 
255 255 255 255 255 255 255 255 255 255 255 255 255 255 255 255 255 255 255 255 255 255 255 255 255 255 255 255 255 255 255 255 255 255 255 255 255 255 255 255 255 255 255 255 255 255 255 255 255 255 255 255 255 255 255 255 255 255 255 255 255 255 255 255 255 255 255 255 255 255 255 255 255 255 255 239 239 239 200 200 200 161 161 161 122 122 122 88 88 88 65 65 65 41 41 41 18 18 18 1 1 1 3 3 3 6 6 6 8 8 8 14 14 14 47 47 47 79 79 79 111 111 111 143 143 143 159 159 159 174 174 174 190 190 190 205 205 205 209 209 209 212 212 212 215 215 215 219 219 219 220 220 220 221 221 221 223 223 223 224 224 224 218 218 218 209 209 209 200 200 200 190 190 190 179 179 179 167 167 167 154 154 154 142 142 142 125 125 125 105 105 105 85 85 85 65 65 65 67 67 67 95 95 95 122 122 122 150 150 150 171 171 171 180 180 180 189 189 189 197 197 197 205 205 205 210 210 210 216 216 216 221 221 221 225 225 225 224 224 224 223 223 223 221 221 221 218 218 218 191 191 191 163 163 163 136 136 136 108 108 108 86 86 86 64 64 64 42 42 42 20 20 20 14 14 14 10 10 10 5 5 5 1 1 1 24 24 24 54 54 54 84 84 84 115 115 115 146 146 146 178 178 178 210 210 210 242 242 242 255 255 255 255 255 255 255 255 255 255 255 255 255 255 255 255 255 255 255 255 255 255 255 255 255 255 255 255 255 255 255 255 255 255 255 255 255 255 255 255 255 255 255 255 255 255 255 255 255 255 255 255 255 255 255 255 255 255 255 255 255 255 255 255 255 255 255 255 255 255 255 255 255 255 255 
255 255 255 255 255 255 255 255 255 255 255 255 255 255 255 255 255 255 255 255 255 255 255 255 255 255 255 255 255 255 255 255 255 255 255 255 255 255 255 255 255 255 255 255 255 255 255 255 255 255 255 255 255 255 255 255 255 255 255 255 255 255 255 255 255 255 255 255 255 255 255 255 255 255 255 238 238 238 197 197 197 156 156 156 115 115 115 80 80 80 59 59 59 38 38 38 16 16 16 0 0 0 2 2 2 4 4 4 5 5 5 11 11 11 47 47 47 83 83 83 118 118 118 153 153 153 167 167 167 180 180 180 193 193 193 206 206 206 210 210 210 212 212 212 215 215 215 218 218 218 219 219 219 220 220 220 221 221 221 222 222 222 210 210 210 195 195 195 180 180 180 165 165 165 156 156 156 151 151 151 146 146 146 140 140 140 128 128 128 109 109 109 90 90 90 71 71 71 72 72 72 98 98 98 125 125 125 151 151 151 171 171 171 181 181 181 191 191 191 201 201 201 209 209 209 213 213 213 216 216 216 220 220 220 223 223 223 222 222 222 221 221 221 221 221 221 219 219 219 197 197 197 176 176 176 154 154 154 133 133 133 104 104 104 75 75 75 46 46 46 17 17 17 11 11 11 7 7 7 4 4 4 1 1 1 22 22 22 50 50 50 79 79 79 107 107 107 139 139 139 173 173 173 207 207 207 241 241 241 255 255 255 255 255 255 255 255 255 255 255 255 255 255 255 255 255 255 255 255 255 255 255 255 255 255 255 255 255 255 255 255 255 255 255 255 255 255 255 255 255 255 255 255 255 255 255 255 255 255 255 255 255 255 255 255 255 255 255 255 255 255 255 255 255 255 255 255 255 255 255 255 255 255 255 
255 255 255 255 255 255 255 255 255 255 255 255 255 255 255 255 255 255 255 255 255 255 255 255 255 255 255 255 255 255 255 255 255 255 255 255 255 255 255 255 255 255 255 255 255 255 255 255 255 255 255 255 255 255 255 255 255 255 255 255 255 255 255 255 255 255 255 255 255 255 255 255 255 255 255 237 237 237 194 194 194 151 151 151 108 108 108 72 72 72 53 53 53 34 34 34 15 15 15 0 0 0 1 1 1 2 2 2 2 2 2 8 8 8 47 47 47 86 86 86 125 125 125 163 163 163 174 174 174 185 185 185 197 197 197 208 208 208 210 210 210 213 213 213 215 215 215 217 217 217 218 218 218 218 218 218 219 219 219 219 219 219 203 203 203 182 182 182 160 160 160 139 139 139 133 133 133 135 135 135 137 137 137 139 139 139 130 130 130 112 112 112 94 94 94 76 76 76 77 77 77 102 102 102 127 127 127 151 151 151 171 171 171 183 183 183 194 194 194 205 205 205 214 214 214 215 215 215 217 217 217 219 219 219 220 220 220 220 220 220 220 220 220 220 220 220 219 219 219 204 204 204 188 188 188 173 173 173 157 157 157 122 122 122 86 86 86 50 50 50 14 14 14 7 7 7 5 5 5 3 3 3 1 1 1 20 20 20 47 47 47 73 73 73 99 99 99 132 132 132 168 168 168 204 204 204 240 240 240 255 255 255 255 255 255 255 255 255 255 255 255 255 255 255 255 255 255 255 255 255 255 255 255 255 255 255 255 255 255 255 255 255 255 255 255 255 255 255 255 255 255 255 255 255 255 255 255 255 255 255 255 255 255 255 255 255 255 255 255 255 255 255 255 255 255 255 255 255 255 255 255 255 255 255 
255 255 255 255 255 255 255 255 255 255 255 255 255 255 255 255 255 255 255 255 255 255 255 255 255 255 255 255 255 255 255 255 255 255 255 255 255 255 255 255 255 255 255 255 255 255 255 255 255 255 255 255 255 255 255 255 255 255 255 255 255 255 255 255 255 255 255 255 255 255 255 255 255 255 255 236 236 236 191 191 191 146 146 146 101 101 101 65 65 65 48 48 48 31 31 31 13 13 13 0 0 0 0 0 0 0 0 0 0 0 0 5 5 5 47 47 47 89 89 89 131 131 131 171 171 171 181 181 181 190 190 190 199 199 199 208 208 208 211 211 211 213 213 213 214 214 214 216 216 216 217 217 217 217 217 217 217 217 217 217 217 217 197 197 197 171 171 171 144 144 144 118 118 118 113 113 113 119 119 119 125 125 125 131 131 131 125 125 125 109 109 109 93 93 93 77 77 77 79 79 79 101 101 101 124 124 124 147 147 147 166 166 166 180 180 180 193 193 193 207 207 207 217 217 217 217 217 217 217 217 217 217 217 217 218 218 218 218 218 218 218 218 218 219 219 219 218 218 218 208 208 208 197 197 197 186 186 186 176 176 176 136 136 136 94 94 94 53 53 53 12 12 12 5 5 5 3 3 3 2 2 2 0 0 0 19 19 19 43 43 43 67 67 67 92 92 92 125 125 125 163 163 163 201 201 201 239 239 239 255 255 255 255 255 255 255 255 255 255 255 255 255 255 255 255 255 255 255 255 255 255 255 255 255 255 255 255 255 255 255 255 255 255 255 255 255 255 255 255 255 255 255 255 255 255 255 255 255 255 255 255 255 255 255 255 255 255 255 255 255 255 255 255 255 255 255 255 255 255 255 255 255 255 255 
255 255 255 255 255 255 255 255 255 255 255 255 255 255 255 255 255 255 255 255 255 255 255 255 255 255 255 255 255 255 255 255 255 255 255 255 255 255 255 255 255 255 255 255 255 255 255 255 255 255 255 255 255 255 255 255 255 255 255 255 255 255 255 255 255 255 255 255 255 255 255 255 255 255 255 235 235 235 189 189 189 142 142 142 96 96 96 59 59 59 43 43 43 28 28 28 12 12 12 0 0 0 0 0 0 0 0 0 0 0 0 5 5 5 47 47 47 89 89 89 131 131 131 171 171 171 180 180 180 189 189 189 198 198 198 208 208 208 210 210 210 212 212 212 213 213 213 215 215 215 216 216 216 216 216 216 216 216 216 216 216 216 195 195 195 167 167 167 140 140 140 112 112 112 102 102 102 101 101 101 101 101 101 100 100 100 94 94 94 83 83 83 73 73 73 62 62 62 65 65 65 85 85 85 104 104 104 124 124 124 143 143 143 162 162 162 182 182 182 201 201 201 216 216 216 216 216 216 216 216 216 216 216 216 216 216 216 216 216 216 216 216 216 215 215 215 215 215 215 204 204 204 194 194 194 184 184 184 174 174 174 134 134 134 94 94 94 53 53 53 13 13 13 6 6 6 4 4 4 2 2 2 0 0 0 18 18 18 40 40 40 63 63 63 86 86 86 120 120 120 159 159 159 199 199 199 238 238 238 255 255 255 255 255 255 255 255 255 255 255 255 255 255 255 255 255 255 255 255 255 255 255 255 255 255 255 255 255 255 255 255 255 255 255 255 255 255 255 255 255 255 255 255 255 255 255 255 255 255 255 255 255 255 255 255 255 255 255 255 255 255 255 255 255 255 255 255 255 255 255 255 255 255 255 
255 255 255 255 255 255 255 255 255 255 255 255 255 255 255 255 255 255 255 255 255 255 255 255 255 255 255 255 255 255 255 255 255 255 255 255 255 255 255 255 255 255 255 255 255 255 255 255 255 255 255 255 255 255 255 255 255 255 255 255 255 255 255 255 255 255 255 255 255 255 255 255 255 255 255 235 235 235 187 187 187 138 138 138 90 90 90 53 53 53 39 39 39 25 25 25 11 11 11 0 0 0 0 0 0 0 0 0 0 0 0 5 5 5 47 47 47 89 89 89 131 131 131 171 171 171 180 180 180 189 189 189 198 198 198 207 207 207 209 209 209 211 211 211 212 212 212 214 214 214 214 214 214 214 214 214 214 214 214 214 214 214 193 193 193 164 164 164 135 135 135 107 107 107 92 92 92 84 84 84 76 76 76 69 69 69 63 63 63 57 57 57 52 52 52 47 47 47 52 52 52 68 68 68 84 84 84 101 101 101 120 120 120 145 145 145 170 170 170 196 196 196 214 214 214 214 214 214 215 215 215 215 215 215 215 215 215 214 214 214 213 213 213 212 212 212 211 211 211 201 201 201 191 191 191 181 181 181 171 171 171 133 133 133 93 93 93 54 54 54 14 14 14 7 7 7 5 5 5 3 3 3 1 1 1 16 16 16 38 38 38 59 59 59 80 80 80 115 115 115 156 156 156 197 197 197 238 238 238 255 255 255 255 255 255 255 255 255 255 255 255 255 255 255 255 255 255 255 255 255 255 255 255 255 255 255 255 255 255 255 255 255 255 255 255 255 255 255 255 255 255 255 255 255 255 255 255 255 255 255 255 255 255 255 255 255 255 255 255 255 255 255 255 255 255 255 255 255 255 255 255 255 255 255 
255 255 255 255 255 255 255 255 255 255 255 255 255 255 255 255 255 255 255 255 255 255 255 255 255 255 255 255 255 255 255 255 255 255 255 255 255 255 255 255 255 255 255 255 255 255 255 255 255 255 255 255 255 255 255 255 255 255 255 255 255 255 255 255 255 255 255 255 255 255 255 255 255 255 255 234 234 234 184 184 184 134 134 134 85 85 85 47 47 47 34 34 34 22 22 22 10 10 10 0 0 0 0 0 0 0 0 0 0 0 0 5 5 5 47 47 47 89 89 89 131 131 131 171 171 171 180 180 180 189 189 189 197 197 197 206 206 206 208 208 208 210 210 210 211 211 211 213 213 213 213 213 213 213 213 213 213 213 213 213 213 213 191 191 191 161 161 161 131 131 131 101 101 101 81 81 81 66 66 66 52 52 52 38 38 38 31 31 31 32 32 32 32 32 32 32 32 32 38 38 38 51 51 51 64 64 64 77 77 77 97 97 97 128 128 128 159 159 159 190 190 190 213 213 213 213 213 213 213 213 213 213 213 213 213 213 213 212 212 212 210 210 210 209 209 209 207 207 207 197 197 197 188 188 188 179 179 179 169 169 169 132 132 132 93 93 93 54 54 54 16 16 16 8 8 8 6 6 6 3 3 3 1 1 1 15 15 15 35 35 35 55 55 55 74 74 74 109 109 109 152 152 152 195 195 195 237 237 237 255 255 255 255 255 255 255 255 255 255 255 255 255 255 255 255 255 255 255 255 255 255 255 255 255 255 255 255 255 255 255 255 255 255 255 255 255 255 255 255 255 255 255 255 255 255 255 255 255 255 255 255 255 255 255 255 255 255 255 255 255 255 255 255 255 255 255 255 255 255 255 255 255 255 255 
255 255 255 255 255 255 255 255 255 255 255 255 255 255 255 255 255 255 255 255 255 255 255 255 255 255 255 255 255 255 255 255 255 255 255 255 255 255 255 255 255 255 255 255 255 255 255 255 255 255 255 255 255 255 255 255 255 255 255 255 255 255 255 255 255 255 255 255 255 255 255 255 255 255 255 233 233 233 182 182 182 130 130 130 79 79 79 40 40 40 30 30 30 19 19 19 8 8 8 0 0 0 0 0 0 0 0 0 0 0 0 5 5 5 47 47 47 88 88 88 129 129 129 170 170 170 179 179 179 188 188 188 197 197 197 205 205 205 207 207 207 209 209 209 210 210 210 212 212 212 212 212 212 212 212 212 212 212 212 212 212 212 189 189 189 159 159 159 129 128 128 98 98 98 74 74 74 54 54 53 33 33 32 13 13 12 6 6 5 11 11 10 16 16 15 21 21 20 29 28 27 39 39 38 50 49 49 60 60 60 79 79 79 115 115 115 150 150 150 185 185 185 212 212 212 212 212 212 212 212 212 212 212 212 211 211 211 209 209 209 207 207 207 205 205 205 203 203 203 194 194 194 184 184 184 175 175 175 166 166 166 129 129 129 91 91 91 54 54 54 16 16 16 9 9 9 6 6 6 3 3 3 1 1 1 14 14 14 32 32 32 50 50 50 68 68 68 104 104 104 148 148 148 192 192 192 236 236 236 255 255 255 255 255 255 255 255 255 255 255 255 255 255 255 255 255 255 255 255 255 255 255 255 255 255 255 255 255 255 255 255 255 255 255 255 255 255 255 255 255 255 255 255 255 255 255 255 255 255 255 255 255 255 255 255 255 255 255 255 255 255 255 255 255 255 255 255 255 255 255 255 255 255 255 
255 255 255 255 255 255 255 255 255 255 255 255 255 255 255 255 255 255 255 255 255 255 255 255 255 255 255 255 255 255 255 255 255 255 255 255 255 255 255 255 255 255 255 255 255 255 255 255 255 255 255 255 255 255 255 255 255 255 255 255 255 255 255 255 255 255 254 254 254 254 254 254 254 254 254 231 231 231 178 178 178 125 125 125 72 72 72 33 33 33 24 24 24 16 16 16 7 7 7 0 0 0 0 0 0 0 0 0 0 0 0 5 5 5 44 44 44 82 82 82 121 121 121 158 158 158 170 170 170 182 182 182 194 194 194 205 205 205 207 207 207 208 208 208 209 209 209 210 210 210 211 211 211 210 210 210 210 210 210 210 210 210 191 191 191 166 166 165 140 140 139 115 114 113 93 92 89 73 72 67 54 52 45 34 32 23 27 24 15 30 28 18 34 31 22 37 35 25 44 42 34 56 55 48 69 68 63 81 80 77 99 99 97 128 128 127 157 157 156 186 186 186 208 208 208 208 208 208 208 208 208 209 209 209 208 208 208 206 206 206 204 204 204 202 202 202 199 199 199 188 188 188 176 176 176 164 164 164 152 152 152 118 118 118 83 83 83 48 48 48 13 13 13 7 7 7 5 5 5 3 3 3 0 0 0 12 12 12 28 28 28 44 44 44 59 59 59 96 96 96 142 142 142 189 189 189 235 235 235 255 255 255 255 255 255 255 255 255 255 255 255 255 255 255 255 255 255 255 255 255 255 255 255 255 255 255 255 255 255 255 255 255 255 255 255 255 255 255 255 255 255 255 255 255 255 255 255 255 255 255 255 255 255 255 255 255 255 255 255 255 255 255 255 255 255 255 255 255 255 255 255 255 255 255 
255 255 255 255 255 255 255 255 255 255 255 255 255 255 255 255 255 255 255 255 255 255 255 255 255 255 255 255 255 255 255 255 255 255 255 255 255 255 255 255 255 255 255 255 255 255 255 255 255 255 255 255 255 255 255 255 255 255 255 255 255 255 255 255 255 255 254 254 254 253 253 253 252 252 252 229 229 229 174 174 174 120 120 120 65 65 65 26 26 26 19 19 19 12 12 12 5 5 5 0 0 0 0 0 0 0 0 0 0 0 0 5 5 5 40 40 40 76 76 76 112 112 112 147 147 147 162 162 162 176 176 176 191 191 191 205 205 205 207 207 207 208 208 208 208 208 208 209 209 209 209 209 209 209 209 209 209 209 209 209 209 209 194 193 193 173 173 171 152 152 150 132 131 128 112 111 105 93 91 82 74 71 58 55 51 35 47 43 25 49 45 27 51 47 29 53 48 30 60 56 40 74 71 58 88 86 76 101 100 95 118 118 115 141 141 139 165 164 163 188 188 187 205 205 205 205 205 205 205 205 205 206 206 206 205 205 205 203 203 203 201 201 201 199 199 199 196 196 196 181 181 181 167 167 167 153 153 153 138 138 138 107 107 107 74 74 74 42 42 42 10 10 10 5 5 5 3 3 3 2 2 2 0 0 0 10 10 10 24 24 24 37 37 37 51 51 51 88 88 88 137 137 137 185 185 185 234 234 234 255 255 255 255 255 255 255 255 255 255 255 255 255 255 255 255 255 255 255 255 255 255 255 255 255 255 255 255 255 255 255 255 255 255 255 255 255 255 255 255 255 255 255 255 255 255 255 255 255 255 255 255 255 255 255 255 255 255 255 255 255 255 255 255 255 255 255 255 255 255 255 255 255 255 255 
255 255 255 255 255 255 255 255 255 255 255 255 255 255 255 255 255 255 255 255 255 255 255 255 255 255 255 255 255 255 255 255 255 255 255 255 255 255 255 255 255 255 255 255 255 255 255 255 255 255 255 255 255 255 255 255 255 255 255 255 255 255 255 254 254 254 253 253 253 252 252 252 251 251 251 227 227 227 171 171 171 114 114 114 58 58 58 18 18 18 13 13 13 9 9 9 4 4 4 0 0 0 0 0 0 0 0 0 0 0 0 4 4 4 37 37 37 70 70 70 103 103 103 136 136 136 153 153 153 170 170 170 188 188 188 205 205 205 206 206 206 207 207 207 208 208 208 208 208 208 208 208 208 208 208 208 208 208 208 207 207 207 196 195 195 180 179 177 164 163 160 149 147 143 131 129 121 113 109 96 94 89 71 76 69 46 68 61 35 68 61 35 68 62 35 68 62 36 76 70 46 91 87 68 107 104 90 122 120 112 138 137 133 155 154 151 172 172 170 189 189 188 201 201 201 202 202 202 202 202 202 203 203 203 202 202 202 200 200 200 198 198 198 195 195 195 192 192 192 175 175 175 158 158 158 142 142 142 125 125 125 96 96 96 66 66 66 36 36 36 7 7 7 2 2 2 2 2 2 1 1 1 0 0 0 9 9 9 20 20 20 31 31 31 42 42 42 80 80 80 131 131 131 182 182 182 233 233 233 254 254 254 255 255 255 255 255 255 255 255 255 255 255 255 255 255 255 255 255 255 255 255 255 255 255 255 255 255 255 255 255 255 255 255 255 255 255 255 255 255 255 255 255 255 255 255 255 255 255 255 255 255 255 255 255 255 255 255 255 255 255 255 255 255 255 255 255 255 255 255 255 255 255 255 
255 255 255 255 255 255 255 255 255 255 255 255 255 255 255 255 255 255 255 255 255 255 255 255 255 255 255 255 255 255 255 255 255 255 255 255 255 255 255 255 255 255 255 255 255 255 255 255 255 255 255 255 255 255 255 255 255 255 255 255 255 255 255 254 254 254 253 253 253 251 251 251 250 250 250 224 224 224 167 167 167 109 109 109 51 51 51 11 11 11 8 8 8 5 5 5 2 2 2 0 0 0 0 0 0 0 0 0 0 0 0 4 4 4 34 34 34 64 64 64 94 94 94 124 124 124 144 144 144 164 164 164 184 184 184 205 205 205 206 206 206 206 206 206 207 207 207 207 207 207 207 207 207 207 206 206 206 206 206 206 206 205 198 197 196 187 186 183 176 175 170 165 163 157 150 147 135 132 128 109 115 108 84 97 89 58 89 80 45 87 79 44 86 78 43 85 77 42 92 85 53 109 103 78 126 122 104 143 141 130 158 157 151 168 168 163 179 179 176 190 190 188 198 198 198 199 198 198 199 199 199 199 199 199 199 199 199 197 197 197 194 194 194 192 192 192 188 188 188 169 169 169 149 149 149 130 130 130 111 111 111 84 84 84 57 57 57 30 30 30 3 3 3 0 0 0 0 0 0 0 0 0 0 0 0 7 7 7 16 16 16 25 25 25 34 34 34 73 73 73 126 126 126 179 179 179 232 232 232 254 254 254 254 254 254 255 255 255 255 255 255 255 255 255 255 255 255 255 255 255 255 255 255 255 255 255 255 255 255 255 255 255 255 255 255 255 255 255 255 255 255 255 255 255 255 255 255 255 255 255 255 255 255 255 255 255 255 255 255 255 255 255 255 255 255 255 255 255 255 255 255 255 255 255 
255 255 255 255 255 255 255 255 255 255 255 255 255 255 255 255 255 255 255 255 255 255 255 255 255 255 255 255 255 255 255 255 255 255 255 255 255 255 255 255 255 255 255 255 255 255 255 255 255 255 255 255 255 255 255 255 255 255 255 255 255 255 255 253 253 253 249 249 249 245 245 245 241 241 241 216 216 216 159 159 159 103 103 103 47 47 47 8 8 8 6 6 6 4 4 4 2 2 2 0 0 0 0 0 0 0 0 0 0 0 0 3 3 3 28 28 28 53 53 53 78 78 78 102 102 102 126 126 126 151 151 151 175 175 175 199 199 199 202 202 202 203 203 203 205 205 205 207 207 207 207 205 201 207 204 195 207 202 188 207 200 181 202 194 170 195 186 157 188 178 145 181 170 132 170 159 119 158 147 105 145 135 92 133 123 78 127 117 73 126 117 75 126 117 77 125 117 79 130 123 88 143 137 106 155 150 124 167 163 142 178 174 157 183 180 164 189 186 171 195 192 179 199 196 185 197 195 186 195 194 188 193 192 190 190 190 190 183 183 183 177 177 177 170 170 170 163 163 163 143 143 143 124 124 124 105 105 105 85 85 85 65 65 65 44 44 44 23 23 23 3 3 3 0 0 0 0 0 0 0 0 0 0 0 0 5 5 5 12 12 12 19 19 19 26 26 26 65 65 65 119 119 119 172 172 172 226 226 226 249 249 249 251 251 251 253 253 253 254 254 254 255 255 255 255 255 255 255 255 255 255 255 255 255 255 255 255 255 255 255 255 255 255 255 255 255 255 255 255 255 255 255 255 255 255 255 255 255 255 255 255 255 255 255 255 255 255 255 255 255 255 255 255 255 255 255 255 255 255 255 255 255 255 255 
255 255 255 255 255 255 255 255 255 255 255 255 255 255 255 255 255 255 255 255 255 255 255 255 255 255 255 255 255 255 255 255 255 255 255 255 255 255 255 255 255 255 255 255 255 255 255 255 255 255 255 255 255 255 255 255 255 255 255 255 255 255 255 252 252 252 246 246 246 239 239 239 233 233 233 207 207 207 152 152 152 98 98 98 43 43 43 6 6 6 4 4 4 3 3 3 1 1 1 0 0 0 0 0 0 0 0 0 0 0 0 3 3 3 22 22 22 41 41 41 61 61 61 81 81 81 109 109 109 137 137 137 165 165 165 193 193 193 198 198 198 200 200 200 203 203 203 206 206 206 207 204 196 207 201 183 208 198 170 208 194 158 206 190 145 202 186 132 199 181 120 196 177 107 190 172 102 183 167 101 176 162 100 169 156 99 165 154 101 165 155 106 165 156 112 165 157 117 169 162 124 177 170 134 184 178 145 192 186 155 197 192 163 198 193 165 199 194 167 200 195 169 200 195 171 195 191 174 191 188 177 186 185 180 180 180 180 170 170 170 159 159 159 149 149 149 138 138 138 118 118 118 99 99 99 79 79 79 60 60 60 45 45 45 31 31 31 16 16 16 2 2 2 0 0 0 0 0 0 0 0 0 0 0 0 4 4 4 9 9 9 14 14 14 19 19 19 57 57 57 111 111 111 166 166 166 220 220 220 245 245 245 248 248 248 251 251 251 253 253 253 255 255 255 255 255 255 255 255 255 255 255 255 255 255 255 255 255 255 255 255 255 255 255 255 255 255 255 255 255 255 255 255 255 255 255 255 255 255 255 255 255 255 255 255 255 255 255 255 255 255 255 255 255 255 255 255 255 255 255 255 255 255 255 
255 255 255 255 255 255 255 255 255 255 255 255 255 255 255 255 255 255 255 255 255 255 255 255 255 255 255 255 255 255 255 255 255 255 255 255 255 255 255 255 255 255 255 255 255 255 255 255 255 255 255 255 255 255 255 255 255 255 255 255 255 255 255 251 251 251 242 242 242 234 234 234 225 225 225 198 198 198 145 145 145 92 92 92 39 39 39 3 3 3 2 2 2 1 1 1 1 1 1 0 0 0 0 0 0 0 0 0 0 0 0 2 2 2 16 16 16 30 30 30 44 44 44 59 59 59 91 91 91 123 123 123 156 156 156 188 188 188 193 193 193 198 198 198 202 202 202 206 206 206 207 202 190 207 198 172 208 193 153 209 189 134 209 187 120 210 186 107 211 185 95 211 184 82 210 185 85 208 186 97 206 188 108 204 190 120 204 192 129 204 194 138 205 196 146 206 198 154 207 200 160 210 203 162 214 206 165 217 209 168 217 210 169 213 206 166 209 201 163 205 197 160 201 193 158 194 188 162 186 183 166 179 178 170 171 171 171 156 156 156 142 142 142 127 127 127 112 112 112 93 93 93 73 73 73 54 54 54 34 34 34 25 25 25 17 17 17 9 9 9 1 1 1 0 0 0 0 0 0 0 0 0 0 0 0 2 2 2 5 5 5 8 8 8 11 11 11 49 49 49 104 104 104 159 159 159 215 215 215 240 240 240 244 244 244 249 249 249 253 253 253 255 255 255 255 255 255 255 255 255 255 255 255 255 255 255 255 255 255 255 255 255 255 255 255 255 255 255 255 255 255 255 255 255 255 255 255 255 255 255 255 255 255 255 255 255 255 255 255 255 255 255 255 255 255 255 255 255 255 255 255 255 255 255 
255 255 255 255 255 255 255 255 255 255 255 255 255 255 255 255 255 255 255 255 255 255 255 255 255 255 255 255 255 255 255 255 255 255 255 255 255 255 255 255 255 255 255 255 255 255 255 255 255 255 255 255 255 255 255 255 255 255 255 255 255 255 255 249 249 249 239 239 239 228 228 228 217 217 217 189 189 189 138 138 138 86 86 86 35 35 35 0 0 0 0 0 0 0 0 0 0 0 0 0 0 0 0 0 0 0 0 0 0 0 0 1 1 1 10 10 10 19 19 19 28 28 28 38 38 38 74 74 74 110 110 110 146 146 146 182 182 182 189 189 189 195 195 195 200 200 200 205 205 205 207 201 185 208 195 160 209 189 135 210 183 110 213 183 94 218 186 82 222 188 69 226 191 57 230 197 68 233 206 92 237 215 116 240 224 140 242 229 157 243 232 169 245 235 180 246 238 191 246 238 195 244 236 190 243 234 186 242 232 181 237 227 175 228 218 166 220 209 158 211 200 150 201 191 145 192 184 150 182 177 155 173 170 160 162 162 162 143 143 143 125 125 125 106 106 106 87 87 87 68 68 68 48 48 48 28 28 28 8 8 8 6 6 6 4 4 4 2 2 2 0 0 0 0 0 0 0 0 0 0 0 0 0 0 0 1 1 1 2 2 2 2 2 2 3 3 3 41 41 41 97 97 97 153 153 153 209 209 209 236 236 236 241 241 241 247 247 247 252 252 252 255 255 255 255 255 255 255 255 255 255 255 255 255 255 255 255 255 255 255 255 255 255 255 255 255 255 255 255 255 255 255 255 255 255 255 255 255 255 255 255 255 255 255 255 255 255 255 255 255 255 255 255 255 255 255 255 255 255 255 255 255 255 255 
255 255 255 255 255 255 255 255 255 255 255 255 255 255 255 255 255 255 255 255 255 255 255 255 255 255 255 255 255 255 255 255 255 255 255 255 255 255 255 255 255 255 255 255 255 255 255 255 255 255 255 255 255 255 255 255 255 255 255 255 255 255 255 247 247 247 231 231 231 215 215 215 200 200 200 171 171 171 124 124 124 78 78 78 31 31 31 0 0 0 0 0 0 0 0 0 0 0 0 0 0 0 0 0 0 0 0 0 0 0 0 1 1 1 8 8 8 15 15 15 23 23 23 31 31 31 66 66 66 100 100 100 135 135 135 170 170 170 178 178 178 184 184 184 189 189 189 195 195 195 199 193 175 202 189 150 206 184 125 210 180 100 214 182 84 219 185 71 223 188 58 228 191 46 232 197 54 235 205 73 238 213 93 241 221 112 243 227 129 244 230 144 246 234 159 247 237 174 247 239 183 246 238 183 245 237 184 244 236 184 241 231 180 231 222 170 222 212 160 213 202 149 204 193 143 195 187 150 186 181 157 177 174 164 167 167 167 151 151 151 135 135 135 119 119 119 102 102 102 79 79 79 56 56 56 33 33 33 10 10 10 7 7 7 5 5 5 2 2 2 0 0 0 0 0 0 0 0 0 0 0 0 0 0 0 0 0 0 1 1 1 2 2 2 2 2 2 36 36 36 86 86 86 137 137 137 187 187 187 214 214 214 226 226 226 238 238 238 249 249 249 255 255 255 255 255 255 255 255 255 255 255 255 255 255 255 255 255 255 255 255 255 255 255 255 255 255 255 255 255 255 255 255 255 255 255 255 255 255 255 255 255 255 255 255 255 255 255 255 255 255 255 255 255 255 255 255 255 255 255 255 255 255 255 
255 255 255 255 255 255 255 255 255 255 255 255 255 255 255 255 255 255 255 255 255 255 255 255 255 255 255 255 255 255 255 255 255 255 255 255 255 255 255 255 255 255 255 255 255 255 255 255 255 255 255 255 255 255 255 255 255 255 255 255 255 255 255 244 244 244 223 223 223 202 202 202 182 182 182 152 152 152 111 111 111 69 69 69 28 28 28 0 0 0 0 0 0 0 0 0 0 0 0 0 0 0 0 0 0 0 0 0 0 0 0 1 1 1 7 7 7 13 13 13 18 18 18 25 25 25 58 58 58 91 91 91 125 125 125 158 158 158 166 166 166 172 172 172 178 178 178 184 184 184 190 184 165 197 182 140 203 180 116 209 178 91 214 180 75 219 184 62 224 187 48 229 191 35 232 196 39 234 203 53 236 209 66 239 216 80 241 221 97 242 226 116 244 230 135 246 234 154 247 237 167 246 237 174 246 238 180 246 238 187 243 235 186 233 224 174 224 214 161 215 204 149 206 195 142 198 190 150 190 184 159 182 179 168 173 173 173 160 160 160 147 147 147 134 134 134 120 120 120 93 93 93 66 66 66 40 40 40 13 13 13 9 9 9 6 6 6 3 3 3 0 0 0 0 0 0 0 0 0 0 0 0 0 0 0 0 0 0 1 1 1 1 1 1 1 1 1 31 31 31 75 75 75 119 119 119 163 163 163 192 192 192 210 210 210 228 228 228 246 246 246 255 255 255 255 255 255 255 255 255 255 255 255 255 255 255 255 255 255 255 255 255 255 255 255 255 255 255 255 255 255 255 255 255 255 255 255 255 255 255 255 255 255 255 255 255 255 255 255 255 255 255 255 255 255 255 255 255 255 255 255 255 255 255 
255 255 255 255 255 255 255 255 255 255 255 255 255 255 255 255 255 255 255 255 255 255 255 255 255 255 255 255 255 255 255 255 255 255 255 255 255 255 255 255 255 255 255 255 255 255 255 255 255 255 255 255 255 255 255 255 255 255 255 255 255 255 255 242 242 242 216 216 216 190 190 190 163 163 163 133 133 133 97 97 97 61 61 61 25 25 25 0 0 0 0 0 0 0 0 0 0 0 0 0 0 0 0 0 0 0 0 0 0 0 0 1 1 1 5 5 5 10 10 10 14 14 14 20 20 20 51 51 51 82 82 82 114 114 114 145 145 145 154 154 154 160 160 160 167 167 167 173 173 173 182 175 154 191 175 130 200 176 106 209 176 82 215 179 66 220 183 52 225 187 38 229 191 24 232 195 25 234 200 33 235 205 40 237 211 48 239 216 64 241 221 87 242 226 110 244 231 133 246 235 151 246 237 164 247 238 177 247 240 189 245 238 192 235 227 178 226 216 163 217 206 149 209 197 141 201 193 151 194 188 161 187 184 172 179 179 179 169 169 169 159 159 159 149 149 149 137 137 137 107 107 107 77 77 77 47 47 47 16 16 16 12 12 12 8 8 8 4 4 4 0 0 0 0 0 0 0 0 0 0 0 0 0 0 0 0 0 0 0 0 0 1 1 1 1 1 1 27 27 27 64 64 64 102 102 102 140 140 140 170 170 170 194 194 194 218 218 218 243 243 243 255 255 255 255 255 255 255 255 255 255 255 255 255 255 255 255 255 255 255 255 255 255 255 255 255 255 255 255 255 255 255 255 255 255 255 255 255 255 255 255 255 255 255 255 255 255 255 255 255 255 255 255 255 255 255 255 255 255 255 255 255 255 255 
255 255 255 255 255 255 255 255 255 255 255 255 255 255 255 255 255 255 255 255 255 255 255 255 255 255 255 255 255 255 255 255 255 255 255 255 255 255 255 255 255 255 255 255 255 255 255 255 255 255 255 255 255 255 255 255 255 255 255 255 255 255 255 239 239 239 208 208 208 177 177 177 145 145 145 114 114 114 83 83 83 52 52 52 21 21 21 0 0 0 0 0 0 0 0 0 0 0 0 0 0 0 0 0 0 0 0 0 0 0 0 0 0 0 4 4 4 7 7 7 10 10 10 14 14 14 44 44 44 73 73 73 103 103 103 133 133 133 142 142 142 149 149 149 156 156 156 163 163 163 174 166 144 185 168 121 197 171 97 209 174 73 216 177 57 220 182 42 225 186 28 230 190 14 232 194 10 233 198 12 234 202 14 235 205 17 237 210 32 239 216 59 241 222 86 243 228 112 245 233 135 246 236 154 247 239 173 249 242 192 246 241 198 237 230 182 228 219 165 219 208 149 211 199 139 204 196 152 198 192 164 192 189 176 185 185 185 178 178 178 171 171 171 164 164 164 155 155 155 121 121 121 87 87 87 53 53 53 20 20 20 14 14 14 10 10 10 5 5 5 1 1 1 0 0 0 0 0 0 0 0 0 0 0 0 0 0 0 0 0 0 0 0 0 0 0 0 22 22 22 53 53 53 85 85 85 117 117 117 148 148 148 178 178 178 209 209 209 239 239 239 255 255 255 255 255 255 255 255 255 255 255 255 255 255 255 255 255 255 255 255 255 255 255 255 255 255 255 255 255 255 255 255 255 255 255 255 255 255 255 255 255 255 255 255 255 255 255 255 255 255 255 255 255 255 255 255 255 255 255 255 255 255 255 
255 255 255 255 255 255 255 255 255 255 255 255 255 255 255 255 255 255 255 255 255 255 255 255 255 255 255 255 255 255 255 255 255 255 255 255 255 255 255 255 255 255 255 255 255 255 255 255 255 255 255 254 254 254 251 251 251 249 249 249 247 247 247 228 228 228 193 193 193 158 158 158 124 124 124 93 93 93 68 68 68 42 42 42 17 17 17 0 0 0 0 0 0 0 0 0 0 0 0 0 0 0 1 1 1 1 1 1 2 2 2 4 4 4 15 15 15 26 26 26 37 37 37 49 49 49 74 74 74 99 99 99 124 124 124 149 149 149 155 155 155 160 160 160 164 164 164 168 168 168 176 169 151 184 169 129 192 170 107 200 170 85 207 174 68 214 179 53 220 184 38 227 189 24 230 193 17 232 196 15 233 199 13 234 203 11 235 207 22 237 212 44 239 217 66 241 223 88 242 226 109 242 229 128 242 231 148 242 233 168 239 230 176 229 220 166 219 209 155 209 198 144 201 190 140 198 190 153 195 190 166 193 190 179 190 190 190 186 186 186 183 183 183 179 179 179 173 173 173 145 145 145 116 116 116 87 87 87 58 58 58 45 45 45 32 32 32 19 19 19 5 5 5 3 3 3 2 2 2 1 1 1 0 0 0 0 0 0 0 0 0 0 0 0 0 0 0 18 18 18 44 44 44 70 70 70 95 95 95 126 126 126 160 160 160 194 194 194 228 228 228 246 246 246 249 249 249 251 251 251 253 253 253 255 255 255 255 255 255 255 255 255 255 255 255 255 255 255 255 255 255 255 255 255 255 255 255 255 255 255 255 255 255 255 255 255 255 255 255 255 255 255 255 255 255 255 255 255 255 255 255 255 255 255 
255 255 255 255 255 255 255 255 255 255 255 255 255 255 255 255 255 255 255 255 255 255 255 255 255 255 255 255 255 255 255 255 255 255 255 255 255 255 255 255 255 255 255 255 255 255 255 255 255 255 255 252 252 252 247 247 247 242 242 242 238 238 238 216 216 216 177 177 177 139 139 139 101 101 101 71 71 71 51 51 51 32 32 32 13 13 13 0 0 0 0 0 0 0 0 0 0 0 0 0 0 0 1 1 1 2 2 2 4 4 4 7 7 7 28 28 28 50 50 50 71 71 71 92 92 92 112 112 112 132 132 132 151 151 151 171 171 171 174 174 174 175 175 175 176 176 176 178 178 178 180 175 161 183 172 140 186 169 120 188 165 100 196 169 83 205 175 68 215 181 53 224 187 37 228 191 28 230 194 22 231 197 17 233 201 11 234 204 17 236 208 32 237 212 48 239 217 63 239 219 80 237 220 100 236 220 119 234 221 138 229 218 149 218 207 146 207 197 143 196 187 139 188 180 141 190 184 155 191 188 169 193 191 183 195 195 195 194 194 194 194 194 194 194 194 194 192 192 192 170 170 170 148 148 148 126 126 126 104 104 104 81 81 81 58 58 58 34 34 34 11 11 11 6 6 6 4 4 4 2 2 2 0 0 0 0 0 0 0 0 0 0 0 0 0 0 0 14 14 14 34 34 34 54 54 54 74 74 74 104 104 104 141 141 141 177 177 177 214 214 214 236 236 236 241 241 241 246 246 246 252 252 252 255 255 255 255 255 255 255 255 255 255 255 255 255 255 255 255 255 255 255 255 255 255 255 255 255 255 255 255 255 255 255 255 255 255 255 255 255 255 255 255 255 255 255 255 255 255 255 255 255 255 255 
255 255 255 255 255 255 255 255 255 255 255 255 255 255 255 255 255 255 255 255 255 255 255 255 255 255 255 255 255 255 255 255 255 255 255 255 255 255 255 255 255 255 255 255 255 255 255 255 255 255 255 250 250 250 243 243 243 236 236 236 228 228 228 203 203 203 161 161 161 120 120 120 78 78 78 48 48 48 35 35 35 22 22 22 9 9 9 0 0 0 0 0 0 0 0 0 0 0 0 0 0 0 2 2 2 4 4 4 5 5 5 11 11 11 42 42 42 73 73 73 104 104 104 135 135 135 150 150 150 164 164 164 179 179 179 193 193 193 192 192 192 190 190 190 188 188 188 187 187 187 184 181 171 182 174 152 180 168 134 177 161 115 185 165 99 197 172 83 209 178 67 220 185 51 226 190 39 228 193 30 230 196 20 232 198 11 233 201 11 234 204 20 236 208 29 237 211 38 236 212 52 233 211 71 229 210 90 226 209 109 220 205 123 208 195 127 195 185 130 183 175 134 175 169 141 181 177 156 187 185 171 194 192 186 199 199 199 203 203 203 206 206 206 209 209 209 211 211 211 196 196 196 180 180 180 165 165 165 150 150 150 117 117 117 84 84 84 50 50 50 17 17 17 10 10 10 7 7 7 4 4 4 1 1 1 0 0 0 0 0 0 0 0 0 0 0 0 10 10 10 24 24 24 39 39 39 53 53 53 82 82 82 122 122 122 161 161 161 201 201 201 225 225 225 233 233 233 242 242 242 250 250 250 255 255 255 255 255 255 255 255 255 255 255 255 255 255 255 255 255 255 255 255 255 255 255 255 255 255 255 255 255 255 255 255 255 255 255 255 255 255 255 255 255 255 255 255 255 255 255 255 255 255 255 
255 255 255 255 255 255 255 255 255 255 255 255 255 255 255 255 255 255 255 255 255 255 255 255 255 255 255 255 255 255 255 255 255 255 255 255 255 255 255 255 255 255 255 255 255 255 255 255 255 255 255 249 249 249 239 239 239 229 229 229 219 219 219 191 191 191 146 146 146 101 101 101 55 55 55 26 26 26 19 19 19 12 12 12 5 5 5 0 0 0 0 0 0 0 0 0 0 0 0 1 1 1 3 3 3 5 5 5 7 7 7 15 15 15 56 56 56 97 97 97 138 138 138 178 178 178 187 187 187 197 197 197 206 206 206 215 215 215 211 211 211 206 206 206 201 201 201 196 196 196 189 187 181 181 177 164 174 167 147 166 157 130 175 160 114 189 168 97 203 176 81 217 184 64 223 188 50 226 191 37 228 194 24 231 196 10 233 199 6 233 201 8 234 203 11 234 205 13 233 205 23 228 202 42 223 199 61 218 197 79 211 192 96 197 182 107 183 173 118 170 163 129 162 159 142 173 170 158 183 182 174 194 193 190 204 204 204 211 211 211 217 217 217 224 224 224 230 230 230 221 221 221 213 213 213 204 204 204 195 195 195 153 153 153 110 110 110 66 66 66 22 22 22 13 13 13 9 9 9 5 5 5 1 1 1 0 0 0 0 0 0 0 0 0 0 0 0 6 6 6 15 15 15 24 24 24 32 32 32 61 61 61 103 103 103 145 145 145 187 187 187 215 215 215 226 226 226 237 237 237 248 248 248 255 255 255 255 255 255 255 255 255 255 255 255 255 255 255 255 255 255 255 255 255 255 255 255 255 255 255 255 255 255 255 255 255 255 255 255 255 255 255 255 255 255 255 255 255 255 255 255 255 255 255 
255 255 255 255 255 255 255 255 255 255 255 255 255 255 255 255 255 255 255 255 255 255 255 255 255 255 255 255 255 255 255 255 255 255 255 255 255 255 255 254 254 254 252 252 252 251 251 251 249 249 249 240 240 240 227 227 227 214 214 214 201 201 201 172 172 172 129 129 129 87 87 87 44 44 44 17 17 17 13 13 13 8 8 8 3 3 3 0 0 0 0 0 0 0 0 0 0 0 0 2 2 2 11 11 11 19 19 19 28 28 28 41 41 41 81 81 81 120 120 120 160 160 160 199 199 199 205 205 205 212 212 212 218 218 218 224 224 224 220 220 220 215 215 215 210 210 210 206 206 206 198 196 192 189 186 178 181 176 163 172 166 148 176 165 130 183 166 110 190 168 90 198 169 70 205 174 55 212 180 43 219 185 31 226 191 18 229 194 12 230 195 10 230 197 9 230 198 8 225 195 14 214 187 30 203 179 46 191 171 61 180 162 76 167 154 87 154 145 98 142 136 109 135 133 121 145 143 134 154 153 148 164 164 161 174 174 174 183 183 183 192 192 192 201 201 201 210 210 210 211 211 211 212 212 212 213 213 213 214 214 214 174 174 174 133 133 133 92 92 92 51 51 51 36 36 36 25 25 25 14 14 14 3 3 3 0 0 0 0 0 0 0 0 0 0 0 0 4 4 4 10 10 10 16 16 16 22 22 22 48 48 48 88 88 88 128 128 128 168 168 168 196 196 196 210 210 210 224 224 224 238 238 238 247 247 247 249 249 249 252 252 252 254 254 254 255 255 255 255 255 255 255 255 255 255 255 255 255 255 255 255 255 255 255 255 255 255 255 255 255 255 255 255 255 255 255 255 255 255 255 255 255 255 255 
255 255 255 255 255 255 255 255 255 255 255 255 255 255 255 255 255 255 255 255 255 255 255 255 255 255 255 255 255 255 255 255 255 255 255 255 255 255 255 252 252 252 248 248 248 245 245 245 241 241 241 229 229 229 213 213 213 196 196 196 179 179 179 152 152 152 113 113 113 75 75 75 36 36 36 13 13 13 9 9 9 6 6 6 2 2 2 0 0 0 0 0 0 0 0 0 0 0 0 4 4 4 21 21 21 38 38 38 55 55 55 74 74 74 109 109 109 144 144 144 179 179 179 213 213 213 217 217 217 221 221 221 225 225 225 230 230 230 227 227 227 223 223 223 219 219 219 216 216 216 209 208 205 200 198 192 192 189 180 184 180 168 181 172 147 178 165 122 176 158 98 174 151 74 181 155 59 194 165 49 207 175 39 219 185 29 225 189 22 225 190 18 225 190 13 225 190 9 217 184 12 197 169 24 177 154 35 158 139 47 141 127 58 130 119 66 120 112 75 109 105 84 103 101 93 109 108 102 116 116 112 123 123 121 131 131 131 142 142 142 154 154 154 165 165 165 177 177 177 188 188 188 199 199 199 211 211 211 222 222 222 190 190 190 155 155 155 121 121 121 87 87 87 65 65 65 45 45 45 25 25 25 5 5 5 0 0 0 0 0 0 0 0 0 0 0 0 3 3 3 7 7 7 12 12 12 16 16 16 39 39 39 75 75 75 111 111 111 148 148 148 175 175 175 191 191 191 208 208 208 225 225 225 237 237 237 242 242 242 247 247 247 252 252 252 255 255 255 255 255 255 255 255 255 255 255 255 255 255 255 255 255 255 255 255 255 255 255 255 255 255 255 255 255 255 255 255 255 255 255 255 255 255 255 
255 255 255 255 255 255 255 255 255 255 255 255 255 255 255 255 255 255 255 255 255 255 255 255 255 255 255 255 255 255 255 255 255 255 255 255 255 255 255 251 251 251 245 245 245 239 239 239 233 233 233 218 218 218 198 198 198 178 178 178 158 158 158 131 131 131 97 97 97 63 63 63 29 29 29 8 8 8 6 6 6 4 4 4 1 1 1 0 0 0 0 0 0 0 0 0 0 0 0 6 6 6 31 31 31 57 57 57 82 82 82 108 108 108 138 138 138 167 167 167 197 197 197 226 226 226 228 228 228 230 230 230 233 233 233 235 235 235 233 233 233 231 231 231 228 228 228 226 226 226 219 219 217 212 211 207 204 202 197 196 194 187 186 180 163 174 164 135 162 149 106 150 133 77 157 136 62 176 150 55 194 164 47 213 179 40 221 185 32 221 184 25 221 183 18 221 183 10 208 173 10 180 151 17 152 129 25 124 108 33 103 91 40 94 85 46 85 79 52 76 73 58 70 69 64 74 74 70 78 78 76 83 82 81 88 88 88 102 102 102 116 116 116 129 129 129 143 143 143 165 165 165 187 187 187 209 209 209 231 231 231 205 205 205 178 178 178 151 151 151 123 123 123 94 94 94 65 65 65 36 36 36 7 7 7 0 0 0 0 0 0 0 0 0 0 0 0 2 2 2 4 4 4 7 7 7 10 10 10 29 29 29 62 62 62 94 94 94 127 127 127 153 153 153 173 173 173 193 193 193 212 212 212 227 227 227 235 235 235 242 242 242 250 250 250 255 255 255 255 255 255 255 255 255 255 255 255 255 255 255 255 255 255 255 255 255 255 255 255 255 255 255 255 255 255 255 255 255 255 255 255 255 255 255 
255 255 255 255 255 255 255 255 255 255 255 255 255 255 255 255 255 255 255 255 255 255 255 255 255 255 255 255 255 255 255 255 255 255 255 255 255 255 255 249 249 249 241 241 241 233 233 233 224 224 224 207 207 207 184 184 184 161 161 161 137 137 137 111 111 111 81 81 81 51 51 51 21 21 21 3 3 3 2 2 2 2 2 2 1 1 1 0 0 0 0 0 0 0 0 0 0 0 0 8 8 8 42 42 42 75 75 75 109 109 109 142 142 142 166 166 166 191 191 191 216 216 216 239 239 239 239 239 239 240 240 240 240 240 240 240 240 240 239 239 239 238 238 238 237 237 237 236 236 236 230 230 230 223 223 222 216 215 214 209 208 206 191 188 180 169 163 147 147 139 114 125 114 81 133 117 66 158 136 61 182 154 55 206 172 50 217 180 42 217 178 32 216 177 22 216 176 12 199 162 8 163 133 11 127 105 15 90 76 19 64 56 22 57 51 26 50 46 29 43 41 33 38 37 36 39 39 38 41 40 40 42 42 42 46 46 46 62 62 62 77 77 77 93 93 93 110 110 110 143 143 143 175 175 175 207 207 207 240 240 240 221 221 221 200 200 200 180 180 180 159 159 159 123 123 123 85 85 85 47 47 47 9 9 9 0 0 0 0 0 0 0 0 0 0 0 0 1 1 1 1 1 1 2 2 2 3 3 3 20 20 20 49 49 49 78 78 78 106 106 106 132 132 132 154 154 154 177 177 177 199 199 199 217 217 217 227 227 227 237 237 237 248 248 248 255 255 255 255 255 255 255 255 255 255 255 255 255 255 255 255 255 255 255 255 255 255 255 255 255 255 255 255 255 255 255 255 255 255 255 255 255 255 255 
255 255 255 255 255 255 255 255 255 255 255 255 255 255 255 255 255 255 255 255 255 255 255 255 255 255 255 253 253 253 251 251 251 248 248 248 246 246 246 238 238 238 228 228 228 217 217 217 207 207 207 188 188 188 164 164 164 140 140 140 115 115 115 91 91 91 66 66 66 41 41 41 16 16 16 2 2 2 1 1 1 1 1 1 0 0 0 1 1 1 2 2 2 4 4 4 6 6 6 16 16 16 54 54 54 93 93 93 131 131 131 167 167 167 186 186 186 206 206 206 225 225 225 243 243 243 243 243 243 242 242 242 242 242 242 242 242 242 238 238 238 235 235 235 232 232 232 228 228 228 219 219 219 209 209 209 198 198 198 188 188 188 171 169 165 151 147 137 131 125 109 111 103 82 120 107 70 144 126 68 169 145 65 193 163 63 205 172 57 205 171 49 206 171 40 207 171 32 193 160 30 162 136 34 130 112 39 99 87 43 76 70 47 69 64 47 62 59 48 55 53 49 49 49 49 49 49 49 49 49 49 49 49 49 51 51 51 66 66 66 80 80 80 95 95 95 111 111 111 144 144 144 177 177 177 209 209 209 242 242 242 228 228 228 213 213 213 198 198 198 183 183 183 144 144 144 103 103 103 61 61 61 19 19 19 8 8 8 5 5 5 3 3 3 1 1 1 0 0 0 0 0 0 1 1 1 1 1 1 15 15 15 38 38 38 62 62 62 86 86 86 109 109 109 133 133 133 157 157 157 180 180 180 199 199 199 211 211 211 223 223 223 235 235 235 244 244 244 247 247 247 250 250 250 253 253 253 255 255 255 255 255 255 255 255 255 255 255 255 255 255 255 255 255 255 255 255 255 255 255 255 255 255 255 
255 255 255 255 255 255 255 255 255 255 255 255 255 255 255 255 255 255 255 255 255 255 255 255 255 255 255 250 250 250 244 244 244 237 237 237 231 231 231 221 221 221 209 209 209 197 197 197 185 185 185 166 166 166 142 142 142 117 117 117 93 93 93 71 71 71 52 52 52 32 32 32 13 13 13 1 1 1 1 1 1 0 0 0 0 0 0 1 1 1 6 6 6 11 11 11 15 15 15 28 28 28 69 69 69 110 110 110 150 150 150 188 188 188 201 201 201 215 215 215 229 229 229 242 242 242 242 242 242 241 241 241 241 241 241 241 241 241 233 233 233 225 225 225 217 217 217 210 210 210 196 196 196 180 180 180 165 165 165 150 150 150 137 136 133 125 123 116 114 110 98 102 96 81 111 102 75 133 119 75 154 136 76 176 153 76 187 161 74 190 164 70 193 166 67 196 168 63 189 163 64 169 149 73 150 136 81 131 122 90 115 111 94 107 104 92 99 97 90 91 90 87 85 85 85 84 84 84 83 83 83 82 82 82 83 83 83 95 95 95 106 106 106 118 118 118 130 130 130 158 158 158 186 186 186 213 213 213 241 241 241 232 232 232 221 221 221 210 210 210 199 199 199 161 161 161 119 119 119 76 76 76 34 34 34 20 20 20 14 14 14 8 8 8 2 2 2 0 0 0 0 0 0 0 0 0 1 1 1 11 11 11 29 29 29 47 47 47 65 65 65 86 86 86 110 110 110 134 134 134 158 158 158 178 178 178 190 190 190 203 203 203 216 216 216 227 227 227 234 234 234 241 241 241 249 249 249 255 255 255 255 255 255 255 255 255 255 255 255 255 255 255 255 255 255 255 255 255 255 255 255 255 255 255 
255 255 255 255 255 255 255 255 255 255 255 255 255 255 255 255 255 255 255 255 255 255 255 255 255 255 255 247 247 247 237 237 237 227 227 227 217 217 217 204 204 204 190 190 190 177 177 177 163 163 163 143 143 143 119 119 119 95 95 95 71 71 71 52 52 52 38 38 38 23 23 23 9 9 9 1 1 1 0 0 0 0 0 0 0 0 0 2 2 2 10 10 10 17 17 17 25 25 25 40 40 40 83 83 83 126 126 126 170 170 170 208 208 208 216 216 216 225 225 225 233 233 233 241 241 241 241 241 241 240 240 240 240 240 240 240 240 240 228 228 228 216 216 216 203 203 203 191 191 191 172 172 172 152 152 152 132 132 132 112 112 112 104 103 101 100 98 94 96 94 87 93 89 80 103 97 80 122 112 83 140 127 87 159 142 90 170 151 92 175 156 92 180 160 93 185 165 93 184 166 99 177 163 112 170 160 124 162 157 136 154 152 142 146 144 137 137 136 131 128 128 126 121 121 121 119 119 119 117 117 117 115 115 115 115 115 115 124 124 124 132 132 132 140 140 140 150 150 150 172 172 172 195 195 195 217 217 217 240 240 240 235 235 235 228 228 228 222 222 222 215 215 215 177 177 177 135 135 135 92 92 92 49 49 49 32 32 32 22 22 22 13 13 13 3 3 3 0 0 0 0 0 0 0 0 0 0 0 0 8 8 8 20 20 20 32 32 32 45 45 45 63 63 63 87 87 87 112 112 112 136 136 136 156 156 156 170 170 170 183 183 183 197 197 197 210 210 210 222 222 222 233 233 233 245 245 245 254 254 254 255 255 255 255 255 255 255 255 255 255 255 255 255 255 255 255 255 255 255 255 255 255 255 255 
255 255 255 255 255 255 255 255 255 255 255 255 255 255 255 255 255 255 255 255 255 255 255 255 255 255 255 244 244 244 230 230 230 216 216 216 202 202 202 187 187 187 172 172 172 157 157 157 141 141 141 121 121 121 97 97 97 73 73 73 49 49 49 32 32 32 23 23 23 14 14 14 5 5 5 0 0 0 0 0 0 0 0 0 0 0 0 3 3 3 14 14 14 24 24 24 34 34 34 52 52 52 98 98 98 143 143 143 189 189 189 229 229 229 231 231 231 234 234 234 237 237 237 240 240 240 239 239 239 239 239 239 239 239 239 239 239 239 223 223 223 206 206 206 189 189 189 172 172 172 149 149 149 124 124 124 98 98 98 73 73 73 70 70 69 75 74 73 79 78 76 83 82 79 95 92 85 110 105 91 126 118 97 141 131 103 152 141 109 159 148 114 167 155 119 174 162 124 180 169 134 184 177 150 189 184 166 194 191 183 194 193 190 184 184 181 174 174 173 165 165 164 157 157 157 154 154 154 151 151 151 149 149 149 147 147 147 152 152 152 158 158 158 163 163 163 169 169 169 187 187 187 204 204 204 222 222 222 239 239 239 238 238 238 236 236 236 234 234 234 232 232 232 194 194 194 151 151 151 107 107 107 64 64 64 44 44 44 31 31 31 18 18 18 4 4 4 0 0 0 0 0 0 0 0 0 0 0 0 4 4 4 11 11 11 17 17 17 24 24 24 40 40 40 64 64 64 89 89 89 114 114 114 135 135 135 149 149 149 164 164 164 178 178 178 193 193 193 209 209 209 225 225 225 241 241 241 254 254 254 254 254 254 255 255 255 255 255 255 255 255 255 255 255 255 255 255 255 255 255 255 255 255 255 
255 255 255 255 255 255 255 255 255 255 255 255 255 255 255 253 253 253 250 250 250 247 247 247 245 245 245 232 232 232 216 216 216 201 201 201 185 185 185 169 169 169 151 151 151 134 134 134 117 117 117 97 97 97 76 76 76 55 55 55 34 34 34 20 20 20 15 15 15 9 9 9 3 3 3 0 0 0 0 0 0 0 0 0 0 0 0 5 5 5 19 19 19 34 34 34 49 49 49 70 70 70 113 113 113 156 156 156 200 200 200 237 237 237 237 237 237 238 238 238 238 238 238 238 238 238 234 234 234 230 230 230 225 225 225 221 221 221 205 205 205 187 187 187 170 170 170 153 153 153 133 133 133 114 114 114 94 94 94 75 75 75 75 75 75 83 83 83 91 91 91 99 99 99 109 108 106 121 118 112 133 128 118 144 138 123 153 146 129 160 153 135 167 160 141 174 167 148 182 175 158 190 186 173 199 196 188 208 207 204 210 210 210 199 199 199 188 188 188 178 178 178 169 169 169 164 164 164 160 160 160 155 155 155 152 152 152 154 154 154 156 156 156 158 158 158 161 161 161 179 179 179 197 197 197 214 214 214 232 232 232 234 234 234 235 235 235 237 237 237 238 238 238 203 203 203 163 163 163 123 123 123 83 83 83 60 60 60 42 42 42 24 24 24 6 6 6 0 0 0 0 0 0 0 0 0 0 0 0 2 2 2 6 6 6 9 9 9 13 13 13 25 25 25 47 47 47 69 69 69 91 91 91 110 110 110 126 126 126 143 143 143 159 159 159 175 175 175 193 193 193 210 210 210 228 228 228 243 243 243 246 246 246 249 249 249 252 252 252 255 255 255 255 255 255 255 255 255 255 255 255 255 255 255 
255 255 255 255 255 255 255 255 255 255 255 255 255 255 255 248 248 248 241 241 241 233 233 233 225 225 225 212 212 212 197 197 197 182 182 182 167 167 167 149 149 149 129 129 129 110 110 110 91 91 91 73 73 73 57 57 57 41 41 41 25 25 25 15 15 15 11 11 11 6 6 6 2 2 2 0 0 0 0 0 0 0 0 0 0 0 0 7 7 7 27 27 27 48 48 48 68 68 68 92 92 92 130 130 130 167 167 167 204 204 204 236 236 236 236 236 236 236 236 236 236 236 236 236 236 236 224 224 224 212 212 212 201 201 201 189 189 189 175 175 175 161 161 161 146 146 146 132 132 132 125 125 125 119 119 119 114 114 114 108 108 108 113 113 113 120 120 120 128 128 128 136 136 136 143 142 140 150 148 143 157 154 146 164 159 149 169 164 152 174 169 156 179 174 161 184 179 165 189 184 172 195 192 182 201 199 193 207 206 204 206 206 206 194 194 194 183 183 183 171 171 171 160 160 160 154 154 154 147 147 147 140 140 140 134 134 134 133 133 133 132 132 132 131 131 131 131 131 131 153 153 153 175 175 175 197 197 197 219 219 219 224 224 224 228 228 228 232 232 232 236 236 236 207 207 207 174 174 174 140 140 140 106 106 106 80 80 80 56 56 56 32 32 32 8 8 8 0 0 0 0 0 0 0 0 0 0 0 0 1 1 1 4 4 4 7 7 7 9 9 9 18 18 18 35 35 35 51 51 51 67 67 67 84 84 84 102 102 102 121 121 121 139 139 139 157 157 157 174 174 174 191 191 191 208 208 208 223 223 223 231 231 231 239 239 239 247 247 247 255 255 255 255 255 255 255 255 255 255 255 255 255 255 255 
255 255 255 255 255 255 255 255 255 255 255 255 255 255 255 244 244 244 231 231 231 219 219 219 206 206 206 192 192 192 177 177 177 163 163 163 148 148 148 129 129 129 107 107 107 86 86 86 64 64 64 49 49 49 38 38 38 27 27 27 16 16 16 9 9 9 6 6 6 4 4 4 1 1 1 0 0 0 0 0 0 0 0 0 0 0 0 9 9 9 35 35 35 61 61 61 88 88 88 115 115 115 146 146 146 177 177 177 208 208 208 235 235 235 235 235 235 234 234 234 234 234 234 233 233 233 214 214 214 195 195 195 176 176 176 157 157 157 145 145 145 134 134 134 122 122 122 111 111 111 116 116 116 125 125 125 133 133 133 142 142 142 150 150 150 157 157 157 165 165 165 172 172 172 176 176 175 178 177 174 181 179 174 183 180 174 186 183 175 188 185 177 191 188 180 193 190 182 196 193 186 199 197 192 202 201 198 206 205 204 203 203 203 190 190 190 177 177 177 164 164 164 152 152 152 143 143 143 134 134 134 125 125 125 117 117 117 112 112 112 108 108 108 103 103 103 100 100 100 127 127 127 154 154 154 180 180 180 207 207 207 214 214 214 221 221 221 228 228 228 234 234 234 211 211 211 184 184 184 156 156 156 129 129 129 99 99 99 69 69 69 40 40 40 10 10 10 0 0 0 0 0 0 0 0 0 0 0 0 1 1 1 2 2 2 4 4 4 6 6 6 12 12 12 22 22 22 33 33 33 43 43 43 58 58 58 78 78 78 99 99 99 119 119 119 139 139 139 155 155 155 171 171 171 187 187 187 202 202 202 216 216 216 229 229 229 242 242 242 254 254 254 255 255 255 255 255 255 255 255 255 255 255 255 
255 255 255 255 255 255 255 255 255 255 255 255 255 255 255 239 239 239 222 222 222 205 205 205 187 187 187 172 172 172 158 158 158 144 144 144 129 129 129 108 108 108 85 85 85 61 61 61 38 38 38 25 25 25 19 19 19 13 13 13 7 7 7 3 3 3 2 2 2 1 1 1 1 1 1 0 0 0 0 0 0 0 0 0 0 0 0 10 10 10 43 43 43 75 75 75 107 107 107 137 137 137 162 162 162 187 187 187 212 212 212 234 234 234 233 233 233 233 233 233 232 232 232 231 231 231 205 205 205 178 178 178 151 151 151 125 125 125 115 115 115 107 107 107 99 99 99 90 90 90 108 108 108 131 131 131 153 153 153 176 176 176 187 187 187 194 194 194 201 201 201 208 208 208 210 209 209 207 207 206 205 204 203 203 202 199 202 201 198 202 201 198 203 202 199 203 202 199 203 203 200 204 203 201 204 204 202 204 204 204 200 200 200 185 185 185 171 171 171 157 157 157 143 143 143 132 132 132 121 121 121 110 110 110 99 99 99 91 91 91 83 83 83 75 75 75 70 70 70 101 101 101 132 132 132 163 163 163 195 195 195 205 205 205 214 214 214 223 223 223 233 233 233 215 215 215 194 194 194 173 173 173 152 152 152 119 119 119 83 83 83 47 47 47 12 12 12 0 0 0 0 0 0 0 0 0 0 0 0 0 0 0 1 1 1 1 1 1 2 2 2 5 5 5 10 10 10 15 15 15 20 20 20 32 32 32 54 54 54 77 77 77 100 100 100 120 120 120 136 136 136 151 151 151 166 166 166 182 182 182 201 201 201 219 219 219 237 237 237 254 254 254 254 254 254 255 255 255 255 255 255 255 255 255 
255 255 255 253 253 253 251 251 251 249 249 249 247 247 247 229 229 229 209 209 209 190 190 190 170 170 170 153 153 153 138 138 138 123 123 123 107 107 107 87 87 87 66 66 66 44 44 44 22 22 22 12 12 12 9 9 9 6 6 6 2 2 2 1 1 1 1 1 1 0 0 0 0 0 0 0 0 0 0 0 0 1 1 1 1 1 1 13 13 13 50 50 50 86 86 86 123 123 123 156 156 156 176 176 176 195 195 195 215 215 215 232 232 232 229 229 229 225 225 225 222 222 222 218 218 218 190 190 190 162 162 162 134 134 134 106 106 106 102 102 102 100 100 100 97 97 97 95 95 95 117 117 117 143 143 143 170 170 170 197 197 197 208 208 208 215 215 215 222 222 222 228 228 228 226 226 226 220 220 220 213 213 213 207 207 207 203 203 203 203 203 203 202 202 202 202 202 202 200 200 200 198 198 198 195 195 195 192 192 192 187 187 187 175 175 175 164 164 164 153 153 153 142 142 142 132 132 132 123 123 123 114 114 114 105 105 105 94 94 94 84 84 84 74 74 74 66 66 66 93 93 93 120 120 120 147 147 147 174 174 174 188 188 188 202 202 202 215 215 215 229 229 229 217 217 217 201 201 201 185 185 185 169 169 169 134 134 134 95 95 95 55 55 55 16 16 16 2 2 2 2 2 2 1 1 1 0 0 0 0 0 0 0 0 0 0 0 0 1 1 1 2 2 2 4 4 4 6 6 6 8 8 8 17 17 17 38 38 38 59 59 59 79 79 79 99 99 99 115 115 115 131 131 131 146 146 146 163 163 163 185 185 185 206 206 206 227 227 227 247 247 247 249 249 249 251 251 251 253 253 253 255 255 255 
255 255 255 249 249 249 243 243 243 237 237 237 231 231 231 213 213 213 193 193 193 173 173 173 154 154 154 135 135 135 117 117 117 99 99 99 81 81 81 65 65 65 49 49 49 34 34 34 19 19 19 11 11 11 9 9 9 7 7 7 4 4 4 3 3 3 2 2 2 1 1 1 0 0 0 0 0 0 1 1 1 3 3 3 4 4 4 17 17 17 56 56 56 96 96 96 135 135 135 169 169 169 185 185 185 201 201 201 217 217 217 230 230 230 220 220 220 210 210 210 200 200 200 190 190 190 169 169 169 147 147 147 126 126 126 105 105 105 110 110 110 116 116 116 123 123 123 130 130 130 146 146 146 165 165 165 183 183 183 202 202 202 211 211 211 217 217 217 222 222 222 228 228 228 223 223 223 213 213 213 202 202 202 192 192 192 187 187 187 187 187 187 187 187 187 187 187 187 184 184 184 178 178 178 173 173 173 167 167 167 162 162 162 158 158 158 155 155 155 151 151 151 148 148 148 146 146 146 144 144 144 142 142 142 138 138 138 127 127 127 116 116 116 105 105 105 95 95 95 107 107 107 119 119 119 130 130 130 142 142 142 162 162 162 183 183 183 203 203 203 223 223 223 215 215 215 203 203 203 191 191 191 179 179 179 145 145 145 104 104 104 63 63 63 22 22 22 7 7 7 5 5 5 3 3 3 1 1 1 0 0 0 1 1 1 2 2 2 2 2 2 3 3 3 5 5 5 7 7 7 9 9 9 16 16 16 30 30 30 44 44 44 58 58 58 74 74 74 92 92 92 109 109 109 127 127 127 146 146 146 167 167 167 189 189 189 210 210 210 230 230 230 236 236 236 243 243 243 249 249 249 255 255 255 
255 255 255 245 245 245 235 235 235 224 224 224 214 214 214 196 196 196 176 176 176 157 157 157 138 138 138 117 117 117 96 96 96 75 75 75 54 54 54 42 42 42 33 33 33 24 24 24 16 16 16 11 11 11 10 10 10 8 8 8 6 6 6 5 5 5 3 3 3 2 2 2 1 1 1 1 1 1 2 2 2 4 4 4 6 6 6 21 21 21 63 63 63 105 105 105 147 147 147 182 182 182 195 195 195 207 207 207 219 219 219 228 228 228 212 212 212 195 195 195 179 179 179 163 163 163 148 148 148 133 133 133 118 118 118 103 103 103 117 117 117 133 133 133 149 149 149 165 165 165 176 176 176 186 186 186 197 197 197 207 207 207 213 213 213 218 218 218 223 223 223 228 228 228 220 220 220 206 206 206 192 192 192 177 177 177 171 171 171 171 171 171 172 172 172 172 172 172 168 168 168 159 159 159 150 150 150 141 141 141 137 137 137 141 141 141 146 146 146 150 150 150 155 155 155 160 160 160 165 165 165 169 169 169 172 172 172 160 160 160 148 148 148 136 136 136 124 124 124 121 121 121 118 118 118 114 114 114 111 111 111 137 137 137 164 164 164 191 191 191 218 218 218 214 214 214 206 206 206 198 198 198 189 189 189 155 155 155 113 113 113 71 71 71 29 29 29 12 12 12 9 9 9 5 5 5 2 2 2 1 1 1 2 2 2 3 3 3 4 4 4 5 5 5 7 7 7 9 9 9 11 11 11 15 15 15 22 22 22 30 30 30 37 37 37 48 48 48 68 68 68 88 88 88 108 108 108 129 129 129 150 150 150 172 172 172 193 193 193 214 214 214 224 224 224 234 234 234 245 245 245 255 255 255 
255 255 255 241 241 241 226 226 226 212 212 212 197 197 197 179 179 179 160 160 160 141 141 141 122 122 122 99 99 99 75 75 75 51 51 51 28 28 28 19 19 19 17 17 17 15 15 15 12 12 12 11 11 11 10 10 10 9 9 9 8 8 8 7 7 7 5 5 5 3 3 3 1 1 1 1 1 1 4 4 4 6 6 6 8 8 8 25 25 25 69 69 69 114 114 114 159 159 159 196 196 196 204 204 204 213 213 213 221 221 221 226 226 226 203 203 203 180 180 180 158 158 158 136 136 136 127 127 127 118 118 118 110 110 110 101 101 101 124 124 124 149 149 149 174 174 174 199 199 199 205 205 205 208 208 208 210 210 210 212 212 212 216 216 216 220 220 220 223 223 223 227 227 227 217 217 217 199 199 199 181 181 181 163 163 163 155 155 155 156 156 156 156 156 156 157 157 157 152 152 152 140 140 140 128 128 128 116 116 116 112 112 112 124 124 124 137 137 137 149 149 149 161 161 161 173 173 173 185 185 185 197 197 197 205 205 205 192 192 192 179 179 179 167 167 167 153 153 153 135 135 135 116 116 116 98 98 98 79 79 79 111 111 111 145 145 145 178 178 178 212 212 212 212 212 212 208 208 208 204 204 204 200 200 200 165 165 165 122 122 122 78 78 78 35 35 35 18 18 18 12 12 12 7 7 7 2 2 2 1 1 1 2 2 2 4 4 4 5 5 5 7 7 7 9 9 9 11 11 11 13 13 13 14 14 14 15 15 15 16 16 16 16 16 16 23 23 23 45 45 45 67 67 67 89 89 89 111 111 111 133 133 133 155 155 155 176 176 176 197 197 197 212 212 212 226 226 226 241 241 241 255 255 255 
254 254 254 235 235 235 217 217 217 198 198 198 180 180 180 161 161 161 142 142 142 123 123 123 104 104 104 83 83 83 61 61 61 39 39 39 17 17 17 14 14 14 18 18 18 21 21 21 25 25 25 25 25 25 22 22 22 19 19 19 15 15 15 12 12 12 9 9 9 5 5 5 2 2 2 2 2 2 5 5 5 9 9 9 13 13 13 31 31 31 76 76 76 122 122 122 168 168 168 204 204 204 210 210 210 215 215 215 221 221 221 222 222 222 195 195 195 167 167 167 140 140 140 114 114 114 111 111 111 107 107 107 104 104 104 101 101 101 129 129 129 158 158 158 187 187 187 216 216 216 217 217 217 213 213 213 208 208 208 204 204 204 205 205 205 208 208 208 212 212 212 215 215 215 204 204 204 185 185 185 166 166 166 147 147 147 139 139 139 140 140 140 141 141 141 142 142 142 137 137 137 125 125 125 112 112 112 99 99 99 97 97 97 114 114 114 130 130 130 147 147 147 163 163 163 179 179 179 195 195 195 211 211 211 223 223 223 212 212 212 200 200 200 189 189 189 176 176 176 149 149 149 122 122 122 95 95 95 68 68 68 100 100 100 134 134 134 168 168 168 202 202 202 206 206 206 206 206 206 206 206 206 206 206 206 173 173 173 129 129 129 86 86 86 43 43 43 24 24 24 17 17 17 10 10 10 3 3 3 2 2 2 4 4 4 7 7 7 10 10 10 14 14 14 19 19 19 24 24 24 29 29 29 30 30 30 25 25 25 19 19 19 14 14 14 16 16 16 35 35 35 55 55 55 74 74 74 94 94 94 116 116 116 137 137 137 159 159 159 180 180 180 198 198 198 217 217 217 235 235 235 253 253 253 
249 249 249 227 227 227 206 206 206 184 184 184 162 162 162 142 142 142 123 123 123 103 103 103 84 84 84 71 71 71 60 60 60 49 49 49 37 37 37 40 40 40 49 49 49 58 58 58 67 67 67 64 64 64 54 54 54 43 43 43 33 33 33 24 24 24 18 18 18 11 11 11 4 4 4 3 3 3 9 9 9 16 16 16 22 22 22 40 40 40 84 84 84 127 127 127 170 170 170 204 204 204 208 208 208 212 212 212 216 216 216 215 215 215 186 186 186 158 158 158 129 129 129 101 101 101 102 102 102 103 103 103 104 104 104 105 105 105 128 128 128 152 152 152 176 176 176 201 201 201 197 197 197 188 188 188 179 179 179 170 170 170 170 170 170 174 174 174 177 177 177 181 181 181 173 173 173 158 158 158 144 144 144 130 130 130 124 124 124 125 125 125 126 126 126 128 128 128 125 125 125 117 117 117 109 109 109 101 101 101 100 100 100 114 114 114 128 128 128 142 142 142 157 157 157 171 171 171 186 186 186 201 201 201 213 213 213 207 207 207 201 201 201 195 195 195 188 188 188 164 164 164 140 140 140 116 116 116 92 92 92 113 113 113 137 137 137 160 160 160 183 183 183 190 190 190 195 195 195 200 200 200 205 205 205 175 175 175 134 134 134 94 94 94 54 54 54 34 34 34 24 24 24 14 14 14 4 4 4 3 3 3 9 9 9 14 14 14 20 20 20 29 29 29 43 43 43 57 57 57 72 72 72 76 76 76 66 66 66 56 56 56 46 46 46 42 42 42 50 50 50 58 58 58 66 66 66 77 77 77 98 98 98 119 119 119 140 140 140 162 162 162 183 183 183 205 205 205 227 227 227 248 248 248 
245 245 245 220 220 220 194 194 194 169 169 169 143 143 143 123 123 123 103 103 103 83 83 83 64 64 64 59 59 59 59 59 59 58 58 58 57 57 57 67 67 67 81 81 81 95 95 95 110 110 110 104 104 104 86 86 86 68 68 68 50 50 50 37 37 37 26 26 26 16 16 16 6 6 6 4 4 4 13 13 13 22 22 22 31 31 31 50 50 50 91 91 91 132 132 132 173 173 173 205 205 205 206 206 206 208 208 208 210 210 210 208 208 208 178 178 178 148 148 148 118 118 118 89 89 89 94 94 94 99 99 99 103 103 103 108 108 108 126 126 126 146 146 146 166 166 166 185 185 185 177 177 177 163 163 163 150 150 150 136 136 136 136 136 136 139 139 139 143 143 143 147 147 147 142 142 142 132 132 132 122 122 122 112 112 112 109 109 109 110 110 110 112 112 112 113 113 113 112 112 112 109 109 109 105 105 105 102 102 102 103 103 103 115 115 115 126 126 126 138 138 138 150 150 150 164 164 164 177 177 177 191 191 191 203 203 203 202 202 202 202 202 202 202 202 202 200 200 200 179 179 179 158 158 158 137 137 137 116 116 116 127 127 127 140 140 140 152 152 152 164 164 164 174 174 174 184 184 184 194 194 194 204 204 204 177 177 177 140 140 140 102 102 102 65 65 65 44 44 44 31 31 31 18 18 18 5 5 5 5 5 5 13 13 13 21 21 21 30 30 30 45 45 45 68 68 68 91 91 91 114 114 114 123 123 123 108 108 108 93 93 93 79 79 79 68 68 68 64 64 64 61 61 61 58 58 58 60 60 60 81 81 81 101 101 101 122 122 122 143 143 143 168 168 168 193 193 193 218 218 218 244 244 244 
241 241 241 212 212 212 183 183 183 154 154 154 125 125 125 104 104 104 84 84 84 63 63 63 43 43 43 47 47 47 57 57 57 67 67 67 77 77 77 94 94 94 113 113 113 132 132 132 152 152 152 144 144 144 118 118 118 93 93 93 68 68 68 49 49 49 35 35 35 21 21 21 8 8 8 5 5 5 17 17 17 28 28 28 40 40 40 60 60 60 99 99 99 137 137 137 175 175 175 205 205 205 205 205 205 205 205 205 205 205 205 201 201 201 170 170 170 139 139 139 107 107 107 77 77 77 86 86 86 94 94 94 103 103 103 111 111 111 125 125 125 140 140 140 155 155 155 170 170 170 157 157 157 139 139 139 121 121 121 103 103 103 101 101 101 105 105 105 109 109 109 113 113 113 111 111 111 105 105 105 100 100 100 95 95 95 93 93 93 95 95 95 97 97 97 99 99 99 100 100 100 101 101 101 102 102 102 103 103 103 106 106 106 115 115 115 125 125 125 134 134 134 144 144 144 156 156 156 169 169 169 181 181 181 192 192 192 198 198 198 203 203 203 208 208 208 212 212 212 194 194 194 176 176 176 158 158 158 140 140 140 141 141 141 143 143 143 144 144 144 146 146 146 159 159 159 173 173 173 188 188 188 203 203 203 179 179 179 145 145 145 110 110 110 75 75 75 54 54 54 38 38 38 22 22 22 7 7 7 6 6 6 18 18 18 29 29 29 40 40 40 61 61 61 93 93 93 125 125 125 157 157 157 169 169 169 150 150 150 130 130 130 111 111 111 93 93 93 79 79 79 65 65 65 50 50 50 43 43 43 63 63 63 83 83 83 104 104 104 125 125 125 153 153 153 182 182 182 210 210 210 239 239 239 
238 238 238 206 206 206 175 175 175 143 143 143 112 112 112 92 92 92 74 74 74 56 56 56 38 38 38 49 49 49 67 67 67 84 84 84 102 102 102 122 122 122 144 144 144 166 166 166 188 188 188 177 177 177 146 146 146 114 114 114 83 83 83 60 60 60 43 43 43 26 26 26 10 10 10 6 6 6 20 20 20 34 34 34 49 49 49 70 70 70 106 106 106 141 141 141 177 177 177 204 204 204 202 202 202 200 200 200 198 198 198 193 193 193 163 163 163 133 133 133 103 103 103 74 74 74 83 83 83 92 92 92 102 102 102 111 111 111 122 122 122 133 133 133 144 144 144 154 154 154 139 139 139 119 119 119 98 98 98 78 78 78 76 76 76 80 80 80 84 84 84 88 88 88 89 89 89 88 88 88 87 87 87 86 86 86 86 86 86 88 88 88 89 89 89 91 91 91 93 93 93 98 98 98 102 102 102 107 107 107 112 112 112 120 120 120 127 127 127 135 135 135 143 143 143 151 151 151 160 160 160 169 169 169 178 178 178 187 187 187 196 196 196 205 205 205 212 212 212 199 199 199 186 186 186 173 173 173 160 160 160 153 153 153 145 145 145 138 138 138 130 130 130 146 146 146 164 164 164 183 183 183 202 202 202 181 181 181 149 149 149 117 117 117 85 85 85 63 63 63 44 44 44 26 26 26 8 8 8 8 8 8 21 21 21 35 35 35 49 49 49 74 74 74 113 113 113 152 152 152 191 191 191 206 206 206 185 185 185 164 164 164 143 143 143 121 121 121 99 99 99 77 77 77 56 56 56 41 41 41 59 59 59 77 77 77 95 95 95 114 114 114 144 144 144 174 174 174 205 205 205 235 235 235 
236 236 236 205 205 205 175 175 175 145 145 145 114 114 114 104 104 104 96 96 96 87 87 87 79 79 79 91 91 91 107 107 107 124 124 124 140 140 140 156 156 156 173 173 173 189 189 189 205 205 205 191 191 191 158 158 158 125 125 125 92 92 92 67 67 67 48 48 48 29 29 29 11 11 11 7 7 7 23 23 23 40 40 40 56 56 56 78 78 78 111 111 111 145 145 145 178 178 178 203 203 203 197 197 197 192 192 192 187 187 187 180 180 180 158 158 158 137 137 137 116 116 116 95 95 95 97 97 97 98 98 98 100 100 100 102 102 102 111 111 111 121 121 121 130 130 130 140 140 140 128 128 128 112 112 112 95 95 95 79 79 79 78 78 78 82 82 82 85 85 85 89 89 89 92 92 92 96 96 96 99 99 99 102 102 102 103 103 103 102 102 102 102 102 102 101 101 101 103 103 103 108 108 108 114 114 114 119 119 119 126 126 126 134 134 134 142 142 142 151 151 151 157 157 157 155 155 155 154 154 154 153 153 153 152 152 152 159 159 159 165 165 165 172 172 172 177 177 177 175 175 175 173 173 173 170 170 170 168 168 168 157 157 157 146 146 146 135 135 135 124 124 124 140 140 140 160 160 160 180 180 180 200 200 200 182 182 182 152 152 152 122 122 122 92 92 92 69 69 69 49 49 49 29 29 29 8 8 8 9 9 9 24 24 24 39 39 39 54 54 54 81 81 81 121 121 121 161 161 161 201 201 201 219 219 219 203 203 203 188 188 188 172 172 172 155 155 155 137 137 137 118 118 118 99 99 99 86 86 86 95 95 95 104 104 104 113 113 113 123 123 123 152 152 152 180 180 180 208 208 208 236 236 236 
234 234 234 205 205 205 176 176 176 146 146 146 117 117 117 115 115 115 117 117 117 118 118 118 120 120 120 132 132 132 148 148 148 163 163 163 179 179 179 191 191 191 201 201 201 212 212 212 223 223 223 205 205 205 171 171 171 136 136 136 101 101 101 74 74 74 53 53 53 32 32 32 12 12 12 8 8 8 26 26 26 45 45 45 63 63 63 86 86 86 117 117 117 148 148 148 179 179 179 201 201 201 193 193 193 184 184 184 176 176 176 167 167 167 154 154 154 142 142 142 129 129 129 116 116 116 110 110 110 105 105 105 99 99 99 93 93 93 100 100 100 109 109 109 117 117 117 126 126 126 117 117 117 105 105 105 93 93 93 81 81 81 80 80 80 83 83 83 87 87 87 90 90 90 96 96 96 103 103 103 111 111 111 118 118 118 120 120 120 117 117 117 114 114 114 111 111 111 113 113 113 119 119 119 125 125 125 132 132 132 139 139 139 148 148 148 158 158 158 167 167 167 171 171 171 159 159 159 148 148 148 136 136 136 127 127 127 131 131 131 135 135 135 138 138 138 143 143 143 151 151 151 159 159 159 167 167 167 175 175 175 161 161 161 147 147 147 132 132 132 117 117 117 134 134 134 156 156 156 177 177 177 199 199 199 182 182 182 155 155 155 127 127 127 99 99 99 75 75 75 53 53 53 31 31 31 9 9 9 10 10 10 26 26 26 42 42 42 59 59 59 87 87 87 128 128 128 169 169 169 210 210 210 232 232 232 222 222 222 211 211 211 201 201 201 189 189 189 174 174 174 159 159 159 143 143 143 131 131 131 131 131 131 131 131 131 131 131 131 133 133 133 159 159 159 185 185 185 211 211 211 237 237 237 
232 232 232 204 204 204 176 176 176 148 148 148 119 119 119 127 127 127 138 138 138 149 149 149 160 160 160 174 174 174 188 188 188 203 203 203 217 217 217 225 225 225 230 230 230 235 235 235 240 240 240 220 220 220 183 183 183 147 147 147 110 110 110 81 81 81 58 58 58 36 36 36 13 13 13 9 9 9 29 29 29 50 50 50 71 71 71 94 94 94 122 122 122 151 151 151 180 180 180 199 199 199 188 188 188 176 176 176 165 165 165 154 154 154 150 150 150 146 146 146 142 142 142 138 138 138 124 124 124 111 111 111 97 97 97 84 84 84 90 90 90 97 97 97 104 104 104 111 111 111 106 106 106 98 98 98 90 90 90 82 82 82 82 82 82 85 85 85 88 88 88 91 91 91 100 100 100 111 111 111 122 122 122 134 134 134 136 136 136 132 132 132 127 127 127 122 122 122 122 122 122 130 130 130 137 137 137 144 144 144 153 153 153 163 163 163 173 173 173 183 183 183 185 185 185 163 163 163 141 141 141 119 119 119 101 101 101 103 103 103 104 104 104 105 105 105 108 108 108 127 127 127 145 145 145 164 164 164 183 183 183 166 166 166 148 148 148 129 129 129 111 111 111 129 129 129 152 152 152 175 175 175 198 198 198 183 183 183 157 157 157 132 132 132 106 106 106 82 82 82 58 58 58 34 34 34 10 10 10 10 10 10 28 28 28 46 46 46 64 64 64 94 94 94 136 136 136 178 178 178 220 220 220 244 244 244 240 240 240 235 235 235 230 230 230 224 224 224 211 211 211 199 199 199 187 187 187 175 175 175 166 166 166 158 158 158 149 149 149 143 143 143 167 167 167 191 191 191 214 214 214 238 238 238 
232 232 232 206 206 206 179 179 179 153 153 153 127 127 127 141 141 141 160 160 160 178 178 178 197 197 197 211 211 211 224 224 224 236 236 236 249 249 249 253 253 253 254 254 254 254 254 254 255 255 255 232 232 232 194 194 194 157 157 157 119 119 119 88 88 88 64 64 64 39 39 39 14 14 14 9 9 9 32 32 32 55 55 55 77 77 77 101 101 101 128 128 128 154 154 154 180 180 180 198 198 198 183 183 183 169 169 169 155 155 155 143 143 143 146 146 146 150 150 150 154 154 154 156 156 156 136 136 136 117 117 117 97 97 97 77 77 77 81 81 81 87 87 87 93 93 93 99 99 99 97 97 97 93 93 93 90 90 90 86 86 86 87 87 87 90 90 90 93 93 93 95 95 95 106 106 106 120 120 120 135 135 135 150 150 150 152 152 152 145 145 145 138 138 138 130 130 130 130 130 130 137 137 137 145 145 145 153 153 153 161 161 161 172 172 172 182 182 182 193 193 193 193 193 193 163 163 163 134 134 134 104 104 104 79 79 79 78 78 78 78 78 78 77 77 77 79 79 79 106 106 106 134 134 134 161 161 161 189 189 189 169 169 169 148 148 148 127 127 127 106 106 106 124 124 124 148 148 148 172 172 172 196 196 196 183 183 183 160 160 160 136 136 136 112 112 112 87 87 87 62 62 62 36 36 36 11 11 11 11 11 11 31 31 31 50 50 50 70 70 70 101 101 101 143 143 143 186 186 186 229 229 229 255 255 255 255 255 255 255 255 255 255 255 255 252 252 252 243 243 243 234 234 234 225 225 225 214 214 214 199 199 199 183 183 183 167 167 167 155 155 155 176 176 176 197 197 197 219 219 219 240 240 240 
238 238 238 218 218 218 199 199 199 179 179 179 159 159 159 170 170 170 184 184 184 198 198 198 211 211 211 222 222 222 232 232 232 241 241 241 251 251 251 254 254 254 254 254 254 255 255 255 255 255 255 234 234 234 199 199 199 164 164 164 129 129 129 98 98 98 71 71 71 43 43 43 16 16 16 10 10 10 34 34 34 58 58 58 82 82 82 106 106 106 130 130 130 155 155 155 180 180 180 196 196 196 181 181 181 166 166 166 152 152 152 140 140 140 146 146 146 152 152 152 158 158 158 163 163 163 142 142 142 121 121 121 100 100 100 79 79 79 83 83 83 89 89 89 95 95 95 101 101 101 102 102 102 103 103 103 103 103 103 104 104 104 106 106 106 109 109 109 113 113 113 116 116 116 125 125 125 138 138 138 151 151 151 164 164 164 164 164 164 151 151 151 139 139 139 127 127 127 123 123 123 129 129 129 134 134 134 140 140 140 146 146 146 153 153 153 160 160 160 167 167 167 166 166 166 142 142 142 118 118 118 93 93 93 73 73 73 73 73 73 74 74 74 75 75 75 77 77 77 105 105 105 132 132 132 160 160 160 188 188 188 168 168 168 147 147 147 127 127 127 106 106 106 124 124 124 147 147 147 171 171 171 195 195 195 183 183 183 160 160 160 137 137 137 115 115 115 90 90 90 63 63 63 37 37 37 11 11 11 13 13 13 35 35 35 58 58 58 80 80 80 111 111 111 151 151 151 191 191 191 231 231 231 255 255 255 255 255 255 255 255 255 255 255 255 253 253 253 246 246 246 239 239 239 233 233 233 225 225 225 213 213 213 201 201 201 190 190 190 181 181 181 196 196 196 212 212 212 228 228 228 244 244 244 
244 244 244 231 231 231 218 218 218 205 205 205 192 192 192 199 199 199 208 208 208 217 217 217 226 226 226 233 233 233 240 240 240 246 246 246 252 252 252 254 254 254 254 254 254 255 255 255 255 255 255 235 235 235 203 203 203 171 171 171 139 139 139 108 108 108 78 78 78 48 48 48 18 18 18 10 10 10 36 36 36 61 61 61 86 86 86 110 110 110 133 133 133 157 157 157 180 180 180 194 194 194 179 179 179 164 164 164 148 148 148 136 136 136 145 145 145 153 153 153 162 162 162 170 170 170 147 147 147 125 125 125 103 103 103 81 81 81 85 85 85 91 91 91 96 96 96 102 102 102 107 107 107 112 112 112 117 117 117 121 121 121 125 125 125 129 129 129 132 132 132 136 136 136 145 145 145 156 156 156 168 168 168 179 179 179 175 175 175 158 158 158 141 141 141 125 125 125 117 117 117 120 120 120 124 124 124 127 127 127 131 131 131 135 135 135 138 138 138 142 142 142 140 140 140 121 121 121 102 102 102 82 82 82 67 67 67 68 68 68 70 70 70 72 72 72 76 76 76 103 103 103 131 131 131 159 159 159 186 186 186 167 167 167 147 147 147 126 126 126 106 106 106 123 123 123 147 147 147 170 170 170 194 194 194 182 182 182 161 161 161 139 139 139 117 117 117 92 92 92 65 65 65 38 38 38 11 11 11 15 15 15 40 40 40 65 65 65 90 90 90 121 121 121 158 158 158 195 195 195 232 232 232 255 255 255 255 255 255 255 255 255 255 255 255 254 254 254 249 249 249 245 245 245 240 240 240 235 235 235 227 227 227 220 220 220 212 212 212 206 206 206 216 216 216 227 227 227 237 237 237 247 247 247 
250 250 250 243 243 243 237 237 237 231 231 231 225 225 225 228 228 228 232 232 232 237 237 237 241 241 241 244 244 244 248 248 248 251 251 251 254 254 254 255 255 255 255 255 255 255 255 255 255 255 255 237 237 237 208 208 208 179 179 179 149 149 149 118 118 118 85 85 85 52 52 52 19 19 19 11 11 11 37 37 37 63 63 63 90 90 90 114 114 114 136 136 136 158 158 158 180 180 180 193 193 193 177 177 177 161 161 161 145 145 145 133 133 133 144 144 144 155 155 155 166 166 166 176 176 176 153 153 153 129 129 129 106 106 106 83 83 83 87 87 87 92 92 92 98 98 98 104 104 104 112 112 112 121 121 121 130 130 130 139 139 139 144 144 144 148 148 148 152 152 152 156 156 156 164 164 164 174 174 174 184 184 184 194 194 194 186 186 186 165 165 165 143 143 143 122 122 122 111 111 111 112 112 112 113 113 113 114 114 114 115 115 115 116 116 116 116 116 116 117 117 117 113 113 113 99 99 99 86 86 86 72 72 72 60 60 60 63 63 63 66 66 66 70 70 70 74 74 74 102 102 102 130 130 130 157 157 157 185 185 185 167 167 167 146 146 146 126 126 126 106 106 106 123 123 123 146 146 146 169 169 169 192 192 192 181 181 181 161 161 161 140 140 140 120 120 120 95 95 95 67 67 67 39 39 39 12 12 12 16 16 16 44 44 44 72 72 72 100 100 100 131 131 131 165 165 165 200 200 200 234 234 234 255 255 255 255 255 255 255 255 255 255 255 255 254 254 254 252 252 252 250 250 250 248 248 248 245 245 245 242 242 242 238 238 238 234 234 234 231 231 231 236 236 236 241 241 241 246 246 246 251 251 251 
255 255 255 255 255 255 255 255 255 255 255 255 255 255 255 255 255 255 255 255 255 255 255 255 255 255 255 255 255 255 255 255 255 255 255 255 255 255 255 255 255 255 255 255 255 255 255 255 255 255 255 239 239 239 213 213 213 186 186 186 160 160 160 129 129 129 93 93 93 57 57 57 21 21 21 12 12 12 39 39 39 66 66 66 93 93 93 118 118 118 139 139 139 159 159 159 179 179 179 191 191 191 175 175 175 159 159 159 143 143 143 130 130 130 143 143 143 156 156 156 170 170 170 182 182 182 157 157 157 133 133 133 109 109 109 85 85 85 89 89 89 95 95 95 101 101 101 106 106 106 118 118 118 130 130 130 143 143 143 155 155 155 161 161 161 166 166 166 170 170 170 174 174 174 181 181 181 189 189 189 197 197 197 205 205 205 195 195 195 169 169 169 144 144 144 119 119 119 104 104 104 104 104 104 103 103 103 102 102 102 101 101 101 98 98 98 95 95 95 93 93 93 88 88 88 80 80 80 71 71 71 62 62 62 55 55 55 59 59 59 64 64 64 68 68 68 74 74 74 101 101 101 129 129 129 156 156 156 183 183 183 165 165 165 146 146 146 126 126 126 106 106 106 123 123 123 146 146 146 168 168 168 191 191 191 181 181 181 161 161 161 142 142 142 122 122 122 97 97 97 69 69 69 40 40 40 12 12 12 18 18 18 49 49 49 80 80 80 110 110 110 141 141 141 173 173 173 204 204 204 236 236 236 255 255 255 255 255 255 255 255 255 255 255 255 255 255 255 255 255 255 255 255 255 255 255 255 255 255 255 255 255 255 255 255 255 255 255 255 255 255 255 255 255 255 255 255 255 255 255 255 255 255 255 
255 255 255 255 255 255 255 255 255 255 255 255 255 255 255 255 255 255 255 255 255 255 255 255 255 255 255 255 255 255 255 255 255 255 255 255 255 255 255 255 255 255 255 255 255 255 255 255 255 255 255 241 241 241 219 219 219 197 197 197 175 175 175 144 144 144 104 104 104 64 64 64 25 25 25 13 13 13 40 40 40 66 66 66 93 93 93 118 118 118 138 138 138 158 158 158 178 178 178 190 190 190 176 176 176 161 161 161 147 147 147 135 135 135 145 145 145 155 155 155 164 164 164 173 173 173 152 152 152 131 131 131 110 110 110 90 90 90 98 98 98 108 108 108 118 118 118 128 128 128 134 134 134 139 139 139 144 144 144 149 149 149 150 150 150 149 149 149 149 149 149 149 149 149 153 153 153 159 159 159 165 165 165 171 171 171 164 164 164 147 147 147 129 129 129 112 112 112 101 101 101 100 100 100 99 99 99 97 97 97 95 95 95 92 92 92 89 89 89 86 86 86 83 83 83 78 78 78 72 72 72 67 67 67 63 63 63 70 70 70 76 76 76 82 82 82 89 89 89 110 110 110 130 130 130 150 150 150 171 171 171 158 158 158 144 144 144 130 130 130 116 116 116 131 131 131 151 151 151 170 170 170 190 190 190 179 179 179 160 160 160 141 141 141 122 122 122 97 97 97 70 70 70 42 42 42 15 15 15 24 24 24 58 58 58 92 92 92 127 127 127 157 157 157 184 184 184 211 211 211 238 238 238 255 255 255 255 255 255 255 255 255 255 255 255 255 255 255 255 255 255 255 255 255 255 255 255 255 255 255 255 255 255 255 255 255 255 255 255 255 255 255 255 255 255 255 255 255 255 255 255 255 255 255 
255 255 255 255 255 255 255 255 255 255 255 255 255 255 255 255 255 255 255 255 255 255 255 255 255 255 255 255 255 255 255 255 255 255 255 255 255 255 255 255 255 255 255 255 255 255 255 255 255 255 255 244 244 244 226 226 226 208 208 208 190 190 190 159 159 159 116 116 116 72 72 72 28 28 28 14 14 14 40 40 40 67 67 67 93 93 93 117 117 117 137 137 137 157 157 157 177 177 177 189 189 189 176 176 176 164 164 164 151 151 151 141 141 141 147 147 147 153 153 153 159 159 159 164 164 164 146 146 146 129 129 129 112 112 112 94 94 94 107 107 107 121 121 121 136 136 136 150 150 150 150 150 150 147 147 147 145 145 145 142 142 142 138 138 138 133 133 133 128 128 128 124 124 124 125 125 125 129 129 129 133 133 133 137 137 137 134 134 134 124 124 124 114 114 114 104 104 104 98 98 98 96 96 96 94 94 94 92 92 92 90 90 90 87 87 87 83 83 83 80 80 80 77 77 77 76 76 76 74 74 74 72 72 72 71 71 71 80 80 80 88 88 88 96 96 96 105 105 105 118 118 118 131 131 131 145 145 145 158 158 158 151 151 151 142 142 142 134 134 134 125 125 125 139 139 139 155 155 155 172 172 172 189 189 189 178 178 178 159 159 159 140 140 140 121 121 121 97 97 97 71 71 71 44 44 44 18 18 18 29 29 29 67 67 67 105 105 105 143 143 143 173 173 173 196 196 196 219 219 219 241 241 241 255 255 255 255 255 255 255 255 255 255 255 255 255 255 255 255 255 255 255 255 255 255 255 255 255 255 255 255 255 255 255 255 255 255 255 255 255 255 255 255 255 255 255 255 255 255 255 255 255 255 255 
255 255 255 255 255 255 255 255 255 255 255 255 255 255 255 255 255 255 255 255 255 255 255 255 255 255 255 255 255 255 255 255 255 255 255 255 255 255 255 255 255 255 255 255 255 255 255 255 255 255 255 247 247 247 233 233 233 219 219 219 206 206 206 175 175 175 127 127 127 80 80 80 32 32 32 15 15 15 41 41 41 67 67 67 93 93 93 117 117 117 136 136 136 156 156 156 175 175 175 188 188 188 177 177 177 166 166 166 155 155 155 146 146 146 149 149 149 151 151 151 153 153 153 155 155 155 141 141 141 127 127 127 113 113 113 99 99 99 116 116 116 134 134 134 153 153 153 172 172 172 166 166 166 156 156 156 146 146 146 135 135 135 126 126 126 117 117 117 108 108 108 99 99 99 97 97 97 99 99 99 101 101 101 103 103 103 103 103 103 101 101 101 99 99 99 97 97 97 95 95 95 92 92 92 90 90 90 87 87 87 84 84 84 81 81 81 78 78 78 74 74 74 72 72 72 74 74 74 75 75 75 77 77 77 80 80 80 90 90 90 100 100 100 110 110 110 120 120 120 127 127 127 133 133 133 139 139 139 146 146 146 143 143 143 140 140 140 138 138 138 135 135 135 146 146 146 160 160 160 174 174 174 188 188 188 176 176 176 158 158 158 139 139 139 121 121 121 97 97 97 72 72 72 47 47 47 21 21 21 35 35 35 76 76 76 117 117 117 159 159 159 189 189 189 207 207 207 226 226 226 244 244 244 255 255 255 255 255 255 255 255 255 255 255 255 255 255 255 255 255 255 255 255 255 255 255 255 255 255 255 255 255 255 255 255 255 255 255 255 255 255 255 255 255 255 255 255 255 255 255 255 255 255 255 
255 255 255 255 255 255 255 255 255 255 255 255 255 255 255 255 255 255 255 255 255 255 255 255 255 255 255 255 255 255 255 255 255 255 255 255 255 255 255 255 255 255 255 255 255 255 255 255 255 255 255 249 249 249 240 240 240 230 230 230 221 221 221 190 190 190 139 139 139 87 87 87 36 36 36 17 17 17 42 42 42 67 67 67 93 93 93 116 116 116 136 136 136 155 155 155 174 174 174 187 187 187 178 178 178 169 169 169 160 160 160 152 152 152 150 150 150 149 149 149 148 148 148 146 146 146 135 135 135 125 125 125 114 114 114 104 104 104 124 124 124 147 147 147 171 171 171 194 194 194 182 182 182 165 165 165 147 147 147 129 129 129 114 114 114 101 101 101 87 87 87 74 74 74 69 69 69 69 69 69 69 69 69 69 69 69 72 72 72 78 78 78 84 84 84 90 90 90 92 92 92 89 89 89 85 85 85 82 82 82 79 79 79 75 75 75 72 72 72 68 68 68 66 66 66 72 72 72 77 77 77 82 82 82 88 88 88 100 100 100 112 112 112 124 124 124 135 135 135 135 135 135 134 134 134 134 134 134 133 133 133 136 136 136 139 139 139 142 142 142 144 144 144 154 154 154 165 165 165 176 176 176 187 187 187 175 175 175 157 157 157 138 138 138 120 120 120 97 97 97 73 73 73 49 49 49 24 24 24 40 40 40 85 85 85 130 130 130 175 175 175 205 205 205 219 219 219 233 233 233 247 247 247 255 255 255 255 255 255 255 255 255 255 255 255 255 255 255 255 255 255 255 255 255 255 255 255 255 255 255 255 255 255 255 255 255 255 255 255 255 255 255 255 255 255 255 255 255 255 255 255 255 255 255 
255 255 255 255 255 255 255 255 255 255 255 255 255 255 255 255 255 255 255 255 255 255 255 255 255 255 255 255 255 255 255 255 255 255 255 255 255 255 255 255 255 255 255 255 255 255 255 255 255 255 255 251 251 251 243 243 243 236 236 236 229 229 229 201 201 201 153 153 153 105 105 105 56 56 56 37 37 37 57 57 57 77 77 77 97 97 97 117 117 117 136 136 136 154 154 154 173 173 173 186 186 186 179 179 179 173 173 173 166 166 166 160 160 160 152 152 152 144 144 144 137 137 137 130 130 130 128 128 128 127 127 127 125 125 125 124 124 124 140 140 140 158 158 158 176 176 176 193 193 193 180 180 180 161 161 161 142 142 142 123 123 123 109 109 109 97 97 97 85 85 85 73 73 73 69 69 69 71 71 71 72 72 72 73 73 73 76 76 76 81 81 81 85 85 85 90 90 90 92 92 92 92 92 92 92 92 92 91 91 91 91 91 91 91 91 91 92 92 92 92 92 92 93 93 93 96 96 96 100 100 100 104 104 104 108 108 108 117 117 117 127 127 127 136 136 136 145 145 145 138 138 138 132 132 132 126 126 126 119 119 119 128 128 128 137 137 137 146 146 146 154 154 154 162 162 162 170 170 170 178 178 178 186 186 186 174 174 174 157 157 157 140 140 140 123 123 123 103 103 103 83 83 83 62 62 62 41 41 41 58 58 58 102 102 102 145 145 145 189 189 189 217 217 217 227 227 227 238 238 238 249 249 249 255 255 255 255 255 255 255 255 255 255 255 255 255 255 255 255 255 255 255 255 255 255 255 255 255 255 255 255 255 255 255 255 255 255 255 255 255 255 255 255 255 255 255 255 255 255 255 255 255 255 255 
255 255 255 255 255 255 255 255 255 255 255 255 255 255 255 255 255 255 255 255 255 255 255 255 255 255 255 255 255 255 255 255 255 255 255 255 255 255 255 255 255 255 255 255 255 255 255 255 255 255 255 252 252 252 247 247 247 242 242 242 237 237 237 212 212 212 167 167 167 122 122 122 78 78 78 58 58 58 73 73 73 87 87 87 102 102 102 118 118 118 136 136 136 154 154 154 172 172 172 185 185 185 181 181 181 177 177 177 173 173 173 168 168 168 154 154 154 140 140 140 126 126 126 113 113 113 121 121 121 129 129 129 136 136 136 144 144 144 156 156 156 168 168 168 181 181 181 193 193 193 178 178 178 158 158 158 138 138 138 118 118 118 105 105 105 94 94 94 83 83 83 73 73 73 71 71 71 73 73 73 76 76 76 79 79 79 82 82 82 85 85 85 87 87 87 90 90 90 93 93 93 96 96 96 98 98 98 101 101 101 104 104 104 108 108 108 112 112 112 117 117 117 120 120 120 122 122 122 124 124 124 126 126 126 129 129 129 135 135 135 142 142 142 148 148 148 153 153 153 141 141 141 129 129 129 117 117 117 105 105 105 119 119 119 134 134 134 150 150 150 165 165 165 171 171 171 176 176 176 180 180 180 185 185 185 174 174 174 158 158 158 142 142 142 126 126 126 109 109 109 93 93 93 76 76 76 59 59 59 76 76 76 119 119 119 161 161 161 203 203 203 228 228 228 236 236 236 243 243 243 251 251 251 255 255 255 255 255 255 255 255 255 255 255 255 255 255 255 255 255 255 255 255 255 255 255 255 255 255 255 255 255 255 255 255 255 255 255 255 255 255 255 255 255 255 255 255 255 255 255 255 255 255 255 
255 255 255 255 255 255 255 255 255 255 255 255 255 255 255 255 255 255 255 255 255 255 255 255 255 255 255 255 255 255 255 255 255 255 255 255 255 255 255 255 255 255 255 255 255 255 255 255 255 255 255 253 253 253 251 251 251 248 248 248 245 245 245 223 223 223 181 181 181 140 140 140 99 99 99 79 79 79 88 88 88 97 97 97 107 107 107 119 119 119 136 136 136 154 154 154 171 171 171 184 184 184 183 183 183 181 181 181 179 179 179 175 175 175 155 155 155 135 135 135 115 115 115 97 97 97 114 114 114 131 131 131 148 148 148 165 165 165 172 172 172 179 179 179 185 185 185 192 192 192 175 175 175 154 154 154 133 133 133 112 112 112 100 100 100 91 91 91 82 82 82 73 73 73 72 72 72 76 76 76 80 80 80 84 84 84 87 87 87 88 88 88 89 89 89 91 91 91 94 94 94 100 100 100 105 105 105 111 111 111 117 117 117 125 125 125 133 133 133 142 142 142 148 148 148 148 148 148 148 148 148 149 149 149 150 150 150 153 153 153 157 157 157 160 160 160 162 162 162 144 144 144 127 127 127 109 109 109 91 91 91 111 111 111 132 132 132 154 154 154 175 175 175 179 179 179 181 181 181 183 183 183 184 184 184 173 173 173 158 158 158 144 144 144 129 129 129 115 115 115 102 102 102 90 90 90 77 77 77 95 95 95 136 136 136 176 176 176 217 217 217 240 240 240 244 244 244 248 248 248 252 252 252 255 255 255 255 255 255 255 255 255 255 255 255 255 255 255 255 255 255 255 255 255 255 255 255 255 255 255 255 255 255 255 255 255 255 255 255 255 255 255 255 255 255 255 255 255 255 255 255 255 255 255 
255 255 255 255 255 255 255 255 255 255 255 255 255 255 255 255 255 255 255 255 255 255 255 255 255 255 255 255 255 255 255 255 255 255 255 255 255 255 255 255 255 255 255 255 255 255 255 255 255 255 255 255 255 255 254 254 254 254 254 254 253 253 253 233 233 233 196 196 196 158 158 158 120 120 120 100 100 100 104 104 104 107 107 107 111 111 111 119 119 119 136 136 136 153 153 153 170 170 170 183 183 183 184 184 184 185 185 185 186 186 186 183 183 183 157 157 157 131 131 131 105 105 105 80 80 80 106 106 106 133 133 133 159 159 159 186 186 186 188 188 188 189 189 189 190 190 190 191 191 191 173 173 173 151 151 151 129 129 129 106 106 106 95 95 95 88 88 88 80 80 80 73 73 73 73 73 73 79 79 79 84 84 84 90 90 90 92 92 92 92 92 92 91 91 91 91 91 91 95 95 95 103 103 103 112 112 112 120 120 120 130 130 130 142 142 142 154 154 154 166 166 166 175 175 175 174 174 174 173 173 173 171 171 171 170 170 170 171 171 171 172 172 172 172 172 172 171 171 171 148 148 148 124 124 124 100 100 100 77 77 77 102 102 102 130 130 130 158 158 158 185 185 185 187 187 187 186 186 186 185 185 185 183 183 183 173 173 173 159 159 159 146 146 146 132 132 132 121 121 121 112 112 112 103 103 103 94 94 94 113 113 113 153 153 153 192 192 192 231 231 231 252 252 252 253 253 253 254 254 254 254 254 254 255 255 255 255 255 255 255 255 255 255 255 255 255 255 255 255 255 255 255 255 255 255 255 255 255 255 255 255 255 255 255 255 255 255 255 255 255 255 255 255 255 255 255 255 255 255 255 255 255 255 255 
255 255 255 255 255 255 255 255 255 255 255 255 255 255 255 255 255 255 255 255 255 255 255 255 255 255 255 255 255 255 255 255 255 255 255 255 255 255 255 255 255 255 255 255 255 255 255 255 255 255 255 255 255 255 255 255 255 254 254 254 254 254 254 238 238 238 205 205 205 173 173 173 141 141 141 121 121 121 120 120 120 118 118 118 116 116 116 120 120 120 137 137 137 153 153 153 169 169 169 182 182 182 183 183 183 184 184 184 185 185 185 183 183 183 159 159 159 135 135 135 111 111 111 88 88 88 107 107 107 126 126 126 145 145 145 164 164 164 171 171 171 176 176 176 181 181 181 187 187 187 171 171 171 150 150 150 130 130 130 110 110 110 102 102 102 98 98 98 94 94 94 89 89 89 91 91 91 96 96 96 101 101 101 106 106 106 108 108 108 108 108 108 109 109 109 109 109 109 113 113 113 120 120 120 127 127 127 135 135 135 143 143 143 153 153 153 163 163 163 173 173 173 179 179 179 175 175 175 171 171 171 168 168 168 164 164 164 160 160 160 157 157 157 153 153 153 149 149 149 135 135 135 121 121 121 107 107 107 93 93 93 115 115 115 138 138 138 161 161 161 184 184 184 186 186 186 184 184 184 183 183 183 182 182 182 171 171 171 158 158 158 145 145 145 132 132 132 126 126 126 122 122 122 118 118 118 114 114 114 132 132 132 167 167 167 201 201 201 236 236 236 254 254 254 254 254 254 254 254 254 255 255 255 255 255 255 255 255 255 255 255 255 255 255 255 255 255 255 255 255 255 255 255 255 255 255 255 255 255 255 255 255 255 255 255 255 255 255 255 255 255 255 255 255 255 255 255 255 255 255 255 255 255 255 
255 255 255 255 255 255 255 255 255 255 255 255 255 255 255 255 255 255 255 255 255 255 255 255 255 255 255 255 255 255 255 255 255 255 255 255 255 255 255 255 255 255 255 255 255 255 255 255 255 255 255 255 255 255 255 255 255 255 255 255 255 255 255 241 241 241 214 214 214 188 188 188 161 161 161 143 143 143 136 136 136 129 129 129 122 122 122 122 122 122 137 137 137 152 152 152 168 168 168 180 180 180 180 180 180 181 181 181 182 182 182 180 180 180 160 160 160 140 140 140 119 119 119 100 100 100 109 109 109 119 119 119 128 128 128 137 137 137 148 148 148 159 159 159 170 170 170 181 181 181 168 168 168 151 151 151 133 133 133 116 116 116 110 110 110 110 110 110 109 109 109 109 109 109 111 111 111 115 115 115 119 119 119 123 123 123 126 126 126 127 127 127 128 128 128 130 130 130 133 133 133 139 139 139 144 144 144 150 150 150 156 156 156 163 163 163 169 169 169 176 176 176 180 180 180 173 173 173 166 166 166 160 160 160 153 153 153 145 145 145 137 137 137 130 130 130 122 122 122 120 120 120 118 118 118 116 116 116 114 114 114 130 130 130 147 147 147 164 164 164 181 181 181 182 182 182 181 181 181 180 180 180 180 180 180 170 170 170 157 157 157 145 145 145 132 132 132 129 129 129 131 131 131 132 132 132 134 134 134 151 151 151 180 180 180 210 210 210 239 239 239 254 254 254 254 254 254 255 255 255 255 255 255 255 255 255 255 255 255 255 255 255 255 255 255 255 255 255 255 255 255 255 255 255 255 255 255 255 255 255 255 255 255 255 255 255 255 255 255 255 255 255 255 255 255 255 255 255 255 255 255 255 255 255 
255 255 255 255 255 255 255 255 255 255 255 255 255 255 255 255 255 255 255 255 255 255 255 255 255 255 255 255 255 255 255 255 255 255 255 255 255 255 255 255 255 255 255 255 255 255 255 255 255 255 255 255 255 255 255 255 255 255 255 255 255 255 255 244 244 244 223 223 223 202 202 202 182 182 182 164 164 164 152 152 152 139 139 139 127 127 127 123 123 123 137 137 137 152 152 152 166 166 166 178 178 178 178 178 178 179 179 179 180 180 180 178 178 178 161 161 161 145 145 145 128 128 128 112 112 112 111 111 111 111 111 111 110 110 110 109 109 109 125 125 125 142 142 142 159 159 159 176 176 176 166 166 166 151 151 151 136 136 136 121 121 121 119 119 119 122 122 122 125 125 125 128 128 128 131 131 131 134 134 134 137 137 137 141 141 141 143 143 143 146 146 146 148 148 148 150 150 150 153 153 153 157 157 157 161 161 161 165 165 165 169 169 169 173 173 173 176 176 176 180 180 180 180 180 180 171 171 171 161 161 161 152 152 152 142 142 142 130 130 130 118 118 118 106 106 106 95 95 95 105 105 105 115 115 115 125 125 125 135 135 135 145 145 145 156 156 156 167 167 167 178 178 178 179 179 179 179 179 179 178 178 178 178 178 178 168 168 168 156 156 156 144 144 144 133 133 133 133 133 133 140 140 140 147 147 147 153 153 153 170 170 170 194 194 194 218 218 218 242 242 242 254 254 254 255 255 255 255 255 255 255 255 255 255 255 255 255 255 255 255 255 255 255 255 255 255 255 255 255 255 255 255 255 255 255 255 255 255 255 255 255 255 255 255 255 255 255 255 255 255 255 255 255 255 255 255 255 255 255 255 255 255 255 255 
255 255 255 255 255 255 255 255 255 255 255 255 255 255 255 255 255 255 255 255 255 255 255 255 255 255 255 255 255 255 255 255 255 255 255 255 255 255 255 255 255 255 255 255 255 255 255 255 255 255 255 255 255 255 255 255 255 255 255 255 255 255 255 247 247 247 232 232 232 217 217 217 202 202 202 186 186 186 168 168 168 150 150 150 132 132 132 124 124 124 138 138 138 151 151 151 165 165 165 176 176 176 176 176 176 177 177 177 177 177 177 176 176 176 163 163 163 150 150 150 137 137 137 124 124 124 113 113 113 103 103 103 92 92 92 82 82 82 103 103 103 126 126 126 148 148 148 171 171 171 164 164 164 151 151 151 139 139 139 126 126 126 128 128 128 134 134 134 141 141 141 147 147 147 151 151 151 153 153 153 156 156 156 158 158 158 161 161 161 164 164 164 167 167 167 171 171 171 173 173 173 176 176 176 178 178 178 180 180 180 182 182 182 182 182 182 183 183 183 183 183 183 181 181 181 169 169 169 156 156 156 144 144 144 132 132 132 115 115 115 99 99 99 83 83 83 69 69 69 90 90 90 112 112 112 134 134 134 156 156 156 161 161 161 166 166 166 170 170 170 175 175 175 176 176 176 176 176 176 176 176 176 175 175 175 167 167 167 155 155 155 144 144 144 133 133 133 137 137 137 149 149 149 161 161 161 173 173 173 189 189 189 208 208 208 226 226 226 245 245 245 255 255 255 255 255 255 255 255 255 255 255 255 255 255 255 255 255 255 255 255 255 255 255 255 255 255 255 255 255 255 255 255 255 255 255 255 255 255 255 255 255 255 255 255 255 255 255 255 255 255 255 255 255 255 255 255 255 255 255 255 255 255 255 
255 255 255 255 255 255 255 255 255 255 255 255 255 255 255 255 255 255 255 255 255 255 255 255 255 255 255 255 255 255 255 255 255 255 255 255 255 255 255 255 255 255 255 255 255 255 255 255 255 255 255 255 255 255 255 255 255 255 255 255 255 255 255 249 249 249 238 238 238 227 227 227 216 216 216 201 201 200 180 180 178 160 159 156 139 138 134 129 128 123 141 139 132 153 151 142 165 162 152 174 171 159 174 171 159 174 171 158 175 171 157 174 170 156 164 160 146 154 150 136 144 140 126 134 130 117 121 117 105 109 105 94 96 93 83 84 81 72 98 96 88 115 113 107 131 130 126 148 147 144 144 143 141 136 136 134 128 128 127 120 120 120 124 124 124 132 132 132 140 140 140 147 147 147 152 152 152 154 154 154 156 156 156 158 158 158 161 161 161 163 163 163 165 165 165 168 168 168 169 169 169 169 169 169 169 169 169 170 170 170 169 169 169 167 167 167 164 164 164 162 162 162 158 158 158 149 149 149 140 140 139 131 131 130 122 122 120 111 110 107 100 99 94 90 88 81 81 79 70 101 98 88 121 118 107 141 138 126 161 158 144 164 161 147 167 164 150 170 166 152 173 169 155 173 170 156 173 170 157 174 170 157 174 170 158 166 163 152 155 153 143 145 143 135 135 133 126 142 140 135 158 157 153 174 173 171 190 189 188 205 205 204 219 219 219 233 233 233 248 248 248 255 255 255 255 255 255 255 255 255 255 255 255 255 255 255 255 255 255 255 255 255 255 255 255 255 255 255 255 255 255 255 255 255 255 255 255 255 255 255 255 255 255 255 255 255 255 255 255 255 255 255 255 255 255 255 255 255 255 255 255 255 255 255 
255 255 255 255 255 255 255 255 255 255 255 255 255 255 255 255 255 255 255 255 255 255 255 255 255 255 255 255 255 255 255 255 255 255 255 255 255 255 255 255 255 255 255 255 255 255 255 255 255 255 255 255 255 255 255 255 255 255 255 255 255 255 255 251 251 251 243 243 243 236 236 236 228 228 228 214 214 213 192 191 187 170 168 162 148 145 136 136 132 121 145 141 126 155 150 130 165 158 135 172 165 139 172 164 137 172 164 134 172 164 132 171 162 130 164 155 123 158 148 117 151 141 110 143 134 104 131 122 94 119 110 85 106 98 75 94 87 66 99 93 76 106 101 88 113 109 99 119 117 111 118 117 113 116 115 112 114 113 112 112 111 111 117 117 117 125 125 125 134 134 134 142 142 142 146 146 146 149 149 149 151 151 151 154 154 154 155 155 155 156 156 156 157 157 157 158 158 158 158 158 158 156 156 156 153 153 153 151 151 151 148 148 148 143 143 143 138 138 138 133 133 133 128 128 128 125 124 123 121 120 118 117 116 114 113 112 108 110 108 101 108 105 93 105 102 85 104 99 79 118 113 90 133 127 101 147 140 112 161 154 123 164 156 125 166 158 126 168 160 128 170 162 129 171 163 131 171 163 133 172 164 135 172 164 136 165 158 133 156 150 128 147 141 123 138 133 118 148 144 132 167 164 156 186 184 179 205 205 203 219 219 218 229 229 229 240 240 239 250 250 250 255 255 255 255 255 255 255 255 255 255 255 255 255 255 255 255 255 255 255 255 255 255 255 255 255 255 255 255 255 255 255 255 255 255 255 255 255 255 255 255 255 255 255 255 255 255 255 255 255 255 255 255 255 255 255 255 255 255 255 255 255 255 255 
255 255 255 255 255 255 255 255 255 255 255 255 255 255 255 255 255 255 255 255 255 255 255 255 255 255 255 255 255 255 255 255 255 255 255 255 255 255 255 255 255 255 255 255 255 255 255 255 255 255 255 255 255 255 255 255 255 255 255 255 255 255 255 253 253 253 248 248 248 244 244 244 239 239 239 227 226 225 203 202 196 179 177 167 156 152 138 142 137 119 150 143 119 157 149 119 164 155 119 170 159 118 170 158 115 170 157 111 170 156 108 169 155 104 165 151 101 161 147 98 157 142 94 153 138 91 141 127 83 129 115 76 116 104 68 104 93 61 100 91 64 97 90 69 94 89 73 91 88 78 93 91 84 96 95 90 99 99 96 103 103 102 110 110 110 119 119 119 128 128 128 137 137 137 141 141 141 144 144 144 146 146 146 149 149 149 150 150 150 150 150 150 149 149 149 149 149 149 147 147 147 142 142 142 138 138 138 133 133 133 127 127 127 120 120 120 112 112 112 104 104 104 99 99 99 100 100 98 101 100 98 102 101 97 104 102 96 110 107 94 115 111 92 121 115 90 127 120 88 136 127 92 145 135 95 153 143 99 162 151 103 164 152 103 165 153 103 167 154 103 168 155 103 169 156 106 169 157 109 170 158 112 170 159 115 164 153 114 156 146 113 148 140 111 140 133 110 153 147 129 176 171 158 198 196 188 221 220 217 234 234 233 240 240 239 246 246 245 252 252 252 255 255 255 255 255 255 255 255 255 255 255 255 255 255 255 255 255 255 255 255 255 255 255 255 255 255 255 255 255 255 255 255 255 255 255 255 255 255 255 255 255 255 255 255 255 255 255 255 255 255 255 255 255 255 255 255 255 255 255 255 255 255 255 
255 255 255 255 255 255 255 255 255 255 255 255 255 255 255 255 255 255 255 255 255 255 255 255 255 255 255 255 255 255 255 255 255 255 255 255 255 255 255 255 255 255 255 255 255 255 255 255 255 255 255 255 255 255 255 255 255 255 255 255 255 255 255 254 254 254 253 253 253 252 252 252 251 251 251 240 239 237 215 212 205 189 185 172 164 159 140 148 141 117 154 145 112 159 148 107 164 151 102 168 153 97 168 152 93 168 150 88 167 149 83 167 147 78 166 146 78 165 145 78 164 144 78 163 142 78 151 131 72 139 121 67 126 110 61 114 99 55 101 88 52 88 78 50 75 68 47 62 58 45 67 64 55 76 74 68 85 84 80 94 94 93 103 103 103 113 113 113 122 122 122 131 131 131 136 136 136 139 139 139 142 142 142 144 144 144 145 145 145 143 143 143 141 141 141 139 139 139 135 135 135 128 128 128 122 122 122 115 115 115 107 107 107 96 96 96 86 86 86 76 76 76 69 69 69 75 75 73 81 80 77 87 86 81 95 92 85 109 105 88 123 117 91 137 129 95 151 140 98 154 142 94 157 144 90 160 145 86 163 147 82 164 147 81 164 148 80 165 148 79 166 148 77 166 149 81 167 150 85 168 152 89 168 153 93 163 149 96 157 143 98 150 138 100 143 133 102 159 150 126 185 179 161 211 207 196 237 236 231 249 249 247 250 250 249 252 252 252 254 254 254 255 255 255 255 255 255 255 255 255 255 255 255 255 255 255 255 255 255 255 255 255 255 255 255 255 255 255 255 255 255 255 255 255 255 255 255 255 255 255 255 255 255 255 255 255 255 255 255 255 255 255 255 255 255 255 255 255 255 255 255 255 255 255 
255 255 255 255 255 255 255 255 255 255 255 255 255 255 255 255 255 255 255 255 255 255 255 255 255 255 255 255 255 255 255 255 255 255 255 255 255 255 255 255 255 255 255 255 255 255 255 255 255 255 255 255 255 254 254 254 253 254 254 252 254 253 251 253 252 248 252 250 241 250 247 235 248 245 229 238 234 213 216 210 184 194 187 155 172 163 126 158 148 106 162 150 102 166 153 99 170 155 95 173 157 92 172 155 87 172 154 83 171 152 78 171 150 74 170 149 73 169 148 72 169 147 70 168 146 69 157 136 63 147 126 57 136 116 51 126 106 45 112 95 40 98 84 36 84 72 32 70 61 28 74 66 39 82 75 53 89 84 66 96 92 80 103 100 91 110 108 101 117 116 112 124 124 122 128 128 127 130 130 130 132 132 132 134 134 134 134 134 134 133 133 133 131 131 131 130 130 130 127 127 127 121 121 121 116 116 116 111 111 111 104 104 103 96 96 93 88 87 82 80 79 71 76 74 63 83 79 64 89 85 66 96 91 67 103 97 69 118 110 73 132 122 77 146 135 81 159 147 84 161 147 80 162 147 76 164 148 72 165 148 67 166 149 68 167 150 70 168 150 71 169 151 72 170 152 76 171 154 80 172 155 84 173 156 88 169 153 90 164 148 92 158 144 93 153 139 94 167 155 115 190 179 145 213 204 176 235 229 206 246 241 223 248 244 230 250 247 237 252 250 244 253 252 248 254 253 250 254 254 252 255 254 254 255 255 255 255 255 255 255 255 255 255 255 255 255 255 255 255 255 255 255 255 255 255 255 255 255 255 255 255 255 255 255 255 255 255 255 255 255 255 255 255 255 255 255 255 255 255 255 255 255 255 255 
255 255 255 255 255 255 255 255 255 255 255 255 255 255 255 255 255 255 255 255 255 255 255 255 255 255 255 255 255 255 255 255 255 255 255 255 255 255 255 255 255 255 255 255 255 255 255 255 255 255 255 254 254 253 254 253 251 253 252 248 252 251 246 250 248 237 246 242 221 243 236 206 239 230 190 230 220 172 213 202 150 196 184 127 179 167 105 169 156 90 172 158 91 175 161 92 178 163 93 181 165 93 180 163 90 179 162 87 178 160 83 177 159 80 176 156 75 174 154 71 173 152 67 171 149 62 163 141 55 155 132 47 146 124 39 138 115 32 128 106 29 117 97 26 107 88 23 97 79 20 97 81 30 99 86 41 102 90 53 104 94 64 107 99 76 110 104 88 113 110 100 116 115 111 118 117 116 119 119 118 120 120 119 121 121 121 121 121 121 121 121 121 121 121 121 120 120 120 119 119 119 117 117 117 115 115 115 113 113 113 111 111 109 108 106 98 104 101 88 101 97 78 100 94 69 105 98 64 110 101 59 115 105 55 121 109 51 131 119 53 141 128 56 152 137 58 161 146 60 163 148 59 165 149 58 167 150 57 169 151 56 171 153 61 172 155 66 174 157 71 176 159 76 177 160 80 178 161 84 180 163 88 181 164 92 178 161 92 174 157 90 170 153 89 166 149 87 176 160 100 193 177 121 210 195 142 226 212 162 236 223 180 240 230 196 244 237 212 248 243 228 251 248 238 252 250 243 253 252 247 254 253 252 255 255 255 255 255 255 255 255 255 255 255 255 255 255 255 255 255 255 255 255 255 255 255 255 255 255 255 255 255 255 255 255 255 255 255 255 255 255 255 255 255 255 255 255 255 255 255 255 255 255 255 
255 255 255 255 255 255 255 255 255 255 255 255 255 255 255 255 255 255 255 255 255 255 255 255 255 255 255 255 255 255 255 255 255 255 255 255 254 254 254 254 254 254 254 254 254 254 254 254 254 254 254 254 253 252 253 252 248 252 250 244 251 249 241 247 243 226 241 234 201 235 225 176 229 216 152 221 206 131 209 194 115 198 182 100 187 170 84 180 163 75 182 166 81 184 168 86 187 171 91 188 173 95 187 171 93 186 170 90 185 168 88 184 167 85 182 163 78 180 160 70 177 156 63 175 153 55 169 146 46 163 138 37 156 131 28 150 123 19 143 117 17 137 111 15 130 104 14 123 98 12 120 97 20 117 97 30 114 96 39 112 96 49 110 98 61 110 101 74 109 103 87 108 106 100 108 107 105 108 107 106 108 108 107 108 108 108 109 109 109 109 109 109 110 110 110 111 111 111 112 112 112 113 113 113 115 115 115 116 116 116 118 117 114 119 116 104 120 115 94 122 115 84 124 115 74 127 116 64 130 118 53 134 119 42 138 121 34 144 128 34 151 134 34 157 140 35 163 146 35 166 148 37 168 150 40 170 152 42 173 154 44 175 157 53 178 160 62 180 163 71 182 167 80 184 168 84 186 169 88 187 170 92 189 172 95 187 169 93 184 166 88 181 162 84 179 159 80 185 165 86 196 175 97 206 185 108 217 195 119 225 205 138 232 216 163 238 226 187 245 237 212 249 243 228 250 246 236 252 249 243 253 252 250 254 254 254 254 254 254 254 254 254 254 254 254 254 254 254 255 255 255 255 255 255 255 255 255 255 255 255 255 255 255 255 255 255 255 255 255 255 255 255 255 255 255 255 255 255 255 255 255 255 255 255 
255 255 255 255 255 255 255 255 255 255 255 255 255 255 255 255 255 255 255 255 255 255 255 255 255 255 255 255 255 255 255 255 255 254 254 254 254 254 254 254 254 254 254 254 254 254 254 254 254 254 254 253 253 251 252 251 246 251 248 240 249 246 235 244 239 215 236 226 181 228 214 147 219 201 113 212 191 90 206 186 81 200 180 72 194 174 63 191 171 60 192 173 70 193 176 79 195 179 89 196 180 96 194 179 95 193 178 94 192 177 93 191 175 91 188 170 80 185 166 70 182 161 59 178 156 49 174 150 38 170 144 27 166 138 17 162 132 6 159 128 5 156 124 5 152 120 5 149 117 4 142 112 11 135 107 18 127 103 26 119 98 34 114 97 46 109 97 61 104 97 75 100 97 89 97 97 94 97 96 94 96 96 95 95 95 95 96 96 96 98 98 98 100 100 100 102 102 102 105 105 105 110 110 110 114 114 114 119 119 119 124 123 119 130 126 109 136 130 100 142 133 91 147 135 80 149 134 63 151 134 47 153 133 30 155 133 16 158 136 15 160 139 13 163 142 12 165 145 11 168 148 16 171 151 22 174 155 27 176 158 33 179 162 45 183 166 58 186 170 71 189 174 84 191 176 88 193 177 92 194 178 95 196 179 99 196 177 94 194 175 87 193 172 80 192 169 73 194 170 71 199 173 73 203 175 74 208 178 75 215 188 95 223 202 129 232 216 163 241 230 196 246 239 218 248 243 228 251 247 238 253 252 248 254 254 254 254 254 254 254 254 254 254 254 254 254 254 254 254 254 254 255 255 255 255 255 255 255 255 255 255 255 255 255 255 255 255 255 255 255 255 255 255 255 255 255 255 255 255 255 255 255 255 255 
255 255 255 255 255 255 255 255 255 255 255 255 255 255 255 255 255 255 255 255 255 255 255 255 255 255 255 254 254 254 254 254 254 254 254 254 253 253 253 253 253 253 253 253 253 253 253 252 253 253 252 251 250 245 249 246 233 247 242 221 244 238 209 239 230 188 232 219 158 224 208 128 217 197 98 211 190 80 208 187 77 206 185 74 203 183 72 201 182 73 202 184 83 203 186 93 203 189 102 204 190 110 203 189 109 201 188 109 200 186 108 199 185 106 195 180 96 192 175 85 189 171 75 186 166 64 182 160 52 179 154 40 175 148 27 171 142 15 169 138 11 167 134 8 164 131 5 162 127 1 154 121 6 146 115 12 137 109 18 128 103 23 122 101 36 116 100 51 111 100 65 105 99 80 102 99 87 101 99 91 100 99 94 99 98 97 100 100 100 102 102 102 104 104 104 106 106 106 109 109 108 115 114 111 120 118 114 125 123 116 131 127 114 138 132 104 145 136 93 152 140 83 158 143 70 159 142 54 161 141 38 162 141 21 163 140 8 165 143 8 166 145 8 168 147 9 170 150 9 173 154 19 177 158 29 180 162 39 184 167 48 187 171 61 190 175 74 194 180 86 197 184 99 199 186 103 201 187 106 203 188 110 204 189 113 204 188 108 204 185 101 203 183 94 203 181 87 204 180 82 205 179 78 207 178 75 208 178 71 213 184 86 221 196 114 228 208 141 236 220 169 241 229 191 244 235 207 247 241 223 250 248 239 252 252 249 253 252 250 253 253 252 253 253 253 253 253 253 254 254 254 254 254 254 254 254 254 255 255 255 255 255 255 255 255 255 255 255 255 255 255 255 255 255 255 255 255 255 255 255 255 255 255 255 
255 255 255 255 255 255 255 255 255 255 255 255 255 255 255 254 254 254 254 254 254 254 254 254 254 254 254 253 253 253 253 253 253 253 253 253 252 252 252 252 252 251 251 251 250 251 251 250 251 250 249 248 245 235 245 239 213 241 232 191 237 225 169 233 218 150 228 212 133 224 206 117 219 200 100 216 197 92 214 196 95 213 196 98 212 196 102 211 196 106 211 197 113 212 199 120 212 200 127 212 201 132 211 200 132 210 199 131 209 197 130 208 196 129 205 192 121 202 188 112 199 184 104 196 179 96 191 173 82 187 166 68 183 160 54 179 154 40 175 148 31 172 142 21 168 137 12 164 131 2 158 126 4 151 121 8 145 116 13 138 111 17 133 109 29 129 109 43 124 109 57 120 108 72 118 109 83 117 111 92 116 112 101 115 114 111 116 116 116 117 117 117 119 119 119 120 120 120 123 122 120 126 124 116 129 126 113 133 128 110 137 130 103 143 134 90 149 137 77 154 140 63 159 142 50 160 142 39 162 143 27 163 143 15 165 144 6 168 147 11 170 151 15 173 154 20 176 158 25 180 164 40 185 169 54 189 175 69 194 180 83 197 184 94 200 188 103 203 191 113 206 195 123 208 197 127 209 198 129 211 199 132 213 200 134 213 199 131 213 198 126 212 196 121 212 194 116 213 193 111 213 192 106 214 191 101 215 189 96 217 192 100 222 197 111 226 202 122 230 208 134 234 215 151 238 224 176 243 233 201 247 242 225 250 248 242 250 249 244 251 250 247 252 251 250 252 252 252 253 253 253 253 253 253 253 253 253 254 254 254 254 254 254 254 254 254 254 254 254 254 254 254 254 254 254 254 254 254 255 255 255 255 255 255 
254 254 254 254 254 254 254 254 254 254 254 254 254 254 254 254 254 254 254 254 254 253 253 253 253 253 253 253 253 253 252 252 252 252 252 252 251 251 251 250 250 250 250 249 248 249 248 247 249 247 245 245 241 225 240 231 193 235 221 161 230 212 128 226 206 111 225 206 108 223 205 105 221 204 102 220 204 104 220 206 113 221 207 123 221 209 132 221 210 140 221 210 144 221 211 148 221 212 152 221 212 155 220 211 154 219 210 153 218 208 152 216 207 151 214 203 145 211 200 140 208 197 134 206 193 128 201 186 112 196 179 97 191 172 81 186 165 65 181 158 50 177 150 34 172 143 18 167 136 3 162 131 2 157 127 5 153 123 8 148 119 10 144 118 21 141 118 35 138 118 49 135 118 64 134 120 78 133 123 94 132 126 109 132 130 124 132 132 132 133 133 133 134 134 134 134 134 134 136 135 131 138 134 122 139 134 113 141 133 103 144 134 92 148 135 76 152 137 60 156 139 44 160 141 30 162 143 23 163 144 16 165 146 9 167 148 5 171 152 13 175 157 22 178 161 31 182 166 40 187 173 60 193 180 80 198 187 99 204 193 119 207 197 126 209 200 133 212 203 140 215 207 147 217 208 150 218 209 152 220 210 153 221 211 155 221 211 154 221 210 151 222 209 148 222 208 145 222 207 139 221 205 133 221 203 126 221 201 120 222 199 114 223 198 109 223 197 104 224 195 98 227 200 112 232 212 145 238 224 178 243 235 212 247 243 234 248 245 238 249 247 243 250 249 248 251 251 251 252 252 252 252 252 252 253 253 253 253 253 253 253 253 253 253 253 253 254 254 254 254 254 254 254 254 254 254 254 254 254 254 254 254 254 254 
254 254 254 254 254 254 254 254 254 254 254 254 254 254 254 254 254 254 253 253 253 253 253 253 252 252 252 252 252 252 251 251 251 250 250 250 250 250 250 249 249 248 248 247 246 247 246 244 246 245 242 242 237 215 236 224 173 229 211 130 222 199 88 220 195 73 221 199 83 222 203 94 223 207 104 225 211 116 226 215 132 228 218 147 230 221 162 231 224 173 230 224 174 230 223 175 230 223 176 229 223 177 228 222 176 227 221 175 226 219 174 225 218 173 223 215 170 220 212 167 218 210 164 216 207 160 210 199 143 205 192 125 199 184 108 194 177 90 188 168 69 182 158 47 176 149 25 170 140 4 166 136 1 163 133 2 160 130 3 157 127 3 155 126 14 154 126 28 152 127 42 151 127 55 150 130 74 149 135 95 148 140 117 148 145 138 148 148 148 148 148 148 148 148 148 149 149 149 149 147 142 149 144 127 149 141 112 149 138 97 150 137 81 153 137 62 156 138 43 158 139 25 161 140 10 163 143 8 165 145 6 167 148 3 169 151 3 174 157 16 179 163 29 183 168 42 188 174 56 195 182 80 201 191 105 207 199 129 214 207 154 216 210 159 219 212 163 221 215 167 224 218 171 225 219 173 227 220 174 228 221 175 229 222 177 230 222 176 230 222 176 231 222 175 231 222 174 231 220 168 230 217 160 229 215 152 228 212 144 226 207 128 224 199 106 221 191 85 218 183 63 220 186 72 227 201 114 233 215 156 240 229 198 244 239 226 246 242 232 247 245 239 249 248 245 250 250 250 250 250 250 251 251 251 252 252 252 252 252 252 253 253 253 253 253 253 253 253 253 253 253 253 253 253 253 254 254 254 254 254 254 254 254 254 
254 254 254 254 254 254 253 253 253 253 253 253 253 253 253 252 252 252 251 251 251 250 250 250 249 249 249 248 248 248 247 247 247 246 246 246 245 245 245 244 244 242 243 242 237 242 240 233 241 238 228 237 229 198 231 217 153 225 204 108 218 191 62 217 189 50 220 196 68 223 203 87 226 210 105 228 216 123 230 220 139 233 224 155 235 228 172 236 230 182 236 230 182 235 229 182 235 229 182 234 228 181 233 227 180 232 226 180 231 225 179 230 223 178 228 221 176 226 219 174 224 216 172 222 214 170 217 207 154 211 199 137 206 192 121 200 185 105 193 175 80 187 165 55 180 155 30 173 145 5 170 141 1 168 138 1 166 135 0 163 132 0 162 131 9 161 131 21 160 131 33 159 131 45 158 135 66 157 141 91 156 146 116 156 152 141 155 155 153 155 155 153 155 155 154 155 155 154 155 153 146 155 149 126 154 144 106 154 140 86 154 137 67 156 138 49 158 139 31 160 140 13 162 141 0 165 144 0 167 147 0 169 151 0 172 155 3 177 161 19 183 168 35 189 175 51 194 181 68 201 190 92 207 198 117 214 206 142 220 214 166 223 217 169 225 219 172 227 221 174 229 223 177 231 224 178 232 225 179 233 226 180 234 227 180 235 227 181 235 228 181 236 228 181 236 228 181 235 226 176 234 224 169 233 221 161 232 218 153 229 211 133 225 200 104 221 189 75 216 179 46 217 180 51 223 194 94 229 207 136 235 221 179 239 231 208 240 235 218 242 238 228 244 242 238 245 245 245 246 246 246 247 247 247 248 248 248 249 249 249 250 250 250 250 250 250 251 251 251 252 252 252 252 252 252 253 253 253 253 253 253 254 254 254 
253 253 253 252 252 252 252 252 252 251 251 251 250 250 250 249 249 249 247 247 247 245 245 245 244 244 244 242 242 242 240 240 240 239 239 239 237 237 237 236 235 230 235 232 221 233 229 213 232 226 204 229 219 175 226 209 134 222 200 93 218 191 52 218 190 43 221 198 64 225 205 85 228 213 107 231 219 124 232 221 136 234 224 147 235 227 159 236 229 167 236 228 167 236 228 166 235 227 166 235 227 166 234 226 165 233 225 165 233 223 164 232 222 163 230 220 162 228 218 160 226 216 159 224 214 157 220 208 145 215 202 132 210 196 120 206 190 108 199 180 83 192 170 58 185 159 33 178 149 7 174 144 3 171 141 2 168 138 1 165 134 0 163 133 6 162 132 15 161 131 24 160 130 33 158 133 53 157 139 80 155 144 107 154 149 134 153 152 147 153 152 148 153 152 149 153 153 151 153 151 141 154 147 117 154 142 94 155 138 71 156 136 51 158 138 37 160 139 24 162 141 10 164 143 0 167 147 0 170 150 0 172 154 0 176 158 3 182 165 21 188 173 39 194 180 58 200 188 76 206 194 95 212 201 115 217 208 134 223 215 154 225 217 156 227 219 158 229 221 160 231 223 162 232 223 163 233 224 164 234 225 165 235 225 165 235 226 166 236 226 166 236 226 166 236 226 166 236 225 162 235 223 157 234 221 151 233 219 146 231 212 128 227 202 101 223 192 74 219 183 48 219 182 51 222 191 85 225 201 120 228 210 154 231 218 181 232 223 196 233 228 211 235 233 225 236 236 236 238 238 238 240 240 240 241 241 241 243 243 243 244 244 244 246 246 246 247 247 247 249 249 249 250 250 250 251 251 251 252 252 252 253 253 253 
253 253 253 251 251 251 250 250 250 249 249 249 247 247 247 245 245 245 243 243 243 240 240 240 238 238 238 236 236 236 233 233 233 231 231 231 229 229 229 227 226 219 226 222 206 225 218 192 223 214 179 222 208 152 221 202 115 219 196 78 218 190 42 219 191 36 223 199 60 227 207 84 231 216 108 233 221 125 234 223 132 235 224 139 236 226 146 237 227 151 236 227 151 236 226 151 236 226 151 236 225 151 235 224 150 234 223 150 234 222 149 233 221 148 231 220 147 230 218 146 228 216 145 227 214 144 223 210 136 219 205 128 215 200 119 211 195 111 204 185 87 197 174 61 189 164 35 182 153 10 178 148 4 174 144 3 170 141 2 167 137 0 165 135 4 163 133 9 162 131 15 160 129 20 159 132 41 157 137 69 155 142 98 153 146 127 152 149 141 152 149 143 151 150 145 151 150 147 152 149 136 153 145 109 154 140 82 156 136 56 157 135 35 159 137 26 161 140 16 163 143 7 166 145 0 169 149 0 172 153 0 176 157 0 180 161 3 186 169 24 193 177 44 200 186 64 206 194 84 211 199 99 216 205 113 221 211 127 226 216 142 227 218 144 229 219 145 231 221 147 232 222 148 233 223 149 234 223 149 235 223 150 236 224 150 236 224 150 236 224 151 236 224 151 237 224 151 236 223 148 236 222 145 235 220 142 235 219 138 233 213 123 229 204 98 225 195 74 222 186 50 220 184 50 221 189 77 221 194 103 222 200 129 222 205 153 224 211 173 225 217 193 226 223 213 228 228 228 230 230 230 232 232 232 234 234 234 237 237 237 239 239 239 241 241 241 244 244 244 246 246 246 247 247 247 249 249 249 251 251 251 252 252 252 
252 252 252 250 250 250 249 249 249 247 247 247 245 245 245 242 242 242 239 239 239 235 235 235 232 232 232 229 229 229 227 227 227 224 224 224 221 221 221 219 217 208 217 212 190 216 207 172 214 202 155 214 198 128 215 195 96 217 192 64 218 189 32 221 192 30 225 201 56 229 209 83 233 218 109 236 223 126 236 224 128 236 225 131 237 225 134 237 226 136 237 225 136 237 225 135 237 224 135 236 224 135 236 223 135 235 222 135 235 221 134 234 220 134 233 219 133 232 218 132 231 216 132 229 215 131 226 211 127 223 207 123 220 204 118 217 200 114 209 190 90 202 179 64 194 168 38 187 157 12 182 152 6 177 148 4 173 144 2 168 140 0 166 136 2 164 134 4 163 131 6 161 128 8 159 130 28 156 134 58 154 139 89 151 144 119 150 146 135 150 147 138 150 147 140 149 148 143 150 147 131 152 143 101 155 139 71 157 135 40 159 133 19 161 137 14 163 140 9 165 144 4 167 148 0 171 152 0 175 156 0 179 160 0 184 164 4 191 173 26 198 182 48 205 191 71 213 200 92 216 204 102 220 208 111 224 213 120 228 217 129 230 218 131 231 219 132 233 220 133 234 221 134 235 222 134 235 222 134 236 222 135 236 222 135 237 222 135 237 222 135 237 222 135 237 222 135 237 222 135 237 221 133 236 220 132 236 219 131 234 214 117 231 206 96 227 198 74 224 190 52 221 187 50 219 187 68 217 188 86 215 189 105 214 192 126 215 199 151 217 206 176 218 213 201 219 219 219 222 222 222 225 225 225 228 228 228 230 230 230 234 234 234 237 237 237 240 240 240 243 243 243 245 245 245 247 247 247 249 249 249 251 251 251 
251 251 251 249 249 249 246 246 246 243 243 243 240 240 240 236 236 236 232 232 232 228 228 228 224 224 224 220 220 220 217 217 217 214 214 214 210 210 210 209 206 195 208 201 175 207 196 155 205 190 135 207 188 110 210 188 81 214 188 52 217 187 24 221 192 24 225 200 50 229 209 76 234 218 103 236 223 118 236 223 119 236 223 119 236 223 119 236 223 119 236 222 119 236 222 119 236 221 119 236 221 119 236 220 119 235 219 119 235 219 118 234 218 118 233 217 118 232 216 117 231 214 117 231 213 116 228 210 115 225 207 113 223 205 111 220 202 109 213 192 86 205 181 61 198 171 37 190 160 12 185 155 6 180 150 4 175 146 3 170 142 1 167 138 0 166 134 0 164 131 0 162 127 0 159 129 20 156 133 51 153 137 82 150 142 114 149 144 130 148 145 133 148 145 137 148 146 140 149 145 128 152 141 95 155 137 63 157 133 30 160 132 9 162 137 6 164 141 4 166 145 2 169 149 0 173 154 0 178 158 0 182 162 0 187 167 4 195 176 26 202 185 48 209 194 70 216 202 91 220 206 97 223 209 103 226 213 109 230 216 115 231 217 116 232 218 117 233 218 118 234 219 118 235 219 118 235 219 119 236 219 119 236 219 119 236 219 119 236 219 119 236 219 119 236 219 119 236 218 119 236 218 119 236 218 119 236 217 119 234 213 108 231 206 88 228 199 69 225 191 50 222 187 46 217 184 59 213 182 73 209 180 86 207 181 105 207 188 133 207 195 160 207 203 188 209 209 209 212 212 212 215 215 215 218 218 218 222 222 222 226 226 226 230 230 230 234 234 234 238 238 238 241 241 241 244 244 244 247 247 247 250 250 250 
249 249 249 245 245 245 241 241 241 237 237 237 233 233 233 228 228 228 223 223 223 217 217 217 212 212 212 208 208 208 204 204 204 200 200 200 196 196 196 196 193 181 196 189 162 197 185 142 197 181 122 200 180 98 205 182 72 211 183 46 216 185 20 220 190 19 224 197 41 228 205 63 231 212 85 233 217 98 234 217 99 234 217 100 234 217 101 234 217 102 234 217 102 234 217 102 234 216 102 234 216 102 234 215 101 233 214 101 233 214 101 233 213 101 232 212 101 231 211 100 230 210 100 230 209 100 227 206 97 225 203 95 223 201 93 220 198 91 214 189 72 207 180 51 200 171 30 193 162 9 188 156 5 183 152 3 178 147 2 172 143 0 169 139 0 167 135 0 165 131 0 163 128 0 160 129 20 157 133 50 153 136 80 150 140 111 148 142 127 148 143 130 147 144 134 147 145 138 148 143 125 151 140 93 155 136 61 158 133 28 161 132 7 163 137 5 166 141 3 168 145 1 171 150 0 176 154 0 181 159 0 185 163 0 190 168 3 197 176 21 204 184 39 210 192 57 217 200 75 220 203 81 223 206 87 226 209 93 229 212 99 230 213 99 231 214 100 232 214 100 233 215 101 233 214 101 233 214 101 234 214 101 234 214 102 234 214 102 234 214 102 234 213 102 234 213 102 234 213 101 234 212 101 234 212 101 234 211 100 232 207 90 229 201 73 226 194 57 224 188 40 220 183 37 215 180 51 209 177 64 204 173 77 200 174 96 198 179 122 197 184 149 195 190 175 195 195 195 198 198 198 202 202 202 206 206 206 209 209 209 215 215 215 220 220 220 225 225 225 230 230 230 235 235 235 239 239 239 244 244 244 248 248 248 
247 247 247 242 242 242 237 237 237 231 231 231 226 226 226 220 220 220 213 213 213 206 206 206 200 200 200 195 195 195 191 191 191 187 187 187 182 182 182 183 179 167 185 176 148 187 174 129 189 171 109 194 172 87 201 175 63 208 179 40 214 182 16 219 187 14 223 194 32 226 201 49 229 207 67 231 211 78 231 211 80 231 212 81 232 212 83 232 212 84 232 212 84 232 211 84 232 211 84 232 211 84 232 210 84 231 209 84 231 209 84 231 208 84 230 207 83 230 206 83 229 205 83 229 204 83 226 202 80 224 199 78 222 197 75 220 194 73 214 187 57 208 179 40 202 171 23 196 163 6 191 158 3 185 153 2 180 149 1 175 144 0 171 140 0 169 136 0 166 132 0 164 128 0 160 129 19 157 132 49 153 136 78 149 139 108 148 141 124 147 142 128 146 142 132 146 143 136 147 142 123 151 139 91 155 136 59 158 132 27 162 132 5 164 137 4 167 141 3 170 146 1 173 150 0 178 155 0 183 160 0 188 165 0 194 170 2 200 177 16 206 184 31 212 191 45 217 197 58 220 200 64 223 203 70 225 206 76 228 209 82 229 209 83 230 209 83 230 210 83 231 210 84 231 210 84 231 209 84 232 209 84 232 209 84 232 209 84 232 208 84 232 208 84 232 208 84 232 207 84 232 207 83 231 206 83 231 206 82 230 202 73 227 196 59 225 190 44 222 184 30 218 179 28 212 175 42 205 171 55 199 167 68 194 166 86 190 170 111 186 173 137 182 177 162 181 181 181 185 185 185 189 189 189 193 193 193 197 197 197 203 203 203 210 210 210 216 216 216 222 222 222 228 228 228 234 234 234 240 240 240 246 246 246 
245 245 245 239 239 239 232 232 232 225 225 225 219 219 219 211 211 211 203 203 203 195 195 195 187 187 187 182 182 182 178 178 178 173 173 173 168 168 168 170 166 154 173 164 134 177 163 115 180 161 96 187 164 76 196 169 55 204 174 33 213 180 12 219 185 9 221 191 22 224 196 36 226 202 50 228 205 58 228 206 61 229 206 63 229 207 65 230 207 66 230 206 66 230 206 66 230 206 66 230 206 66 229 205 66 229 204 66 229 204 66 229 203 66 229 203 66 228 202 66 228 201 66 228 200 66 226 198 63 224 195 60 222 193 58 220 191 55 215 184 43 210 178 30 204 171 17 199 164 4 193 159 1 188 155 1 182 150 0 177 145 0 173 141 0 170 137 0 167 133 0 165 128 0 161 129 19 157 132 47 153 135 76 149 138 105 147 139 121 146 140 125 146 141 129 145 142 133 147 141 121 151 138 89 155 135 57 159 132 25 163 132 4 165 137 3 168 141 2 171 146 1 175 151 0 180 156 0 186 161 0 191 166 0 197 171 2 202 177 12 207 183 22 213 189 32 218 195 42 220 197 48 223 200 54 225 202 60 227 205 66 228 205 66 228 205 66 229 205 66 229 205 66 229 205 66 229 205 66 229 204 66 230 204 66 230 203 66 230 203 66 230 203 66 230 202 66 229 202 66 229 201 65 229 201 64 229 200 64 227 197 56 225 192 44 223 186 32 221 181 20 216 176 20 209 171 33 201 166 46 194 161 59 187 159 77 181 161 101 176 163 125 170 164 149 167 167 167 171 171 171 175 175 175 180 180 180 184 184 184 192 192 192 199 199 199 207 207 207 214 214 214 222 222 222 229 229 229 236 236 236 244 244 244 
244 244 244 236 236 236 229 229 229 221 221 221 214 214 214 205 205 205 196 196 196 187 187 187 178 178 178 173 173 173 168 168 168 163 163 163 158 158 158 160 156 144 164 155 126 168 154 109 172 154 91 180 157 72 190 163 53 200 170 33 210 176 14 215 181 10 218 186 19 220 191 29 222 195 38 223 198 45 224 198 48 224 199 50 225 199 53 225 200 54 225 199 54 225 199 54 225 199 54 225 199 54 225 198 54 225 198 54 225 197 54 225 197 54 224 196 54 224 195 54 224 194 54 224 194 54 222 192 51 220 190 49 219 187 46 217 185 43 213 180 34 208 175 24 203 169 15 199 163 5 194 159 4 188 154 4 183 150 4 177 145 4 173 141 4 170 137 4 167 133 5 164 128 5 160 129 23 156 131 50 152 134 77 148 136 104 145 138 119 145 138 123 144 139 127 143 140 131 145 139 120 149 136 89 153 134 59 158 131 28 162 131 8 165 136 7 168 141 6 171 146 5 175 150 4 181 155 4 186 160 4 192 165 4 197 170 5 202 175 12 206 180 18 211 185 25 215 190 32 217 192 37 220 194 43 222 197 48 224 199 54 224 199 54 224 199 54 224 199 54 225 199 54 225 198 54 225 198 54 225 197 54 225 197 54 225 196 54 225 196 54 225 196 54 225 195 54 225 195 54 225 194 53 224 194 52 224 193 51 223 190 45 221 186 35 219 181 26 217 177 16 212 172 17 204 166 31 196 161 44 188 156 57 180 153 74 174 153 96 167 154 118 160 155 140 157 157 157 161 161 161 166 166 166 170 170 170 175 175 175 184 184 184 192 192 192 200 200 200 209 209 209 217 217 217 225 225 225 234 234 234 242 242 242 
244 244 244 236 236 236 228 228 228 221 221 221 213 213 213 204 204 204 195 195 195 186 186 186 177 177 177 172 172 172 167 167 167 162 162 162 157 157 157 158 155 146 160 154 131 163 153 117 166 151 103 173 154 86 182 159 68 191 164 49 201 170 30 206 174 25 208 178 31 210 181 37 212 185 43 213 187 48 213 187 50 214 188 52 214 188 54 214 188 56 214 188 56 214 188 56 214 188 56 214 187 56 214 187 55 214 186 55 214 186 55 213 185 55 213 185 55 213 184 55 213 183 55 213 183 55 211 181 52 210 179 50 209 178 48 207 176 45 204 172 39 200 167 31 196 163 24 192 158 17 187 154 16 183 150 16 178 146 16 173 143 16 170 139 17 166 135 19 163 132 20 160 128 22 156 128 38 152 130 61 147 132 85 143 134 109 141 135 121 140 135 124 140 136 127 139 137 130 141 136 121 145 134 95 149 132 70 153 130 45 157 130 27 160 135 24 164 139 22 167 143 19 171 147 16 176 151 16 181 155 16 186 160 16 190 164 17 194 168 22 198 172 27 202 177 32 206 181 37 207 182 41 209 184 46 211 185 50 212 187 54 213 187 55 213 187 55 213 187 55 213 187 55 214 187 55 214 187 55 214 186 55 214 186 56 214 186 56 214 185 56 214 185 56 214 185 56 214 184 55 214 184 54 214 183 53 214 183 52 213 181 48 211 177 41 210 174 35 208 170 28 203 166 31 195 162 45 187 157 59 180 153 73 173 151 88 168 152 106 163 153 124 158 154 142 156 156 156 160 160 160 164 164 164 169 169 169 174 174 174 183 183 183 191 191 191 199 199 199 208 208 208 216 216 216 225 225 225 233 233 233 242 242 242 
243 243 243 236 236 236 228 228 228 220 220 220 212 212 212 203 203 203 194 194 194 185 185 185 176 176 176 171 171 171 166 166 166 161 161 161 156 156 156 156 154 147 157 152 137 158 151 126 159 149 115 165 151 100 174 155 82 183 159 65 192 163 47 197 167 40 198 169 43 200 172 46 202 174 49 203 176 51 203 176 53 203 177 54 203 177 56 203 177 57 203 177 57 203 177 57 203 176 57 203 176 57 203 176 57 203 175 56 202 174 56 202 174 56 202 173 56 202 173 56 202 172 56 202 172 56 201 170 54 199 169 52 198 168 50 197 166 48 194 163 43 191 160 39 188 157 34 185 153 29 181 150 29 177 147 29 173 143 29 169 140 29 166 137 31 162 134 33 159 131 36 156 128 39 152 127 53 147 129 73 143 130 93 138 131 113 136 132 123 136 133 125 136 133 127 135 133 130 137 133 122 140 132 101 144 130 81 148 129 61 152 130 47 155 133 42 159 136 37 163 140 33 167 143 29 171 147 29 176 151 29 180 154 29 184 158 29 187 161 32 190 164 35 193 168 39 196 171 42 198 172 45 199 173 48 200 174 52 201 176 55 202 176 55 202 176 56 202 176 56 202 176 56 202 176 56 203 175 56 203 175 57 203 175 57 203 175 57 203 174 57 203 174 57 203 174 57 203 174 56 203 173 55 203 173 55 203 173 54 202 171 51 201 168 47 200 166 44 199 163 40 195 160 45 187 157 59 179 154 74 171 150 88 165 148 102 162 150 116 159 151 130 156 152 143 154 154 154 159 159 159 163 163 163 168 168 168 173 173 173 181 181 181 190 190 190 199 199 199 207 207 207 216 216 216 224 224 224 233 233 233 241 241 241 
243 243 243 235 235 235 227 227 227 219 219 219 211 211 211 202 202 202 193 193 193 185 185 185 176 176 176 170 170 170 165 165 165 160 160 160 155 155 155 154 152 149 153 151 142 153 149 135 153 147 128 158 148 114 166 151 97 174 154 80 182 157 63 187 159 54 189 161 54 190 162 54 191 164 54 192 165 54 192 165 55 193 166 56 193 166 57 193 166 58 192 166 58 192 165 58 192 165 58 192 165 58 192 164 58 191 164 58 191 163 57 191 162 57 191 162 57 191 162 57 191 161 57 191 161 56 190 160 55 189 159 53 188 158 52 187 157 50 185 155 48 183 153 46 181 150 44 179 148 41 175 146 41 172 143 41 168 140 41 165 137 41 162 134 44 158 132 48 155 129 52 152 127 56 147 127 68 143 127 84 138 128 101 134 129 117 132 129 125 132 130 126 131 130 128 131 130 129 133 130 122 136 130 108 140 129 93 143 128 78 147 129 66 151 131 59 155 134 53 159 137 47 163 140 42 167 143 42 170 146 41 174 149 41 177 152 41 180 154 43 182 157 44 184 159 46 187 161 47 188 162 49 188 163 51 189 163 53 190 164 56 190 164 56 191 164 56 191 164 57 191 164 57 191 164 57 191 164 58 192 164 58 192 164 58 192 164 58 192 164 58 192 164 58 193 163 58 193 163 57 193 163 57 193 163 56 192 162 55 192 161 54 191 160 53 190 158 53 190 157 52 186 155 58 178 152 73 171 150 88 163 147 103 158 146 116 156 148 126 155 149 135 153 151 145 153 153 153 158 158 158 162 162 162 166 166 166 172 172 172 180 180 180 189 189 189 198 198 198 206 206 206 215 215 215 224 224 224 233 233 233 241 241 241 
243 243 243 236 236 236 228 228 228 220 220 220 212 212 212 203 203 203 195 195 195 186 186 186 177 177 177 171 171 171 167 167 167 162 162 162 157 157 157 154 154 153 153 152 149 151 149 144 150 147 140 154 148 129 161 150 113 168 152 97 176 154 81 180 155 72 181 155 69 182 156 66 183 157 63 184 157 62 183 157 63 183 157 63 183 157 64 183 157 64 183 157 64 183 157 64 182 157 64 182 156 64 182 155 64 181 155 63 181 154 63 181 153 63 181 153 62 181 153 62 181 152 62 181 152 62 180 151 60 179 151 59 179 150 58 178 149 57 176 148 57 175 147 56 174 146 56 172 145 56 170 142 56 167 140 56 164 138 56 161 135 56 158 133 59 155 131 64 152 130 68 148 128 73 144 127 83 140 127 96 135 128 109 131 128 122 129 128 128 129 128 128 129 129 129 129 129 129 130 129 124 133 129 114 136 128 104 139 128 94 143 129 84 147 131 77 151 133 70 155 135 62 159 137 57 162 140 56 165 142 56 168 145 56 171 147 56 173 149 56 175 150 56 176 152 56 178 153 56 178 154 57 179 154 58 179 154 59 180 155 61 180 155 61 180 155 62 181 155 62 181 155 63 181 155 63 181 155 63 182 155 64 182 155 64 182 155 64 183 155 64 183 156 64 183 156 64 183 156 64 183 155 63 183 155 62 183 155 62 183 155 62 183 154 64 183 153 65 182 153 67 179 152 75 172 150 90 165 149 104 158 147 119 154 147 131 154 149 137 154 151 143 154 152 149 155 155 155 159 159 159 164 164 164 168 168 168 173 173 173 182 182 182 190 190 190 199 199 199 207 207 207 216 216 216 224 224 224 233 233 233 241 241 241 
245 245 245 239 239 239 232 232 232 226 226 226 219 219 219 212 212 212 204 204 204 197 197 197 189 189 189 184 184 184 179 179 179 175 175 175 170 170 170 167 167 166 165 164 162 163 162 158 161 160 154 164 159 145 168 160 133 173 161 120 178 162 108 181 162 100 181 162 98 181 162 95 181 162 92 181 161 91 181 161 91 180 161 91 180 161 91 179 160 91 179 160 90 178 159 90 178 159 90 177 158 89 177 157 89 176 156 88 176 155 88 175 155 87 175 154 87 175 154 87 175 154 86 174 153 86 174 152 85 173 152 84 172 151 83 171 150 81 170 149 81 169 148 81 168 147 80 167 146 80 165 145 80 163 143 80 160 141 80 158 139 80 156 138 82 153 136 86 151 135 89 148 133 93 145 133 100 142 133 110 139 133 119 135 133 129 134 133 133 134 133 133 134 134 134 134 134 134 135 134 130 137 134 123 140 134 115 142 133 108 144 134 101 148 136 96 151 137 90 154 139 85 157 141 81 159 143 80 162 145 80 164 147 80 166 148 80 167 150 80 169 151 80 170 152 81 171 153 81 172 154 82 172 154 83 173 154 84 173 155 85 174 155 85 174 155 86 175 156 87 175 156 87 175 156 88 176 157 88 177 157 89 177 157 89 178 158 90 178 158 90 179 158 90 179 159 91 180 159 91 180 159 91 180 159 91 181 160 90 181 160 91 182 160 93 182 160 95 182 160 96 180 160 103 176 160 114 171 159 126 167 159 138 164 159 147 165 161 152 166 163 158 166 165 163 168 168 168 172 172 172 176 176 176 181 181 181 186 186 186 193 193 193 200 200 200 208 208 208 215 215 215 222 222 222 229 229 229 237 237 237 244 244 244 
247 247 247 242 242 242 237 237 237 232 232 232 227 227 227 220 220 220 214 214 214 207 207 207 201 201 201 196 196 196 192 192 192 188 188 188 183 183 183 180 180 179 178 177 176 175 175 172 173 172 168 174 171 162 176 170 153 178 170 143 181 170 134 181 169 129 181 168 126 180 167 124 180 167 121 179 166 120 178 165 119 177 165 119 176 164 118 176 163 118 175 162 117 174 161 116 173 160 115 172 160 115 172 159 114 171 158 113 170 157 113 170 156 112 169 156 112 169 155 111 168 155 110 168 154 110 167 153 109 167 153 108 166 152 107 165 151 106 164 150 106 163 150 105 162 149 105 161 148 105 160 147 104 158 145 104 157 144 104 155 143 104 154 142 106 152 141 108 150 140 110 149 139 112 147 138 117 144 138 123 142 138 129 140 138 135 139 138 138 139 138 138 139 139 139 139 139 139 139 139 137 141 139 132 143 139 127 144 139 122 146 139 118 148 140 114 150 141 111 153 143 107 155 144 104 156 145 104 158 147 105 159 148 105 161 149 105 162 150 105 163 151 105 164 152 105 165 153 106 166 154 106 166 154 107 167 154 108 167 155 109 168 155 110 168 156 110 169 156 111 169 157 111 170 157 112 171 158 113 171 158 114 172 159 115 173 160 115 174 160 116 174 161 116 175 162 117 176 162 118 177 163 118 178 164 119 178 164 119 179 165 120 180 166 122 181 167 124 182 168 126 182 168 131 179 169 139 177 169 148 175 170 156 175 171 163 176 174 168 177 176 172 179 178 177 181 181 181 185 185 185 189 189 189 194 194 194 198 198 198 204 204 204 211 211 211 217 217 217 223 223 223 229 229 229 235 235 235 240 240 240 246 246 246 
249 249 249 245 245 245 241 241 241 238 238 238 234 234 234 229 229 229 223 223 223 218 218 218 213 213 213 209 209 209 205 205 205 200 200 200 196 196 196 193 193 193 190 190 189 188 187 186 185 184 183 184 182 178 183 181 172 183 179 167 183 178 161 182 176 157 181 175 155 179 173 152 178 172 150 177 170 148 175 169 147 174 168 146 173 167 145 172 166 144 171 165 143 170 164 142 168 162 141 167 161 140 166 160 139 166 159 138 165 158 137 164 158 137 163 157 136 163 156 135 162 156 135 162 155 134 161 154 133 160 154 132 160 153 132 159 152 131 158 152 130 157 151 130 157 150 129 156 150 129 155 149 129 154 148 129 153 147 128 153 147 128 152 146 129 151 145 130 150 145 131 149 144 131 148 144 134 147 144 136 145 144 139 144 143 142 144 143 143 144 143 143 144 144 144 144 144 144 144 144 143 145 144 140 146 144 138 147 144 136 148 144 134 149 145 133 150 146 131 151 146 130 152 147 128 153 148 129 154 149 129 155 149 129 156 150 129 157 151 129 157 152 130 158 152 130 159 153 131 159 154 131 160 154 132 160 154 133 161 155 133 161 156 134 162 156 135 163 157 135 163 157 136 164 158 137 165 159 138 166 160 139 167 161 140 168 162 141 169 163 142 170 164 143 171 165 144 172 166 145 173 167 146 175 168 147 176 169 148 177 170 149 179 172 151 180 174 153 182 175 155 183 177 159 183 178 164 183 180 169 184 181 175 185 183 179 187 186 183 189 189 187 192 191 190 194 194 194 198 198 198 202 202 202 206 206 206 211 211 211 216 216 216 221 221 221 226 226 226 231 231 231 235 235 235 240 240 240 244 244 244 248 248 248 
251 251 251 248 248 248 246 246 246 243 243 243 241 241 241 237 237 237 233 233 233 229 229 229 224 224 224 221 221 221 217 217 217 213 213 213 209 209 209 206 206 206 203 203 203 199 199 199 196 196 196 194 194 194 191 191 191 189 189 189 186 186 186 184 184 184 182 182 182 180 180 180 178 178 178 176 176 176 174 174 174 173 173 173 171 171 171 170 170 170 168 168 168 167 167 167 166 166 166 164 164 164 163 163 163 162 162 162 161 161 161 160 160 160 160 160 160 159 159 159 158 158 158 157 157 157 157 157 157 156 156 156 155 155 155 154 154 154 154 154 154 153 153 153 153 153 153 152 152 152 152 152 152 152 152 152 152 152 152 151 151 151 151 151 151 151 151 151 151 151 151 150 150 150 150 150 150 150 150 150 150 150 150 150 150 150 149 149 149 149 149 149 149 149 149 149 149 149 150 150 150 150 150 150 150 150 150 150 150 150 150 150 150 151 151 151 151 151 151 151 151 151 151 151 151 152 152 152 152 152 152 152 152 152 152 152 152 153 153 153 153 153 153 154 154 154 154 154 154 155 155 155 155 155 155 156 156 156 156 156 156 157 157 157 158 158 158 159 159 159 159 159 159 160 160 160 162 162 162 163 163 163 164 164 164 165 165 165 167 167 167 168 168 168 169 169 169 170 170 170 172 172 172 173 173 173 175 175 175 177 177 177 179 179 179 181 181 181 183 183 183 185 185 185 188 188 188 190 190 190 193 193 193 195 195 195 198 198 198 201 201 201 204 204 204 207 207 207 211 211 211 215 215 215 219 219 219 222 222 222 227 227 227 231 231 231 235 235 235 239 239 239 241 241 241 244 244 244 247 247 247 250 250 250 
252 252 252 250 250 250 248 248 248 246 246 246 244 244 244 241 241 241 237 237 237 234 234 234 231 231 231 228 228 228 225 225 225 222 222 222 219 219 219 216 216 216 213 213 213 211 211 211 208 208 208 206 206 206 204 204 204 202 202 202 199 199 199 197 197 197 196 196 196 194 194 194 192 192 192 190 190 190 189 189 189 187 187 187 186 186 186 184 184 184 183 183 183 182 182 182 180 180 180 179 179 179 178 178 178 177 177 177 176 176 176 175 175 175 174 174 174 174 174 174 173 173 173 172 172 172 171 171 171 171 171 171 170 170 170 169 169 169 169 169 169 168 168 168 167 167 167 167 167 167 167 167 167 166 166 166 166 166 166 166 166 166 165 165 165 165 165 165 165 165 165 165 165 165 164 164 164 164 164 164 164 164 164 164 164 164 164 164 164 164 164 164 164 164 164 164 164 164 164 164 164 164 164 164 164 164 164 164 164 164 165 165 165 165 165 165 165 165 165 165 165 165 166 166 166 166 166 166 166 166 166 167 167 167 167 167 167 167 167 167 168 168 168 168 168 168 169 169 169 169 169 169 170 170 170 170 170 170 171 171 171 172 172 172 173 173 173 173 173 173 174 174 174 175 175 175 176 176 176 178 178 178 179 179 179 180 180 180 181 181 181 182 182 182 183 183 183 185 185 185 186 186 186 188 188 188 189 189 189 191 191 191 193 193 193 195 195 195 196 196 196 198 198 198 201 201 201 203 203 203 205 205 205 207 207 207 210 210 210 212 212 212 214 214 214 217 217 217 220 220 220 223 223 223 226 226 226 229 229 229 233 233 233 236 236 236 239 239 239 242 242 242 244 244 244 247 247 247 249 249 249 251 251 251 
253 253 253 251 251 251 250 250 250 248 248 248 247 247 247 245 245 245 242 242 242 240 240 240 238 238 238 235 235 235 233 233 233 231 231 231 228 228 228 226 226 226 224 224 224 222 222 222 220 220 220 218 218 218 216 216 216 214 214 214 213 213 213 211 211 211 209 209 209 207 207 207 206 206 206 204 204 204 203 203 203 201 201 201 200 200 200 199 199 199 197 197 197 196 196 196 195 195 195 193 193 193 193 193 193 192 192 192 191 191 191 190 190 190 189 189 189 188 188 188 187 187 187 187 187 187 186 186 186 185 185 185 184 184 184 184 184 184 183 183 183 183 183 183 182 182 182 181 181 181 181 181 181 181 181 181 180 180 180 180 180 180 180 180 180 179 179 179 179 179 179 179 179 179 179 179 179 178 178 178 178 178 178 178 178 178 178 178 178 178 178 178 178 178 178 178 178 178 178 178 178 178 178 178 178 178 178 179 179 179 179 179 179 179 179 179 179 179 179 180 180 180 180 180 180 180 180 180 181 181 181 181 181 181 181 181 181 182 182 182 182 182 182 183 183 183 183 183 183 184 184 184 184 184 184 185 185 185 186 186 186 187 187 187 187 187 187 188 188 188 189 189 189 190 190 190 191 191 191 192 192 192 193 193 193 195 195 195 196 196 196 197 197 197 198 198 198 199 199 199 200 200 200 202 202 202 203 203 203 205 205 205 206 206 206 208 208 208 210 210 210 212 212 212 213 213 213 215 215 215 217 217 217 219 219 219 221 221 221 223 223 223 225 225 225 227 227 227 229 229 229 232 232 232 234 234 234 236 236 236 239 239 239 241 241 241 244 244 244 246 246 246 247 247 247 249 249 249 250 250 250 252 252 252 
253 253 253 252 252 252 252 252 252 251 251 251 250 250 250 249 249 249 247 247 247 246 246 246 244 244 244 243 243 243 241 241 241 239 239 239 238 238 238 236 236 236 235 235 235 233 233 233 232 232 232 230 230 230 229 229 229 227 227 227 226 226 226 224 224 224 223 223 223 221 221 221 220 220 220 218 218 218 217 217 217 216 216 216 214 214 214 213 213 213 212 212 212 211 211 211 209 209 209 208 208 208 207 207 207 206 206 206 205 205 205 204 204 204 204 204 204 203 203 203 202 202 202 201 201 201 201 201 201 200 200 200 199 199 199 198 198 198 198 198 198 197 197 197 196 196 196 196 196 196 195 195 195 195 195 195 194 194 194 194 194 194 194 194 194 193 193 193 193 193 193 193 193 193 193 193 193 193 193 193 193 193 193 193 193 193 193 193 193 193 193 193 193 193 193 193 193 193 193 193 193 193 193 193 193 193 193 193 193 193 193 193 193 193 193 193 193 193 193 194 194 194 194 194 194 194 194 194 195 195 195 195 195 195 196 196 196 196 196 196 197 197 197 197 197 197 198 198 198 198 198 198 199 199 199 200 200 200 200 200 200 201 201 201 202 202 202 203 203 203 204 204 204 205 205 205 206 206 206 207 207 207 208 208 208 209 209 209 210 210 210 211 211 211 212 212 212 213 213 213 215 215 215 216 216 216 217 217 217 219 219 219 220 220 220 222 222 222 223 223 223 225 225 225 226 226 226 228 228 228 229 229 229 231 231 231 232 232 232 234 234 234 236 236 236 237 237 237 239 239 239 240 240 240 242 242 242 243 243 243 245 245 245 246 246 246 248 248 248 249 249 249 250 250 250 251 251 251 252 252 252 253 253 253 
254 254 254 254 254 254 254 254 254 253 253 253 253 253 253 253 253 253 252 252 252 252 252 252 251 251 251 250 250 250 249 249 249 248 248 248 247 247 247 246 246 246 245 245 245 244 244 244 243 243 243 242 242 242 241 241 241 240 240 240 239 239 239 237 237 237 236 236 236 235 235 235 234 234 234 232 232 232 231 231 231 230 230 230 229 229 229 228 228 228 226 226 226 225 225 225 224 224 224 223 223 223 222 222 222 221 221 221 220 220 220 219 219 219 218 218 218 217 217 217 217 217 217 216 216 216 215 215 215 215 215 215 214 214 214 213 213 213 212 212 212 212 212 212 211 211 211 210 210 210 210 210 210 209 209 209 209 209 209 208 208 208 208 208 208 208 208 208 207 207 207 207 207 207 207 207 207 207 207 207 207 207 207 207 207 207 207 207 207 207 207 207 207 207 207 207 207 207 207 207 207 207 207 207 207 207 207 207 207 207 207 207 207 207 207 207 208 208 208 208 208 208 208 208 208 209 209 209 209 209 209 210 210 210 210 210 210 211 211 211 211 211 211 212 212 212 212 212 212 213 213 213 214 214 214 214 214 214 215 215 215 216 216 216 217 217 217 218 218 218 219 219 219 220 220 220 221 221 221 222 222 222 223 223 223 224 224 224 225 225 225 226 226 226 227 227 227 228 228 228 229 229 229 230 230 230 231 231 231 233 233 233 234 234 234 235 235 235 236 236 236 238 238 238 239 239 239 240 240 240 241 241 241 242 242 242 244 244 244 245 245 245 246 246 246 247 247 247 248 248 248 249 249 249 249 249 249 250 250 250 251 251 251 252 252 252 252 252 252 253 253 253 253 253 253 254 254 254 254 254 254 254 254 254 
