P3
32 32
255
255 255 255 255 255 255 255 255 255 255 255 255 255 255 255 255 255 255 255 255 255 255 255 255 255 255 255 255 255 255 255 255 255 255 255 255 240 240 240 192 192 192 197 197 197 195 195 195 197 197 197 202 202 202 202 202 202 245 245 245 255 255 255 255 255 255 255 255 255 255 255 255 255 255 255 255 255 255 255 255 255 255 255 255 255 255 255 255 255 255 255 255 255 255 255 255 
255 255 255 255 255 255 255 255 255 255 255 255 255 255 255 255 255 255 255 255 255 255 255 255 255 255 255 255 255 255 248 248 248 165 165 165 180 180 180 237 237 237 239 239 239 239 239 239 239 239 239 239 239 239 237 237 237 187 187 187 184 184 184 252 252 252 255 255 255 255 255 255 255 255 255 255 255 255 255 255 255 255 255 255 255 255 255 255 255 255 255 255 255 255 255 255 
255 255 255 255 255 255 255 255 255 255 255 255 255 255 255 255 255 255 255 255 255 255 255 255 255 255 255 235 235 235 117 117 117 208 208 208 220 220 220 220 220 220 220 220 220 220 220 220 220 220 220 220 220 220 220 220 220 220 220 220 208 208 208 138 138 138 245 245 245 255 255 255 255 255 255 255 255 255 255 255 255 255 255 255 255 255 255 255 255 255 255 255 255 255 255 255 
255 255 255 255 255 255 255 255 255 255 255 255 255 255 255 255 255 255 255 255 255 255 255 255 246 246 246 80 80 80 185 185 185 196 196 196 194 194 194 195 195 195 196 196 196 196 196 196 196 196 196 196 196 196 196 196 196 196 196 196 196 196 196 185 185 185 105 105 105 252 252 252 255 255 255 255 255 255 255 255 255 255 255 255 255 255 255 255 255 255 255 255 255 255 255 255 
255 255 255 255 255 255 255 255 255 255 255 255 255 255 255 255 255 255 255 255 255 255 255 255 126 126 126 102 102 102 158 158 158 117 117 117 105 105 105 106 106 106 121 121 121 164 164 164 170 170 170 170 170 170 170 170 170 170 170 170 170 170 170 170 170 170 102 102 102 159 159 159 255 255 255 255 255 255 255 255 255 255 255 255 255 255 255 255 255 255 255 255 255 255 255 255 
255 255 255 255 255 255 255 255 255 255 255 255 255 255 255 255 255 255 255 255 255 239 239 239 14 14 14 121 121 121 75 75 75 95 95 95 177 177 177 179 179 179 104 104 104 83 83 83 140 140 140 120 120 120 115 115 115 119 119 119 113 113 113 136 136 136 128 128 128 33 33 33 250 250 250 255 255 255 255 255 255 255 255 255 255 255 255 255 255 255 255 255 255 255 255 255 
255 255 255 255 255 255 255 255 255 255 255 255 255 255 255 255 255 255 255 255 255 165 165 165 0 0 0 70 70 70 59 59 59 187 187 187 231 231 231 243 243 243 226 226 226 69 69 69 55 55 55 68 68 68 103 103 103 114 114 114 74 74 74 61 61 61 101 101 101 0 0 0 194 194 194 255 255 255 255 255 255 255 255 255 255 255 255 255 255 255 255 255 255 255 255 255 
255 255 255 255 255 255 255 255 255 255 255 255 255 255 255 255 255 255 255 255 255 107 107 107 0 0 0 15 15 15 129 129 129 205 205 205 220 220 220 228 228 228 224 224 224 133 133 133 46 46 46 169 169 169 197 197 197 229 229 229 220 220 220 75 75 75 23 23 23 0 0 0 136 136 136 255 255 255 255 255 255 255 255 255 255 255 255 255 255 255 255 255 255 255 255 255 
255 255 255 255 255 255 255 255 255 255 255 255 255 255 255 255 255 255 255 255 255 72 72 72 0 0 0 0 0 0 171 171 171 209 209 209 217 217 217 217 217 217 110 110 110 142 142 142 71 71 71 167 167 167 217 217 217 218 218 218 220 220 220 176 176 176 6 6 6 0 0 0 101 101 101 255 255 255 255 255 255 255 255 255 255 255 255 255 255 255 255 255 255 255 255 255 
255 255 255 255 255 255 255 255 255 255 255 255 255 255 255 255 255 255 255 255 255 45 45 45 0 0 0 0 0 0 171 171 171 206 206 206 212 212 212 212 212 212 85 85 85 1 1 1 22 22 22 64 64 64 212 212 212 212 212 212 204 204 204 167 167 167 12 12 12 0 0 0 75 75 75 255 255 255 255 255 255 255 255 255 255 255 255 255 255 255 255 255 255 255 255 255 
255 255 255 255 255 255 255 255 255 255 255 255 255 255 255 255 255 255 249 249 249 12 12 12 0 0 0 0 0 0 124 124 124 206 206 206 207 207 207 206 206 206 161 159 153 88 79 45 83 75 40 153 152 146 198 198 198 200 200 200 190 190 190 111 111 111 0 0 0 0 0 0 37 37 37 254 254 254 255 255 255 255 255 255 255 255 255 255 255 255 255 255 255 255 255 255 
255 255 255 255 255 255 255 255 255 255 255 255 255 255 255 255 255 255 210 210 210 0 0 0 0 0 0 0 0 0 35 35 35 184 184 184 206 206 206 210 181 102 229 192 51 244 230 153 249 242 200 242 232 178 204 193 143 164 164 164 87 87 87 6 6 6 0 0 0 0 0 0 3 3 3 232 232 232 255 255 255 255 255 255 255 255 255 255 255 255 255 255 255 255 255 255 
255 255 255 255 255 255 255 255 255 255 255 255 255 255 255 255 255 255 124 124 124 0 0 0 0 0 0 0 0 0 12 12 12 133 133 133 162 162 162 212 174 66 232 192 7 235 206 12 244 231 124 250 245 205 213 200 136 187 187 187 160 160 160 19 19 19 0 0 0 0 0 0 0 0 0 126 126 126 255 255 255 255 255 255 255 255 255 255 255 255 255 255 255 255 255 255 
255 255 255 255 255 255 255 255 255 255 255 255 255 255 255 211 211 211 23 23 23 0 0 0 0 0 0 10 10 10 189 189 189 221 221 221 197 197 197 161 153 130 221 186 62 232 197 4 234 204 7 213 192 84 156 153 138 204 204 204 235 235 235 207 207 207 18 18 18 0 0 0 0 0 0 30 30 30 206 206 206 255 255 255 255 255 255 255 255 255 255 255 255 255 255 255 
255 255 255 255 255 255 255 255 255 255 255 255 218 218 218 118 118 118 2 2 2 0 0 0 0 0 0 151 151 151 244 244 244 242 242 242 240 240 240 211 211 211 108 98 70 216 179 52 214 172 6 53 45 15 26 26 26 28 28 28 96 96 96 244 244 244 170 170 170 0 0 0 0 0 0 1 1 1 113 113 113 209 209 209 255 255 255 255 255 255 255 255 255 255 255 255 
255 255 255 255 255 255 255 255 255 191 191 191 125 125 125 27 27 27 0 0 0 0 0 0 47 47 47 238 238 238 239 239 239 239 239 239 161 161 161 49 49 49 82 82 82 140 132 113 173 165 142 215 215 215 174 174 174 161 161 161 177 177 177 239 239 239 239 239 239 61 61 61 0 0 0 0 0 0 17 17 17 119 119 119 180 180 180 254 254 254 255 255 255 255 255 255 
255 255 255 255 255 255 173 173 173 115 115 115 14 14 14 0 0 0 0 0 0 0 0 0 145 145 145 233 233 233 231 231 231 105 105 105 78 78 78 202 202 202 231 231 231 211 211 211 208 208 208 203 203 203 142 142 142 91 91 91 51 51 51 189 189 189 233 233 233 160 160 160 0 0 0 0 0 0 0 0 0 8 8 8 106 106 106 167 167 167 254 254 254 255 255 255 
255 255 255 185 185 185 108 108 108 3 3 3 11 11 11 9 9 9 0 0 0 12 12 12 203 203 203 228 228 228 118 118 118 100 100 100 227 227 227 215 215 215 228 228 228 144 144 144 148 148 148 90 90 90 161 161 161 229 229 229 174 174 174 58 58 58 213 213 213 206 206 206 25 25 25 0 0 0 7 7 7 15 15 15 0 0 0 96 96 96 185 185 185 255 255 255 
238 238 238 108 108 108 24 24 24 97 97 97 192 192 192 66 66 66 0 0 0 56 56 56 205 205 205 200 200 200 68 68 68 114 114 114 160 160 160 72 72 72 89 89 89 81 81 81 89 89 89 106 106 106 136 136 136 183 183 183 222 222 222 158 158 158 131 131 131 206 206 206 73 73 73 0 0 0 54 54 54 212 212 212 119 119 119 26 26 26 108 108 108 235 235 235 
231 231 231 119 119 119 198 198 198 253 253 253 255 255 255 99 99 99 0 0 0 92 92 92 201 201 201 143 143 143 156 156 156 75 75 75 100 100 100 82 82 82 93 93 93 154 154 154 127 127 127 160 160 160 205 205 205 80 80 80 77 77 77 190 190 190 103 103 103 202 202 202 104 104 104 0 0 0 78 78 78 255 255 255 255 255 255 216 216 216 149 149 149 239 239 239 
255 255 255 255 255 255 255 255 255 255 255 255 255 255 255 146 146 146 0 0 0 112 112 112 195 195 195 128 128 128 183 183 183 83 83 83 106 106 106 159 159 159 177 177 177 211 211 211 105 105 105 102 102 102 91 91 91 54 54 54 71 71 71 185 185 185 103 103 103 196 196 196 116 116 116 0 0 0 125 125 125 255 255 255 255 255 255 255 255 255 255 255 255 255 255 255 
255 255 255 255 255 255 255 255 255 255 255 255 255 255 255 217 217 217 6 6 6 110 110 110 189 189 189 152 152 152 146 146 146 103 103 103 198 198 198 124 124 124 68 68 68 68 68 68 93 93 93 80 80 80 65 65 65 86 86 86 136 136 136 133 133 133 145 145 145 189 189 189 114 114 114 14 14 14 199 199 199 255 255 255 255 255 255 255 255 255 255 255 255 255 255 255 
255 255 255 255 255 255 255 255 255 255 255 255 255 255 255 254 254 254 101 101 101 114 114 114 183 183 183 188 188 188 77 77 77 190 190 190 191 191 191 100 100 100 70 70 70 93 93 93 91 91 91 127 127 127 179 179 179 173 173 173 174 174 174 74 74 74 190 190 190 183 183 183 128 128 128 93 93 93 253 253 253 255 255 255 255 255 255 255 255 255 255 255 255 255 255 255 
255 255 255 255 255 255 255 255 255 255 255 255 255 255 255 255 255 255 199 199 199 120 120 120 175 175 175 177 177 177 127 127 127 75 75 75 174 174 174 124 124 124 154 154 154 163 163 163 177 177 177 185 185 185 184 184 184 132 132 132 61 61 61 161 161 161 175 175 175 175 175 175 129 129 129 183 183 183 255 255 255 255 255 255 255 255 255 255 255 255 255 255 255 255 255 255 
255 255 255 255 255 255 255 255 255 255 255 255 255 255 255 255 255 255 255 255 255 149 142 118 168 152 92 166 145 70 166 144 74 117 100 53 50 46 33 94 94 94 133 133 133 144 144 144 135 135 135 104 104 104 58 58 58 89 87 80 158 147 101 163 146 75 165 146 69 168 151 87 142 131 100 253 253 251 255 255 255 255 255 255 255 255 255 255 255 255 255 255 255 255 255 255 
255 255 255 255 255 255 255 255 255 254 254 254 254 254 254 248 244 230 210 187 75 195 173 50 199 184 97 194 179 95 180 158 46 167 135 0 160 124 1 120 97 29 94 93 90 89 89 89 99 99 99 124 124 124 157 144 87 162 138 9 166 145 0 178 159 28 192 178 87 200 183 101 197 172 67 205 171 56 244 235 209 254 254 254 254 254 254 255 255 255 255 255 255 255 255 255 
254 254 254 254 254 254 252 252 252 249 249 249 245 243 239 215 185 44 226 213 115 236 231 190 234 229 189 230 224 185 221 214 177 197 182 102 170 141 0 162 130 0 158 132 56 156 156 156 156 156 156 153 138 82 161 139 0 169 152 0 191 178 62 219 214 173 229 224 184 234 228 188 236 229 189 231 217 153 213 171 29 242 236 219 249 249 249 252 252 252 253 253 253 254 254 254 
252 252 252 243 243 243 228 228 228 215 215 215 208 192 132 219 188 11 237 225 126 237 225 126 237 223 126 235 220 125 231 215 123 220 203 116 188 158 9 168 140 0 161 126 0 149 144 129 148 147 143 159 131 10 167 148 0 185 165 0 216 203 97 230 218 122 235 221 125 237 221 126 237 221 126 237 219 126 224 189 43 209 181 98 213 213 213 226 226 226 241 241 241 251 251 251 
244 244 244 213 213 213 177 177 177 157 157 157 176 154 80 217 181 0 226 201 43 228 203 54 228 202 54 228 200 54 227 197 54 220 188 42 200 164 0 177 145 0 164 127 0 147 138 116 144 141 134 162 130 3 175 150 0 198 171 0 218 193 30 227 202 54 228 202 54 228 200 54 228 198 54 227 196 50 219 176 7 185 153 61 156 156 156 174 174 174 208 208 208 242 242 242 
243 243 243 210 210 210 173 173 173 153 153 153 147 144 136 179 153 68 184 156 56 184 157 59 183 156 59 182 153 58 182 152 57 179 149 52 173 144 51 161 134 51 147 126 71 128 127 127 128 128 128 141 127 84 159 136 52 172 147 51 179 153 51 181 155 56 182 155 58 183 155 59 184 155 59 184 154 56 182 151 62 152 144 125 151 151 151 169 169 169 205 205 205 241 241 241 
251 251 251 240 240 240 223 223 223 207 207 207 194 194 194 184 184 184 175 175 175 169 169 169 163 163 163 159 159 159 156 156 156 153 153 153 151 151 151 150 150 150 149 149 149 148 148 148 148 148 148 149 149 149 150 150 150 151 151 151 153 153 153 155 155 155 158 158 158 163 163 163 168 168 168 174 174 174 183 183 183 193 193 193 205 205 205 221 221 221 238 238 238 250 250 250 
254 254 254 253 253 253 251 251 251 247 247 247 243 243 243 238 238 238 233 233 233 228 228 228 223 223 223 219 219 219 216 216 216 213 213 213 210 210 210 208 208 208 207 207 207 207 207 207 207 207 207 207 207 207 208 208 208 210 210 210 212 212 212 215 215 215 219 219 219 223 223 223 227 227 227 232 232 232 237 237 237 242 242 242 247 247 247 250 250 250 253 253 253 254 254 254 
